;FLAVOR:Marlin
;TIME:4251
;Filament used: 5.03329m
;Layer height: 0.21875
;Generated with Cura_SteamEngine 3.6.0
M140 S65
M105
M190 S65
M104 S210
M105
M109 S210
M82 ;absolute extrusion mode
G21;(metric values)
G90;(absolute positioning)
M82;(set extruder to absolute mode)
M107;(start with the fan off)
G28;(Home the printer)
G92 E0;(Reset the extruder to 0)
G0 Z5 E5 F500;(Move up and prime the nozzle)
G0 X-1 Z0;(Move outside the printable area)
G1 Y60 E8 F500;(Draw a priming/wiping line to the rear)
G1 X-1;(Move a little closer to the print area)
G1 Y10 E16 F500;(draw more priming/wiping)
G1 E15 F250;(Small retract)
G92 E0;(Zero the extruder)
G92 E0
G1 F2400 E-2.5
;LAYER_COUNT:219
;LAYER:0
M107
G0 F4320 X74.266 Y49.067 Z0.263
;TYPE:SKIRT
G1 F2400 E0
G1 F5400 X74.521 Y48.691 E0.01739
G1 X75.546 Y47.317 E0.08299
G1 X75.926 Y46.865 E0.10559
G1 X77.124 Y45.598 E0.17232
G1 X77.52 Y45.222 E0.19322
G1 X78.65 Y44.259 E0.25004
G1 X79.107 Y43.913 E0.27197
G1 X80.679 Y42.854 E0.34451
G1 X81.228 Y42.532 E0.36887
G1 X81.623 Y42.354 E0.38545
G1 X82.111 Y42.158 E0.40557
G1 X82.715 Y41.958 E0.42992
G1 X83.34 Y41.835 E0.4543
G1 X83.872 Y41.794 E0.47472
G1 X84.301 Y41.783 E0.49114
G1 X84.937 Y41.806 E0.5155
G1 X85.566 Y41.91 E0.5399
G1 X86.092 Y42.06 E0.56083
G1 X86.554 Y42.22 E0.57954
G1 X87.141 Y42.466 E0.6039
G1 X87.564 Y42.701 E0.62242
G1 X88.438 Y43.242 E0.66176
G1 X88.897 Y43.562 E0.68317
G1 X90.605 Y44.9 E0.7662
G1 X91.037 Y45.28 E0.78822
G1 X91.92 Y46.15 E0.83566
G1 X92.318 Y46.591 E0.85839
G1 X93.702 Y48.318 E0.94309
G1 X94.099 Y48.89 E0.96974
G1 X95.077 Y50.528 E1.04275
G1 X95.403 Y51.174 E1.07044
G1 X96.308 Y53.341 E1.16031
G1 X96.563 Y54.126 E1.1919
G1 X97.137 Y56.547 E1.28712
G1 X97.251 Y57.238 E1.31392
G1 X97.408 Y58.89 E1.37743
G1 X97.431 Y59.401 E1.397
G1 X97.423 Y60.729 E1.44783
G1 X97.414 Y61.008 E1.45851
G1 X95.968 Y84.653 E2.36509
G1 X95.889 Y85.285 E2.38947
G1 X95.814 Y85.618 E2.40253
G1 X95.679 Y86.138 E2.42309
G1 X95.481 Y86.743 E2.44745
G1 X95.091 Y87.519 E2.48069
G1 X94.841 Y87.926 E2.49897
G1 X94.475 Y88.447 E2.52334
G1 X94.046 Y88.918 E2.54772
G1 X93.781 Y89.156 E2.56135
G1 X93.338 Y89.528 E2.58349
G1 X92.825 Y89.907 E2.6079
G1 X92.269 Y90.218 E2.63228
G1 X91.913 Y90.372 E2.64712
G1 X91.432 Y90.559 E2.66687
G1 X90.825 Y90.752 E2.69125
G1 X90.228 Y90.864 E2.71449
G1 X89.768 Y90.922 E2.73224
G1 X89.131 Y90.962 E2.75666
G1 X79.241 Y90.958 E3.13515
G1 X78.605 Y90.918 E3.15954
G1 X78.083 Y90.824 E3.17984
G1 X77.44 Y90.673 E3.20511
G1 X76.83 Y90.488 E3.22951
G1 X76.248 Y90.229 E3.25389
G1 X75.853 Y89.999 E3.27138
G1 X75.37 Y89.688 E3.29337
G1 X74.857 Y89.31 E3.31775
G1 X74.395 Y88.871 E3.34214
G1 X74.184 Y88.629 E3.35443
G1 X73.901 Y88.282 E3.37156
G1 X73.53 Y87.764 E3.39595
G1 X73.104 Y86.914 E3.43233
G1 X72.878 Y86.333 E3.45619
G1 X72.685 Y85.726 E3.48057
G1 X72.542 Y84.803 E3.51631
G1 X71.064 Y60.681 E4.44119
G1 X71.058 Y60.184 E4.46021
G1 X71.13 Y58.234 E4.53489
G1 X71.195 Y57.594 E4.55951
G1 X71.492 Y55.795 E4.62929
G1 X71.59 Y55.334 E4.64733
G1 X71.833 Y54.408 E4.68396
G1 X71.968 Y53.973 E4.70139
G1 X72.553 Y52.352 E4.76735
G1 X72.789 Y51.802 E4.79025
G1 X73.591 Y50.201 E4.85878
G1 X73.806 Y49.815 E4.87569
G1 X73.903 Y49.658 E4.88275
G0 F4860 X74.266 Y49.067
G0 F4320 X74.564 Y49.251
G1 F2400 E4.90931
G1 F5400 X74.802 Y48.901 E4.92551
G1 X75.827 Y47.527 E4.99111
G1 X76.181 Y47.106 E5.01216
G1 X77.379 Y45.839 E5.07889
G1 X77.747 Y45.489 E5.09833
G1 X78.877 Y44.526 E5.15515
G1 X79.302 Y44.203 E5.17557
G1 X80.874 Y43.144 E5.24811
G1 X81.405 Y42.835 E5.27162
G1 X81.753 Y42.678 E5.28624
G1 X82.241 Y42.482 E5.30636
G1 X82.825 Y42.291 E5.32988
G1 X83.429 Y42.177 E5.3534
G1 X83.881 Y42.144 E5.37074
G1 X84.31 Y42.133 E5.38717
G1 X84.924 Y42.157 E5.41068
G1 X85.53 Y42.26 E5.43421
G1 X85.977 Y42.391 E5.45203
G1 X86.439 Y42.551 E5.47074
G1 X87.006 Y42.79 E5.49429
G1 X87.38 Y42.998 E5.51067
G1 X88.254 Y43.539 E5.55001
G1 X88.681 Y43.837 E5.56993
G1 X90.389 Y45.175 E5.65297
G1 X90.791 Y45.529 E5.67347
G1 X91.674 Y46.399 E5.7209
G1 X92.045 Y46.81 E5.74209
G1 X93.429 Y48.537 E5.82679
G1 X93.799 Y49.07 E5.85162
G1 X94.777 Y50.708 E5.92463
G1 X95.08 Y51.309 E5.95039
G1 X95.985 Y53.476 E6.04026
G1 X96.223 Y54.207 E6.06968
G1 X96.797 Y56.628 E6.1649
G1 X96.903 Y57.271 E6.18984
G1 X97.06 Y58.923 E6.25335
G1 X97.081 Y59.398 E6.27155
G1 X97.073 Y60.726 E6.32237
G1 X97.064 Y60.986 E6.33232
G1 X95.618 Y84.631 E7.23891
G1 X95.475 Y85.53 E7.27375
G1 X95.34 Y86.05 E7.29431
G1 X95.148 Y86.634 E7.31783
G1 X94.793 Y87.336 E7.34794
G1 X94.543 Y87.743 E7.36622
G1 X94.188 Y88.245 E7.38975
G1 X93.556 Y88.888 E7.42425
G1 X93.113 Y89.26 E7.44639
G1 X92.617 Y89.624 E7.46993
G1 X92.079 Y89.921 E7.49345
G1 X91.786 Y90.046 E7.50564
G1 X91.305 Y90.233 E7.52539
G1 X90.719 Y90.418 E7.54891
G1 X90.184 Y90.517 E7.56973
G1 X89.724 Y90.575 E7.58748
G1 X89.131 Y90.612 E7.61021
G1 X79.241 Y90.608 E7.9887
G1 X78.628 Y90.568 E8.01221
G1 X78.163 Y90.483 E8.0303
G1 X77.52 Y90.332 E8.05558
G1 X76.932 Y90.153 E8.0791
G1 X76.372 Y89.899 E8.10264
G1 X76.042 Y89.705 E8.11729
G1 X75.559 Y89.394 E8.13927
G1 X75.065 Y89.028 E8.1628
G1 X74.455 Y88.407 E8.19611
G1 X74.172 Y88.06 E8.21325
G1 X73.816 Y87.56 E8.23674
G1 X73.43 Y86.787 E8.2698
G1 X73.204 Y86.206 E8.29366
G1 X73.019 Y85.62 E8.31718
G1 X72.892 Y84.782 E8.34962
G1 X71.414 Y60.66 E9.27449
G1 X71.408 Y60.197 E9.29221
G1 X71.48 Y58.247 E9.36689
G1 X71.54 Y57.651 E9.38982
G1 X71.837 Y55.852 E9.4596
G1 X71.929 Y55.423 E9.47639
G1 X72.172 Y54.497 E9.51302
G1 X72.298 Y54.092 E9.52926
G1 X72.883 Y52.471 E9.59521
G1 X73.102 Y51.959 E9.61652
G1 X73.904 Y50.358 E9.68505
G1 X74.104 Y49.999 E9.70077
G1 X74.201 Y49.842 E9.70784
G0 F4860 X74.564 Y49.251
G0 F4320 X74.862 Y49.434
G1 F2400 E9.7344
G1 F5400 X75.082 Y49.11 E9.74938
G1 X76.107 Y47.736 E9.81499
G1 X76.435 Y47.346 E9.83449
G1 X77.633 Y46.079 E9.90122
G1 X77.974 Y45.755 E9.91922
G1 X79.104 Y44.792 E9.97604
G1 X79.498 Y44.494 E9.99495
G1 X81.07 Y43.435 E10.06748
G1 X81.581 Y43.138 E10.0901
G1 X81.883 Y43.003 E10.10276
G1 X82.371 Y42.807 E10.12289
G1 X82.934 Y42.624 E10.14554
G1 X83.516 Y42.519 E10.16818
G1 X83.89 Y42.493 E10.18252
G1 X84.319 Y42.482 E10.19895
G1 X84.91 Y42.507 E10.22159
G1 X85.492 Y42.612 E10.24422
G1 X85.863 Y42.722 E10.25903
G1 X86.325 Y42.882 E10.27774
G1 X86.869 Y43.113 E10.30036
G1 X87.196 Y43.296 E10.3147
G1 X88.07 Y43.837 E10.35403
G1 X88.465 Y44.113 E10.37248
G1 X90.173 Y45.451 E10.45551
G1 X90.546 Y45.779 E10.47452
G1 X91.429 Y46.649 E10.52196
G1 X91.772 Y47.029 E10.54155
G1 X93.156 Y48.756 E10.62624
G1 X93.498 Y49.249 E10.64921
G1 X94.476 Y50.887 E10.72222
G1 X94.757 Y51.444 E10.74609
G1 X95.662 Y53.611 E10.83596
G1 X95.882 Y54.288 E10.86321
G1 X96.456 Y56.709 E10.95843
G1 X96.554 Y57.304 E10.9815
G1 X96.711 Y58.956 E11.04501
G1 X96.731 Y59.396 E11.06187
G1 X96.723 Y60.724 E11.11269
G1 X96.715 Y60.965 E11.12192
G1 X95.269 Y84.61 E12.0285
G1 X95.137 Y85.442 E12.06074
G1 X95.002 Y85.962 E12.0813
G1 X94.815 Y86.523 E12.10393
G1 X94.495 Y87.153 E12.13097
G1 X94.245 Y87.56 E12.14925
G1 X93.902 Y88.042 E12.17189
G1 X93.33 Y88.62 E12.20301
G1 X92.887 Y88.992 E12.22515
G1 X92.41 Y89.341 E12.24777
G1 X91.659 Y89.72 E12.27996
G1 X91.178 Y89.907 E12.29971
G1 X90.614 Y90.083 E12.32232
G1 X90.14 Y90.17 E12.34077
G1 X89.68 Y90.228 E12.35851
G1 X89.131 Y90.262 E12.37956
G1 X79.241 Y90.258 E12.75805
G1 X78.651 Y90.218 E12.78068
G1 X78.243 Y90.142 E12.79657
G1 X77.6 Y89.991 E12.82184
G1 X77.035 Y89.817 E12.84447
G1 X76.498 Y89.569 E12.8671
G1 X76.231 Y89.41 E12.879
G1 X75.748 Y89.099 E12.90098
G1 X75.274 Y88.746 E12.9236
G1 X74.727 Y88.186 E12.95356
G1 X74.444 Y87.839 E12.97069
G1 X74.102 Y87.357 E12.99331
G1 X73.757 Y86.66 E13.02307
G1 X73.531 Y86.079 E13.04693
G1 X73.354 Y85.515 E13.06955
G1 X73.241 Y84.761 E13.09873
G1 X71.763 Y60.639 E14.02361
G1 X71.758 Y60.21 E14.04003
G1 X71.83 Y58.26 E14.11471
G1 X71.885 Y57.708 E14.13594
G1 X72.182 Y55.909 E14.20572
G1 X72.267 Y55.512 E14.22125
G1 X72.51 Y54.586 E14.25789
G1 X72.627 Y54.211 E14.27292
G1 X73.212 Y52.59 E14.33888
G1 X73.415 Y52.116 E14.35861
G1 X74.217 Y50.515 E14.42714
G1 X74.402 Y50.182 E14.44172
G1 X74.499 Y50.025 E14.44878
G0 F4860 X74.862 Y49.434
G0 F4320 X75.16 Y49.618
G1 F2400 E14.47534
G1 F5400 X75.363 Y49.319 E14.48917
G1 X76.388 Y47.945 E14.55477
G1 X76.689 Y47.587 E14.57267
G1 X77.887 Y46.32 E14.6394
G1 X78.201 Y46.022 E14.65597
G1 X79.331 Y45.059 E14.71279
G1 X79.693 Y44.784 E14.73019
G1 X81.265 Y43.725 E14.80272
G1 X82.014 Y43.328 E14.83517
G1 X82.502 Y43.132 E14.85529
G1 X83.042 Y42.958 E14.877
G1 X83.601 Y42.862 E14.89871
G1 X83.899 Y42.843 E14.91014
G1 X84.328 Y42.832 E14.92656
G1 X84.894 Y42.858 E14.94824
G1 X85.452 Y42.963 E14.96997
G1 X85.748 Y43.053 E14.98181
G1 X86.21 Y43.213 E15.00052
G1 X86.732 Y43.435 E15.02223
G1 X87.011 Y43.594 E15.03452
G1 X87.885 Y44.135 E15.07386
G1 X88.249 Y44.388 E15.09082
G1 X89.957 Y45.726 E15.17386
G1 X90.3 Y46.028 E15.19135
G1 X91.183 Y46.898 E15.23879
G1 X91.499 Y47.248 E15.25683
G1 X92.883 Y48.975 E15.34153
G1 X93.198 Y49.429 E15.36268
G1 X94.176 Y51.067 E15.43569
G1 X94.434 Y51.579 E15.45763
G1 X95.339 Y53.746 E15.5475
G1 X95.541 Y54.368 E15.57253
G1 X96.115 Y56.789 E15.66775
G1 X96.206 Y57.337 E15.68901
G1 X96.363 Y58.989 E15.75251
G1 X96.381 Y59.394 E15.76803
G1 X96.373 Y60.722 E15.81885
G1 X96.365 Y60.944 E15.82735
G1 X94.919 Y84.589 E16.73394
G1 X94.798 Y85.354 E16.76358
G1 X94.663 Y85.874 E16.78414
G1 X94.482 Y86.412 E16.80586
G1 X94.197 Y86.97 E16.82984
G1 X93.947 Y87.377 E16.84812
G1 X93.617 Y87.838 E16.86982
G1 X93.105 Y88.352 E16.89758
G1 X92.662 Y88.724 E16.91972
G1 X92.203 Y89.058 E16.94144
G1 X91.532 Y89.393 E16.97014
G1 X91.051 Y89.58 E16.98989
G1 X90.51 Y89.748 E17.01157
G1 X90.097 Y89.822 E17.02763
G1 X89.637 Y89.88 E17.04537
G1 X89.131 Y89.912 E17.06478
G1 X79.241 Y89.908 E17.44327
G1 X78.676 Y89.868 E17.46494
G1 X78.323 Y89.801 E17.47869
G1 X77.68 Y89.65 E17.50397
G1 X77.138 Y89.482 E17.52569
G1 X76.421 Y89.116 E17.5565
G1 X75.938 Y88.805 E17.57848
G1 X75.484 Y88.465 E17.60019
G1 X74.998 Y87.965 E17.62687
G1 X74.715 Y87.618 E17.64401
G1 X74.388 Y87.154 E17.66573
G1 X74.083 Y86.533 E17.69221
G1 X73.857 Y85.952 E17.71607
G1 X73.689 Y85.41 E17.73778
G1 X73.591 Y84.739 E17.76373
G1 X72.113 Y60.617 E18.68861
G1 X72.108 Y60.222 E18.70373
G1 X72.18 Y58.272 E18.77841
G1 X72.231 Y57.765 E18.79791
G1 X72.528 Y55.966 E18.86769
G1 X72.606 Y55.6 E18.88201
G1 X72.849 Y54.674 E18.91865
G1 X72.956 Y54.33 E18.93243
G1 X73.541 Y52.709 E18.99839
G1 X73.728 Y52.272 E19.01658
G1 X74.53 Y50.671 E19.0851
G1 X74.7 Y50.366 E19.09847
G1 X74.797 Y50.209 E19.10553
G0 F4860 X75.16 Y49.618
G0 F4320 X75.459 Y49.801
G1 F2400 E19.13209
G1 F5400 X75.643 Y49.529 E19.14466
G1 X76.668 Y48.155 E19.21026
G1 X76.944 Y47.827 E19.22666
G1 X78.142 Y46.56 E19.2934
G1 X78.428 Y46.288 E19.3085
G1 X79.558 Y45.325 E19.36532
G1 X79.889 Y45.074 E19.38122
G1 X81.461 Y44.015 E19.45376
G1 X82.144 Y43.653 E19.48334
G1 X82.632 Y43.457 E19.50346
G1 X83.149 Y43.292 E19.52423
G1 X83.908 Y43.193 E19.55353
G1 X84.337 Y43.182 E19.56995
G1 X84.878 Y43.208 E19.59068
G1 X85.634 Y43.383 E19.62037
G1 X86.096 Y43.543 E19.63908
G1 X86.827 Y43.891 E19.67007
G1 X87.701 Y44.432 E19.70941
G1 X88.033 Y44.664 E19.72491
G1 X89.741 Y46.002 E19.80794
G1 X90.054 Y46.277 E19.82388
G1 X90.937 Y47.147 E19.87132
G1 X91.226 Y47.467 E19.88783
G1 X92.61 Y49.194 E19.97252
G1 X92.897 Y49.608 E19.9918
G1 X93.875 Y51.246 E20.06481
G1 X94.111 Y51.714 E20.08487
G1 X95.016 Y53.881 E20.17474
G1 X95.201 Y54.449 E20.1976
G1 X95.775 Y56.87 E20.29282
G1 X95.858 Y57.37 E20.31222
G1 X96.015 Y59.022 E20.37573
G1 X96.031 Y59.392 E20.3899
G1 X96.023 Y60.72 E20.44072
G1 X96.016 Y60.922 E20.44846
G1 X94.57 Y84.567 E21.35504
G1 X94.459 Y85.266 E21.38213
G1 X94.324 Y85.786 E21.40269
G1 X94.15 Y86.299 E21.42342
G1 X93.898 Y86.786 E21.4444
G1 X93.648 Y87.193 E21.46268
G1 X93.332 Y87.633 E21.48341
G1 X92.88 Y88.084 E21.50785
G1 X92.437 Y88.456 E21.52999
G1 X91.998 Y88.773 E21.55071
G1 X91.406 Y89.067 E21.57601
G1 X90.925 Y89.254 E21.59576
G1 X90.407 Y89.413 E21.61649
G1 X90.053 Y89.475 E21.63025
G1 X89.593 Y89.533 E21.64799
G1 X89.132 Y89.562 E21.66567
G1 X79.242 Y89.558 E22.04416
G1 X78.701 Y89.518 E22.06492
G1 X78.403 Y89.461 E22.07653
G1 X77.76 Y89.31 E22.10181
G1 X77.243 Y89.147 E22.12255
G1 X76.61 Y88.822 E22.14978
G1 X76.127 Y88.511 E22.17177
G1 X75.695 Y88.185 E22.19248
G1 X75.269 Y87.744 E22.21595
G1 X74.986 Y87.397 E22.23308
G1 X74.675 Y86.953 E22.25383
G1 X74.409 Y86.406 E22.2771
G1 X74.183 Y85.825 E22.30096
G1 X74.024 Y85.307 E22.3217
G1 X73.94 Y84.718 E22.34447
G1 X72.462 Y60.596 E23.26935
G1 X72.458 Y60.235 E23.28316
G1 X72.53 Y58.285 E23.35784
G1 X72.576 Y57.822 E23.37565
G1 X72.873 Y56.023 E23.44543
G1 X72.944 Y55.689 E23.45849
G1 X73.187 Y54.763 E23.49513
G1 X73.285 Y54.448 E23.50776
G1 X73.87 Y52.827 E23.57371
G1 X74.041 Y52.429 E23.59029
G1 X74.843 Y50.828 E23.65881
G1 X74.999 Y50.549 E23.67105
G1 X75.096 Y50.392 E23.67811
G0 F4860 X75.459 Y49.801
G0 F4320 X75.757 Y49.984
G1 F2400 E23.70467
G1 F5400 X75.924 Y49.738 E23.71605
G1 X76.949 Y48.364 E23.78165
G1 X77.198 Y48.068 E23.79645
G1 X78.396 Y46.801 E23.86319
G1 X78.655 Y46.554 E23.87688
G1 X79.785 Y45.591 E23.9337
G1 X80.084 Y45.364 E23.94807
G1 X81.656 Y44.305 E24.02061
G1 X82.275 Y43.978 E24.0474
G1 X82.763 Y43.782 E24.06752
G1 X83.254 Y43.627 E24.08723
G1 X83.917 Y43.543 E24.1128
G1 X84.346 Y43.532 E24.12923
G1 X84.86 Y43.559 E24.14892
G1 X85.519 Y43.714 E24.17483
G1 X85.981 Y43.874 E24.19354
G1 X86.643 Y44.189 E24.2216
G1 X87.517 Y44.73 E24.26094
G1 X87.817 Y44.94 E24.27495
G1 X89.525 Y46.278 E24.35798
G1 X89.809 Y46.526 E24.37241
G1 X90.692 Y47.396 E24.41985
G1 X90.953 Y47.686 E24.43478
G1 X92.337 Y49.413 E24.51948
G1 X92.597 Y49.787 E24.53691
G1 X93.575 Y51.425 E24.60992
G1 X93.788 Y51.849 E24.62808
G1 X94.693 Y54.016 E24.71795
G1 X94.86 Y54.53 E24.73864
G1 X95.434 Y56.951 E24.83386
G1 X95.509 Y57.403 E24.85139
G1 X95.666 Y59.055 E24.9149
G1 X95.681 Y59.39 E24.92773
G1 X95.673 Y60.718 E24.97855
G1 X95.667 Y60.901 E24.98556
G1 X94.221 Y84.546 E25.89215
G1 X94.12 Y85.179 E25.91668
G1 X93.985 Y85.699 E25.93724
G1 X93.818 Y86.186 E25.95694
G1 X93.6 Y86.603 E25.97495
G1 X93.35 Y87.01 E25.99323
G1 X93.047 Y87.427 E26.01295
G1 X92.655 Y87.816 E26.03409
G1 X92.212 Y88.188 E26.05623
G1 X91.793 Y88.488 E26.07595
G1 X91.279 Y88.741 E26.09787
G1 X90.798 Y88.928 E26.11762
G1 X90.304 Y89.077 E26.13737
G1 X90.009 Y89.128 E26.14883
G1 X89.549 Y89.186 E26.16657
G1 X89.132 Y89.212 E26.18256
G1 X79.242 Y89.208 E26.56105
G1 X78.483 Y89.12 E26.59029
G1 X77.84 Y88.969 E26.61557
G1 X77.349 Y88.813 E26.63528
G1 X76.8 Y88.528 E26.65896
G1 X76.317 Y88.217 E26.68094
G1 X75.907 Y87.905 E26.70066
G1 X75.54 Y87.522 E26.72096
G1 X75.257 Y87.175 E26.73809
G1 X74.963 Y86.752 E26.75781
G1 X74.735 Y86.279 E26.7779
G1 X74.509 Y85.698 E26.80176
G1 X74.36 Y85.205 E26.82147
G1 X74.289 Y84.696 E26.84114
G1 X72.811 Y60.574 E27.76602
G1 X72.807 Y60.248 E27.7785
G1 X72.879 Y58.298 E27.85317
G1 X72.921 Y57.879 E27.86929
G1 X73.218 Y56.08 E27.93907
G1 X73.283 Y55.778 E27.95089
G1 X73.526 Y54.852 E27.98753
G1 X73.614 Y54.567 E27.99894
G1 X74.199 Y52.946 E28.06489
G1 X74.354 Y52.586 E28.07989
G1 X75.156 Y50.985 E28.14842
G1 X75.297 Y50.732 E28.15951
G1 X75.394 Y50.575 E28.16657
G0 F4860 X75.757 Y49.984
G0 F4320 X76.055 Y50.168
G1 F2400 E28.19313
G1 F5400 X76.204 Y49.947 E28.20333
G1 X77.229 Y48.573 E28.26893
G1 X77.452 Y48.308 E28.28219
G1 X78.65 Y47.041 E28.34892
G1 X78.882 Y46.821 E28.36115
G1 X80.012 Y45.858 E28.41797
G1 X80.28 Y45.655 E28.43084
G1 X81.852 Y44.596 E28.50338
G1 X82.405 Y44.302 E28.52734
G1 X82.893 Y44.106 E28.54747
G1 X83.359 Y43.962 E28.56614
G1 X83.926 Y43.893 E28.588
G1 X84.355 Y43.882 E28.60442
G1 X84.841 Y43.909 E28.62305
G1 X85.405 Y44.045 E28.64525
G1 X85.867 Y44.205 E28.66396
G1 X86.459 Y44.486 E28.68904
G1 X87.333 Y45.027 E28.72838
G1 X87.602 Y45.215 E28.74094
G1 X89.31 Y46.553 E28.82397
G1 X89.563 Y46.776 E28.83688
G1 X90.446 Y47.646 E28.88431
G1 X90.68 Y47.905 E28.89767
G1 X92.064 Y49.632 E28.98237
G1 X92.296 Y49.967 E28.99796
G1 X93.274 Y51.605 E29.07097
