;FLAVOR:Marlin
;TIME:4183
;Filament used: 4.47896m
;Layer height: 0.21875
;Generated with Cura_SteamEngine 3.6.0
M140 S65
M105
M190 S65
M104 S205
M105
M109 S205
M82 ;absolute extrusion mode
G21;(metric values)
G90;(absolute positioning)
M82;(set extruder to absolute mode)
M107;(start with the fan off)
G28;(Home the printer)
G92 E0;(Reset the extruder to 0)
G0 Z5 E5 F500;(Move up and prime the nozzle)
G0 X-1 Z0;(Move outside the printable area)
G1 Y60 E8 F500;(Draw a priming/wiping line to the rear)
G1 X-1;(Move a little closer to the print area)
G1 Y10 E16 F500;(draw more priming/wiping)
G1 E15 F250;(Small retract)
G92 E0;(Zero the extruder)
G92 E0
G1 F2400 E-2.5
;LAYER_COUNT:64
;LAYER:0
M107
G0 F4320 X29.244 Y33.668 Z0.263
;TYPE:SKIRT
G1 F2400 E0
G1 F2160 X29.549 Y33.407 E0.01536
G1 X31.38 Y31.963 E0.1046
G1 X31.704 Y31.728 E0.11992
G1 X33.647 Y30.43 E0.20935
G1 X33.987 Y30.222 E0.2246
G1 X36.023 Y29.082 E0.3139
G1 X36.376 Y28.902 E0.32906
G1 X38.494 Y27.925 E0.41833
G1 X38.864 Y27.772 E0.43365
G1 X41.057 Y26.963 E0.52311
G1 X41.436 Y26.839 E0.53837
G1 X43.682 Y26.206 E0.62767
G1 X44.07 Y26.113 E0.64294
G1 X46.361 Y25.658 E0.73233
G1 X46.752 Y25.596 E0.74748
G1 X49.069 Y25.321 E0.83677
G1 X49.467 Y25.29 E0.85205
G1 X51.8 Y25.198 E0.9414
G1 X52.202 Y25.198 E0.95679
G1 X54.534 Y25.291 E1.0461
G1 X54.928 Y25.322 E1.06123
G1 X57.246 Y25.596 E1.15056
G1 X57.638 Y25.658 E1.16574
G1 X59.93 Y26.113 E1.25517
G1 X60.317 Y26.206 E1.2704
G1 X62.562 Y26.838 E1.35966
G1 X62.948 Y26.963 E1.37518
G1 X65.14 Y27.774 E1.46463
G1 X65.502 Y27.924 E1.47963
G1 X67.619 Y28.899 E1.56882
G1 X67.975 Y29.081 E1.58412
G1 X70.013 Y30.222 E1.67351
G1 X70.355 Y30.431 E1.68885
G1 X72.296 Y31.729 E1.77821
G1 X72.618 Y31.963 E1.79344
G1 X74.45 Y33.408 E1.88274
G1 X74.753 Y33.667 E1.89799
G1 X76.467 Y35.252 E1.98733
G1 X76.745 Y35.53 E2.00238
G1 X78.332 Y37.244 E2.09177
G1 X78.593 Y37.549 E2.10714
G1 X80.037 Y39.38 E2.19638
G1 X80.272 Y39.704 E2.2117
G1 X81.57 Y41.647 E2.30112
G1 X81.778 Y41.987 E2.31637
G1 X82.918 Y44.023 E2.40567
G1 X83.098 Y44.376 E2.42084
G1 X84.027 Y46.39 E2.50572
G1 X83.979 Y46.178 E2.51404
G1 X83.878 Y45.55 E2.53838
G1 X83.854 Y45.058 E2.55723
G1 X83.854 Y44.042 E2.59611
G1 X83.894 Y43.406 E2.6205
G1 X83.979 Y42.922 E2.63931
G1 X84.204 Y41.928 E2.67831
G1 X84.472 Y41.09 E2.71198
G1 X84.669 Y40.619 E2.73152
G1 X85.05 Y39.884 E2.7632
G1 X85.591 Y39.02 E2.80221
G1 X85.962 Y38.502 E2.8266
G1 X86.303 Y38.124 E2.84608
G1 X87.023 Y37.404 E2.88505
G1 X87.501 Y36.983 E2.90942
G1 X87.917 Y36.692 E2.92885
G1 X88.782 Y36.15 E2.96792
G1 X89.52 Y35.768 E2.99972
G1 X89.989 Y35.572 E3.01917
G1 X90.823 Y35.306 E3.05268
G1 X91.819 Y35.08 E3.09176
G1 X92.448 Y34.978 E3.11615
G1 X92.942 Y34.954 E3.13508
G1 X93.958 Y34.954 E3.17396
G1 X94.594 Y34.994 E3.19835
G1 X95.081 Y35.08 E3.21727
G1 X96.077 Y35.306 E3.25636
G1 X96.911 Y35.572 E3.28986
G1 X97.38 Y35.768 E3.30931
G1 X98.116 Y36.15 E3.34105
G1 X98.98 Y36.691 E3.38006
G1 X99.498 Y37.062 E3.40444
G1 X99.876 Y37.403 E3.42392
G1 X100.596 Y38.123 E3.46289
G1 X101.017 Y38.601 E3.48727
G1 X101.308 Y39.017 E3.5067
G1 X101.85 Y39.882 E3.54576
G1 X102.232 Y40.62 E3.57757
G1 X102.428 Y41.089 E3.59702
G1 X102.694 Y41.921 E3.63045
G1 X102.92 Y42.915 E3.66946
G1 X103.022 Y43.543 E3.69381
G1 X103.046 Y44.04 E3.71285
G1 X103.046 Y45.058 E3.75181
G1 X103.006 Y45.694 E3.77619
G1 X102.921 Y46.178 E3.795
G1 X102.696 Y47.172 E3.834
G1 X102.428 Y48.01 E3.86767
G1 X102.231 Y48.481 E3.88721
G1 X101.85 Y49.216 E3.9189
G1 X101.309 Y50.08 E3.95791
G1 X100.938 Y50.598 E3.98229
G1 X100.597 Y50.976 E4.00177
G1 X99.877 Y51.696 E4.04074
G1 X99.399 Y52.117 E4.06512
G1 X98.983 Y52.408 E4.08455
G1 X98.118 Y52.95 E4.12361
G1 X97.558 Y53.253 E4.14798
G1 X97.104 Y53.438 E4.16674
G1 X96.144 Y53.775 E4.20568
G1 X95.531 Y53.947 E4.23004
G1 X95.031 Y54.029 E4.24943
G1 X94.018 Y54.143 E4.28845
G1 X93.381 Y54.175 E4.31286
G1 X92.882 Y54.143 E4.33199
G1 X91.869 Y54.029 E4.371
G1 X91.242 Y53.918 E4.39537
G1 X90.76 Y53.776 E4.4146
G1 X89.8 Y53.44 E4.45353
G1 X89.023 Y53.092 E4.48611
G1 X88.574 Y52.844 E4.50574
G1 X87.86 Y52.367 E4.5386
G1 X87.064 Y51.731 E4.57759
G1 X86.592 Y51.303 E4.60198
G1 X86.266 Y50.933 E4.62085
G1 X85.632 Y50.139 E4.65973
G1 X85.159 Y49.43 E4.69235
G1 X85.161 Y49.436 E4.69259
G1 X85.794 Y51.682 E4.78189
G1 X85.887 Y52.07 E4.79716
G1 X86.314 Y54.216 E4.8809
G1 X86.536 Y54.23 E4.88941
G1 X87.161 Y54.349 E4.91376
G1 X87.767 Y54.546 E4.93815
G1 X88.343 Y54.817 E4.96251
G1 X88.881 Y55.158 E4.98689
G1 X89.489 Y55.676 E5.01745
G1 X89.589 Y55.776 E5.02287
G1 X90.01 Y56.254 E5.04724
G1 X90.368 Y56.781 E5.07163
G1 X90.657 Y57.348 E5.09598
G1 X90.873 Y57.947 E5.12035
G1 X91.012 Y58.569 E5.14474
G1 X91.075 Y59.365 E5.1753
G1 X91.075 Y60.613 E5.22306
G1 X91.035 Y61.249 E5.24745
G1 X90.916 Y61.874 E5.2718
G1 X90.719 Y62.48 E5.29618
G1 X90.448 Y63.056 E5.32054
G1 X89.931 Y63.823 E5.35594
G1 X89.833 Y63.943 E5.36187
G1 X89.4 Y64.41 E5.38624
G1 X88.912 Y64.819 E5.41061
G1 X88.376 Y65.164 E5.43501
G1 X87.802 Y65.439 E5.45936
G1 X87.197 Y65.64 E5.48376
G1 X86.573 Y65.763 E5.5081
G1 X86.314 Y65.78 E5.51803
G1 X85.887 Y67.93 E5.60192
G1 X85.794 Y68.317 E5.61715
G1 X85.162 Y70.562 E5.70641
G1 X85.037 Y70.948 E5.72194
G1 X84.226 Y73.14 E5.81138
G1 X84.076 Y73.502 E5.82638
G1 X83.101 Y75.619 E5.91557
G1 X82.919 Y75.975 E5.93088
G1 X81.778 Y78.013 E6.02026
G1 X81.569 Y78.355 E6.0356
G1 X80.271 Y80.296 E6.12496
G1 X80.037 Y80.618 E6.14019
G1 X78.592 Y82.45 E6.22949
G1 X78.333 Y82.753 E6.24474
G1 X76.748 Y84.467 E6.33409
G1 X76.47 Y84.745 E6.34913
G1 X74.756 Y86.332 E6.43853
G1 X74.451 Y86.593 E6.45389
G1 X72.62 Y88.037 E6.54313
G1 X72.296 Y88.272 E6.55845
G1 X70.353 Y89.57 E6.64787
G1 X70.013 Y89.778 E6.66313
G1 X67.977 Y90.918 E6.75243
G1 X67.624 Y91.098 E6.76759
G1 X65.506 Y92.075 E6.85685
G1 X65.136 Y92.228 E6.87218
G1 X62.943 Y93.037 E6.96163
G1 X62.564 Y93.161 E6.97689
G1 X60.318 Y93.794 E7.0662
G1 X59.93 Y93.887 E7.08146
G1 X57.639 Y94.342 E7.17085
G1 X57.248 Y94.404 E7.186
G1 X54.931 Y94.679 E7.2753
G1 X54.533 Y94.71 E7.29058
G1 X52.2 Y94.802 E7.37993
G1 X51.798 Y94.802 E7.39531
G1 X49.466 Y94.709 E7.48463
G1 X49.072 Y94.678 E7.49975
G1 X46.754 Y94.404 E7.58908
G1 X46.362 Y94.342 E7.60427
G1 X44.07 Y93.887 E7.6937
G1 X43.683 Y93.794 E7.70893
G1 X41.438 Y93.162 E7.79818
G1 X41.052 Y93.037 E7.81371
G1 X38.86 Y92.226 E7.90316
G1 X38.498 Y92.076 E7.91815
G1 X36.379 Y91.1 E8.00743
G1 X36.023 Y90.918 E8.02274
G1 X33.987 Y89.778 E8.11204
G1 X33.644 Y89.568 E8.12743
G1 X31.702 Y88.269 E8.21684
G1 X31.381 Y88.036 E8.23202
G1 X29.55 Y86.592 E8.32126
G1 X29.247 Y86.333 E8.33652
G1 X27.532 Y84.747 E8.42591
G1 X27.254 Y84.469 E8.44096
G1 X25.668 Y82.756 E8.5303
G1 X25.407 Y82.451 E8.54566
G1 X23.962 Y80.619 E8.63496
G1 X23.727 Y80.295 E8.65028
G1 X22.43 Y78.353 E8.73965
G1 X22.222 Y78.013 E8.7549
G1 X21.081 Y75.975 E8.84429
G1 X20.901 Y75.622 E8.85945
G1 X19.925 Y73.506 E8.94863
G1 X19.772 Y73.136 E8.96395
G1 X18.963 Y70.943 E9.05341
G1 X18.839 Y70.564 E9.06867
G1 X18.206 Y68.318 E9.15797
G1 X18.113 Y67.93 E9.17324
G1 X17.658 Y65.639 E9.26263
G1 X17.596 Y65.248 E9.27778
G1 X17.321 Y62.931 E9.36707
G1 X17.29 Y62.533 E9.38235
G1 X17.198 Y60.201 E9.47166
G1 X17.198 Y59.799 E9.48705
G1 X17.291 Y57.466 E9.5764
G1 X17.322 Y57.072 E9.59153
G1 X17.596 Y54.754 E9.68086
G1 X17.658 Y54.362 E9.69604
G1 X18.113 Y52.07 E9.78547
G1 X18.206 Y51.683 E9.8007
G1 X18.838 Y49.438 E9.88996
G1 X18.963 Y49.052 E9.90549
G1 X19.774 Y46.86 E9.99493
G1 X19.924 Y46.498 E10.00993
G1 X20.899 Y44.381 E10.09912
G1 X21.081 Y44.025 E10.11442
G1 X22.222 Y41.987 E10.20381
G1 X22.431 Y41.645 E10.21915
G1 X23.729 Y39.704 E10.30851
G1 X23.963 Y39.382 E10.32374
G1 X25.408 Y37.55 E10.41304
G1 X25.667 Y37.247 E10.42829
G1 X27.252 Y35.533 E10.51764
G1 X27.53 Y35.255 E10.53268
G1 X28.735 Y34.139 E10.59554
G0 F1944 X29.244 Y33.668
G0 F4320 X29.482 Y33.925
G1 F2400 E10.6221
G1 F2160 X29.766 Y33.682 E10.6364
G1 X31.597 Y32.238 E10.72564
G1 X31.898 Y32.019 E10.73989
G1 X33.841 Y30.721 E10.82931
G1 X34.158 Y30.527 E10.84353
G1 X36.194 Y29.387 E10.93283
G1 X36.523 Y29.219 E10.94697
G1 X38.641 Y28.242 E11.03623
G1 X38.985 Y28.1 E11.05048
G1 X41.178 Y27.291 E11.13993
G1 X41.531 Y27.176 E11.15414
G1 X43.777 Y26.543 E11.24344
G1 X44.139 Y26.457 E11.25768
G1 X46.43 Y26.002 E11.34707
G1 X46.793 Y25.944 E11.36114
G1 X49.11 Y25.669 E11.45043
G1 X49.481 Y25.64 E11.46467
G1 X51.814 Y25.548 E11.55403
G1 X52.188 Y25.548 E11.56834
G1 X54.52 Y25.641 E11.65766
G1 X54.887 Y25.67 E11.67175
G1 X57.205 Y25.944 E11.76107
G1 X57.57 Y26.001 E11.77521
G1 X59.862 Y26.456 E11.86464
G1 X60.222 Y26.543 E11.87881
G1 X62.467 Y27.175 E11.96807
G1 X62.827 Y27.292 E11.98255
G1 X65.019 Y28.103 E12.072
G1 X65.356 Y28.242 E12.08595
G1 X67.473 Y29.217 E12.17515
G1 X67.804 Y29.386 E12.18937
G1 X69.842 Y30.527 E12.27876
G1 X70.161 Y30.722 E12.29306
G1 X72.102 Y32.02 E12.38242
G1 X72.401 Y32.238 E12.39659
G1 X74.233 Y33.683 E12.48588
G1 X74.515 Y33.924 E12.50008
G1 X76.229 Y35.509 E12.58942
G1 X76.488 Y35.768 E12.60344
G1 X78.075 Y37.482 E12.69283
G1 X78.318 Y37.766 E12.70713
G1 X79.762 Y39.597 E12.79638
G1 X79.981 Y39.898 E12.81062
G1 X81.279 Y41.841 E12.90005
G1 X81.473 Y42.158 E12.91427
G1 X82.613 Y44.194 E13.00357
G1 X82.781 Y44.523 E13.01771
G1 X83.758 Y46.641 E13.10697
G1 X83.9 Y46.985 E13.12121
G1 X84.709 Y49.178 E13.21067
G1 X84.824 Y49.531 E13.22488
G1 X85.457 Y51.777 E13.31418
G1 X85.543 Y52.138 E13.32838
G1 X85.998 Y54.427 E13.41769
G1 X86.017 Y54.548 E13.42238
G1 X86.513 Y54.58 E13.4414
G1 X87.116 Y54.699 E13.46492
G1 X87.698 Y54.896 E13.48844
G1 X88.25 Y55.166 E13.51196
G1 X88.762 Y55.506 E13.53548
G1 X89.241 Y55.924 E13.55981
G1 X89.341 Y56.024 E13.56522
G1 X89.746 Y56.486 E13.58873
G1 X90.088 Y56.996 E13.61223
G1 X90.361 Y57.547 E13.63576
G1 X90.56 Y58.128 E13.65927
G1 X90.682 Y58.731 E13.68281
G1 X90.725 Y59.365 E13.70713
G1 X90.725 Y60.613 E13.75489
G1 X90.685 Y61.226 E13.7784
G1 X90.566 Y61.829 E13.80192
G1 X90.369 Y62.411 E13.82544
G1 X90.099 Y62.963 E13.84895
G1 X89.66 Y63.602 E13.87862
G1 X89.562 Y63.722 E13.88455
G1 X89.143 Y64.171 E13.90806
G1 X88.669 Y64.563 E13.93159
G1 X88.149 Y64.89 E13.9551
G1 X87.59 Y65.146 E13.97863
G1 X87.003 Y65.328 E14.00215
G1 X86.398 Y65.432 E14.02564
G1 X86.017 Y65.452 E14.04025
G1 X85.999 Y65.57 E14.04481
G1 X85.544 Y67.862 E14.13424
G1 X85.457 Y68.222 E14.14841
G1 X84.825 Y70.467 E14.23767
G1 X84.708 Y70.827 E14.25216
G1 X83.897 Y73.019 E14.3416
G1 X83.758 Y73.356 E14.35555
G1 X82.783 Y75.473 E14.44475
G1 X82.614 Y75.804 E14.45897
G1 X81.473 Y77.842 E14.54836
G1 X81.278 Y78.161 E14.56267
G1 X79.98 Y80.102 E14.65203
G1 X79.762 Y80.401 E14.66619
G1 X78.317 Y82.233 E14.75548
G1 X78.076 Y82.515 E14.76968
G1 X76.491 Y84.229 E14.85902
G1 X76.232 Y84.488 E14.87304
G1 X74.518 Y86.075 E14.96243
G1 X74.234 Y86.318 E14.97674
G1 X72.403 Y87.762 E15.06598
G1 X72.102 Y87.981 E15.08022
G1 X70.159 Y89.279 E15.16965
G1 X69.842 Y89.473 E15.18387
G1 X67.806 Y90.613 E15.27317
G1 X67.477 Y90.781 E15.28731
G1 X65.359 Y91.758 E15.37657
G1 X65.015 Y91.9 E15.39082
G1 X62.822 Y92.709 E15.48027
G1 X62.469 Y92.824 E15.49448
G1 X60.223 Y93.457 E15.58378
G1 X59.861 Y93.543 E15.59802
G1 X57.57 Y93.998 E15.68741
G1 X57.207 Y94.056 E15.70148
G1 X54.89 Y94.331 E15.79077
G1 X54.519 Y94.36 E15.80501
G1 X52.186 Y94.452 E15.89437
G1 X51.812 Y94.452 E15.90868
G1 X49.48 Y94.359 E15.998
G1 X49.113 Y94.33 E16.01208
G1 X46.795 Y94.056 E16.10141
G1 X46.43 Y93.999 E16.11555
G1 X44.138 Y93.544 E16.20498
G1 X43.778 Y93.457 E16.21915
G1 X41.533 Y92.825 E16.30841
G1 X41.173 Y92.708 E16.32289
G1 X38.981 Y91.897 E16.41234
G1 X38.644 Y91.758 E16.42629
G1 X36.525 Y90.782 E16.51557
G1 X36.194 Y90.613 E16.52979
G1 X34.158 Y89.473 E16.61909
G1 X33.839 Y89.277 E16.63342
G1 X31.897 Y87.978 E16.72284
G1 X31.598 Y87.761 E16.73697
G1 X29.767 Y86.317 E16.82622
G1 X29.485 Y86.076 E16.84041
G1 X27.77 Y84.49 E16.92981
G1 X27.511 Y84.231 E16.94383
G1 X25.925 Y82.518 E17.03317
G1 X25.682 Y82.234 E17.04747
G1 X24.237 Y80.402 E17.13677
G1 X24.018 Y80.1 E17.15104
G1 X22.721 Y78.158 E17.24041
G1 X22.527 Y77.842 E17.2546
G1 X21.386 Y75.804 E17.34399
G1 X21.218 Y75.475 E17.35813
G1 X20.242 Y73.359 E17.4473
G1 X20.1 Y73.015 E17.46155
G1 X19.291 Y70.822 E17.551
G1 X19.176 Y70.469 E17.56521
G1 X18.543 Y68.223 E17.65451
G1 X18.457 Y67.861 E17.66875
G1 X18.002 Y65.57 E17.75814
G1 X17.944 Y65.207 E17.77221
G1 X17.669 Y62.89 E17.8615
G1 X17.64 Y62.519 E17.87574
G1 X17.548 Y60.187 E17.96506
G1 X17.548 Y59.813 E17.97937
G1 X17.641 Y57.48 E18.06873
G1 X17.67 Y57.113 E18.08282
G1 X17.944 Y54.795 E18.17214
G1 X18.001 Y54.43 E18.18628
G1 X18.456 Y52.138 E18.27571
G1 X18.543 Y51.778 E18.28988
G1 X19.175 Y49.533 E18.37914
G1 X19.292 Y49.173 E18.39362
G1 X20.103 Y46.981 E18.48307
G1 X20.242 Y46.644 E18.49702
G1 X21.217 Y44.527 E18.58622
G1 X21.386 Y44.196 E18.60044
G1 X22.527 Y42.158 E18.68982
G1 X22.722 Y41.839 E18.70413
G1 X24.02 Y39.898 E18.79349
G1 X24.238 Y39.599 E18.80766
G1 X25.683 Y37.767 E18.89695
G1 X25.924 Y37.485 E18.91115
G1 X27.509 Y35.771 E19.00049
G1 X27.768 Y35.512 E19.01451
G1 X28.973 Y34.396 E19.07736
G0 F1944 X29.482 Y33.925
G0 F4320 X29.72 Y34.182
G1 F2400 E19.10392
G1 F2160 X29.983 Y33.957 E19.11717
G1 X31.814 Y32.513 E19.20641
G1 X32.093 Y32.31 E19.21961
G1 X34.036 Y31.012 E19.30904
G1 X34.329 Y30.833 E19.32218
G1 X36.365 Y29.693 E19.41148
G1 X36.669 Y29.537 E19.42455
G1 X38.787 Y28.56 E19.51382
G1 X39.106 Y28.428 E19.52703
G1 X41.299 Y27.619 E19.61648
G1 X41.626 Y27.513 E19.62964
G1 X43.872 Y26.88 E19.71894
G1 X44.207 Y26.8 E19.73212
G1 X46.498 Y26.345 E19.82151
G1 X46.834 Y26.291 E19.83453
G1 X49.151 Y26.016 E19.92383
G1 X49.495 Y25.989 E19.93703
G1 X51.828 Y25.897 E20.02639
G1 X52.174 Y25.897 E20.03963
G1 X54.506 Y25.99 E20.12894
G1 X54.846 Y26.017 E20.142
G1 X57.164 Y26.291 E20.23132
G1 X57.502 Y26.345 E20.24442
G1 X59.794 Y26.8 E20.33385
G1 X60.128 Y26.88 E20.34699
G1 X62.373 Y27.512 E20.43625
G1 X62.705 Y27.62 E20.44961
G1 X64.897 Y28.431 E20.53906
G1 X65.209 Y28.56 E20.55198
G1 X67.326 Y29.535 E20.64117
G1 X67.633 Y29.692 E20.65437
G1 X69.671 Y30.833 E20.74376
G1 X69.966 Y31.013 E20.75698
G1 X71.907 Y32.311 E20.84634
G1 X72.184 Y32.513 E20.85946
G1 X74.016 Y33.958 E20.94876
G1 X74.277 Y34.181 E20.96189
G1 X75.991 Y35.766 E21.05124
G1 X76.231 Y36.006 E21.06423
G1 X77.818 Y37.72 E21.15362
G1 X78.043 Y37.983 E21.16687
G1 X79.487 Y39.814 E21.25611
G1 X79.69 Y40.093 E21.26931
G1 X80.988 Y42.036 E21.35874
G1 X81.167 Y42.329 E21.37188
G1 X82.307 Y44.365 E21.46118
G1 X82.463 Y44.669 E21.47425
G1 X83.44 Y46.787 E21.56352
G1 X83.572 Y47.106 E21.57673
G1 X84.381 Y49.299 E21.66618
G1 X84.487 Y49.626 E21.67934
G1 X85.12 Y51.872 E21.76864
G1 X85.2 Y52.206 E21.78178
G1 X85.655 Y54.495 E21.8711
G1 X85.709 Y54.833 E21.8842
G1 X85.716 Y54.89 E21.8864
G1 X85.9 Y54.89 E21.89344
G1 X86.49 Y54.93 E21.91607
G1 X87.069 Y55.049 E21.93869
G1 X87.627 Y55.245 E21.96132
G1 X88.153 Y55.515 E21.98395
G1 X88.638 Y55.853 E22.00657
G1 X88.994 Y56.171 E22.02484
G1 X89.094 Y56.271 E22.03025
G1 X89.482 Y56.717 E22.05288
G1 X89.808 Y57.211 E22.07553
G1 X90.063 Y57.744 E22.09814
G1 X90.245 Y58.306 E22.12075
G1 X90.349 Y58.888 E22.14337
G1 X90.375 Y59.365 E22.16166
G1 X90.375 Y60.613 E22.20942
G1 X90.335 Y61.203 E22.23205
G1 X90.216 Y61.782 E22.25467
G1 X90.02 Y62.34 E22.2773
G1 X89.75 Y62.866 E22.29993
G1 X89.389 Y63.38 E22.32397
G1 X89.291 Y63.5 E22.3299
G1 X88.886 Y63.932 E22.35256
G1 X88.428 Y64.305 E22.37516
G1 X87.923 Y64.613 E22.3978
G1 X87.382 Y64.85 E22.4204
G1 X86.813 Y65.012 E22.44305
G1 X86.228 Y65.096 E22.46566
G1 X85.904 Y65.108 E22.47807
G1 X85.716 Y65.108 E22.48527
G1 X85.709 Y65.164 E22.48743
G1 X85.655 Y65.502 E22.50052
G1 X85.2 Y67.794 E22.58995
G1 X85.12 Y68.128 E22.6031
G1 X84.488 Y70.373 E22.69235
G1 X84.38 Y70.705 E22.70571
G1 X83.569 Y72.897 E22.79516
G1 X83.44 Y73.209 E22.80808
G1 X82.465 Y75.326 E22.89727
G1 X82.308 Y75.633 E22.91047
G1 X81.167 Y77.671 E22.99986
G1 X80.987 Y77.966 E23.01308
G1 X79.689 Y79.907 E23.10244
G1 X79.487 Y80.184 E23.11556
G1 X78.042 Y82.016 E23.20486
G1 X77.819 Y82.277 E23.218
