;FLAVOR:Marlin
;TIME:10393
;Filament used: 12.0283m
;Layer height: 0.21875
;Generated with Cura_SteamEngine 3.6.0
M140 S65
M105
M190 S65
M104 S205
M105
M109 S205
M82 ;absolute extrusion mode
G21;(metric values)
G90;(absolute positioning)
M82;(set extruder to absolute mode)
M107;(start with the fan off)
G28;(Home the printer)
G92 E0;(Reset the extruder to 0)
G0 Z5 E5 F500;(Move up and prime the nozzle)
G0 X-1 Z0;(Move outside the printable area)
G1 Y60 E8 F500;(Draw a priming/wiping line to the rear)
G1 X-1;(Move a little closer to the print area)
G1 Y10 E16 F500;(draw more priming/wiping)
G1 E15 F250;(Small retract)
G92 E0;(Zero the extruder)
G92 E0
G1 F2400 E-2.5
;LAYER_COUNT:335
;LAYER:0
M107
G0 F4320 X37.719 Y36.469 Z0.263
;TYPE:SKIRT
G1 F2400 E0
G1 F2160 X40.748 Y33.334 E0.16683
G1 X41.418 Y32.752 E0.20079
G1 X44.96 Y30.183 E0.36824
G1 X45.715 Y29.73 E0.40194
G1 X49.614 Y27.828 E0.56796
G1 X50.44 Y27.51 E0.60183
G1 X54.626 Y26.31 E0.76849
G1 X55.494 Y26.142 E0.80232
G1 X59.83 Y25.686 E0.96917
G1 X60.715 Y25.67 E1.00305
G1 X65.063 Y25.974 E1.16985
G1 X65.937 Y26.113 E1.20372
G1 X70.163 Y27.167 E1.3704
G1 X70.999 Y27.455 E1.40424
G1 X74.979 Y29.227 E1.57097
G1 X75.753 Y29.656 E1.60484
G1 X79.369 Y32.095 E1.77176
G1 X80.057 Y32.652 E1.80564
G1 X83.189 Y35.677 E1.97227
G1 X83.769 Y36.345 E2.00613
G1 X86.33 Y39.871 E2.17291
G1 X86.784 Y40.626 E2.20662
G1 X88.696 Y44.542 E2.3734
G1 X89.014 Y45.37 E2.40734
G1 X90.215 Y49.558 E2.57408
G1 X90.384 Y50.428 E2.60799
G1 X90.839 Y54.766 E2.77492
G1 X90.855 Y55.65 E2.80876
G1 X90.55 Y60.003 E2.97575
G1 X90.411 Y60.877 E3.00962
G1 X89.356 Y65.105 E3.17639
G1 X89.067 Y65.942 E3.21028
G1 X87.292 Y69.924 E3.37712
G1 X86.863 Y70.699 E3.41102
G1 X84.42 Y74.316 E3.57806
G1 X83.861 Y75.004 E3.61198
G1 X80.832 Y78.135 E3.7787
G1 X80.165 Y78.714 E3.8125
G1 X76.635 Y81.275 E3.97941
G1 X75.876 Y81.73 E4.01327
G1 X71.952 Y83.64 E4.18029
G1 X71.129 Y83.956 E4.21403
G1 X66.973 Y85.147 E4.37948
G1 X66.107 Y85.315 E4.41324
G1 X61.769 Y85.772 E4.58017
G1 X60.885 Y85.788 E4.61401
G1 X56.533 Y85.485 E4.78096
G1 X55.657 Y85.346 E4.8149
G1 X51.424 Y84.29 E4.98187
G1 X50.583 Y84 E5.01591
G1 X46.589 Y82.217 E5.1833
G1 X45.82 Y81.79 E5.21696
G1 X42.223 Y79.364 E5.383
G1 X41.535 Y78.807 E5.41688
G1 X38.404 Y75.782 E5.58349
G1 X37.824 Y75.115 E5.61732
G1 X35.262 Y71.589 E5.78412
G1 X34.807 Y70.831 E5.81795
G1 X32.895 Y66.912 E5.98483
G1 X32.577 Y66.086 E6.0187
G1 X31.377 Y61.9 E6.18535
G1 X31.209 Y61.032 E6.21919
G1 X30.753 Y56.698 E6.38596
G1 X30.737 Y55.813 E6.41984
G1 X31.041 Y51.463 E6.58672
G1 X31.18 Y50.59 E6.62055
G1 X32.233 Y46.364 E6.78722
G1 X32.521 Y45.526 E6.82113
G1 X34.294 Y41.545 E6.98791
G1 X34.723 Y40.772 E7.02175
G1 X37.162 Y37.157 E7.18864
G1 X37.283 Y37.008 E7.19598
G0 F1944 X37.719 Y36.469
G0 F4320 X37.971 Y36.712
G1 F2400 E7.22254
G1 F2160 X41 Y33.577 E7.38937
G1 X41.624 Y33.035 E7.421
G1 X45.166 Y30.466 E7.58845
G1 X45.868 Y30.044 E7.6198
G1 X49.767 Y28.142 E7.78582
G1 X50.537 Y27.847 E7.81738
G1 X54.723 Y26.647 E7.98403
G1 X55.531 Y26.49 E8.01553
G1 X59.867 Y26.034 E8.18238
G1 X60.691 Y26.02 E8.21392
G1 X65.039 Y26.324 E8.38072
G1 X65.852 Y26.452 E8.41222
G1 X70.078 Y27.506 E8.5789
G1 X70.857 Y27.774 E8.61043
G1 X74.837 Y29.546 E8.77716
G1 X75.557 Y29.946 E8.80868
G1 X79.173 Y32.385 E8.9756
G1 X79.814 Y32.903 E9.00714
G1 X82.946 Y35.928 E9.17378
G1 X83.486 Y36.55 E9.2053
G1 X86.047 Y40.076 E9.37208
G1 X86.47 Y40.78 E9.40351
G1 X88.382 Y44.696 E9.57029
G1 X88.678 Y45.467 E9.60189
G1 X89.879 Y49.655 E9.76863
G1 X90.036 Y50.464 E9.80017
G1 X90.491 Y54.802 E9.96709
G1 X90.505 Y55.625 E9.99859
G1 X90.2 Y59.978 E10.16559
G1 X90.071 Y60.792 E10.19713
G1 X89.016 Y65.02 E10.3639
G1 X88.748 Y65.8 E10.39546
G1 X86.973 Y69.782 E10.56231
G1 X86.573 Y70.503 E10.59386
G1 X84.13 Y74.12 E10.7609
G1 X83.61 Y74.76 E10.79246
G1 X80.581 Y77.891 E10.95917
G1 X79.96 Y78.431 E10.99067
G1 X76.43 Y80.992 E11.15757
G1 X75.723 Y81.415 E11.1891
G1 X71.799 Y83.325 E11.35612
G1 X71.033 Y83.619 E11.38752
G1 X66.877 Y84.81 E11.55297
G1 X66.07 Y84.967 E11.58443
G1 X61.732 Y85.424 E11.75136
G1 X60.909 Y85.439 E11.78287
G1 X56.557 Y85.136 E11.94982
G1 X55.741 Y85.006 E11.98144
G1 X51.508 Y83.95 E12.1484
G1 X50.726 Y83.681 E12.18005
G1 X46.732 Y81.898 E12.34744
G1 X46.016 Y81.5 E12.37879
G1 X42.419 Y79.074 E12.54483
G1 X41.778 Y78.555 E12.57639
G1 X38.647 Y75.53 E12.74301
G1 X38.108 Y74.909 E12.77448
G1 X35.546 Y71.383 E12.94127
G1 X35.121 Y70.678 E12.97278
G1 X33.209 Y66.759 E13.13966
G1 X32.914 Y65.989 E13.17121
G1 X31.714 Y61.803 E13.33786
G1 X31.557 Y60.995 E13.36936
G1 X31.101 Y56.661 E13.53614
G1 X31.086 Y55.838 E13.56764
G1 X31.39 Y51.488 E13.73452
G1 X31.519 Y50.675 E13.76603
G1 X32.572 Y46.449 E13.9327
G1 X32.841 Y45.669 E13.96427
G1 X34.614 Y41.688 E14.13105
G1 X35.013 Y40.967 E14.16259
G1 X37.452 Y37.352 E14.32948
G1 X37.534 Y37.251 E14.33446
G0 F1944 X37.971 Y36.712
G0 F4320 X38.223 Y36.955
G1 F2400 E14.36102
G1 F2160 X41.252 Y33.82 E14.52785
G1 X41.829 Y33.318 E14.55711
G1 X45.371 Y30.749 E14.72457
G1 X46.022 Y30.359 E14.75361
G1 X49.921 Y28.457 E14.91963
G1 X50.633 Y28.183 E14.94883
G1 X54.819 Y26.983 E15.11548
G1 X55.567 Y26.838 E15.14464
G1 X59.903 Y26.382 E15.31149
G1 X60.666 Y26.369 E15.34069
G1 X65.014 Y26.673 E15.5075
G1 X65.768 Y26.792 E15.53671
G1 X69.994 Y27.846 E15.70339
G1 X70.714 Y28.094 E15.73254
G1 X74.694 Y29.866 E15.89927
G1 X75.361 Y30.236 E15.92846
G1 X78.977 Y32.675 E16.09538
G1 X79.57 Y33.155 E16.12457
G1 X82.702 Y36.18 E16.29121
G1 X83.203 Y36.756 E16.32043
G1 X85.764 Y40.282 E16.48721
G1 X86.155 Y40.933 E16.51627
G1 X88.067 Y44.849 E16.68304
G1 X88.341 Y45.563 E16.71231
G1 X89.542 Y49.751 E16.87905
G1 X89.688 Y50.501 E16.90829
G1 X90.143 Y54.839 E17.07521
G1 X90.156 Y55.601 E17.10438
G1 X89.851 Y59.954 E17.27138
G1 X89.732 Y60.707 E17.30055
G1 X88.677 Y64.935 E17.46732
G1 X88.428 Y65.657 E17.49654
G1 X86.653 Y69.639 E17.66339
G1 X86.283 Y70.307 E17.69261
G1 X83.84 Y73.924 E17.85965
G1 X83.358 Y74.517 E17.8889
G1 X80.329 Y77.648 E18.05562
G1 X79.754 Y78.147 E18.08475
G1 X76.224 Y80.708 E18.25165
G1 X75.57 Y81.101 E18.28085
G1 X71.646 Y83.011 E18.44787
G1 X70.936 Y83.283 E18.47697
G1 X66.78 Y84.474 E18.64242
G1 X66.033 Y84.619 E18.67154
G1 X61.695 Y85.076 E18.83847
G1 X60.933 Y85.089 E18.86764
G1 X56.581 Y84.786 E19.03459
G1 X55.826 Y84.667 E19.06384
G1 X51.593 Y83.611 E19.2308
G1 X50.869 Y83.361 E19.26012
G1 X46.875 Y81.578 E19.42751
G1 X46.212 Y81.21 E19.45653
G1 X42.615 Y78.784 E19.62257
G1 X42.021 Y78.303 E19.65182
G1 X38.89 Y75.278 E19.81843
G1 X38.391 Y74.704 E19.84754
G1 X35.829 Y71.178 E20.01434
G1 X35.436 Y70.524 E20.04354
G1 X33.524 Y66.605 E20.21041
G1 X33.25 Y65.893 E20.23961
G1 X32.05 Y61.707 E20.40626
G1 X31.905 Y60.959 E20.43542
G1 X31.449 Y56.625 E20.6022
G1 X31.436 Y55.862 E20.6314
G1 X31.74 Y51.512 E20.79828
G1 X31.859 Y50.759 E20.82746
G1 X32.912 Y46.533 E20.99413
G1 X33.16 Y45.811 E21.02334
G1 X34.933 Y41.83 E21.19012
G1 X35.303 Y41.163 E21.21931
G1 X37.742 Y37.548 E21.3862
G1 X37.786 Y37.494 E21.38887
G0 F1944 X38.223 Y36.955
G0 F4320 X38.474 Y37.198
G1 F2400 E21.41543
G1 F2160 X41.503 Y34.063 E21.58226
G1 X42.035 Y33.602 E21.6092
G1 X45.577 Y31.033 E21.77665
G1 X46.175 Y30.673 E21.80336
G1 X50.074 Y28.771 E21.96938
G1 X50.73 Y28.52 E21.99626
G1 X54.916 Y27.32 E22.16291
G1 X55.604 Y27.186 E22.18974
G1 X59.94 Y26.73 E22.35659
G1 X60.642 Y26.718 E22.38346
G1 X64.99 Y27.022 E22.55027
G1 X65.683 Y27.132 E22.57712
G1 X69.909 Y28.186 E22.7438
G1 X70.572 Y28.414 E22.77063
G1 X74.552 Y30.186 E22.93736
G1 X75.166 Y30.526 E22.96422
G1 X78.782 Y32.965 E23.13114
G1 X79.327 Y33.407 E23.158
G1 X82.459 Y36.432 E23.32464
G1 X82.92 Y36.962 E23.35152
G1 X85.481 Y40.488 E23.5183
G1 X85.841 Y41.087 E23.54504
G1 X87.753 Y45.003 E23.71182
G1 X88.005 Y45.659 E23.73871
G1 X89.206 Y49.847 E23.90544
G1 X89.34 Y50.537 E23.93234
G1 X89.795 Y54.875 E24.09927
G1 X89.807 Y55.576 E24.1261
G1 X89.502 Y59.929 E24.2931
G1 X89.392 Y60.622 E24.31995
G1 X88.337 Y64.85 E24.48672
G1 X88.108 Y65.515 E24.51363
G1 X86.333 Y69.497 E24.68048
G1 X85.992 Y70.111 E24.70736
G1 X83.549 Y73.728 E24.8744
G1 X83.107 Y74.274 E24.90128
G1 X80.078 Y77.405 E25.068
G1 X79.549 Y77.864 E25.0948
G1 X76.019 Y80.425 E25.2617
G1 X75.417 Y80.786 E25.28857
G1 X71.493 Y82.696 E25.45558
G1 X70.84 Y82.946 E25.48234
G1 X66.684 Y84.137 E25.64779
G1 X65.997 Y84.271 E25.67458
G1 X61.659 Y84.728 E25.84151
G1 X60.957 Y84.74 E25.86838
G1 X56.605 Y84.437 E26.03534
G1 X55.911 Y84.327 E26.06223
G1 X51.678 Y83.271 E26.22919
G1 X51.011 Y83.041 E26.25619
G1 X47.017 Y81.258 E26.42358
G1 X46.407 Y80.92 E26.45027
G1 X42.81 Y78.494 E26.61631
G1 X42.264 Y78.052 E26.64319
G1 X39.133 Y75.027 E26.8098
G1 X38.674 Y74.498 E26.83661
G1 X36.112 Y70.972 E27.00341
G1 X35.751 Y70.371 E27.03024
G1 X33.839 Y66.452 E27.19711
G1 X33.587 Y65.796 E27.22401
G1 X32.387 Y61.61 E27.39066
G1 X32.253 Y60.922 E27.41748
G1 X31.797 Y56.588 E27.58426
G1 X31.785 Y55.886 E27.61113
G1 X32.089 Y51.536 E27.77801
G1 X32.198 Y50.844 E27.80482
G1 X33.251 Y46.618 E27.97149
G1 X33.48 Y45.953 E27.99841
G1 X35.253 Y41.972 E28.16519
G1 X35.593 Y41.359 E28.19202
G1 X38.032 Y37.744 E28.3589
G1 X38.038 Y37.737 E28.35926
G0 F1944 X38.474 Y37.198
G0 F4320 X38.726 Y37.441
G1 F2400 E28.38582
G1 F2160 X41.755 Y34.306 E28.55264
G1 X42.24 Y33.885 E28.57722
G1 X45.782 Y31.316 E28.74468
G1 X46.329 Y30.988 E28.76908
G1 X50.228 Y29.086 E28.93511
G1 X50.826 Y28.856 E28.95963
G1 X55.012 Y27.656 E29.12628
G1 X55.641 Y27.534 E29.1508
G1 X59.977 Y27.078 E29.31765
G1 X60.617 Y27.067 E29.34215
G1 X64.965 Y27.371 E29.50895
G1 X65.598 Y27.471 E29.53348
G1 X69.824 Y28.525 E29.70016
G1 X70.43 Y28.734 E29.72469
G1 X74.41 Y30.506 E29.89142
G1 X74.97 Y30.816 E29.91592
G1 X78.586 Y33.255 E30.08284
G1 X79.084 Y33.659 E30.10738
G1 X82.216 Y36.684 E30.27402
G1 X82.636 Y37.167 E30.29851
G1 X85.197 Y40.693 E30.46529
G1 X85.526 Y41.241 E30.48975
G1 X87.438 Y45.157 E30.65653
G1 X87.669 Y45.756 E30.68109
G1 X88.87 Y49.944 E30.84783
G1 X88.992 Y50.574 E30.87239
G1 X89.447 Y54.912 E31.03931
G1 X89.458 Y55.552 E31.06381
G1 X89.153 Y59.905 E31.23081
G1 X89.053 Y60.538 E31.25533
G1 X87.998 Y64.766 E31.4221
G1 X87.789 Y65.372 E31.44663
G1 X86.014 Y69.354 E31.61348
G1 X85.702 Y69.915 E31.63804
G1 X83.259 Y73.532 E31.80508
G1 X82.855 Y74.03 E31.82962
G1 X79.826 Y77.161 E31.99634
G1 X79.343 Y77.581 E32.02084
G1 X75.813 Y80.142 E32.18774
G1 X75.263 Y80.471 E32.21226
G1 X71.339 Y82.381 E32.37928
G1 X70.743 Y82.61 E32.40371
G1 X66.587 Y83.801 E32.56917
G1 X65.96 Y83.923 E32.59361
G1 X61.622 Y84.38 E32.76054
G1 X60.982 Y84.391 E32.78504
G1 X56.63 Y84.088 E32.952
G1 X55.995 Y83.988 E32.9766
G1 X51.762 Y82.932 E33.14356
G1 X51.154 Y82.722 E33.16817
G1 X47.16 Y80.939 E33.33556
G1 X46.603 Y80.63 E33.35994
G1 X43.006 Y78.204 E33.52598
G1 X42.508 Y77.8 E33.55052
G1 X39.377 Y74.775 E33.71713
G1 X38.957 Y74.292 E33.74163
G1 X36.395 Y70.766 E33.90843
G1 X36.065 Y70.217 E33.93294
G1 X34.153 Y66.298 E34.09982
G1 X33.923 Y65.7 E34.12434
G1 X32.723 Y61.514 E34.29099
G1 X32.601 Y60.886 E34.31547
G1 X32.145 Y56.552 E34.48225
G1 X32.134 Y55.911 E34.50679
G1 X32.438 Y51.561 E34.67367
G1 X32.538 Y50.928 E34.69819
G1 X33.591 Y46.702 E34.86486
G1 X33.8 Y46.096 E34.8894
G1 X35.573 Y42.115 E35.05618
G1 X35.884 Y41.555 E35.08069
G1 X38.294 Y37.983 E35.24559
G0 F1944 X38.323 Y37.94
G0 X38.726 Y37.441
G0 F4320 X38.978 Y37.685
G1 F2400 E35.27215
G1 F2160 X42.007 Y34.55 E35.43898
G1 X42.446 Y34.168 E35.46125
G1 X45.988 Y31.599 E35.6287
G1 X46.482 Y31.303 E35.65074
G1 X50.381 Y29.401 E35.81677
G1 X50.923 Y29.193 E35.83898
G1 X55.109 Y27.993 E36.00563
G1 X55.677 Y27.882 E36.02778
G1 X60.013 Y27.426 E36.19464
G1 X60.593 Y27.416 E36.21684
G1 X64.941 Y27.72 E36.38364
G1 X65.514 Y27.811 E36.40584
G1 X69.74 Y28.865 E36.57253
G1 X70.287 Y29.053 E36.59466
G1 X74.267 Y30.825 E36.76139
G1 X74.774 Y31.106 E36.78357
G1 X78.39 Y33.545 E36.9505
G1 X78.841 Y33.91 E36.9727
G1 X81.973 Y36.935 E37.13934
G1 X82.353 Y37.373 E37.16153
G1 X84.914 Y40.899 E37.32831
G1 X85.212 Y41.394 E37.35042
G1 X87.124 Y45.31 E37.51719
G1 X87.332 Y45.852 E37.53941
G1 X88.533 Y50.04 E37.70615
G1 X88.644 Y50.61 E37.72837
G1 X89.099 Y54.948 E37.89529
G1 X89.109 Y55.527 E37.91746
G1 X88.804 Y59.88 E38.08445
G1 X88.713 Y60.453 E38.10666
G1 X87.658 Y64.681 E38.27342
G1 X87.469 Y65.23 E38.29564
G1 X85.694 Y69.212 E38.46249
G1 X85.412 Y69.719 E38.48469
G1 X82.969 Y73.336 E38.65173
G1 X82.604 Y73.787 E38.67393
G1 X79.575 Y76.918 E38.84065
G1 X79.138 Y77.297 E38.86279
G1 X75.608 Y79.858 E39.02969
G1 X75.11 Y80.157 E39.05192
G1 X71.186 Y82.067 E39.21894
G1 X70.647 Y82.273 E39.24102
G1 X66.491 Y83.464 E39.40647
G1 X65.923 Y83.575 E39.42862
G1 X61.585 Y84.032 E39.59555
G1 X61.006 Y84.042 E39.61771
G1 X56.654 Y83.739 E39.78467
G1 X56.08 Y83.648 E39.80691
G1 X51.847 Y82.592 E39.97387
G1 X51.297 Y82.402 E39.99614
G1 X47.303 Y80.619 E40.16353
G1 X46.799 Y80.34 E40.18558
G1 X43.202 Y77.914 E40.35162
G1 X42.751 Y77.548 E40.37384
G1 X39.62 Y74.523 E40.54046
G1 X39.24 Y74.086 E40.56262
G1 X36.678 Y70.56 E40.72942
G1 X36.38 Y70.064 E40.75156
G1 X34.468 Y66.145 E40.91844
G1 X34.26 Y65.603 E40.94066
G1 X33.06 Y61.417 E41.10731
G1 X32.949 Y60.849 E41.12946
G1 X32.493 Y56.515 E41.29623
G1 X32.483 Y55.935 E41.31843
G1 X32.787 Y51.585 E41.48531
G1 X32.878 Y51.013 E41.50748
G1 X33.931 Y46.787 E41.67415
G1 X34.12 Y46.238 E41.69637
G1 X35.893 Y42.257 E41.86315
G1 X36.174 Y41.75 E41.88534
G1 X38.549 Y38.23 E42.04784
G0 F1944 X38.613 Y38.135
G0 X38.978 Y37.685
G0 F4320 X39.229 Y37.928
G1 F2400 E42.0744
G1 F2160 X42.258 Y34.793 E42.24123
G1 X42.651 Y34.452 E42.26114
G1 X46.193 Y31.883 E42.42859
G1 X46.636 Y31.617 E42.44837
G1 X50.535 Y29.715 E42.61439
G1 X51.019 Y29.529 E42.63423
G1 X55.205 Y28.329 E42.80089
G1 X55.714 Y28.23 E42.82073
G1 X60.05 Y27.774 E42.98758
G1 X60.568 Y27.765 E43.00741
G1 X64.916 Y28.069 E43.17421
G1 X65.429 Y28.15 E43.19409
G1 X69.655 Y29.204 E43.36077
G1 X70.145 Y29.373 E43.38061
G1 X74.125 Y31.145 E43.54734
G1 X74.579 Y31.397 E43.56721
G1 X78.195 Y33.836 E43.73413
G1 X78.598 Y34.162 E43.75397
G1 X81.73 Y37.187 E43.92061
G1 X82.07 Y37.579 E43.94047
G1 X84.631 Y41.105 E44.10724
G1 X84.897 Y41.548 E44.12702
G1 X86.809 Y45.464 E44.29379
G1 X86.996 Y45.949 E44.31368
G1 X88.197 Y50.137 E44.48042
G1 X88.296 Y50.647 E44.5003
G1 X88.751 Y54.985 E44.66723
G1 X88.76 Y55.503 E44.68705
G1 X88.455 Y59.856 E44.85405
G1 X88.373 Y60.368 E44.8739
G1 X87.318 Y64.596 E45.04066
G1 X87.149 Y65.087 E45.06053
G1 X85.374 Y69.069 E45.22738
G1 X85.122 Y69.523 E45.24725
G1 X82.679 Y73.14 E45.41429
G1 X82.352 Y73.544 E45.43418
G1 X79.323 Y76.675 E45.6009
G1 X78.932 Y77.014 E45.6207
G1 X75.402 Y79.575 E45.7876
G1 X74.957 Y79.842 E45.80746
G1 X71.033 Y81.752 E45.97448
G1 X70.551 Y81.937 E45.99424
G1 X66.395 Y83.128 E46.15969
G1 X65.887 Y83.227 E46.1795
G1 X61.549 Y83.684 E46.34643
G1 X61.03 Y83.693 E46.3663
G1 X56.678 Y83.39 E46.53325
G1 X56.165 Y83.309 E46.55313
G1 X51.932 Y82.253 E46.72009
G1 X51.439 Y82.083 E46.74004
G1 X47.445 Y80.3 E46.90743
G1 X46.994 Y80.049 E46.92719
G1 X43.397 Y77.623 E47.09323
G1 X42.994 Y77.297 E47.11306
G1 X39.863 Y74.272 E47.27968
G1 X39.523 Y73.881 E47.29951
G1 X36.961 Y70.355 E47.46631
G1 X36.694 Y69.91 E47.48617
G1 X34.782 Y65.991 E47.65304
G1 X34.596 Y65.507 E47.67289
G1 X33.396 Y61.321 E47.83954
G1 X33.297 Y60.812 E47.85938
G1 X32.841 Y56.478 E48.02616
G1 X32.832 Y55.96 E48.04599
G1 X33.136 Y51.61 E48.21287
G1 X33.217 Y51.098 E48.2327
G1 X34.27 Y46.872 E48.39938
G1 X34.439 Y46.381 E48.41925
G1 X36.212 Y42.4 E48.58603
G1 X36.464 Y41.946 E48.6059
G1 X38.805 Y38.476 E48.76609
G0 F1944 X38.903 Y38.331
G0 X39.229 Y37.928
G0 F4320 X39.481 Y38.171
G1 F2400 E48.79265
G1 F2160 X42.51 Y35.036 E48.95948
G1 X42.857 Y34.735 E48.97706
G1 X46.399 Y32.166 E49.14451
G1 X46.789 Y31.932 E49.16192
G1 X50.688 Y30.03 E49.32794
G1 X51.116 Y29.866 E49.34548
G1 X55.302 Y28.666 E49.51213
G1 X55.75 Y28.578 E49.5296
G1 X60.086 Y28.122 E49.69646
G1 X60.544 Y28.114 E49.71399
G1 X64.892 Y28.418 E49.88079
G1 X65.344 Y28.49 E49.89831
G1 X69.57 Y29.544 E50.06499
G1 X70.003 Y29.693 E50.08252
