;FLAVOR:Marlin
;TIME:1393
;Filament used: 1.41716m
;Layer height: 0.21875
;Generated with Cura_SteamEngine 3.6.0
M140 S65
M105
M190 S65
M104 S205
M105
M109 S205
M82 ;absolute extrusion mode
G21;(metric values)
G90;(absolute positioning)
M82;(set extruder to absolute mode)
M107;(start with the fan off)
G28;(Home the printer)
G92 E0;(Reset the extruder to 0)
G0 Z5 E5 F500;(Move up and prime the nozzle)
G0 X-1 Z0;(Move outside the printable area)
G1 Y60 E8 F500;(Draw a priming/wiping line to the rear)
G1 X-1;(Move a little closer to the print area)
G1 Y10 E16 F500;(draw more priming/wiping)
G1 E15 F250;(Small retract)
G92 E0;(Zero the extruder)
G92 E0
G1 F2400 E-2.5
;LAYER_COUNT:46
;LAYER:0
M107
G0 F4320 X38.224 Y33.609 Z0.263
;TYPE:SKIRT
G1 F2400 E0
G1 F2160 X38.678 Y33.163 E0.02436
G1 X39.185 Y32.777 E0.04874
G1 X39.736 Y32.458 E0.07311
G1 X40.323 Y32.21 E0.09749
G1 X40.936 Y32.038 E0.12186
G1 X41.566 Y31.944 E0.14624
G1 X42 Y31.925 E0.16286
G1 X78 Y31.925 E1.54058
G1 X78.636 Y31.965 E1.56497
G1 X79.261 Y32.084 E1.58932
G1 X79.867 Y32.281 E1.6137
G1 X80.443 Y32.552 E1.63806
G1 X80.981 Y32.893 E1.66244
G1 X81.472 Y33.299 E1.68682
G1 X81.908 Y33.763 E1.71119
G1 X82.283 Y34.278 E1.73557
G1 X82.59 Y34.835 E1.75991
G1 X82.825 Y35.427 E1.78429
G1 X82.984 Y36.044 E1.80867
G1 X83.065 Y36.676 E1.83305
G1 X83.074 Y37.11 E1.84967
G1 X82.074 Y83.11 E3.6105
G1 X82.02 Y83.745 E3.63489
G1 X81.887 Y84.368 E3.65927
G1 X81.677 Y84.969 E3.68363
G1 X81.394 Y85.539 E3.70799
G1 X81.041 Y86.07 E3.73239
G1 X80.625 Y86.552 E3.75676
G1 X80.152 Y86.978 E3.78112
G1 X79.629 Y87.341 E3.80548
G1 X79.064 Y87.636 E3.82987
G1 X78.467 Y87.858 E3.85425
G1 X77.847 Y88.004 E3.87862
G1 X77 Y88.075 E3.91115
G1 X74 Y88.075 E4.02596
G1 X73.364 Y88.035 E4.05035
G1 X72.739 Y87.916 E4.0747
G1 X72.133 Y87.719 E4.09908
G1 X71.557 Y87.448 E4.12345
G1 X71.019 Y87.107 E4.14782
G1 X70.528 Y86.701 E4.17221
G1 X70.092 Y86.237 E4.19657
G1 X69.717 Y85.722 E4.22095
G1 X69.461 Y85.27 E4.24083
G1 X65.461 Y77.27 E4.58313
G1 X65.212 Y76.683 E4.60753
G1 X65.039 Y76.07 E4.63191
G1 X64.944 Y75.441 E4.65625
G1 X64.929 Y74.804 E4.68064
G1 X64.993 Y74.17 E4.70502
G1 X65.137 Y73.55 E4.72938
G1 X65.357 Y72.952 E4.75377
G1 X65.65 Y72.387 E4.77812
G1 X66.011 Y71.862 E4.80251
G1 X66.436 Y71.388 E4.82687
G1 X66.916 Y70.97 E4.85123
G1 X67.445 Y70.615 E4.87561
G1 X68.014 Y70.33 E4.89996
G1 X68.615 Y70.118 E4.92435
G1 X69.085 Y70.016 E4.94276
G1 X69.786 Y44.075 E5.93588
G1 X50.214 Y44.075 E6.6849
G1 X50.915 Y70.018 E7.6781
G1 X51.261 Y70.084 E7.69158
G1 X51.867 Y70.281 E7.71597
G1 X52.443 Y70.552 E7.74033
G1 X52.981 Y70.893 E7.76471
G1 X53.472 Y71.299 E7.78909
G1 X53.908 Y71.763 E7.81345
G1 X54.283 Y72.278 E7.83784
G1 X54.59 Y72.835 E7.86217
G1 X54.825 Y73.427 E7.88655
G1 X54.984 Y74.044 E7.91093
G1 X55.065 Y74.676 E7.93532
G1 X55.065 Y75.313 E7.9597
G1 X54.986 Y75.945 E7.98407
G1 X54.829 Y76.562 E8.00844
G1 X54.539 Y77.27 E8.03772
G1 X50.539 Y85.27 E8.38001
G1 X50.219 Y85.82 E8.40437
G1 X49.833 Y86.326 E8.42872
G1 X49.386 Y86.78 E8.4531
G1 X48.886 Y87.175 E8.47749
G1 X48.34 Y87.503 E8.50187
G1 X47.758 Y87.761 E8.52623
G1 X47.148 Y87.944 E8.5506
G1 X46.52 Y88.048 E8.57496
G1 X46 Y88.075 E8.59489
G1 X43 Y88.075 E8.7097
G1 X42.364 Y88.035 E8.73409
G1 X41.739 Y87.916 E8.75844
G1 X41.133 Y87.719 E8.78282
G1 X40.557 Y87.448 E8.80718
G1 X40.019 Y87.107 E8.83156
G1 X39.528 Y86.701 E8.85594
G1 X39.092 Y86.237 E8.88031
G1 X38.717 Y85.722 E8.90469
G1 X38.41 Y85.165 E8.92903
G1 X38.175 Y84.573 E8.9534
G1 X38.016 Y83.956 E8.97779
G1 X37.926 Y83.11 E9.01035
G1 X37.102 Y45.186 E10.46204
G1 X36.926 Y37.11 E10.77118
G1 X36.952 Y36.474 E10.79554
G1 X37.058 Y35.846 E10.81991
G1 X37.241 Y35.236 E10.84429
G1 X37.5 Y34.654 E10.86867
G1 X37.8 Y34.157 E10.89088
G0 F1944 X37.829 Y34.109
G0 X38.224 Y33.609
G0 F4320 X38.572 Y33.748
G1 F2400 E10.91744
G1 F2160 X39.023 Y33.33 E10.94097
G1 X39.525 Y32.975 E10.9645
G1 X40.068 Y32.688 E10.98801
G1 X40.644 Y32.474 E11.01152
G1 X41.243 Y32.336 E11.03505
G1 X42 Y32.275 E11.06411
G1 X78 Y32.275 E12.44183
G1 X78.613 Y32.315 E12.46534
G1 X79.216 Y32.434 E12.48886
G1 X79.798 Y32.631 E12.51238
G1 X80.35 Y32.901 E12.53589
G1 X80.862 Y33.241 E12.55941
G1 X81.326 Y33.644 E12.58293
G1 X81.733 Y34.104 E12.60644
G1 X82.078 Y34.613 E12.62997
G1 X82.353 Y35.162 E12.65347
G1 X82.555 Y35.743 E12.67701
G1 X82.679 Y36.344 E12.7005
G1 X82.724 Y37.103 E12.72959
G1 X81.724 Y83.103 E14.49043
G1 X81.671 Y83.715 E14.51394
G1 X81.538 Y84.315 E14.53746
G1 X81.329 Y84.893 E14.56098
G1 X81.047 Y85.439 E14.5845
G1 X80.696 Y85.943 E14.608
G1 X80.283 Y86.398 E14.63152
G1 X79.814 Y86.795 E14.65503
G1 X79.298 Y87.129 E14.67855
G1 X78.743 Y87.392 E14.70206
G1 X78.158 Y87.581 E14.72559
G1 X77.554 Y87.692 E14.74909
G1 X77 Y87.725 E14.77033
G1 X74 Y87.725 E14.88514
G1 X73.387 Y87.685 E14.90865
G1 X72.784 Y87.566 E14.93217
G1 X72.202 Y87.369 E14.95568
G1 X71.65 Y87.099 E14.9792
G1 X71.138 Y86.759 E15.00272
G1 X70.674 Y86.356 E15.02624
G1 X70.267 Y85.896 E15.04975
G1 X69.922 Y85.387 E15.07328
G1 X69.774 Y85.113 E15.0852
G1 X65.774 Y77.113 E15.42749
G1 X65.535 Y76.547 E15.45101
G1 X65.372 Y75.954 E15.47454
G1 X65.288 Y75.346 E15.49803
G1 X65.283 Y74.731 E15.52157
G1 X65.357 Y74.121 E15.54508
G1 X65.511 Y73.526 E15.5686
G1 X65.74 Y72.956 E15.59211
G1 X66.041 Y72.42 E15.61564
G1 X66.409 Y71.929 E15.63912
G1 X66.838 Y71.489 E15.66264
G1 X67.321 Y71.108 E15.68618
G1 X67.849 Y70.793 E15.70971
G1 X68.413 Y70.55 E15.73321
G1 X69.004 Y70.381 E15.75674
G1 X69.427 Y70.318 E15.7731
G1 X70.146 Y43.725 E16.79119
G1 X49.854 Y43.725 E17.56776
G1 X50.573 Y70.312 E18.58562
G1 X50.613 Y70.315 E18.58715
G1 X51.216 Y70.434 E18.61067
G1 X51.798 Y70.631 E18.63419
G1 X52.35 Y70.901 E18.65771
G1 X52.862 Y71.241 E18.68123
G1 X53.326 Y71.644 E18.70475
G1 X53.733 Y72.104 E18.72825
G1 X54.078 Y72.613 E18.75178
G1 X54.353 Y73.162 E18.77528
G1 X54.555 Y73.743 E18.79882
G1 X54.679 Y74.344 E18.82231
G1 X54.725 Y74.957 E18.84583
G1 X54.69 Y75.571 E18.86937
G1 X54.577 Y76.175 E18.89289
G1 X54.386 Y76.759 E18.9164
G1 X54.226 Y77.113 E18.93127
G1 X50.226 Y85.113 E19.27356
G1 X49.916 Y85.644 E19.29709
G1 X49.54 Y86.13 E19.32061
G1 X49.104 Y86.562 E19.3441
G1 X48.615 Y86.935 E19.36764
G1 X48.083 Y87.241 E19.39112
G1 X47.515 Y87.476 E19.41465
G1 X46.921 Y87.634 E19.43817
G1 X46.312 Y87.715 E19.46168
G1 X46 Y87.725 E19.47363
G1 X43 Y87.725 E19.58844
G1 X42.387 Y87.685 E19.61195
G1 X41.784 Y87.566 E19.63547
G1 X41.202 Y87.369 E19.65898
G1 X40.65 Y87.099 E19.6825
G1 X40.138 Y86.759 E19.70602
G1 X39.674 Y86.356 E19.72954
G1 X39.267 Y85.896 E19.75305
G1 X38.922 Y85.387 E19.77658
G1 X38.647 Y84.838 E19.80008
G1 X38.445 Y84.257 E19.82362
G1 X38.321 Y83.656 E19.8471
G1 X38.276 Y83.103 E19.86834
G1 X37.452 Y45.179 E21.32003
G1 X37.276 Y37.103 E21.62917
G1 X37.303 Y36.489 E21.65269
G1 X37.409 Y35.883 E21.67623
G1 X37.593 Y35.297 E21.69974
G1 X37.851 Y34.739 E21.72327
G1 X38.137 Y34.287 E21.74374
G0 F1944 X38.179 Y34.22
G0 X38.572 Y33.748
G0 F4320 X38.92 Y33.893
G1 F2400 E21.7703
G1 F2160 X39.367 Y33.506 E21.79292
G1 X39.862 Y33.183 E21.81554
G1 X40.396 Y32.929 E21.83817
G1 X40.96 Y32.75 E21.86082
G1 X41.542 Y32.649 E21.88342
G1 X42 Y32.625 E21.90098
G1 X78 Y32.625 E23.27869
G1 X78.59 Y32.665 E23.30133
G1 X79.169 Y32.784 E23.32395
G1 X79.727 Y32.98 E23.34658
G1 X80.253 Y33.25 E23.36921
G1 X80.738 Y33.588 E23.39183
G1 X81.173 Y33.988 E23.41445
G1 X81.55 Y34.444 E23.43709
G1 X81.863 Y34.946 E23.45973
G1 X82.104 Y35.485 E23.48233
G1 X82.271 Y36.053 E23.50498
G1 X82.36 Y36.637 E23.52759
G1 X82.374 Y37.095 E23.54513
G1 X81.374 Y83.095 E25.30596
G1 X81.321 Y83.684 E25.32859
G1 X81.19 Y84.26 E25.3512
G1 X80.981 Y84.814 E25.37386
G1 X80.7 Y85.334 E25.39648
G1 X80.352 Y85.812 E25.41911
G1 X79.942 Y86.238 E25.44173
G1 X79.479 Y86.605 E25.46434
G1 X78.97 Y86.906 E25.48697
G1 X78.425 Y87.136 E25.50961
G1 X77.854 Y87.291 E25.53225
G1 X77 Y87.375 E25.5651
G1 X74 Y87.375 E25.6799
G1 X73.41 Y87.335 E25.70254
G1 X72.831 Y87.216 E25.72516
G1 X72.273 Y87.02 E25.74779
G1 X71.747 Y86.75 E25.77042
G1 X71.262 Y86.412 E25.79304
G1 X70.827 Y86.012 E25.81566
G1 X70.45 Y85.556 E25.8383
G1 X70.087 Y84.957 E25.86511
G1 X66.087 Y76.957 E26.2074
G1 X65.859 Y76.411 E26.23005
G1 X65.706 Y75.84 E26.25267
G1 X65.632 Y75.253 E26.27531
G1 X65.638 Y74.662 E26.29793
G1 X65.724 Y74.077 E26.32056
G1 X65.887 Y73.509 E26.34317
G1 X66.126 Y72.968 E26.36581
G1 X66.435 Y72.464 E26.38843
G1 X66.81 Y72.006 E26.41109
G1 X67.242 Y71.603 E26.43369
G1 X67.726 Y71.263 E26.45633
G1 X68.25 Y70.99 E26.47894
G1 X68.807 Y70.791 E26.50158
G1 X69.385 Y70.668 E26.52419
G1 X69.769 Y70.641 E26.53893
G1 X70.506 Y43.375 E27.58278
G1 X49.494 Y43.375 E28.3869
G1 X50.231 Y70.641 E29.43075
G1 X50.59 Y70.665 E29.44452
G1 X51.169 Y70.784 E29.46714
G1 X51.727 Y70.98 E29.48978
G1 X52.253 Y71.25 E29.5124
G1 X52.738 Y71.588 E29.53503
G1 X53.173 Y71.988 E29.55764
G1 X53.55 Y72.444 E29.58029
G1 X53.863 Y72.946 E29.60293
G1 X54.104 Y73.485 E29.62552
G1 X54.271 Y74.053 E29.64818
G1 X54.36 Y74.637 E29.67079
G1 X54.369 Y75.228 E29.69341
G1 X54.298 Y75.815 E29.71604
G1 X54.149 Y76.387 E29.73866
G1 X53.913 Y76.957 E29.76227
G1 X49.913 Y84.957 E30.10456
G1 X49.614 Y85.466 E30.12715
G1 X49.248 Y85.931 E30.1498
G1 X48.823 Y86.342 E30.17243
G1 X48.347 Y86.692 E30.19504
G1 X47.827 Y86.975 E30.2177
G1 X47.275 Y87.185 E30.2403
G1 X46.699 Y87.319 E30.26293
G1 X46 Y87.375 E30.28977
G1 X43 Y87.375 E30.40458
G1 X42.41 Y87.335 E30.42721
G1 X41.831 Y87.216 E30.44983
G1 X41.273 Y87.02 E30.47246
G1 X40.747 Y86.75 E30.49509
G1 X40.262 Y86.412 E30.51771
G1 X39.827 Y86.012 E30.54033
G1 X39.45 Y85.556 E30.56297
G1 X39.137 Y85.054 E30.58561
G1 X38.896 Y84.515 E30.60821
G1 X38.729 Y83.947 E30.63086
G1 X38.626 Y83.095 E30.66371
G1 X37.802 Y45.171 E32.1154
G1 X37.626 Y37.095 E32.42454
G1 X37.653 Y36.504 E32.44718
G1 X37.76 Y35.923 E32.46979
G1 X37.944 Y35.361 E32.49242
G1 X38.202 Y34.829 E32.51505
G1 X38.472 Y34.422 E32.53374
G0 F1944 X38.529 Y34.337
G0 X38.92 Y33.893
G0 F4320 X38.879 Y34.459
G1 F2400 E32.5603
G1 F2160 X39.267 Y34.045 E32.58201
G1 X39.709 Y33.69 E32.60371
G1 X40.197 Y33.401 E32.62542
G1 X40.721 Y33.184 E32.64712
G1 X41.27 Y33.042 E32.66882
G1 X42 Y32.975 E32.69688
G1 X78 Y32.975 E34.07459
G1 X78.566 Y33.015 E34.09631
G1 X79.12 Y33.134 E34.11799
G1 X79.652 Y33.33 E34.13969
G1 X80.152 Y33.598 E34.1614
G1 X80.608 Y33.935 E34.1831
G1 X81.013 Y34.332 E34.20481
G1 X81.359 Y34.782 E34.22653
G1 X81.637 Y35.276 E34.24822
G1 X81.843 Y35.804 E34.26991
G1 X81.973 Y36.356 E34.29162
G1 X82.024 Y37.087 E34.31966
G1 X81.024 Y83.087 E36.08049
G1 X80.972 Y83.652 E36.10221
G1 X80.841 Y84.204 E36.12392
G1 X80.633 Y84.732 E36.14564
G1 X80.354 Y85.225 E36.16731
G1 X80.008 Y85.675 E36.18904
G1 X79.602 Y86.071 E36.21074
G1 X79.145 Y86.406 E36.23243
G1 X78.645 Y86.674 E36.25414
G1 X78.112 Y86.868 E36.27584
G1 X77.557 Y86.986 E36.29756
G1 X77 Y87.025 E36.31893
G1 X74 Y87.025 E36.43374
G1 X73.434 Y86.985 E36.45545
G1 X72.88 Y86.866 E36.47714
G1 X72.348 Y86.67 E36.49884
G1 X71.848 Y86.402 E36.52055
G1 X71.392 Y86.065 E36.54225
G1 X70.987 Y85.668 E36.56395
G1 X70.641 Y85.218 E36.58567
G1 X70.4 Y84.8 E36.60414
G1 X66.4 Y76.8 E36.94643
G1 X66.183 Y76.276 E36.96814
G1 X66.041 Y75.727 E36.98984
G1 X65.978 Y75.163 E37.01156
G1 X65.995 Y74.597 E37.03323
G1 X66.092 Y74.038 E37.05494
G1 X66.266 Y73.498 E37.07665
G1 X66.514 Y72.988 E37.09836
G1 X66.831 Y72.518 E37.12005
G1 X67.212 Y72.097 E37.14178
G1 X67.647 Y71.734 E37.16347
G1 X68.129 Y71.436 E37.18515
G1 X68.649 Y71.209 E37.20687
G1 X69.195 Y71.056 E37.22857
G1 X70 Y70.975 E37.25953
G1 X70.109 Y70.975 E37.2637
G1 X70.864 Y43.025 E38.33374
G1 X49.136 Y43.025 E39.16527
G1 X49.891 Y70.975 E40.2353
G1 X50 Y70.975 E40.23947
G1 X50.566 Y71.015 E40.26119
G1 X51.12 Y71.134 E40.28287
G1 X51.652 Y71.33 E40.30457
G1 X52.152 Y71.598 E40.32628
G1 X52.608 Y71.935 E40.34798
G1 X53.013 Y72.332 E40.36968
G1 X53.359 Y72.782 E40.39141
G1 X53.637 Y73.276 E40.4131
G1 X53.843 Y73.804 E40.43479
G1 X53.973 Y74.356 E40.45649
G1 X54.024 Y74.921 E40.4782
G1 X53.995 Y75.487 E40.49989
G1 X53.887 Y76.044 E40.52161
G1 X53.6 Y76.8 E40.55255
G1 X49.6 Y84.8 E40.89485
G1 X49.311 Y85.288 E40.91655
G1 X48.957 Y85.731 E40.93826
G1 X48.544 Y86.119 E40.95994
G1 X48.08 Y86.446 E40.98167
G1 X47.575 Y86.704 E41.00337
G1 X47.039 Y86.889 E41.02507
G1 X46.482 Y86.996 E41.04678
G1 X46 Y87.025 E41.06525
G1 X43 Y87.025 E41.18006
G1 X42.434 Y86.985 E41.20178
G1 X41.88 Y86.866 E41.22346
G1 X41.348 Y86.67 E41.24516
G1 X40.848 Y86.402 E41.26687
G1 X40.392 Y86.065 E41.28857
G1 X39.987 Y85.668 E41.31028
G1 X39.641 Y85.218 E41.332
G1 X39.363 Y84.724 E41.35369
G1 X39.157 Y84.196 E41.37538
G1 X39.027 Y83.644 E41.39709
G1 X38.976 Y83.087 E41.41849
G1 X38.152 Y45.163 E42.87018
G1 X37.976 Y37.087 E43.17932
G1 X38.004 Y36.521 E43.20101
G1 X38.111 Y35.964 E43.22272
G1 X38.295 Y35.428 E43.24441
G1 X38.496 Y35.036 E43.26126
G0 F1944 X38.553 Y34.923
G0 X38.879 Y34.459
G0 F4320 X39.228 Y34.587
G1 F2400 E43.28782
G1 F2160 X39.613 Y34.206 E43.30855
G1 X40.049 Y33.885 E43.32927
G1 X40.529 Y33.632 E43.35004
G1 X41.04 Y33.453 E43.37076
G1 X41.572 Y33.35 E43.3915
G1 X42 Y33.325 E43.4079
G1 X78 Y33.325 E44.78562
G1 X78.54 Y33.365 E44.80634
G1 X79.069 Y33.484 E44.8271
G1 X79.574 Y33.679 E44.84781
G1 X80.046 Y33.947 E44.86858
G1 X80.472 Y34.281 E44.8893
G1 X80.845 Y34.674 E44.91004
G1 X81.156 Y35.118 E44.93078
G1 X81.399 Y35.602 E44.95151
G1 X81.567 Y36.117 E44.97224
G1 X81.658 Y36.651 E44.99297
G1 X81.674 Y37.08 E45.0094
G1 X80.674 Y83.08 E46.77023
G1 X80.622 Y83.619 E46.79096
G1 X80.492 Y84.145 E46.81169
G1 X80.286 Y84.646 E46.83242
G1 X80.008 Y85.111 E46.85316
G1 X79.665 Y85.531 E46.87391
G1 X79.264 Y85.895 E46.89463
G1 X78.813 Y86.196 E46.91538
G1 X78.324 Y86.428 E46.9361
G1 X77.805 Y86.586 E46.95686
G1 X77 Y86.675 E46.98786
G1 X74 Y86.675 E47.10267
G1 X73.46 Y86.635 E47.12339
G1 X72.931 Y86.516 E47.14414
G1 X72.426 Y86.321 E47.16486
G1 X71.954 Y86.053 E47.18563
G1 X71.528 Y85.719 E47.20634
G1 X71.155 Y85.326 E47.22708
G1 X70.844 Y84.882 E47.24783
G1 X70.713 Y84.644 E47.25822
G1 X66.713 Y76.644 E47.60052
G1 X66.507 Y76.142 E47.62128
G1 X66.377 Y75.616 E47.64202
G1 X66.326 Y75.077 E47.66274
G1 X66.354 Y74.536 E47.68347
G1 X66.462 Y74.005 E47.70421
G1 X66.647 Y73.495 E47.72497
G1 X66.905 Y73.019 E47.74569
G1 X67.23 Y72.585 E47.76644
G1 X67.615 Y72.204 E47.78717
G1 X68.052 Y71.884 E47.8079
G1 X68.531 Y71.631 E47.82863
G1 X69.043 Y71.452 E47.84939
G1 X69.575 Y71.35 E47.87012
G1 X70 Y71.325 E47.88641
G1 X70.45 Y71.325 E47.90363
G1 X71.224 Y42.675 E49.00047
G1 X48.776 Y42.675 E49.85955
G1 X49.55 Y71.325 E50.95638
G1 X50 Y71.325 E50.97361
G1 X50.54 Y71.365 E50.99433
G1 X51.069 Y71.484 E51.01508
G1 X51.574 Y71.679 E51.0358
G1 X52.046 Y71.947 E51.05657
G1 X52.472 Y72.281 E51.07728
G1 X52.845 Y72.674 E51.09802
G1 X53.156 Y73.118 E51.11877
G1 X53.399 Y73.602 E51.13949
G1 X53.567 Y74.117 E51.16022
G1 X53.658 Y74.651 E51.18095
G1 X53.67 Y75.193 E51.2017
G1 X53.602 Y75.731 E51.22245
G1 X53.455 Y76.252 E51.24317
G1 X53.287 Y76.644 E51.25949
G1 X49.287 Y84.644 E51.60179
G1 X49.01 Y85.109 E51.6225
G1 X48.667 Y85.529 E51.64326
G1 X48.266 Y85.893 E51.66398
G1 X47.816 Y86.195 E51.68472
G1 X47.326 Y86.427 E51.70547
G1 X46.808 Y86.585 E51.72619
G1 X46.272 Y86.665 E51.74693
G1 X46 Y86.675 E51.75735
G1 X43 Y86.675 E51.87216
G1 X42.46 Y86.635 E51.89288
G1 X41.931 Y86.516 E51.91363
G1 X41.426 Y86.321 E51.93435
G1 X40.954 Y86.053 E51.95512
G1 X40.528 Y85.719 E51.97584
G1 X40.155 Y85.326 E51.99658
G1 X39.844 Y84.882 E52.01732
G1 X39.601 Y84.398 E52.03805
G1 X39.433 Y83.883 E52.05878
G1 X39.326 Y83.08 E52.08978
G1 X38.502 Y45.156 E53.54147
G1 X38.326 Y37.08 E53.85061
G1 X38.354 Y36.539 E53.87135
G1 X38.462 Y36.008 E53.89208
G1 X38.646 Y35.498 E53.91283
G1 X38.831 Y35.155 E53.92775
G0 F1944 X38.903 Y35.021
G0 X39.228 Y34.587
G0 F4320 X39.576 Y34.724
G1 F2400 E53.95431
G1 F2160 X39.957 Y34.377 E53.97403
G1 X40.387 Y34.092 E53.99377
G1 X40.856 Y33.878 E54.0135
G1 X41.352 Y33.739 E54.03321
G1 X42 Y33.675 E54.05813
G1 X78 Y33.675 E55.43585
G1 X78.514 Y33.715 E55.45558
G1 X79.015 Y33.834 E55.47529
