;FLAVOR:Marlin
;TIME:3120
;Filament used: 2.49016m
;Layer height: 0.21875
;Generated with Cura_SteamEngine 3.6.0
M140 S65
M105
M190 S65
M104 S215
M105
M109 S215
M82 ;absolute extrusion mode
G21;(metric values)
G90;(absolute positioning)
M82;(set extruder to absolute mode)
M107;(start with the fan off)
G28;(Home the printer)
G92 E0;(Reset the extruder to 0)
G0 Z5 E5 F500;(Move up and prime the nozzle)
G0 X-1 Z0;(Move outside the printable area)
G1 Y60 E8 F500;(Draw a priming/wiping line to the rear)
G1 X-1;(Move a little closer to the print area)
G1 Y10 E16 F500;(draw more priming/wiping)
G1 E15 F250;(Small retract)
G92 E0;(Zero the extruder)
G92 E0
G1 F2400 E-2.5
;LAYER_COUNT:284
;LAYER:0
M107
G0 F4320 X37.278 Y50.717 Z0.263
;TYPE:SKIRT
G1 F2400 E0
G1 F2160 X37.835 Y50.41 E0.02434
G1 X38.427 Y50.175 E0.04872
G1 X39.044 Y50.016 E0.0731
G1 X39.676 Y49.935 E0.09748
G1 X40 Y49.925 E0.10989
G1 X80 Y49.925 E1.64069
G1 X80.636 Y49.965 E1.66507
G1 X81.261 Y50.084 E1.68942
G1 X81.867 Y50.281 E1.71381
G1 X82.443 Y50.552 E1.73817
G1 X82.981 Y50.893 E1.76255
G1 X83.472 Y51.299 E1.78693
G1 X83.908 Y51.763 E1.8113
G1 X84.283 Y52.278 E1.83568
G1 X84.59 Y52.835 E1.86002
G1 X84.825 Y53.427 E1.88439
G1 X84.984 Y54.044 E1.90878
G1 X85.065 Y54.676 E1.93316
G1 X85.075 Y55 E1.94557
G1 X85.075 Y65 E2.32827
G1 X85.035 Y65.636 E2.35265
G1 X84.916 Y66.261 E2.377
G1 X84.719 Y66.867 E2.40139
G1 X84.448 Y67.443 E2.42575
G1 X84.107 Y67.981 E2.45013
G1 X83.701 Y68.472 E2.47451
G1 X83.237 Y68.908 E2.49887
G1 X82.722 Y69.283 E2.52325
G1 X82.165 Y69.59 E2.54759
G1 X81.573 Y69.825 E2.57197
G1 X80.956 Y69.984 E2.59635
G1 X80.324 Y70.065 E2.62074
G1 X80 Y70.075 E2.63314
G1 X40 Y70.075 E4.16394
G1 X39.364 Y70.035 E4.18833
G1 X38.739 Y69.916 E4.21268
G1 X38.133 Y69.719 E4.23706
G1 X37.557 Y69.448 E4.26143
G1 X37.019 Y69.107 E4.2858
G1 X36.528 Y68.701 E4.31018
G1 X36.092 Y68.237 E4.33455
G1 X35.717 Y67.722 E4.35893
G1 X35.41 Y67.165 E4.38327
G1 X35.175 Y66.573 E4.40765
G1 X35.016 Y65.956 E4.43203
G1 X34.935 Y65.324 E4.45642
G1 X34.925 Y65 E4.46882
G1 X34.925 Y55 E4.85152
G1 X34.965 Y54.364 E4.87591
G1 X35.084 Y53.739 E4.90026
G1 X35.281 Y53.133 E4.92464
G1 X35.552 Y52.557 E4.949
G1 X35.893 Y52.019 E4.97338
G1 X36.299 Y51.528 E4.99776
G1 X36.722 Y51.131 E5.01996
G0 F1944 X36.763 Y51.092
G0 X37.278 Y50.717
G0 F4320 X37.613 Y50.922
G1 F2400 E5.04652
G1 F2160 X38.162 Y50.647 E5.07002
G1 X38.743 Y50.445 E5.09356
G1 X39.344 Y50.321 E5.11705
G1 X40 Y50.275 E5.14221
G1 X80 Y50.275 E6.67301
G1 X80.613 Y50.315 E6.69652
G1 X81.216 Y50.434 E6.72004
G1 X81.798 Y50.631 E6.74356
G1 X82.35 Y50.901 E6.76707
G1 X82.862 Y51.241 E6.7906
G1 X83.326 Y51.644 E6.81411
G1 X83.733 Y52.104 E6.83762
G1 X84.078 Y52.613 E6.86115
G1 X84.353 Y53.162 E6.88465
G1 X84.555 Y53.743 E6.90819
G1 X84.679 Y54.344 E6.93168
G1 X84.725 Y55 E6.95684
G1 X84.725 Y65 E7.33954
G1 X84.685 Y65.613 E7.36305
G1 X84.566 Y66.216 E7.38657
G1 X84.369 Y66.798 E7.41009
G1 X84.099 Y67.35 E7.43361
G1 X83.759 Y67.862 E7.45713
G1 X83.356 Y68.326 E7.48065
G1 X82.896 Y68.733 E7.50415
G1 X82.387 Y69.078 E7.52768
G1 X81.838 Y69.353 E7.55118
G1 X81.257 Y69.555 E7.57472
G1 X80.656 Y69.679 E7.59821
G1 X80 Y69.725 E7.62337
G1 X40 Y69.725 E9.15417
G1 X39.387 Y69.685 E9.17768
G1 X38.784 Y69.566 E9.2012
G1 X38.202 Y69.369 E9.22472
G1 X37.65 Y69.099 E9.24823
G1 X37.138 Y68.759 E9.27176
G1 X36.674 Y68.356 E9.29528
G1 X36.267 Y67.896 E9.31878
G1 X35.922 Y67.387 E9.34231
G1 X35.647 Y66.838 E9.36581
G1 X35.445 Y66.257 E9.38935
G1 X35.321 Y65.656 E9.41284
G1 X35.275 Y65 E9.438
G1 X35.275 Y55 E9.8207
G1 X35.315 Y54.387 E9.84421
G1 X35.434 Y53.784 E9.86773
G1 X35.631 Y53.202 E9.89125
G1 X35.901 Y52.65 E9.91477
G1 X36.241 Y52.138 E9.93829
G1 X36.644 Y51.674 E9.96181
G1 X37.045 Y51.32 E9.98228
G0 F1944 X37.104 Y51.267
G0 X37.613 Y50.922
G0 F4320 X37.444 Y51.45
G1 F2400 E10.00884
G1 F2160 X37.946 Y51.137 E10.03148
G1 X38.485 Y50.896 E10.05407
G1 X39.053 Y50.729 E10.07673
G1 X39.637 Y50.64 E10.09934
G1 X40 Y50.625 E10.11324
G1 X80 Y50.625 E11.64404
G1 X80.59 Y50.665 E11.66667
G1 X81.169 Y50.784 E11.68929
G1 X81.727 Y50.98 E11.71192
G1 X82.253 Y51.25 E11.73455
G1 X82.738 Y51.588 E11.75718
G1 X83.173 Y51.988 E11.77979
G1 X83.55 Y52.444 E11.80243
G1 X83.863 Y52.946 E11.82507
G1 X84.104 Y53.485 E11.84767
G1 X84.271 Y54.053 E11.87033
G1 X84.36 Y54.637 E11.89293
G1 X84.375 Y55 E11.90684
G1 X84.375 Y65 E12.28954
G1 X84.335 Y65.59 E12.31217
G1 X84.216 Y66.169 E12.33479
G1 X84.02 Y66.727 E12.35742
G1 X83.75 Y67.253 E12.38005
G1 X83.412 Y67.738 E12.40267
G1 X83.012 Y68.173 E12.42529
G1 X82.556 Y68.55 E12.44793
G1 X82.054 Y68.863 E12.47057
G1 X81.515 Y69.104 E12.49317
G1 X80.947 Y69.271 E12.51583
G1 X80.363 Y69.36 E12.53843
G1 X80 Y69.375 E12.55234
G1 X40 Y69.375 E14.08314
G1 X39.41 Y69.335 E14.10577
G1 X38.831 Y69.216 E14.12839
G1 X38.273 Y69.02 E14.15102
G1 X37.747 Y68.75 E14.17365
G1 X37.262 Y68.412 E14.19627
G1 X36.827 Y68.012 E14.21889
G1 X36.45 Y67.556 E14.24153
G1 X36.137 Y67.054 E14.26417
G1 X35.896 Y66.515 E14.28677
G1 X35.729 Y65.947 E14.30942
G1 X35.64 Y65.363 E14.33203
G1 X35.625 Y65 E14.34594
G1 X35.625 Y55 E14.72863
G1 X35.665 Y54.41 E14.75127
G1 X35.784 Y53.831 E14.77389
G1 X35.98 Y53.273 E14.79652
G1 X36.25 Y52.747 E14.81915
G1 X36.588 Y52.262 E14.84177
G1 X36.919 Y51.902 E14.86049
G0 F1944 X36.988 Y51.827
G0 X37.444 Y51.45
G0 F4320 X37.782 Y51.641
G1 F2400 E14.88705
G1 F2160 X38.276 Y51.363 E14.90874
G1 X38.804 Y51.157 E14.93043
G1 X39.356 Y51.027 E14.95213
G1 X40 Y50.975 E14.97686
G1 X80 Y50.975 E16.50766
G1 X80.566 Y51.015 E16.52937
G1 X81.12 Y51.134 E16.55106
G1 X81.652 Y51.33 E16.57275
G1 X82.152 Y51.598 E16.59446
G1 X82.608 Y51.935 E16.61616
G1 X83.013 Y52.332 E16.63787
G1 X83.359 Y52.782 E16.65959
G1 X83.637 Y53.276 E16.68129
G1 X83.843 Y53.804 E16.70297
G1 X83.973 Y54.356 E16.72468
G1 X84.025 Y55 E16.7494
G1 X84.025 Y65 E17.1321
G1 X83.985 Y65.566 E17.15382
G1 X83.866 Y66.12 E17.1755
G1 X83.67 Y66.652 E17.1972
G1 X83.402 Y67.152 E17.21891
G1 X83.065 Y67.608 E17.24061
G1 X82.668 Y68.013 E17.26231
G1 X82.218 Y68.359 E17.28404
G1 X81.724 Y68.637 E17.30573
G1 X81.196 Y68.843 E17.32742
G1 X80.644 Y68.973 E17.34912
G1 X80 Y69.025 E17.37385
G1 X40 Y69.025 E18.90465
G1 X39.434 Y68.985 E18.92636
G1 X38.88 Y68.866 E18.94805
G1 X38.348 Y68.67 E18.96975
G1 X37.848 Y68.402 E18.99146
G1 X37.392 Y68.065 E19.01316
G1 X36.987 Y67.668 E19.03486
G1 X36.641 Y67.218 E19.05658
G1 X36.363 Y66.724 E19.07828
G1 X36.157 Y66.196 E19.09997
G1 X36.027 Y65.644 E19.12167
G1 X35.975 Y65 E19.1464
G1 X35.975 Y55 E19.52909
G1 X36.015 Y54.434 E19.55081
G1 X36.134 Y53.88 E19.57249
G1 X36.33 Y53.348 E19.59419
G1 X36.598 Y52.848 E19.6159
G1 X36.935 Y52.392 E19.6376
G1 X37.244 Y52.077 E19.65449
G0 F1944 X37.332 Y51.987
G0 X37.782 Y51.641
G0 F4320 X38.118 Y51.844
G1 F2400 E19.68105
G1 F2160 X38.602 Y51.601 E19.70177
G1 X39.117 Y51.433 E19.72251
G1 X39.651 Y51.342 E19.74324
G1 X40 Y51.325 E19.75661
G1 X80 Y51.325 E21.28741
G1 X80.54 Y51.365 E21.30813
G1 X81.069 Y51.484 E21.32888
G1 X81.574 Y51.679 E21.3496
G1 X82.046 Y51.947 E21.37037
G1 X82.472 Y52.281 E21.39108
G1 X82.845 Y52.674 E21.41182
G1 X83.156 Y53.118 E21.43257
G1 X83.399 Y53.602 E21.45329
G1 X83.567 Y54.117 E21.47402
G1 X83.658 Y54.651 E21.49475
G1 X83.675 Y55 E21.50813
G1 X83.675 Y65 E21.89083
G1 X83.635 Y65.54 E21.91155
G1 X83.516 Y66.069 E21.9323
G1 X83.321 Y66.574 E21.95302
G1 X83.053 Y67.046 E21.97379
G1 X82.719 Y67.472 E21.9945
G1 X82.326 Y67.845 E22.01524
G1 X81.882 Y68.156 E22.03599
G1 X81.398 Y68.399 E22.05671
G1 X80.883 Y68.567 E22.07744
G1 X80.349 Y68.658 E22.09817
G1 X80 Y68.675 E22.11155
G1 X40 Y68.675 E23.64234
G1 X39.46 Y68.635 E23.66307
G1 X38.931 Y68.516 E23.68382
G1 X38.426 Y68.321 E23.70453
G1 X37.954 Y68.053 E23.72531
G1 X37.528 Y67.719 E23.74602
G1 X37.155 Y67.326 E23.76676
G1 X36.844 Y66.882 E23.7875
G1 X36.601 Y66.398 E23.80823
G1 X36.433 Y65.883 E23.82896
G1 X36.342 Y65.349 E23.84969
G1 X36.325 Y65 E23.86306
G1 X36.325 Y55 E24.24576
G1 X36.365 Y54.46 E24.26649
G1 X36.484 Y53.931 E24.28724
G1 X36.679 Y53.426 E24.30795
G1 X36.947 Y52.954 E24.32873
G1 X37.281 Y52.528 E24.34944
G1 X37.564 Y52.259 E24.36438
G0 F1944 X37.674 Y52.155
G0 X38.118 Y51.844
G0 F4320 X38.015 Y52.333
G1 F2400 E24.39094
G1 F2160 X38.451 Y52.058 E24.41067
G1 X38.924 Y51.854 E24.43038
G1 X39.423 Y51.725 E24.45011
G1 X40 Y51.675 E24.47227
G1 X80 Y51.675 E26.00307
G1 X80.514 Y51.715 E26.0228
G1 X81.015 Y51.834 E26.04251
G1 X81.492 Y52.029 E26.06223
G1 X81.934 Y52.295 E26.08197
G1 X82.328 Y52.626 E26.10166
G1 X82.667 Y53.015 E26.12141
G1 X82.942 Y53.451 E26.14114
G1 X83.146 Y53.924 E26.16085
G1 X83.275 Y54.423 E26.18058
G1 X83.325 Y55 E26.20274
G1 X83.325 Y65 E26.58544
G1 X83.285 Y65.514 E26.60517
G1 X83.166 Y66.015 E26.62488
G1 X82.971 Y66.492 E26.6446
G1 X82.705 Y66.934 E26.66434
G1 X82.374 Y67.328 E26.68403
G1 X81.985 Y67.667 E26.70378
G1 X81.549 Y67.942 E26.72351
G1 X81.076 Y68.146 E26.74322
G1 X80.577 Y68.275 E26.76295
G1 X80 Y68.325 E26.78511
G1 X40 Y68.325 E28.31591
G1 X39.486 Y68.285 E28.33564
G1 X38.985 Y68.166 E28.35535
G1 X38.508 Y67.971 E28.37507
G1 X38.066 Y67.705 E28.39481
G1 X37.672 Y67.374 E28.4145
G1 X37.333 Y66.985 E28.43425
G1 X37.058 Y66.549 E28.45398
G1 X36.854 Y66.076 E28.47369
G1 X36.725 Y65.577 E28.49341
G1 X36.675 Y65 E28.51558
G1 X36.675 Y55 E28.89828
G1 X36.715 Y54.486 E28.91801
G1 X36.834 Y53.985 E28.93772
G1 X37.029 Y53.508 E28.95744
G1 X37.295 Y53.066 E28.97718
G1 X37.511 Y52.809 E28.99003
G0 F1944 X37.626 Y52.672
G0 X38.015 Y52.333
G0 F4320 X38.353 Y52.522
G1 F2400 E29.01659
G1 F2160 X38.78 Y52.287 E29.03524
G1 X39.239 Y52.124 E29.05388
G1 X39.719 Y52.038 E29.07254
G1 X40 Y52.025 E29.08331
G1 X80 Y52.025 E30.6141
G1 X80.486 Y52.065 E30.63277
G1 X80.959 Y52.184 E30.65143
G1 X81.406 Y52.378 E30.67008
G1 X81.815 Y52.643 E30.68873
G1 X82.175 Y52.971 E30.70737
G1 X82.478 Y53.353 E30.72603
G1 X82.713 Y53.78 E30.74468
G1 X82.876 Y54.239 E30.76332
G1 X82.962 Y54.719 E30.78198
G1 X82.975 Y55 E30.79275
G1 X82.975 Y65 E31.17545
G1 X82.935 Y65.486 E31.19411
G1 X82.816 Y65.959 E31.21278
G1 X82.622 Y66.406 E31.23143
G1 X82.357 Y66.815 E31.25008
G1 X82.029 Y67.175 E31.26871
G1 X81.647 Y67.478 E31.28737
G1 X81.22 Y67.713 E31.30603
G1 X80.761 Y67.876 E31.32467
G1 X80.281 Y67.962 E31.34333
G1 X80 Y67.975 E31.35409
G1 X40 Y67.975 E32.88489
G1 X39.514 Y67.935 E32.90355
G1 X39.041 Y67.816 E32.92222
G1 X38.594 Y67.622 E32.94087
G1 X38.185 Y67.357 E32.95952
G1 X37.825 Y67.029 E32.97816
G1 X37.522 Y66.647 E32.99682
G1 X37.287 Y66.22 E33.01547
G1 X37.124 Y65.761 E33.03411
G1 X37.038 Y65.281 E33.05277
G1 X37.025 Y65 E33.06354
G1 X37.025 Y55 E33.44624
G1 X37.065 Y54.514 E33.4649
G1 X37.184 Y54.041 E33.48356
G1 X37.378 Y53.594 E33.50221
G1 X37.643 Y53.185 E33.52086
G1 X37.832 Y52.978 E33.53159
G0 F1944 X37.971 Y52.825
G0 X38.353 Y52.522
G0 F4320 X38.689 Y52.726
G1 F2400 E33.55815
G1 F2160 X39.104 Y52.533 E33.57567
G1 X39.546 Y52.415 E33.59317
G1 X40 Y52.375 E33.61062
G1 X80 Y52.375 E35.14141
G1 X80.456 Y52.415 E35.15893
G1 X80.898 Y52.533 E35.17644
G1 X81.313 Y52.727 E35.19397
G1 X81.688 Y52.99 E35.2115
G1 X82.012 Y53.314 E35.22903
G1 X82.274 Y53.689 E35.24654
G1 X82.467 Y54.104 E35.26406
G1 X82.585 Y54.546 E35.28156
G1 X82.625 Y55 E35.29901
G1 X82.625 Y65 E35.68171
G1 X82.585 Y65.456 E35.69922
G1 X82.467 Y65.898 E35.71673
G1 X82.273 Y66.313 E35.73426
G1 X82.01 Y66.688 E35.75179
G1 X81.686 Y67.012 E35.76933
G1 X81.311 Y67.274 E35.78684
G1 X80.896 Y67.467 E35.80435
G1 X80.454 Y67.585 E35.82186
G1 X80 Y67.625 E35.8393
G1 X40 Y67.625 E37.3701
G1 X39.544 Y67.585 E37.38762
G1 X39.102 Y67.467 E37.40512
G1 X38.687 Y67.273 E37.42266
G1 X38.312 Y67.01 E37.44018
G1 X37.988 Y66.686 E37.45772
G1 X37.726 Y66.311 E37.47523
G1 X37.533 Y65.896 E37.49274
G1 X37.415 Y65.454 E37.51025
G1 X37.375 Y65 E37.52769
G1 X37.375 Y55 E37.91039
G1 X37.415 Y54.544 E37.92791
G1 X37.533 Y54.102 E37.94542
G1 X37.727 Y53.687 E37.96295
G1 X37.99 Y53.312 E37.98048
G1 X38.147 Y53.155 E37.98897
G0 F1944 X38.314 Y52.988
G0 X38.689 Y52.726
G0 F4320 X38.654 Y53.166
G1 F2400 E38.01553
G1 F2160 X39.02 Y52.947 E38.03186
G1 X39.42 Y52.8 E38.04817
G1 X40 Y52.725 E38.07055
G1 X80 Y52.725 E39.60134
G1 X80.424 Y52.765 E39.61764
G1 X80.834 Y52.883 E39.63397
G1 X81.214 Y53.076 E39.65028
G1 X81.551 Y53.336 E39.66657
G1 X81.834 Y53.654 E39.68286
G1 X82.053 Y54.02 E39.69919
G1 X82.2 Y54.42 E39.71549
G1 X82.275 Y55 E39.73788
G1 X82.275 Y65 E40.12057
G1 X82.235 Y65.424 E40.13687
G1 X82.117 Y65.834 E40.1532
G1 X81.924 Y66.214 E40.16951
G1 X81.664 Y66.551 E40.1858
G1 X81.346 Y66.834 E40.20209
G1 X80.98 Y67.053 E40.21841
G1 X80.58 Y67.2 E40.23472
G1 X80 Y67.275 E40.25711
G1 X40 Y67.275 E41.7879
G1 X39.576 Y67.235 E41.8042
G1 X39.166 Y67.117 E41.82053
G1 X38.786 Y66.924 E41.83684
G1 X38.449 Y66.664 E41.85313
G1 X38.166 Y66.346 E41.86942
G1 X37.947 Y65.98 E41.88574
G1 X37.8 Y65.58 E41.90205
G1 X37.725 Y65 E41.92443
G1 X37.725 Y55 E42.30713
G1 X37.765 Y54.576 E42.32343
G1 X37.883 Y54.166 E42.33976
G1 X38.076 Y53.786 E42.35607
G1 X38.172 Y53.662 E42.36207
G0 F1944 X38.336 Y53.449
G0 X38.654 Y53.166
G0 F4320 X38.992 Y53.36
G1 F2400 E42.38863
G1 F2160 X39.345 Y53.19 E42.40362
G1 X39.725 Y53.095 E42.41861
G1 X40 Y53.075 E42.42917
G1 X80 Y53.075 E43.95996
G1 X80.39 Y53.115 E43.97497
G1 X80.764 Y53.233 E43.98998
G1 X81.106 Y53.424 E44.00497
G1 X81.402 Y53.681 E44.01997
G1 X81.64 Y53.992 E44.03496
G1 X81.81 Y54.345 E44.04995
G1 X81.905 Y54.725 E44.06494
G1 X81.925 Y55 E44.07549
G1 X81.925 Y65 E44.45819
G1 X81.885 Y65.39 E44.4732
G1 X81.767 Y65.764 E44.4882
G1 X81.576 Y66.106 E44.5032
G1 X81.319 Y66.402 E44.5182
G1 X81.008 Y66.64 E44.53318
G1 X80.655 Y66.81 E44.54818
G1 X80.275 Y66.905 E44.56317
G1 X80 Y66.925 E44.57372
G1 X40 Y66.925 E46.10452
G1 X39.61 Y66.885 E46.11952
G1 X39.236 Y66.767 E46.13453
G1 X38.894 Y66.576 E46.14952
G1 X38.598 Y66.319 E46.16452
G1 X38.36 Y66.008 E46.17951
G1 X38.19 Y65.655 E46.19451
G1 X38.095 Y65.275 E46.2095
G1 X38.075 Y65 E46.22005
G1 X38.075 Y55 E46.60275
G1 X38.115 Y54.61 E46.61775
G1 X38.233 Y54.236 E46.63276
G1 X38.424 Y53.894 E46.64775
G1 X38.483 Y53.826 E46.6512
G0 F1944 X38.681 Y53.598
G0 X38.992 Y53.36
G0 F4320 X39.023 Y53.764
G1 F2400 E46.67775
G1 F2160 X39.324 Y53.577 E46.69132
G1 X39.66 Y53.462 E46.70491
G1 X40 Y53.425 E46.718
G1 X80 Y53.425 E48.24879
G1 X80.352 Y53.465 E48.26235
G1 X80.686 Y53.582 E48.27589
G1 X80.986 Y53.772 E48.28948
G1 X81.236 Y54.023 E48.30304
G1 X81.423 Y54.324 E48.3166
G1 X81.538 Y54.66 E48.33019
G1 X81.575 Y55 E48.34328
G1 X81.575 Y65 E48.72598
G1 X81.535 Y65.352 E48.73954
G1 X81.418 Y65.686 E48.75308
G1 X81.228 Y65.986 E48.76667
G1 X80.977 Y66.236 E48.78023
G1 X80.676 Y66.423 E48.79379
G1 X80.34 Y66.538 E48.80738
G1 X80 Y66.575 E48.82047
G1 X40 Y66.575 E50.35127
G1 X39.648 Y66.535 E50.36483
G1 X39.314 Y66.418 E50.37837
G1 X39.014 Y66.228 E50.39196
G1 X38.764 Y65.977 E50.40552
G1 X38.577 Y65.676 E50.41908
G1 X38.462 Y65.34 E50.43267
G1 X38.425 Y65 E50.44576
G1 X38.425 Y55 E50.82846
G1 X38.465 Y54.648 E50.84202
G1 X38.582 Y54.314 E50.85556
G1 X38.591 Y54.301 E50.85617
G0 F1944 X38.772 Y54.014
G0 X39.023 Y53.764
G0 F4320 X39.362 Y53.954
G1 F2400 E50.88273
G1 F2160 X39.647 Y53.827 E50.89467
G1 X40 Y53.775 E50.90832
G1 X80 Y53.775 E52.43912
G1 X80.31 Y53.815 E52.45108
G1 X80.6 Y53.932 E52.46305
G1 X80.85 Y54.118 E52.47497
G1 X81.046 Y54.362 E52.48695
G1 X81.173 Y54.647 E52.49889
G1 X81.225 Y55 E52.51255
G1 X81.225 Y65 E52.89525
G1 X81.185 Y65.31 E52.90721
G1 X81.068 Y65.6 E52.91918
G1 X80.882 Y65.85 E52.9311
G1 X80.638 Y66.046 E52.94308
G1 X80.353 Y66.173 E52.95502
G1 X80 Y66.225 E52.96867
G1 X40 Y66.225 E54.49947
G1 X39.69 Y66.185 E54.51143
G1 X39.4 Y66.068 E54.5234
G1 X39.15 Y65.882 E54.53533
G1 X38.954 Y65.638 E54.5473
G1 X38.827 Y65.353 E54.55924
G1 X38.775 Y65 E54.5729
G1 X38.775 Y55 E54.9556
G1 X38.815 Y54.69 E54.96756
G1 X38.906 Y54.465 E54.97685
G0 F1944 X38.932 Y54.4
G0 X39.118 Y54.15
G0 X39.362 Y53.954
G0 F4320 X39.462 Y54.31
G1 F2400 E55.00341
G1 F2160 X39.692 Y54.181 E55.0135
G1 X40 Y54.125 E55.02548
G1 X80 Y54.125 E56.55628
G1 X80.261 Y54.165 E56.56638
G1 X80.498 Y54.28 E56.57647
