;FLAVOR:Marlin
;TIME:2366
;Filament used: 2.4729m
;Layer height: 0.21875
;Generated with Cura_SteamEngine 3.6.0
M140 S65
M105
M190 S65
M104 S205
M105
M109 S205
M82 ;absolute extrusion mode
G21;(metric values)
G90;(absolute positioning)
M82;(set extruder to absolute mode)
M107;(start with the fan off)
G28;(Home the printer)
G92 E0;(Reset the extruder to 0)
G0 Z5 E5 F500;(Move up and prime the nozzle)
G0 X-1 Z0;(Move outside the printable area)
G1 Y60 E8 F500;(Draw a priming/wiping line to the rear)
G1 X-1;(Move a little closer to the print area)
G1 Y10 E16 F500;(draw more priming/wiping)
G1 E15 F250;(Small retract)
G92 E0;(Zero the extruder)
G92 E0
G1 F2400 E-2.5
;LAYER_COUNT:57
;LAYER:0
M107
G0 F4320 X37.563 Y49.093 Z0.263
;TYPE:SKIRT
G1 F2400 E0
G1 F2160 X38.078 Y48.718 E0.02438
G1 X38.635 Y48.411 E0.04872
G1 X39.227 Y48.176 E0.0731
G1 X39.844 Y48.017 E0.09748
G1 X40.476 Y47.936 E0.12186
G1 X40.8 Y47.926 E0.13427
G1 X51.2 Y47.926 E0.53228
G1 X51.836 Y47.966 E0.55666
G1 X52.461 Y48.085 E0.58101
G1 X53.067 Y48.282 E0.6054
G1 X53.298 Y48.391 E0.61517
G1 X53.358 Y48.367 E0.61765
G1 X53.975 Y48.208 E0.64203
G1 X54.607 Y48.127 E0.66642
G1 X54.931 Y48.117 E0.67882
G1 X65.331 Y48.117 E1.07683
G1 X65.967 Y48.157 E1.10122
G1 X66.592 Y48.276 E1.12556
G1 X66.803 Y48.344 E1.13405
G1 X67.227 Y48.176 E1.1515
G1 X67.844 Y48.017 E1.17589
G1 X68.476 Y47.936 E1.20027
G1 X68.8 Y47.926 E1.21268
G1 X79.2 Y47.926 E1.61068
G1 X79.836 Y47.966 E1.63507
G1 X80.461 Y48.085 E1.65942
G1 X81.067 Y48.282 E1.68381
G1 X81.643 Y48.553 E1.70817
G1 X82.181 Y48.894 E1.73254
G1 X82.672 Y49.3 E1.75693
G1 X83.108 Y49.764 E1.78129
G1 X83.483 Y50.279 E1.80567
G1 X83.79 Y50.836 E1.83001
G1 X84.025 Y51.428 E1.85439
G1 X84.184 Y52.045 E1.87877
G1 X84.265 Y52.677 E1.90316
G1 X84.275 Y53.001 E1.91556
G1 X84.275 Y66.999 E2.45127
G1 X84.235 Y67.635 E2.47565
G1 X84.116 Y68.26 E2.5
G1 X83.919 Y68.866 E2.52439
G1 X83.648 Y69.442 E2.54875
G1 X83.625 Y69.478 E2.55038
G1 X83.818 Y69.684 E2.56119
G1 X84.193 Y70.199 E2.58557
G1 X84.5 Y70.756 E2.60991
G1 X84.735 Y71.348 E2.63428
G1 X84.894 Y71.965 E2.65867
G1 X84.975 Y72.597 E2.68305
G1 X84.985 Y72.921 E2.69546
G1 X84.985 Y86.919 E3.23116
G1 X84.945 Y87.555 E3.25555
G1 X84.826 Y88.18 E3.2799
G1 X84.629 Y88.786 E3.30428
G1 X84.358 Y89.362 E3.32864
G1 X84.017 Y89.9 E3.35302
G1 X83.611 Y90.391 E3.3774
G1 X83.147 Y90.827 E3.40177
G1 X82.632 Y91.202 E3.42615
G1 X82.075 Y91.509 E3.45049
G1 X81.483 Y91.744 E3.47486
G1 X80.866 Y91.903 E3.49925
G1 X80.234 Y91.984 E3.52363
G1 X79.91 Y91.994 E3.53604
G1 X69.51 Y91.994 E3.93405
G1 X68.874 Y91.954 E3.95843
G1 X68.249 Y91.835 E3.98278
G1 X67.643 Y91.638 E4.00717
G1 X67.445 Y91.545 E4.01554
G1 X67.365 Y91.589 E4.01903
G1 X66.773 Y91.824 E4.04341
G1 X66.156 Y91.983 E4.06779
G1 X65.524 Y92.064 E4.09218
G1 X65.2 Y92.074 E4.10458
G1 X54.8 Y92.074 E4.50259
G1 X54.164 Y92.034 E4.52698
G1 X53.539 Y91.915 E4.55133
G1 X53.449 Y91.886 E4.55495
G1 X53.12 Y92.067 E4.56932
G1 X52.528 Y92.302 E4.59369
G1 X51.911 Y92.461 E4.61808
G1 X51.279 Y92.542 E4.64246
G1 X50.955 Y92.552 E4.65487
G1 X40.555 Y92.552 E5.05287
G1 X39.919 Y92.512 E5.07726
G1 X39.294 Y92.393 E5.10161
G1 X38.688 Y92.196 E5.126
G1 X38.112 Y91.925 E5.15036
G1 X37.574 Y91.584 E5.17473
G1 X37.083 Y91.178 E5.19912
G1 X36.647 Y90.714 E5.22348
G1 X36.272 Y90.199 E5.24786
G1 X35.965 Y89.642 E5.2722
G1 X35.73 Y89.05 E5.29658
G1 X35.571 Y88.433 E5.32096
G1 X35.49 Y87.801 E5.34535
G1 X35.48 Y87.477 E5.35775
G1 X35.48 Y73.479 E5.89345
G1 X35.52 Y72.843 E5.91784
G1 X35.639 Y72.218 E5.94219
G1 X35.836 Y71.612 E5.96658
G1 X36.107 Y71.036 E5.99094
G1 X36.448 Y70.498 E6.01531
G1 X36.786 Y70.09 E6.03559
G1 X36.517 Y69.721 E6.05307
G1 X36.21 Y69.164 E6.07741
G1 X35.975 Y68.572 E6.10178
G1 X35.816 Y67.955 E6.12617
G1 X35.735 Y67.323 E6.15055
G1 X35.725 Y66.999 E6.16296
G1 X35.725 Y53.001 E6.69866
G1 X35.765 Y52.365 E6.72305
G1 X35.884 Y51.74 E6.74739
G1 X36.081 Y51.134 E6.77178
G1 X36.352 Y50.558 E6.79614
G1 X36.693 Y50.02 E6.82052
G1 X37.063 Y49.573 E6.84273
G0 F1944 X37.099 Y49.529
G0 X37.563 Y49.093
G0 F4320 X37.904 Y49.268
G1 F2400 E6.86928
G1 F2160 X38.413 Y48.923 E6.89282
G1 X38.962 Y48.648 E6.91632
G1 X39.543 Y48.446 E6.93986
G1 X40.144 Y48.322 E6.96334
G1 X40.8 Y48.276 E6.98851
G1 X51.2 Y48.276 E7.38651
G1 X51.813 Y48.316 E7.41002
G1 X52.416 Y48.435 E7.43355
G1 X52.998 Y48.632 E7.45706
G1 X53.285 Y48.772 E7.46928
G1 X53.674 Y48.637 E7.48504
G1 X54.275 Y48.513 E7.50852
G1 X54.931 Y48.467 E7.53369
G1 X65.331 Y48.467 E7.9317
G1 X65.944 Y48.507 E7.95521
G1 X66.547 Y48.626 E7.97873
G1 X66.821 Y48.719 E7.9898
G1 X66.962 Y48.648 E7.99584
G1 X67.543 Y48.446 E8.01938
G1 X68.144 Y48.322 E8.04287
G1 X68.8 Y48.276 E8.06804
G1 X79.2 Y48.276 E8.46604
G1 X79.813 Y48.316 E8.48955
G1 X80.416 Y48.435 E8.51307
G1 X80.998 Y48.632 E8.53659
G1 X81.55 Y48.902 E8.56011
G1 X82.062 Y49.242 E8.58363
G1 X82.526 Y49.645 E8.60715
G1 X82.933 Y50.105 E8.63065
G1 X83.278 Y50.614 E8.65418
G1 X83.553 Y51.163 E8.67768
G1 X83.755 Y51.744 E8.70122
G1 X83.879 Y52.345 E8.72471
G1 X83.925 Y53.001 E8.74988
G1 X83.925 Y66.999 E9.28558
G1 X83.885 Y67.612 E9.30909
G1 X83.766 Y68.215 E9.33261
G1 X83.569 Y68.797 E9.35612
G1 X83.299 Y69.349 E9.37964
G1 X83.185 Y69.521 E9.38754
G1 X83.236 Y69.565 E9.39011
G1 X83.643 Y70.025 E9.41362
G1 X83.988 Y70.534 E9.43715
G1 X84.263 Y71.083 E9.46065
G1 X84.465 Y71.664 E9.48419
G1 X84.589 Y72.265 E9.50768
G1 X84.635 Y72.921 E9.53284
G1 X84.635 Y86.919 E10.06855
G1 X84.595 Y87.532 E10.09206
G1 X84.476 Y88.135 E10.11558
G1 X84.279 Y88.717 E10.13909
G1 X84.009 Y89.269 E10.16261
G1 X83.669 Y89.781 E10.18613
G1 X83.266 Y90.245 E10.20965
G1 X82.806 Y90.652 E10.23315
G1 X82.297 Y90.997 E10.25669
G1 X81.748 Y91.272 E10.28019
G1 X81.167 Y91.474 E10.30373
G1 X80.566 Y91.598 E10.32721
G1 X79.91 Y91.644 E10.35238
G1 X69.51 Y91.644 E10.75039
G1 X68.897 Y91.604 E10.77389
G1 X68.294 Y91.485 E10.79742
G1 X67.712 Y91.288 E10.82093
G1 X67.436 Y91.153 E10.83269
G1 X67.038 Y91.352 E10.84972
G1 X66.457 Y91.554 E10.87326
G1 X65.856 Y91.678 E10.89674
G1 X65.2 Y91.724 E10.92191
G1 X54.8 Y91.724 E11.31992
G1 X54.187 Y91.684 E11.34343
G1 X53.584 Y91.565 E11.36695
G1 X53.413 Y91.507 E11.37386
G1 X53.342 Y91.555 E11.37714
G1 X52.793 Y91.83 E11.40064
G1 X52.212 Y92.032 E11.42418
G1 X51.611 Y92.156 E11.44766
G1 X50.955 Y92.202 E11.47283
G1 X40.555 Y92.202 E11.87084
G1 X39.942 Y92.162 E11.89435
G1 X39.339 Y92.043 E11.91787
G1 X38.757 Y91.846 E11.94138
G1 X38.205 Y91.576 E11.9649
G1 X37.693 Y91.236 E11.98842
G1 X37.229 Y90.833 E12.01194
G1 X36.822 Y90.373 E12.03545
G1 X36.477 Y89.864 E12.05898
G1 X36.202 Y89.315 E12.08248
G1 X36 Y88.734 E12.10602
G1 X35.876 Y88.133 E12.1295
G1 X35.83 Y87.477 E12.15467
G1 X35.83 Y73.479 E12.69037
G1 X35.87 Y72.866 E12.71388
G1 X35.989 Y72.263 E12.7374
G1 X36.186 Y71.681 E12.76092
G1 X36.456 Y71.129 E12.78443
G1 X36.796 Y70.617 E12.80795
G1 X37.199 Y70.153 E12.83147
G1 X37.253 Y70.105 E12.83424
G1 X37.067 Y69.895 E12.84498
G1 X36.722 Y69.386 E12.86851
G1 X36.447 Y68.837 E12.89201
G1 X36.245 Y68.256 E12.91555
G1 X36.121 Y67.655 E12.93903
G1 X36.075 Y66.999 E12.9642
G1 X36.075 Y53.001 E13.4999
G1 X36.115 Y52.388 E13.52341
G1 X36.234 Y51.785 E13.54693
G1 X36.431 Y51.203 E13.57045
G1 X36.701 Y50.651 E13.59396
G1 X37.041 Y50.139 E13.61748
G1 X37.392 Y49.735 E13.63797
G0 F1944 X37.444 Y49.675
G0 X37.904 Y49.268
G0 F4320 X37.788 Y49.828
G1 F2400 E13.66452
G1 F2160 X38.244 Y49.451 E13.68717
G1 X38.746 Y49.138 E13.70981
G1 X39.285 Y48.897 E13.7324
G1 X39.853 Y48.73 E13.75506
G1 X40.437 Y48.641 E13.77767
G1 X40.8 Y48.626 E13.79157
G1 X51.2 Y48.626 E14.18958
G1 X51.79 Y48.666 E14.21221
G1 X52.369 Y48.785 E14.23483
G1 X52.927 Y48.981 E14.25747
G1 X53.266 Y49.155 E14.27205
G1 X53.416 Y49.088 E14.27834
G1 X53.984 Y48.921 E14.30099
G1 X54.568 Y48.832 E14.3236
G1 X54.931 Y48.817 E14.3375
G1 X65.331 Y48.817 E14.73551
G1 X65.921 Y48.857 E14.75814
G1 X66.5 Y48.976 E14.78076
G1 X66.841 Y49.096 E14.7946
G1 X67.285 Y48.897 E14.81322
G1 X67.853 Y48.73 E14.83588
G1 X68.437 Y48.641 E14.85848
G1 X68.8 Y48.626 E14.87239
G1 X79.2 Y48.626 E15.2704
G1 X79.79 Y48.666 E15.29303
G1 X80.369 Y48.785 E15.31565
G1 X80.927 Y48.981 E15.33828
G1 X81.453 Y49.251 E15.36091
G1 X81.938 Y49.589 E15.38353
G1 X82.373 Y49.989 E15.40615
G1 X82.75 Y50.445 E15.42879
G1 X83.063 Y50.947 E15.45143
G1 X83.304 Y51.486 E15.47403
G1 X83.471 Y52.054 E15.49668
G1 X83.56 Y52.638 E15.51929
G1 X83.575 Y53.001 E15.5332
G1 X83.575 Y66.999 E16.0689
G1 X83.535 Y67.589 E16.09153
G1 X83.416 Y68.168 E16.11415
G1 X83.22 Y68.726 E16.13678
G1 X82.95 Y69.252 E16.15941
G1 X82.723 Y69.578 E16.17461
G1 X83.083 Y69.909 E16.19333
G1 X83.46 Y70.365 E16.21597
G1 X83.773 Y70.867 E16.23861
G1 X84.014 Y71.406 E16.26121
G1 X84.181 Y71.974 E16.28387
G1 X84.27 Y72.558 E16.30647
G1 X84.285 Y72.921 E16.32038
G1 X84.285 Y86.919 E16.85608
G1 X84.245 Y87.509 E16.87871
G1 X84.126 Y88.088 E16.90133
G1 X83.93 Y88.646 E16.92397
G1 X83.66 Y89.172 E16.94659
G1 X83.322 Y89.657 E16.96922
G1 X82.922 Y90.092 E16.99183
G1 X82.466 Y90.469 E17.01448
G1 X81.964 Y90.782 E17.03712
G1 X81.425 Y91.023 E17.05971
G1 X80.857 Y91.19 E17.08237
G1 X80.273 Y91.279 E17.10498
G1 X79.91 Y91.294 E17.11888
G1 X69.51 Y91.294 E17.51689
G1 X68.92 Y91.254 E17.53952
G1 X68.341 Y91.135 E17.56214
G1 X67.783 Y90.939 E17.58477
G1 X67.425 Y90.755 E17.60018
G1 X67.254 Y90.862 E17.6079
G1 X66.715 Y91.103 E17.63049
G1 X66.147 Y91.27 E17.65315
G1 X65.563 Y91.359 E17.67576
G1 X65.2 Y91.374 E17.68966
G1 X54.8 Y91.374 E18.08767
G1 X54.21 Y91.334 E18.1103
G1 X53.631 Y91.215 E18.13292
G1 X53.361 Y91.12 E18.14388
G1 X53.009 Y91.34 E18.15976
G1 X52.47 Y91.581 E18.18236
G1 X51.902 Y91.748 E18.20501
G1 X51.318 Y91.837 E18.22762
G1 X50.955 Y91.852 E18.24153
G1 X40.555 Y91.852 E18.63953
G1 X39.965 Y91.812 E18.66216
G1 X39.386 Y91.693 E18.68479
G1 X38.828 Y91.497 E18.70742
G1 X38.302 Y91.227 E18.73005
G1 X37.817 Y90.889 E18.75267
G1 X37.382 Y90.489 E18.77529
G1 X37.005 Y90.033 E18.79793
G1 X36.692 Y89.531 E18.82057
G1 X36.451 Y88.992 E18.84316
G1 X36.284 Y88.424 E18.86582
G1 X36.195 Y87.84 E18.88843
G1 X36.18 Y87.477 E18.90233
G1 X36.18 Y73.479 E19.43804
G1 X36.22 Y72.889 E19.46067
G1 X36.339 Y72.31 E19.48329
G1 X36.535 Y71.752 E19.50592
G1 X36.805 Y71.226 E19.52855
G1 X37.143 Y70.741 E19.55117
G1 X37.543 Y70.306 E19.57379
G1 X37.756 Y70.13 E19.58436
G1 X37.627 Y70.011 E19.59108
G1 X37.25 Y69.555 E19.61372
G1 X36.937 Y69.053 E19.63636
G1 X36.696 Y68.514 E19.65896
G1 X36.529 Y67.946 E19.68161
G1 X36.44 Y67.362 E19.70422
G1 X36.425 Y66.999 E19.71813
G1 X36.425 Y53.001 E20.25383
G1 X36.465 Y52.411 E20.27646
G1 X36.584 Y51.832 E20.29908
G1 X36.78 Y51.274 E20.32172
G1 X37.05 Y50.748 E20.34434
G1 X37.329 Y50.348 E20.36301
G0 F1944 X37.388 Y50.263
G0 X37.788 Y49.828
G0 F4320 X38.132 Y49.988
G1 F2400 E20.38957
G1 F2160 X38.582 Y49.642 E20.41129
G1 X39.076 Y49.364 E20.43298
G1 X39.604 Y49.158 E20.45467
G1 X40.156 Y49.028 E20.47638
G1 X40.8 Y48.976 E20.5011
G1 X51.2 Y48.976 E20.89911
G1 X51.766 Y49.016 E20.92082
G1 X52.32 Y49.135 E20.94251
G1 X52.852 Y49.331 E20.96421
G1 X53.243 Y49.541 E20.98119
G1 X53.735 Y49.349 E21.0014
G1 X54.287 Y49.219 E21.02311
G1 X54.931 Y49.167 E21.04783
G1 X65.331 Y49.167 E21.44584
G1 X65.897 Y49.207 E21.46755
G1 X66.451 Y49.326 E21.48924
G1 X66.87 Y49.48 E21.50632
G1 X67.076 Y49.364 E21.51537
G1 X67.604 Y49.158 E21.53706
G1 X68.156 Y49.028 E21.55876
G1 X68.8 Y48.976 E21.58349
G1 X79.2 Y48.976 E21.9815
G1 X79.766 Y49.016 E22.00321
G1 X80.32 Y49.135 E22.0249
G1 X80.852 Y49.331 E22.04659
G1 X81.352 Y49.599 E22.06831
G1 X81.808 Y49.936 E22.09
G1 X82.213 Y50.333 E22.11171
G1 X82.559 Y50.783 E22.13343
G1 X82.837 Y51.277 E22.15513
G1 X83.043 Y51.805 E22.17682
G1 X83.173 Y52.357 E22.19852
G1 X83.225 Y53.001 E22.22324
G1 X83.225 Y66.999 E22.75895
G1 X83.185 Y67.565 E22.78066
G1 X83.066 Y68.119 E22.80235
G1 X82.87 Y68.651 E22.82404
G1 X82.602 Y69.151 E22.84576
G1 X82.265 Y69.607 E22.86745
G1 X82.23 Y69.643 E22.86938
G1 X82.518 Y69.856 E22.88308
G1 X82.923 Y70.253 E22.90479
G1 X83.269 Y70.703 E22.92651
G1 X83.547 Y71.197 E22.94821
G1 X83.753 Y71.725 E22.9699
G1 X83.883 Y72.277 E22.9916
G1 X83.935 Y72.921 E23.01632
G1 X83.935 Y86.919 E23.55203
G1 X83.895 Y87.485 E23.57374
G1 X83.776 Y88.039 E23.59543
G1 X83.58 Y88.571 E23.61712
G1 X83.312 Y89.071 E23.63884
G1 X82.975 Y89.527 E23.66053
G1 X82.578 Y89.932 E23.68224
G1 X82.128 Y90.278 E23.70396
G1 X81.634 Y90.556 E23.72566
G1 X81.106 Y90.762 E23.74735
G1 X80.554 Y90.892 E23.76905
G1 X79.91 Y90.944 E23.79377
G1 X69.51 Y90.944 E24.19178
G1 X68.944 Y90.904 E24.2135
G1 X68.39 Y90.785 E24.23518
G1 X67.858 Y90.589 E24.25688
G1 X67.422 Y90.355 E24.27582
G1 X67.418 Y90.358 E24.27601
G1 X66.924 Y90.636 E24.2977
G1 X66.396 Y90.842 E24.31939
G1 X65.844 Y90.972 E24.34109
G1 X65.2 Y91.024 E24.36582
G1 X54.8 Y91.024 E24.76383
G1 X54.234 Y90.984 E24.78554
G1 X53.68 Y90.865 E24.80723
G1 X53.312 Y90.729 E24.82224
G1 X53.173 Y90.836 E24.82895
G1 X52.679 Y91.114 E24.85065
G1 X52.151 Y91.32 E24.87234
G1 X51.599 Y91.45 E24.89404
G1 X50.955 Y91.502 E24.91877
G1 X40.555 Y91.502 E25.31677
G1 X39.989 Y91.462 E25.33849
G1 X39.435 Y91.343 E25.36017
G1 X38.903 Y91.147 E25.38187
G1 X38.403 Y90.879 E25.40358
G1 X37.947 Y90.542 E25.42528
G1 X37.542 Y90.145 E25.44699
G1 X37.196 Y89.695 E25.46871
G1 X36.918 Y89.201 E25.4904
G1 X36.712 Y88.673 E25.51209
G1 X36.582 Y88.121 E25.5338
G1 X36.53 Y87.477 E25.55852
G1 X36.53 Y73.479 E26.09422
G1 X36.57 Y72.913 E26.11594
G1 X36.689 Y72.359 E26.13762
G1 X36.885 Y71.827 E26.15932
G1 X37.153 Y71.327 E26.18103
G1 X37.49 Y70.871 E26.20273
G1 X37.887 Y70.466 E26.22444
G1 X38.303 Y70.146 E26.24452
G1 X38.192 Y70.064 E26.2498
G1 X37.787 Y69.667 E26.27151
G1 X37.441 Y69.217 E26.29323
G1 X37.163 Y68.723 E26.31492
G1 X36.957 Y68.195 E26.33661
G1 X36.827 Y67.643 E26.35832
G1 X36.775 Y66.999 E26.38304
G1 X36.775 Y53.001 E26.91874
G1 X36.815 Y52.435 E26.94046
G1 X36.934 Y51.881 E26.96214
G1 X37.13 Y51.349 E26.98384
G1 X37.398 Y50.849 E27.00555
G1 X37.66 Y50.495 E27.02241
G0 F1944 X37.735 Y50.393
G0 X38.132 Y49.988
G0 F4320 X38.474 Y50.156
G1 F2400 E27.04897
G1 F2160 X38.918 Y49.845 E27.06971
G1 X39.402 Y49.602 E27.09044
G1 X39.917 Y49.434 E27.11117
G1 X40.451 Y49.343 E27.1319
G1 X40.8 Y49.326 E27.14527
G1 X51.2 Y49.326 E27.54328
G1 X51.74 Y49.366 E27.564
G1 X52.269 Y49.485 E27.58475
G1 X52.774 Y49.68 E27.60547
G1 X53.236 Y49.942 E27.6258
G1 X53.533 Y49.793 E27.63851
G1 X54.048 Y49.625 E27.65924
G1 X54.582 Y49.534 E27.67997
G1 X54.931 Y49.517 E27.69335
G1 X65.331 Y49.517 E28.09135
G1 X65.871 Y49.557 E28.11208
G1 X66.4 Y49.676 E28.13283
G1 X66.889 Y49.865 E28.15289
G1 X66.918 Y49.845 E28.15424
G1 X67.402 Y49.602 E28.17496
G1 X67.917 Y49.434 E28.1957
G1 X68.451 Y49.343 E28.21643
G1 X68.8 Y49.326 E28.2298
G1 X79.2 Y49.326 E28.62781
G1 X79.74 Y49.366 E28.64853
G1 X80.269 Y49.485 E28.66928
G1 X80.774 Y49.68 E28.69
G1 X81.246 Y49.948 E28.71077
G1 X81.672 Y50.282 E28.73148
G1 X82.045 Y50.675 E28.75222
G1 X82.356 Y51.119 E28.77297
G1 X82.599 Y51.603 E28.79369
G1 X82.767 Y52.118 E28.81442
G1 X82.858 Y52.652 E28.83515
G1 X82.875 Y53.001 E28.84853
G1 X82.875 Y66.999 E29.38423
G1 X82.835 Y67.539 E29.40495
G1 X82.716 Y68.068 E29.4257
G1 X82.521 Y68.573 E29.44642
G1 X82.253 Y69.045 E29.46719
G1 X81.919 Y69.471 E29.48791
G1 X81.671 Y69.706 E29.50098
G1 X81.956 Y69.868 E29.51353
G1 X82.382 Y70.202 E29.53424
G1 X82.755 Y70.595 E29.55498
G1 X83.066 Y71.039 E29.57573
G1 X83.309 Y71.523 E29.59645
G1 X83.477 Y72.038 E29.61718
G1 X83.568 Y72.572 E29.63791
G1 X83.585 Y72.921 E29.65129
G1 X83.585 Y86.919 E30.18699
G1 X83.545 Y87.459 E30.20771
G1 X83.426 Y87.988 E30.22846
G1 X83.231 Y88.493 E30.24918
G1 X82.963 Y88.965 E30.26995
G1 X82.629 Y89.391 E30.29067
G1 X82.236 Y89.764 E30.3114
G1 X81.792 Y90.075 E30.33215
G1 X81.308 Y90.318 E30.35287
G1 X80.793 Y90.486 E30.37361
G1 X80.259 Y90.577 E30.39434
G1 X79.91 Y90.594 E30.40771
G1 X69.51 Y90.594 E30.80572
G1 X68.97 Y90.554 E30.82644
G1 X68.441 Y90.435 E30.84719
G1 X67.936 Y90.24 E30.86791
G1 X67.464 Y89.972 E30.88868
G1 X67.407 Y89.927 E30.89146
G1 X67.082 Y90.155 E30.90665
G1 X66.598 Y90.398 E30.92738
