;FLAVOR:Marlin
;TIME:136
;Filament used: 0.115802m
;Layer height: 0.2625
;Generated with Cura_SteamEngine 3.6.0
M140 S60
M105
M190 S60
M104 S210
M105
M109 S210
M82 ;absolute extrusion mode
G21;(metric values)
G90;(absolute positioning)
M82;(set extruder to absolute mode)
M107;(start with the fan off)
G28;(Home the printer)
G92 E0;(Reset the extruder to 0)
G0 Z5 E5 F500;(Move up and prime the nozzle)
G0 X-1 Z0;(Move outside the printable area)
G1 Y60 E8 F500;(Draw a priming/wiping line to the rear)
G1 X-1;(Move a little closer to the print area)
G1 Y10 E16 F500;(draw more priming/wiping)
G1 E15 F250;(Small retract)
G92 E0;(Zero the extruder)
G92 E0
G1 F2400 E-2.5
;LAYER_COUNT:8
;LAYER:0
M107
G0 F4320 X35.278 Y55.247 Z0.263
;TYPE:SKIRT
G1 F2400 E0
G1 F1620 X35.835 Y54.94 E0.02434
G1 X36.427 Y54.705 E0.04872
G1 X37.044 Y54.546 E0.0731
G1 X37.676 Y54.465 E0.09748
G1 X38 Y54.455 E0.10989
G1 X82 Y54.454 E1.79377
G1 X82.635 Y54.494 E1.81812
G1 X83.261 Y54.613 E1.8425
G1 X83.867 Y54.81 E1.86689
G1 X84.443 Y55.081 E1.89125
G1 X84.981 Y55.422 E1.91563
G1 X85.472 Y55.828 E1.94001
G1 X85.908 Y56.292 E1.96438
G1 X86.283 Y56.806 E1.98872
G1 X86.59 Y57.364 E2.0131
G1 X86.825 Y57.956 E2.03747
G1 X86.984 Y58.573 E2.06186
G1 X87.065 Y59.205 E2.08624
G1 X87.075 Y59.529 E2.09865
G1 X87.075 Y60.47 E2.13466
G1 X87.035 Y61.106 E2.15905
G1 X86.916 Y61.731 E2.1834
G1 X86.719 Y62.337 E2.20778
G1 X86.448 Y62.913 E2.23214
G1 X86.107 Y63.451 E2.25652
G1 X85.701 Y63.942 E2.2809
G1 X85.237 Y64.378 E2.30527
G1 X84.722 Y64.753 E2.32965
G1 X84.165 Y65.06 E2.35399
G1 X83.573 Y65.295 E2.37836
G1 X82.956 Y65.454 E2.40275
G1 X82.324 Y65.535 E2.42713
G1 X82 Y65.545 E2.43954
G1 X38 Y65.546 E4.12342
G1 X37.365 Y65.506 E4.14777
G1 X36.739 Y65.387 E4.17215
G1 X36.133 Y65.19 E4.19654
G1 X35.557 Y64.919 E4.2209
G1 X35.019 Y64.578 E4.24528
G1 X34.528 Y64.172 E4.26966
G1 X34.092 Y63.708 E4.29402
G1 X33.717 Y63.194 E4.31837
G1 X33.41 Y62.636 E4.34275
G1 X33.175 Y62.044 E4.36712
G1 X33.016 Y61.427 E4.39151
G1 X32.935 Y60.795 E4.41589
G1 X32.925 Y60.471 E4.4283
G1 X32.925 Y59.53 E4.46431
G1 X32.965 Y58.894 E4.4887
G1 X33.084 Y58.269 E4.51305
G1 X33.281 Y57.663 E4.53743
G1 X33.552 Y57.087 E4.56179
G1 X33.893 Y56.549 E4.58617
G1 X34.299 Y56.058 E4.61055
G1 X34.722 Y55.661 E4.63275
G0 F1458 X34.763 Y55.622
G0 X35.278 Y55.247
G0 F4320 X35.613 Y55.452
G1 F2400 E4.65931
G1 F1620 X36.162 Y55.177 E4.68281
G1 X36.743 Y54.975 E4.70635
G1 X37.344 Y54.851 E4.72984
G1 X38 Y54.805 E4.755
G1 X82 Y54.804 E6.43888
G1 X82.613 Y54.844 E6.46239
G1 X83.216 Y54.963 E6.48591
G1 X83.798 Y55.16 E6.50943
G1 X84.35 Y55.43 E6.53294
G1 X84.862 Y55.769 E6.55644
G1 X85.326 Y56.173 E6.57999
G1 X85.733 Y56.633 E6.60349
G1 X86.078 Y57.142 E6.62703
G1 X86.353 Y57.691 E6.65052
G1 X86.555 Y58.271 E6.67403
G1 X86.679 Y58.873 E6.69755
G1 X86.725 Y59.529 E6.72272
G1 X86.725 Y60.47 E6.75873
G1 X86.685 Y61.083 E6.78224
G1 X86.566 Y61.686 E6.80576
G1 X86.369 Y62.268 E6.82927
G1 X86.099 Y62.82 E6.85279
G1 X85.759 Y63.332 E6.87631
G1 X85.356 Y63.796 E6.89983
G1 X84.896 Y64.203 E6.92334
G1 X84.387 Y64.548 E6.94687
G1 X83.838 Y64.823 E6.97037
G1 X83.257 Y65.025 E6.99391
G1 X82.656 Y65.149 E7.01739
G1 X82 Y65.195 E7.04256
G1 X38 Y65.196 E8.72644
G1 X37.387 Y65.156 E8.74995
G1 X36.784 Y65.037 E8.77347
G1 X36.202 Y64.84 E8.79698
G1 X35.65 Y64.57 E8.8205
G1 X35.138 Y64.231 E8.844
G1 X34.674 Y63.827 E8.86755
G1 X34.267 Y63.367 E8.89105
G1 X33.922 Y62.858 E8.91458
G1 X33.647 Y62.309 E8.93808
G1 X33.445 Y61.729 E8.96159
G1 X33.321 Y61.127 E8.98511
G1 X33.275 Y60.471 E9.01028
G1 X33.275 Y59.53 E9.04629
G1 X33.315 Y58.917 E9.0698
G1 X33.434 Y58.314 E9.09332
G1 X33.631 Y57.732 E9.11683
G1 X33.901 Y57.18 E9.14035
G1 X34.241 Y56.668 E9.16387
G1 X34.644 Y56.204 E9.18739
G1 X35.045 Y55.85 E9.20786
G0 F1458 X35.104 Y55.797
G0 X35.613 Y55.452
G0 F4320 X35.444 Y55.98
G1 F2400 E9.23442
G1 F1620 X35.946 Y55.667 E9.25706
G1 X36.485 Y55.426 E9.27966
G1 X37.053 Y55.259 E9.30231
G1 X37.637 Y55.17 E9.32492
G1 X38 Y55.155 E9.33882
G1 X82 Y55.154 E11.0227
G1 X82.59 Y55.194 E11.04533
G1 X83.169 Y55.313 E11.06795
G1 X83.727 Y55.509 E11.09059
G1 X84.253 Y55.779 E11.11322
G1 X84.738 Y56.117 E11.13584
G1 X85.173 Y56.517 E11.15845
G1 X85.55 Y56.973 E11.1811
G1 X85.863 Y57.475 E11.20374
G1 X86.104 Y58.014 E11.22633
G1 X86.271 Y58.581 E11.24895
G1 X86.36 Y59.166 E11.2716
G1 X86.375 Y59.529 E11.2855
G1 X86.375 Y60.47 E11.32152
G1 X86.335 Y61.06 E11.34415
G1 X86.216 Y61.639 E11.36677
G1 X86.02 Y62.197 E11.3894
G1 X85.75 Y62.723 E11.41203
G1 X85.412 Y63.208 E11.43465
G1 X85.012 Y63.643 E11.45727
G1 X84.556 Y64.02 E11.47991
G1 X84.054 Y64.333 E11.50255
G1 X83.515 Y64.574 E11.52515
G1 X82.947 Y64.741 E11.5478
G1 X82.363 Y64.83 E11.57041
G1 X82 Y64.845 E11.58432
G1 X38 Y64.846 E13.26819
G1 X37.41 Y64.806 E13.29082
G1 X36.831 Y64.687 E13.31345
G1 X36.273 Y64.491 E13.33608
G1 X35.747 Y64.221 E13.35871
G1 X35.262 Y63.883 E13.38133
G1 X34.827 Y63.483 E13.40395
G1 X34.45 Y63.027 E13.42659
G1 X34.137 Y62.525 E13.44923
G1 X33.896 Y61.986 E13.47182
G1 X33.729 Y61.419 E13.49444
G1 X33.64 Y60.834 E13.51709
G1 X33.625 Y60.471 E13.53099
G1 X33.625 Y59.53 E13.56701
G1 X33.665 Y58.94 E13.58964
G1 X33.784 Y58.361 E13.61226
G1 X33.98 Y57.803 E13.63489
G1 X34.25 Y57.277 E13.65752
G1 X34.588 Y56.792 E13.68014
G1 X34.919 Y56.432 E13.69886
G0 F1458 X34.988 Y56.357
G0 X35.444 Y55.98
G0 F4320 X35.782 Y56.171
G1 F2400 E13.72542
G1 F1620 X36.276 Y55.893 E13.74711
G1 X36.804 Y55.687 E13.7688
G1 X37.356 Y55.557 E13.7905
G1 X38 Y55.505 E13.81523
G1 X82 Y55.504 E15.49911
G1 X82.566 Y55.544 E15.52082
G1 X83.12 Y55.663 E15.54251
G1 X83.652 Y55.859 E15.5642
G1 X84.152 Y56.127 E15.58592
G1 X84.608 Y56.464 E15.60761
G1 X85.013 Y56.861 E15.62932
G1 X85.358 Y57.311 E15.65102
G1 X85.637 Y57.805 E15.67273
G1 X85.843 Y58.333 E15.69442
G1 X85.973 Y58.885 E15.71612
G1 X86.025 Y59.529 E15.74085
G1 X86.025 Y60.47 E15.77686
G1 X85.985 Y61.036 E15.79858
G1 X85.866 Y61.59 E15.82026
G1 X85.67 Y62.122 E15.84196
G1 X85.402 Y62.622 E15.86367
G1 X85.065 Y63.078 E15.88537
G1 X84.668 Y63.483 E15.90707
G1 X84.218 Y63.829 E15.9288
G1 X83.724 Y64.107 E15.95049
G1 X83.196 Y64.313 E15.97218
G1 X82.644 Y64.443 E15.99388
G1 X82 Y64.495 E16.01861
G1 X38 Y64.496 E17.70249
G1 X37.434 Y64.456 E17.7242
G1 X36.88 Y64.337 E17.74589
G1 X36.348 Y64.141 E17.76758
G1 X35.848 Y63.873 E17.78929
G1 X35.392 Y63.536 E17.81099
G1 X34.987 Y63.139 E17.8327
G1 X34.642 Y62.689 E17.8544
G1 X34.363 Y62.195 E17.87611
G1 X34.157 Y61.667 E17.8978
G1 X34.027 Y61.115 E17.9195
G1 X33.975 Y60.471 E17.94423
G1 X33.975 Y59.53 E17.98024
G1 X34.015 Y58.964 E18.00196
G1 X34.134 Y58.41 E18.02364
G1 X34.33 Y57.878 E18.04534
G1 X34.598 Y57.378 E18.06705
G1 X34.935 Y56.922 E18.08875
G1 X35.244 Y56.607 E18.10564
G0 F1458 X35.332 Y56.517
G0 X35.782 Y56.171
G0 F4320 X36.118 Y56.374
G1 F2400 E18.1322
G1 F1620 X36.602 Y56.131 E18.15292
G1 X37.117 Y55.963 E18.17365
G1 X37.651 Y55.872 E18.19438
G1 X38 Y55.855 E18.20776
G1 X82 Y55.854 E19.89163
G1 X82.54 Y55.894 E19.91236
G1 X83.069 Y56.013 E19.93311
G1 X83.574 Y56.208 E19.95382
G1 X84.045 Y56.476 E19.97456
G1 X84.472 Y56.81 E19.99531
G1 X84.845 Y57.203 E20.01604
G1 X85.156 Y57.647 E20.03679
G1 X85.399 Y58.131 E20.05752
G1 X85.567 Y58.646 E20.07825
G1 X85.658 Y59.18 E20.09898
G1 X85.675 Y59.529 E20.11235
G1 X85.675 Y60.47 E20.14836
G1 X85.635 Y61.01 E20.16908
G1 X85.516 Y61.539 E20.18983
G1 X85.321 Y62.044 E20.21055
G1 X85.053 Y62.516 E20.23132
G1 X84.719 Y62.942 E20.25204
G1 X84.326 Y63.315 E20.27278
G1 X83.882 Y63.626 E20.29352
G1 X83.398 Y63.869 E20.31425
G1 X82.883 Y64.037 E20.33498
G1 X82.349 Y64.128 E20.35571
G1 X82 Y64.145 E20.36908
G1 X38 Y64.146 E22.05296
G1 X37.46 Y64.106 E22.07368
G1 X36.931 Y63.987 E22.09443
G1 X36.426 Y63.792 E22.11515
G1 X35.955 Y63.524 E22.13589
G1 X35.528 Y63.19 E22.15663
G1 X35.155 Y62.797 E22.17737
G1 X34.844 Y62.353 E22.19812
G1 X34.601 Y61.869 E22.21884
G1 X34.433 Y61.354 E22.23957
G1 X34.342 Y60.82 E22.2603
G1 X34.325 Y60.471 E22.27368
G1 X34.325 Y59.53 E22.30969
G1 X34.365 Y58.99 E22.33041
G1 X34.484 Y58.461 E22.35116
G1 X34.679 Y57.956 E22.37188
G1 X34.947 Y57.484 E22.39265
G1 X35.281 Y57.058 E22.41337
G1 X35.564 Y56.789 E22.42831
G0 F1458 X35.674 Y56.685
G0 X36.118 Y56.374
G0 F4320 X36.015 Y56.863
G1 F2400 E22.45487
G1 F1620 X36.451 Y56.588 E22.4746
G1 X36.924 Y56.384 E22.49431
G1 X37.423 Y56.255 E22.51403
G1 X38 Y56.205 E22.5362
G1 X82 Y56.204 E24.22008
G1 X82.514 Y56.244 E24.23981
G1 X83.015 Y56.363 E24.25951
G1 X83.492 Y56.558 E24.27923
G1 X83.934 Y56.824 E24.29898
G1 X84.328 Y57.155 E24.31867
G1 X84.667 Y57.544 E24.33842
G1 X84.942 Y57.98 E24.35814
G1 X85.146 Y58.453 E24.37786
G1 X85.275 Y58.952 E24.39758
G1 X85.325 Y59.529 E24.41975
G1 X85.325 Y60.47 E24.45576
G1 X85.285 Y60.984 E24.47549
G1 X85.166 Y61.485 E24.4952
G1 X84.971 Y61.962 E24.51492
G1 X84.705 Y62.404 E24.53466
G1 X84.374 Y62.798 E24.55435
G1 X83.985 Y63.137 E24.5741
G1 X83.549 Y63.412 E24.59383
G1 X83.076 Y63.616 E24.61354
G1 X82.577 Y63.745 E24.63326
G1 X82 Y63.795 E24.65543
G1 X38 Y63.796 E26.33931
G1 X37.486 Y63.756 E26.35904
G1 X36.985 Y63.637 E26.37874
G1 X36.508 Y63.442 E26.39846
G1 X36.066 Y63.176 E26.41821
G1 X35.672 Y62.845 E26.4379
G1 X35.333 Y62.456 E26.45765
G1 X35.058 Y62.02 E26.47737
G1 X34.854 Y61.547 E26.49709
G1 X34.725 Y61.048 E26.51681
G1 X34.675 Y60.471 E26.53898
G1 X34.675 Y59.53 E26.57499
G1 X34.715 Y59.016 E26.59472
G1 X34.834 Y58.515 E26.61443
G1 X35.029 Y58.038 E26.63415
G1 X35.295 Y57.596 E26.65389
G1 X35.511 Y57.339 E26.66674
G0 F1458 X35.626 Y57.202
G0 X36.015 Y56.863
G0 F4320 X36.353 Y57.052
G1 F2400 E26.6933
G1 F1620 X36.78 Y56.817 E26.71195
G1 X37.239 Y56.654 E26.73059
G1 X37.719 Y56.568 E26.74925
G1 X38 Y56.555 E26.76002
G1 X82 Y56.554 E28.44389
G1 X82.486 Y56.594 E28.46256
G1 X82.959 Y56.713 E28.48122
G1 X83.406 Y56.907 E28.49987
G1 X83.815 Y57.172 E28.51852
G1 X84.175 Y57.5 E28.53716
G1 X84.478 Y57.882 E28.55582
G1 X84.713 Y58.309 E28.57447
G1 X84.876 Y58.768 E28.59311
G1 X84.962 Y59.248 E28.61177
G1 X84.975 Y59.529 E28.62254
G1 X84.975 Y60.47 E28.65855
G1 X84.935 Y60.956 E28.67721
G1 X84.816 Y61.429 E28.69588
G1 X84.622 Y61.876 E28.71453
G1 X84.357 Y62.285 E28.73318
G1 X84.029 Y62.645 E28.75182
G1 X83.647 Y62.948 E28.77048
G1 X83.22 Y63.183 E28.78913
G1 X82.761 Y63.346 E28.80777
G1 X82.281 Y63.432 E28.82643
G1 X82 Y63.445 E28.8372
G1 X38 Y63.446 E30.52107
G1 X37.514 Y63.406 E30.53974
G1 X37.041 Y63.287 E30.5584
G1 X36.594 Y63.093 E30.57705
G1 X36.185 Y62.828 E30.5957
G1 X35.825 Y62.5 E30.61434
G1 X35.522 Y62.118 E30.633
G1 X35.287 Y61.691 E30.65165
G1 X35.124 Y61.232 E30.67029
G1 X35.038 Y60.752 E30.68895
G1 X35.025 Y60.471 E30.69972
G1 X35.025 Y59.53 E30.73573
G1 X35.065 Y59.044 E30.75439
G1 X35.184 Y58.571 E30.77306
G1 X35.378 Y58.124 E30.79171
G1 X35.643 Y57.715 E30.81036
G1 X35.832 Y57.508 E30.82109
G0 F1458 X35.971 Y57.355
G0 X36.353 Y57.052
G0 F4320 X36.689 Y57.256
G1 F2400 E30.84764
G1 F1620 X37.104 Y57.063 E30.86516
G1 X37.546 Y56.945 E30.88267
G1 X38 Y56.905 E30.90011
G1 X82 Y56.904 E32.58399
G1 X82.456 Y56.944 E32.60151
G1 X82.898 Y57.062 E32.61901
G1 X83.313 Y57.256 E32.63654
G1 X83.688 Y57.519 E32.65407
G1 X84.012 Y57.843 E32.67161
G1 X84.274 Y58.218 E32.68912
G1 X84.467 Y58.633 E32.70663
G1 X84.585 Y59.075 E32.72414
G1 X84.625 Y59.529 E32.74158
G1 X84.625 Y60.47 E32.77759
G1 X84.585 Y60.926 E32.79511
G1 X84.467 Y61.368 E32.81262
G1 X84.273 Y61.783 E32.83015
G1 X84.01 Y62.158 E32.84768
G1 X83.686 Y62.482 E32.86522
G1 X83.311 Y62.744 E32.88272
G1 X82.896 Y62.937 E32.90024
G1 X82.454 Y63.055 E32.91775
G1 X82 Y63.095 E32.93519
G1 X38 Y63.096 E34.61906
G1 X37.544 Y63.056 E34.63658
G1 X37.102 Y62.938 E34.65409
G1 X36.687 Y62.744 E34.67162
G1 X36.312 Y62.481 E34.68915
G1 X35.988 Y62.157 E34.70669
G1 X35.726 Y61.782 E34.72419
G1 X35.533 Y61.367 E34.74171
G1 X35.415 Y60.925 E34.75922
G1 X35.375 Y60.471 E34.77666
G1 X35.375 Y59.53 E34.81267
G1 X35.415 Y59.074 E34.83019
G1 X35.533 Y58.632 E34.8477
G1 X35.727 Y58.217 E34.86523
G1 X35.99 Y57.842 E34.88276
G1 X36.147 Y57.685 E34.89125
G0 F1458 X36.314 Y57.518
G0 X36.689 Y57.256
G0 F4320 X36.654 Y57.696
G1 F2400 E34.91781
G1 F1620 X37.02 Y57.477 E34.93414
G1 X37.42 Y57.33 E34.95045
G1 X38 Y57.255 E34.97283
G1 X82 Y57.254 E36.6567
G1 X82.424 Y57.294 E36.673
G1 X82.834 Y57.412 E36.68933
G1 X83.214 Y57.605 E36.70564
G1 X83.551 Y57.865 E36.72193
G1 X83.834 Y58.183 E36.73822
G1 X84.053 Y58.549 E36.75454
G1 X84.2 Y58.949 E36.77085
G1 X84.275 Y59.529 E36.79323
G1 X84.275 Y60.47 E36.82925
G1 X84.235 Y60.894 E36.84554
G1 X84.117 Y61.304 E36.86187
G1 X83.924 Y61.684 E36.87818
G1 X83.664 Y62.021 E36.89447
G1 X83.346 Y62.304 E36.91076
G1 X82.98 Y62.523 E36.92709
G1 X82.58 Y62.67 E36.9434
G1 X82 Y62.745 E36.96578
G1 X38 Y62.746 E38.64965
G1 X37.576 Y62.706 E38.66595
G1 X37.166 Y62.588 E38.68228
G1 X36.786 Y62.395 E38.69859
G1 X36.449 Y62.135 E38.71488
G1 X36.166 Y61.817 E38.73117
G1 X35.947 Y61.451 E38.74749
G1 X35.8 Y61.051 E38.7638
G1 X35.725 Y60.471 E38.78618
G1 X35.725 Y59.53 E38.8222
G1 X35.765 Y59.106 E38.8385
G1 X35.883 Y58.696 E38.85482
G1 X36.076 Y58.316 E38.87113
G1 X36.172 Y58.192 E38.87713
G0 F1458 X36.336 Y57.979
G0 X36.654 Y57.696
G0 F4320 X36.992 Y57.89
G1 F2400 E38.90369
G1 F1620 X37.345 Y57.72 E38.91869
G1 X37.725 Y57.625 E38.93368
G1 X38 Y57.605 E38.94423
G1 X82 Y57.604 E40.62811
G1 X82.39 Y57.644 E40.64311
G1 X82.764 Y57.762 E40.65812
G1 X83.106 Y57.953 E40.67311
G1 X83.402 Y58.21 E40.68811
G1 X83.64 Y58.521 E40.7031
G1 X83.81 Y58.874 E40.71809
G1 X83.905 Y59.254 E40.73308
G1 X83.925 Y59.529 E40.74364
G1 X83.925 Y60.47 E40.77965
G1 X83.885 Y60.86 E40.79465
G1 X83.767 Y61.234 E40.80966
G1 X83.576 Y61.576 E40.82465
G1 X83.319 Y61.872 E40.83965
G1 X83.008 Y62.11 E40.85464
G1 X82.655 Y62.28 E40.86964
G1 X82.275 Y62.375 E40.88463
G1 X82 Y62.395 E40.89518
G1 X38 Y62.396 E42.57906
G1 X37.61 Y62.356 E42.59406
G1 X37.236 Y62.238 E42.60907
G1 X36.894 Y62.047 E42.62406
G1 X36.598 Y61.79 E42.63906
G1 X36.36 Y61.479 E42.65405
G1 X36.19 Y61.126 E42.66904
G1 X36.095 Y60.746 E42.68403
G1 X36.075 Y60.471 E42.69458
G1 X36.075 Y59.53 E42.7306
G1 X36.115 Y59.14 E42.7456
G1 X36.233 Y58.766 E42.76061
G1 X36.424 Y58.424 E42.7756
G1 X36.483 Y58.356 E42.77904
G0 F1458 X36.681 Y58.128
G0 X36.992 Y57.89
G0 F4320 X37.023 Y58.294
G1 F2400 E42.8056
G1 F1620 X37.324 Y58.107 E42.81916
G1 X37.66 Y57.992 E42.83276
G1 X38 Y57.955 E42.84584
G1 X82 Y57.954 E44.52972
G1 X82.352 Y57.994 E44.54328
G1 X82.686 Y58.111 E44.55682
G1 X82.986 Y58.301 E44.57041
G1 X83.236 Y58.552 E44.58397
G1 X83.423 Y58.853 E44.59753
G1 X83.538 Y59.189 E44.61112
G1 X83.575 Y59.529 E44.62421
G1 X83.575 Y60.47 E44.66022
G1 X83.535 Y60.822 E44.67378
G1 X83.418 Y61.156 E44.68733
G1 X83.228 Y61.456 E44.70092
G1 X82.977 Y61.706 E44.71447
G1 X82.676 Y61.893 E44.72803
G1 X82.34 Y62.008 E44.74162
G1 X82 Y62.045 E44.75471
G1 X38 Y62.046 E46.43859
G1 X37.648 Y62.006 E46.45215
G1 X37.314 Y61.889 E46.46569
G1 X37.014 Y61.699 E46.47928
G1 X36.764 Y61.448 E46.49284
G1 X36.577 Y61.147 E46.5064
G1 X36.462 Y60.811 E46.51999
G1 X36.425 Y60.471 E46.53308
G1 X36.425 Y59.53 E46.56909
G1 X36.465 Y59.178 E46.58265
G1 X36.582 Y58.844 E46.59619
G1 X36.591 Y58.831 E46.5968
G0 F1458 X36.772 Y58.544
G0 X37.023 Y58.294
G0 F4320 X37.362 Y58.484
G1 F2400 E46.62336
G1 F1620 X37.647 Y58.357 E46.6353
G1 X38 Y58.305 E46.64895
G1 X82 Y58.304 E48.33283
G1 X82.31 Y58.344 E48.34479
G1 X82.6 Y58.461 E48.35676
G1 X82.85 Y58.647 E48.36869
G1 X83.046 Y58.891 E48.38066
G1 X83.173 Y59.176 E48.3926
G1 X83.225 Y59.529 E48.40626
G1 X83.225 Y60.47 E48.44227
G1 X83.185 Y60.78 E48.45423
G1 X83.068 Y61.07 E48.4662
G1 X82.882 Y61.32 E48.47813
G1 X82.638 Y61.516 E48.4901
G1 X82.353 Y61.643 E48.50204
G1 X82 Y61.695 E48.5157
G1 X38 Y61.696 E50.19958
G1 X37.69 Y61.656 E50.21154
G1 X37.4 Y61.539 E50.22351
G1 X37.15 Y61.353 E50.23543
G1 X36.954 Y61.109 E50.24741
G1 X36.827 Y60.824 E50.25935
G1 X36.775 Y60.471 E50.27301
G1 X36.775 Y59.53 E50.30902
G1 X36.815 Y59.22 E50.32098
G1 X36.906 Y58.995 E50.33027
G0 F1458 X36.932 Y58.93
G0 X37.118 Y58.68
G0 X37.362 Y58.484
G0 F4320 X37.462 Y58.84
