;FLAVOR:Marlin
;TIME:572
;Filament used: 0.462681m
;Layer height: 0.2625
;Generated with Cura_SteamEngine 3.6.0
M140 S60
M105
M190 S60
M104 S210
M105
M109 S210
M82 ;absolute extrusion mode
G21;(metric values)
G90;(absolute positioning)
M82;(set extruder to absolute mode)
M107;(start with the fan off)
G28;(Home the printer)
G92 E0;(Reset the extruder to 0)
G0 Z5 E5 F500;(Move up and prime the nozzle)
G0 X-1 Z0;(Move outside the printable area)
G1 Y60 E8 F500;(Draw a priming/wiping line to the rear)
G1 X-1;(Move a little closer to the print area)
G1 Y10 E16 F500;(draw more priming/wiping)
G1 E15 F250;(Small retract)
G92 E0;(Zero the extruder)
G92 E0
G1 F2400 E-2.5
;LAYER_COUNT:16
;LAYER:0
M107
;MESH:Smashing Jofo-Amberis.stl
G0 F4320 X81.475 Y60.158 Z0.263
;TYPE:WALL-INNER
G1 F2400 E0
G1 F1620 X38.525 Y60.159 E1.64369
G1 X38.525 Y59.842 E1.65583
G1 X81.475 Y59.841 E3.1422
G1 X81.475 Y60.158 E3.15433
G0 F4320 X81.8 Y59.691
;TYPE:WALL-OUTER
G1 F1620 X81.8 Y60.483 E3.18464
G1 X38.375 Y60.484 E4.84651
G1 X38.2 Y60.484 E4.85321
G1 X38.2 Y60.309 E4.85754
G1 X38.2 Y59.517 E4.88785
G1 X81.625 Y59.516 E6.54973
G1 X81.8 Y59.516 E6.55642
G1 X81.8 Y59.691 E6.56076
G0 F4320 X81.8 Y59.891
G0 X81.274 Y60.042
G1 F2400 E4.06076
;MESH:Smashing Jofo-Amberis.stl(1)
G0 F4320 X81.475 Y60.308
G0 X81.476 Y61.348
G0 X81.474 Y70.652
G0 X81.475 Y71.692
G0 X81.475 Y72.158
;TYPE:WALL-INNER
G1 F2400 E6.56076
G1 F1620 X38.525 Y72.159 E8.20445
G1 X38.525 Y71.842 E8.21658
G1 X81.475 Y71.841 E9.70296
G1 X81.475 Y72.158 E9.71509
G0 F4320 X81.8 Y71.691
;TYPE:WALL-OUTER
G1 F1620 X81.8 Y72.483 E9.7454
G1 X38.375 Y72.484 E11.40727
G1 X38.2 Y72.484 E11.41397
G1 X38.2 Y72.309 E11.4183
G1 X38.2 Y71.517 E11.44861
G1 X81.625 Y71.516 E13.11048
G1 X81.8 Y71.516 E13.11718
G1 X81.8 Y71.691 E13.12151
G0 F4320 X81.8 Y71.891
G0 X81.274 Y72.042
G1 F2400 E10.62151
;MESH:NONMESH
G0 F4320 X81.125 Y71.692
G0 X81.124 Y70.652
G0 X81.126 Y61.348
G0 X81.125 Y60.308
G0 X81.125 Y59.861
;TIME_ELAPSED:40.758646
;LAYER:1
M140 S60
M106 S255
;MESH:Smashing Jofo-Amberis.stl
G0 F5760 X81.125 Y59.861 Z0.526
;TYPE:WALL-INNER
G1 F2400 E13.12151
G1 F2160 X81.125 Y60.313 E13.13881
G1 X39.05 Y60.314 E14.74902
G1 X38.875 Y60.314 E14.75572
G1 X38.875 Y60.139 E14.76005
G1 X38.875 Y59.687 E14.77735
G1 X80.95 Y59.686 E16.38756
G1 X81.125 Y59.686 E16.39425
G1 X81.125 Y59.861 E16.39859
G0 F5760 X81.475 Y59.511
G1 F2160 X81.475 Y60.663 E16.44268
G1 X38.7 Y60.664 E18.07967
G1 X38.525 Y60.664 E18.08637
G1 X38.525 Y60.489 E18.0907
G1 X38.525 Y59.337 E18.13479
G1 X81.3 Y59.336 E19.77179
G1 X81.475 Y59.336 E19.77848
G1 X81.475 Y59.511 E19.78282
G0 F5760 X81.8 Y59.186
;TYPE:WALL-OUTER
G1 F1822.5 X81.8 Y60.988 E19.85178
G1 X38.375 Y60.989 E21.51365
G1 X38.2 Y60.989 E21.52035
G1 X38.2 Y60.814 E21.52468
G1 X38.2 Y59.012 E21.59365
G1 X81.625 Y59.011 E23.25552
G1 X81.8 Y59.011 E23.26222
G1 X81.8 Y59.186 E23.26655
G0 F5760 X81.8 Y59.386
G0 X81.525 Y59.386
G0 X81.04 Y60.1
G0 X80.939 Y60.128
;TYPE:SKIN
G1 F1350 X80.572 Y59.999 E23.27985
G1 X39.774 Y59.999 E24.67424
G0 F1215 X39.489 Y59.999
G0 X39.091 Y59.902
G0 F5760 X39.151 Y59.537
G1 F2400 E22.17424
;MESH:Smashing Jofo-Amberis.stl(1)
G0 F5760 X39.032 Y59.844
G0 X39.032 Y60.157
G0 X58.659 Y60.129
G0 X81.125 Y60.813
G0 X81.126 Y61.853
G0 X81.124 Y70.147
G0 X81.125 Y71.187
G0 X81.125 Y71.861
;TYPE:WALL-INNER
G1 F2400 E24.69796
G1 F2160 X81.125 Y72.313 E24.71526
G1 X39.05 Y72.314 E26.32546
G1 X38.875 Y72.314 E26.33216
G1 X38.875 Y72.139 E26.3365
G1 X38.875 Y71.687 E26.35379
G1 X80.95 Y71.686 E27.964
G1 X81.125 Y71.686 E27.9707
G1 X81.125 Y71.861 E27.97503
G0 F5760 X81.475 Y71.511
G1 F2160 X81.475 Y72.663 E28.01912
G1 X38.7 Y72.664 E29.65612
G1 X38.525 Y72.664 E29.66281
G1 X38.525 Y72.489 E29.66715
G1 X38.525 Y71.337 E29.71124
G1 X81.3 Y71.336 E31.34823
G1 X81.475 Y71.336 E31.35493
G1 X81.475 Y71.511 E31.35926
G0 F5760 X81.8 Y71.186
;TYPE:WALL-OUTER
G1 F1822.5 X81.8 Y72.988 E31.42823
G1 X38.375 Y72.989 E33.0901
G1 X38.2 Y72.989 E33.0968
G1 X38.2 Y72.814 E33.10113
G1 X38.2 Y71.012 E33.17009
G1 X81.625 Y71.011 E34.83196
G1 X81.8 Y71.011 E34.83866
G1 X81.8 Y71.186 E34.843
G0 F5760 X81.8 Y71.386
G0 X81.525 Y71.386
G0 X81.04 Y71.979
G0 X80.879 Y72.067
;TYPE:SKIN
G1 F1350 X80.452 Y71.999 E34.85796
G1 X40.063 Y71.999 E36.25549
G0 F1215 X39.369 Y71.999
G0 F5760 X39.213 Y72.463
G1 F2400 E33.75549
;MESH:NONMESH
G0 F5760 X39.032 Y72.157
G0 X39.032 Y71.844
G0 X81.125 Y71.187
G0 X81.124 Y70.147
G0 X81.126 Y61.853
G0 X81.125 Y60.813
G0 X81.125 Y59.598
;TIME_ELAPSED:62.907801
;LAYER:2
;MESH:Smashing Jofo-Amberis.stl
G0 F7200 X81.125 Y59.598 Z0.789
;TYPE:WALL-INNER
G1 F2400 E36.27951
G1 F2700 X81.125 Y60.576 E36.31694
G1 X39.05 Y60.577 E37.92714
G1 X38.875 Y60.577 E37.93384
G1 X38.875 Y60.402 E37.93817
G1 X38.875 Y59.424 E37.9756
G1 X80.95 Y59.423 E39.58581
G1 X81.125 Y59.423 E39.59251
G1 X81.125 Y59.598 E39.59684
G0 F7200 X81.475 Y59.248
G1 F2700 X81.475 Y60.926 E39.66106
G1 X38.7 Y60.927 E41.29806
G1 X38.525 Y60.927 E41.30475
G1 X38.525 Y60.752 E41.30909
G1 X38.525 Y59.074 E41.3733
G1 X81.3 Y59.073 E43.0103
G1 X81.475 Y59.073 E43.017
G1 X81.475 Y59.248 E43.02133
G0 F7200 X81.8 Y58.923
;TYPE:WALL-OUTER
G1 F2025 X81.8 Y61.251 E43.11042
G1 X38.375 Y61.252 E44.7723
G1 X38.2 Y61.252 E44.77899
G1 X38.2 Y61.077 E44.78333
G1 X38.2 Y58.749 E44.87242
G1 X81.625 Y58.748 E46.53429
G1 X81.8 Y58.748 E46.54099
G1 X81.8 Y58.923 E46.54532
G0 F7200 X81.8 Y59.123
G0 X81.525 Y59.123
G0 X80.785 Y59.508
G0 X80.785 Y59.763
;TYPE:SKIN
G1 F1080 X80.785 Y60.236 E46.56343
G1 X39.215 Y60.237 E48.15431
G1 X39.215 Y59.764 E48.17241
G1 X80.091 Y59.763 E49.73673
G0 F972 X80.785 Y59.763
G0 F7200 X80.293 Y59.999
G1 F2400 E49.76329
G1 F1080 X79.798 Y59.999 E49.77196
G1 X40.399 Y59.999 E50.46198
G0 F972 X39.705 Y59.999
G0 F7200 X39.625 Y59.274
G1 F2400 E47.96198
;MESH:Smashing Jofo-Amberis.stl(1)
G0 F7200 X39.032 Y59.581
G0 X39.032 Y60.42
G0 X76.872 Y61.007
G0 X81.125 Y61.076
G0 X81.126 Y62.116
G0 X81.124 Y69.884
G0 X81.125 Y70.924
G0 X81.125 Y71.598
;TYPE:WALL-INNER
G1 F2400 E50.47414
G1 F2700 X81.125 Y72.576 E50.51157
G1 X39.05 Y72.577 E52.12177
G1 X38.875 Y72.577 E52.12847
G1 X38.875 Y72.402 E52.13281
G1 X38.875 Y71.424 E52.17023
G1 X80.95 Y71.423 E53.78044
G1 X81.125 Y71.423 E53.78714
G1 X81.125 Y71.598 E53.79147
G0 F7200 X81.475 Y71.248
G1 F2700 X81.475 Y72.926 E53.85569
G1 X38.7 Y72.927 E55.49269
G1 X38.525 Y72.927 E55.49938
G1 X38.525 Y72.752 E55.50372
G1 X38.525 Y71.074 E55.56793
G1 X81.3 Y71.073 E57.20493
G1 X81.475 Y71.073 E57.21163
G1 X81.475 Y71.248 E57.21596
G0 F7200 X81.8 Y70.923
;TYPE:WALL-OUTER
G1 F2025 X81.8 Y73.251 E57.30506
G1 X38.375 Y73.252 E58.96693
G1 X38.2 Y73.252 E58.97362
G1 X38.2 Y73.077 E58.97796
G1 X38.2 Y70.749 E59.06705
G1 X81.625 Y70.748 E60.72892
G1 X81.8 Y70.748 E60.73562
G1 X81.8 Y70.923 E60.73996
G0 F7200 X81.8 Y71.123
G0 X81.525 Y71.123
G0 X80.785 Y71.508
G0 X80.785 Y71.763
;TYPE:SKIN
G1 F1080 X80.785 Y72.236 E60.75806
G1 X39.215 Y72.237 E62.34894
G1 X39.215 Y71.764 E62.36704
G1 X80.091 Y71.763 E63.93136
G0 F972 X80.785 Y71.763
G0 F7200 X80.414 Y71.999
G1 F2400 E63.95792
G1 F1080 X79.919 Y71.999 E63.96659
G1 X40.52 Y71.999 E64.65661
G0 F972 X39.826 Y71.999
G0 F7200 X39.746 Y71.274
G1 F2400 E62.15661
;MESH:NONMESH
G0 F7200 X39.05 Y70.924
G0 X39.049 Y69.884
G0 X39.051 Y62.116
G0 X39.05 Y61.076
G0 X39.05 Y59.207
;TIME_ELAPSED:92.593048
;LAYER:3
;MESH:Smashing Jofo-Amberis.stl
G0 X39.05 Y59.207 Z1.052
;TYPE:WALL-INNER
G1 F2400 E64.66877
G1 F2700 X81.125 Y59.208 E66.27898
G1 X81.125 Y60.792 E66.3396
G1 X39.05 Y60.793 E67.9498
G1 X38.875 Y60.793 E67.9565
G1 X38.875 Y60.618 E67.96084
G1 X38.875 Y59.382 E68.00814
G1 X38.875 Y59.207 E68.01483
G1 X39.05 Y59.207 E68.01917
G0 F7200 X38.7 Y58.857
G1 F2700 X81.475 Y58.858 E69.65617
G1 X81.475 Y61.142 E69.74357
G1 X38.7 Y61.143 E71.38057
G1 X38.525 Y61.143 E71.38727
G1 X38.525 Y60.968 E71.3916
G1 X38.525 Y59.032 E71.46569
G1 X38.525 Y58.857 E71.47239
G1 X38.7 Y58.857 E71.47672
G0 F7200 X38.375 Y58.532
;TYPE:WALL-OUTER
G1 F2025 X81.8 Y58.533 E73.1386
G1 X81.8 Y61.467 E73.25088
G1 X38.375 Y61.468 E74.91275
G1 X38.2 Y61.468 E74.91945
G1 X38.2 Y61.293 E74.92378
G1 X38.2 Y58.707 E75.02275
G1 X38.2 Y58.532 E75.02945
G1 X38.375 Y58.532 E75.03378
G0 F7200 X38.575 Y58.532
G0 X38.574 Y58.807
G0 X39.216 Y59.293
G0 X39.215 Y59.547
;TYPE:SKIN
G1 F1080 X80.785 Y59.548 E76.62466
G1 X80.785 Y60.452 E76.65926
G1 X39.215 Y60.453 E78.25014
G1 X39.215 Y60.241 E78.25825
G0 F972 X39.215 Y59.547
G0 F7200 X39.372 Y60.117
G1 F2400 E78.28481
G1 F1080 X39.786 Y59.703 E78.30722
G0 F7200 X40.281 Y59.703
G1 F1080 X39.689 Y60.294 E78.33923
G0 F7200 X40.184 Y60.294
G1 F1080 X40.776 Y59.703 E78.37125
G0 F7200 X41.271 Y59.703
G1 F1080 X40.679 Y60.294 E78.40326
G0 F7200 X41.174 Y60.294
G1 F1080 X41.766 Y59.703 E78.43527
G0 F7200 X42.261 Y59.703
G1 F1080 X41.669 Y60.294 E78.46728
G0 F7200 X42.164 Y60.294
G1 F1080 X42.756 Y59.703 E78.4993
G0 F7200 X43.251 Y59.703
G1 F1080 X42.659 Y60.294 E78.53131
G0 F7200 X43.154 Y60.294
G1 F1080 X43.746 Y59.703 E78.56332
G0 F7200 X44.241 Y59.703
G1 F1080 X43.649 Y60.294 E78.59534
G0 F7200 X44.144 Y60.294
G1 F1080 X44.736 Y59.703 E78.62735
G0 F7200 X45.231 Y59.703
G1 F1080 X44.639 Y60.294 E78.65936
G0 F7200 X45.134 Y60.294
G1 F1080 X45.726 Y59.703 E78.69138
G0 F7200 X46.221 Y59.703
G1 F1080 X45.629 Y60.294 E78.72339
G0 F7200 X46.124 Y60.294
G1 F1080 X46.716 Y59.703 E78.7554
G0 F7200 X47.211 Y59.703
G1 F1080 X46.619 Y60.294 E78.78742
G0 F7200 X47.114 Y60.294
G1 F1080 X47.706 Y59.703 E78.81943
G0 F7200 X48.201 Y59.703
G1 F1080 X47.609 Y60.294 E78.85144
G0 F7200 X48.104 Y60.294
G1 F1080 X48.696 Y59.703 E78.88346
G0 F7200 X49.191 Y59.703
G1 F1080 X48.599 Y60.294 E78.91547
G0 F7200 X49.094 Y60.294
G1 F1080 X49.686 Y59.703 E78.94748
G0 F7200 X50.181 Y59.703
G1 F1080 X49.589 Y60.294 E78.97949
G0 F7200 X50.084 Y60.294
G1 F1080 X50.676 Y59.703 E79.01151
G0 F7200 X51.171 Y59.703
G1 F1080 X50.579 Y60.294 E79.04352
G0 F7200 X51.074 Y60.294
G1 F1080 X51.666 Y59.703 E79.07553
G0 F7200 X52.161 Y59.703
G1 F1080 X51.569 Y60.294 E79.10755
G0 F7200 X52.064 Y60.294
G1 F1080 X52.656 Y59.703 E79.13956
G0 F7200 X53.15 Y59.703
G1 F1080 X52.559 Y60.294 E79.17155
G0 F7200 X53.054 Y60.294
G1 F1080 X53.645 Y59.703 E79.20353
G0 F7200 X54.14 Y59.703
G1 F1080 X53.549 Y60.294 E79.23552
G0 F7200 X54.044 Y60.294
G1 F1080 X54.635 Y59.703 E79.2675
G0 F7200 X55.13 Y59.703
G1 F1080 X54.539 Y60.294 E79.29949
G0 F7200 X55.034 Y60.294
G1 F1080 X55.625 Y59.703 E79.33148
G0 F7200 X56.12 Y59.703
G1 F1080 X55.529 Y60.294 E79.36346
G0 F7200 X56.024 Y60.294
G1 F1080 X56.615 Y59.703 E79.39545
G0 F7200 X57.11 Y59.703
G1 F1080 X56.519 Y60.294 E79.42743
G0 F7200 X57.014 Y60.294
G1 F1080 X57.605 Y59.703 E79.45942
G0 F7200 X58.1 Y59.703
G1 F1080 X57.508 Y60.294 E79.49143
G0 F7200 X58.003 Y60.294
G1 F1080 X58.595 Y59.703 E79.52345
G0 F7200 X59.09 Y59.703
G1 F1080 X58.498 Y60.294 E79.55546
G0 F7200 X58.993 Y60.294
G1 F1080 X59.585 Y59.703 E79.58747
G0 F7200 X60.08 Y59.703
G1 F1080 X59.488 Y60.294 E79.61949
G0 F7200 X59.983 Y60.294
G1 F1080 X60.575 Y59.703 E79.6515
G0 F7200 X61.069 Y59.703
G1 F1080 X60.478 Y60.294 E79.68348
G0 F7200 X60.973 Y60.294
G1 F1080 X61.564 Y59.703 E79.71547
G0 F7200 X62.059 Y59.703
G1 F1080 X61.468 Y60.294 E79.74746
G0 F7200 X61.963 Y60.294
G1 F1080 X62.554 Y59.703 E79.77944
G0 F7200 X63.049 Y59.703
G1 F1080 X62.458 Y60.294 E79.81143
G0 F7200 X62.953 Y60.294
G1 F1080 X63.544 Y59.703 E79.84342
G0 F7200 X64.039 Y59.703
G1 F1080 X63.448 Y60.294 E79.8754
G0 F7200 X63.943 Y60.294
G1 F1080 X64.534 Y59.703 E79.90739
G0 F7200 X65.029 Y59.703
G1 F1080 X64.438 Y60.294 E79.93937
G0 F7200 X64.933 Y60.294
G1 F1080 X65.524 Y59.703 E79.97136
G0 F7200 X66.019 Y59.703
G1 F1080 X65.428 Y60.294 E80.00335
G0 F7200 X65.923 Y60.294
G1 F1080 X66.514 Y59.703 E80.03533
G0 F7200 X67.008 Y59.704
G1 F1080 X66.418 Y60.294 E80.06726
G0 F7200 X66.913 Y60.294
G1 F1080 X67.503 Y59.704 E80.09919
G0 F7200 X67.998 Y59.704
G1 F1080 X67.408 Y60.294 E80.13113
G0 F7200 X67.903 Y60.294
G1 F1080 X68.493 Y59.704 E80.16306
G0 F7200 X68.988 Y59.704
G1 F1080 X68.398 Y60.294 E80.19499
G0 F7200 X68.893 Y60.294
G1 F1080 X69.483 Y59.704 E80.22692
G0 F7200 X69.978 Y59.704
G1 F1080 X69.388 Y60.294 E80.25885
G0 F7200 X69.883 Y60.294
G1 F1080 X70.473 Y59.704 E80.29079
G0 F7200 X70.968 Y59.704
G1 F1080 X70.378 Y60.294 E80.32272
G0 F7200 X70.873 Y60.294
G1 F1080 X71.463 Y59.704 E80.35465
G0 F7200 X71.958 Y59.704
G1 F1080 X71.368 Y60.294 E80.38658
G0 F7200 X71.863 Y60.294
G1 F1080 X72.453 Y59.704 E80.41851
G0 F7200 X72.948 Y59.704
G1 F1080 X72.358 Y60.294 E80.45045
G0 F7200 X72.853 Y60.294
G1 F1080 X73.443 Y59.704 E80.48238
G0 F7200 X73.938 Y59.704
G1 F1080 X73.348 Y60.294 E80.51431
G0 F7200 X73.843 Y60.294
G1 F1080 X74.433 Y59.704 E80.54624
G0 F7200 X74.928 Y59.704
G1 F1080 X74.338 Y60.294 E80.57817
G0 F7200 X74.833 Y60.294
G1 F1080 X75.423 Y59.704 E80.61011
G0 F7200 X75.918 Y59.704
G1 F1080 X75.328 Y60.294 E80.64204
G0 F7200 X75.823 Y60.294
G1 F1080 X76.413 Y59.704 E80.67397
G0 F7200 X76.908 Y59.704
G1 F1080 X76.318 Y60.294 E80.7059
G0 F7200 X76.813 Y60.294
G1 F1080 X77.403 Y59.704 E80.73783
G0 F7200 X77.898 Y59.704
G1 F1080 X77.307 Y60.294 E80.76979
G0 F7200 X77.802 Y60.294
G1 F1080 X78.393 Y59.704 E80.80175
G0 F7200 X78.888 Y59.704
G1 F1080 X78.297 Y60.294 E80.83371
G0 F7200 X78.792 Y60.294
G1 F1080 X79.383 Y59.704 E80.86567
G0 F7200 X79.878 Y59.704
G1 F1080 X79.287 Y60.294 E80.89763
G0 F7200 X79.782 Y60.294
G1 F1080 X80.373 Y59.704 E80.92959
G0 F7200 X80.627 Y59.945
G1 F1080 X80.277 Y60.294 E80.9485
G0 F7200 X80.278 Y60.942
G1 F2400 E78.4485
;MESH:Smashing Jofo-Amberis.stl(1)
G0 F7200 X39.05 Y61.292
G0 X39.051 Y62.332
G0 X39.049 Y69.667
G0 X39.049 Y70.727
G0 X39.05 Y71.207
;TYPE:WALL-INNER
G1 F2400 E80.9485
G1 F2700 X81.125 Y71.208 E82.55871
G1 X81.125 Y72.792 E82.61933
G1 X39.05 Y72.793 E84.22954
G1 X38.875 Y72.793 E84.23624
G1 X38.875 Y72.618 E84.24057
G1 X38.875 Y71.382 E84.28787
G1 X38.875 Y71.207 E84.29457
G1 X39.05 Y71.207 E84.2989
G0 F7200 X38.7 Y70.857
G1 F2700 X81.475 Y70.858 E85.9359
G1 X81.475 Y73.142 E86.02331
G1 X38.7 Y73.143 E87.6603
G1 X38.525 Y73.143 E87.667
G1 X38.525 Y72.968 E87.67134
G1 X38.525 Y71.032 E87.74543
G1 X38.525 Y70.857 E87.75212
G1 X38.7 Y70.857 E87.75646
G0 F7200 X38.375 Y70.532
;TYPE:WALL-OUTER
G1 F2025 X81.8 Y70.533 E89.41833
G1 X81.8 Y73.467 E89.53061
G1 X38.375 Y73.468 E91.19249
G1 X38.2 Y73.468 E91.19918
G1 X38.2 Y73.293 E91.20352
G1 X38.2 Y70.707 E91.30248
G1 X38.2 Y70.532 E91.30918
G1 X38.375 Y70.532 E91.31352
G0 F7200 X38.575 Y70.532
G0 X38.574 Y70.807
G0 X39.216 Y71.293
G0 X39.215 Y71.547
;TYPE:SKIN
G1 F1080 X80.785 Y71.548 E92.9044
G1 X80.785 Y72.452 E92.93899
G1 X39.215 Y72.453 E94.52987
G1 X39.215 Y72.241 E94.53799
G0 F972 X39.215 Y71.547
G0 F7200 X39.372 Y71.996
G1 F2400 E94.56455
G1 F1080 X39.665 Y71.703 E94.5804
G0 F7200 X40.16 Y71.703
G1 F1080 X39.568 Y72.295 E94.61244
G0 F7200 X40.063 Y72.295
G1 F1080 X40.655 Y71.703 E94.64448
G0 F7200 X41.15 Y71.703
G1 F1080 X40.558 Y72.295 E94.67652
G0 F7200 X41.053 Y72.295
G1 F1080 X41.645 Y71.703 E94.70857
G0 F7200 X42.14 Y71.703
G1 F1080 X41.548 Y72.295 E94.74061
G0 F7200 X42.043 Y72.295
G1 F1080 X42.635 Y71.703 E94.77265
G0 F7200 X43.13 Y71.703
G1 F1080 X42.538 Y72.295 E94.80469
G0 F7200 X43.033 Y72.295
G1 F1080 X43.625 Y71.703 E94.83673
G0 F7200 X44.12 Y71.703
G1 F1080 X43.528 Y72.295 E94.86877
G0 F7200 X44.023 Y72.295
G1 F1080 X44.615 Y71.703 E94.90081
G0 F7200 X45.11 Y71.703
G1 F1080 X44.518 Y72.295 E94.93285
G0 F7200 X45.013 Y72.295
G1 F1080 X45.605 Y71.703 E94.96489
G0 F7200 X46.1 Y71.703
G1 F1080 X45.508 Y72.295 E94.99693
G0 F7200 X46.003 Y72.295
G1 F1080 X46.595 Y71.703 E95.02897
G0 F7200 X47.09 Y71.703
G1 F1080 X46.498 Y72.295 E95.06101
G0 F7200 X46.993 Y72.295
G1 F1080 X47.585 Y71.703 E95.09305
G0 F7200 X48.08 Y71.703
G1 F1080 X47.488 Y72.295 E95.12509
G0 F7200 X47.983 Y72.295
G1 F1080 X48.575 Y71.703 E95.15713
G0 F7200 X49.07 Y71.703
G1 F1080 X48.478 Y72.295 E95.18917
G0 F7200 X48.973 Y72.295
G1 F1080 X49.565 Y71.703 E95.22121
G0 F7200 X50.06 Y71.703
G1 F1080 X49.468 Y72.295 E95.25325
