;FLAVOR:Marlin
;TIME:22816
;Filament used: 31.303m
;Layer height: 0.2625
;Generated with Cura_SteamEngine 3.6.0
M140 S60
M105
M190 S60
M104 S210
M105
M109 S210
M82 ;absolute extrusion mode
G21;(metric values)
G90;(absolute positioning)
M82;(set extruder to absolute mode)
M107;(start with the fan off)
G28;(Home the printer)
G92 E0;(Reset the extruder to 0)
G0 Z5 E5 F500;(Move up and prime the nozzle)
G0 X-1 Z0;(Move outside the printable area)
G1 Y60 E8 F500;(Draw a priming/wiping line to the rear)
G1 X-1;(Move a little closer to the print area)
G1 Y10 E16 F500;(draw more priming/wiping)
G1 E15 F250;(Small retract)
G92 E0;(Zero the extruder)
G92 E0
G1 F2400 E-2.5
;LAYER_COUNT:445
;LAYER:0
M107
G0 F4320 X41.744 Y52.791 Z0.263
;TYPE:SKIRT
G1 F2400 E0
G1 F1620 X54.888 Y39.647 E0.71138
G1 X55.366 Y39.226 E0.73575
G1 X55.893 Y38.868 E0.76014
G1 X56.46 Y38.579 E0.78449
G1 X57.059 Y38.363 E0.80886
G1 X57.109 Y38.352 E0.81082
G1 X57.21 Y38.006 E0.82461
G1 X57.463 Y37.422 E0.84897
G1 X57.788 Y36.874 E0.87335
G1 X58.394 Y36.141 E0.90975
G1 X76.075 Y18.46 E1.86668
G1 X76.553 Y18.039 E1.89106
G1 X77.08 Y17.681 E1.91544
G1 X77.647 Y17.392 E1.93979
G1 X78.246 Y17.176 E1.96416
G1 X78.635 Y17.079 E1.9795
G1 X96.174 Y13.449 E2.66495
G1 X96.805 Y13.36 E2.68933
G1 X97.442 Y13.35 E2.71371
G1 X98.075 Y13.419 E2.73808
G1 X98.694 Y13.568 E2.76245
G1 X99.29 Y13.793 E2.78683
G1 X99.853 Y14.091 E2.81121
G1 X100.374 Y14.457 E2.83557
G1 X100.791 Y14.83 E2.85698
G1 X106.355 Y20.392 E3.15806
G1 X106.776 Y20.869 E3.18241
G1 X107.134 Y21.396 E3.20679
G1 X107.424 Y21.963 E3.23117
G1 X107.64 Y22.562 E3.25553
G1 X107.779 Y23.184 E3.27993
G1 X107.839 Y23.818 E3.3043
G1 X107.82 Y24.455 E3.32869
G1 X107.737 Y25.009 E3.35012
G1 X104.109 Y42.549 E4.03559
G1 X103.941 Y43.163 E4.05995
G1 X103.697 Y43.752 E4.08435
G1 X103.382 Y44.305 E4.1087
G1 X103 Y44.815 E4.13309
G1 X102.727 Y45.11 E4.14847
G1 X85.044 Y62.792 E5.10548
G1 X84.567 Y63.213 E5.12983
G1 X84.04 Y63.571 E5.15421
G1 X83.473 Y63.86 E5.17857
G1 X82.873 Y64.076 E5.20297
G1 X82.821 Y64.088 E5.20501
G1 X82.724 Y64.422 E5.21832
G1 X82.472 Y65.007 E5.2427
G1 X82.148 Y65.555 E5.26706
G1 X81.758 Y66.059 E5.29145
G1 X81.537 Y66.295 E5.30383
G1 X68.395 Y79.441 E6.0152
G1 X67.917 Y79.862 E6.03958
G1 X67.391 Y80.22 E6.06393
G1 X66.823 Y80.51 E6.08834
G1 X66.224 Y80.726 E6.11271
G1 X66.172 Y80.738 E6.11475
G1 X66.076 Y81.07 E6.12797
G1 X65.824 Y81.655 E6.15235
G1 X65.501 Y82.204 E6.17673
G1 X65.111 Y82.707 E6.20109
G1 X64.888 Y82.945 E6.21357
G1 X45.61 Y102.226 E7.25701
G1 X45.132 Y102.648 E7.28141
G1 X44.606 Y103.006 E7.30576
G1 X44.038 Y103.295 E7.33015
G1 X43.439 Y103.511 E7.35452
G1 X43.014 Y103.615 E7.37126
G1 X25.634 Y107.084 E8.04952
G1 X25.003 Y107.169 E8.07388
G1 X24.366 Y107.175 E8.09826
G1 X23.734 Y107.1 E8.12262
G1 X23.116 Y106.947 E8.14698
G1 X22.521 Y106.718 E8.17138
G1 X21.961 Y106.416 E8.19573
G1 X21.442 Y106.047 E8.2201
G1 X21.053 Y105.696 E8.24015
G1 X15.489 Y100.134 E8.54123
G1 X15.068 Y99.657 E8.56558
G1 X14.71 Y99.13 E8.58996
G1 X14.42 Y98.563 E8.61433
G1 X14.204 Y97.964 E8.6387
G1 X14.065 Y97.342 E8.66309
G1 X14.005 Y96.708 E8.68747
G1 X14.024 Y96.071 E8.71185
G1 X14.1 Y95.551 E8.73197
G1 X17.57 Y78.172 E9.41019
G1 X17.734 Y77.557 E9.43455
G1 X17.973 Y76.967 E9.45891
G1 X18.285 Y76.411 E9.48331
G1 X18.663 Y75.899 E9.50766
G1 X18.958 Y75.578 E9.52435
G1 X38.237 Y56.298 E10.56779
G1 X38.715 Y55.876 E10.59219
G1 X39.242 Y55.518 E10.61657
G1 X39.809 Y55.229 E10.64093
G1 X40.408 Y55.013 E10.6653
G1 X40.459 Y55.002 E10.66729
G1 X40.557 Y54.665 E10.68072
G1 X40.809 Y54.08 E10.7051
G1 X41.133 Y53.532 E10.72946
G1 X41.297 Y53.32 E10.73972
G0 F1458 X41.523 Y53.028
G0 X41.744 Y52.791
G0 F4320 X41.992 Y53.039
G1 F2400 E10.76628
G1 F1620 X55.136 Y39.895 E11.47766
G1 X55.598 Y39.49 E11.50117
G1 X56.108 Y39.148 E11.52467
G1 X56.659 Y38.875 E11.5482
G1 X57.24 Y38.676 E11.57171
G1 X57.391 Y38.646 E11.5776
G1 X57.414 Y38.526 E11.58228
G1 X57.609 Y37.944 E11.60577
G1 X57.878 Y37.391 E11.6293
G1 X58.216 Y36.878 E11.65281
G1 X58.642 Y36.389 E11.67763
G1 X76.323 Y18.708 E12.63456
G1 X76.785 Y18.303 E12.65807
G1 X77.295 Y17.961 E12.68157
G1 X77.846 Y17.688 E12.7051
G1 X78.706 Y17.422 E12.73955
G1 X96.245 Y13.792 E13.425
G1 X96.854 Y13.707 E13.44853
G1 X97.468 Y13.701 E13.47203
G1 X98.078 Y13.776 E13.49555
G1 X98.674 Y13.929 E13.5191
G1 X99.244 Y14.157 E13.54259
G1 X99.78 Y14.458 E13.56612
G1 X100.272 Y14.826 E13.58963
G1 X100.543 Y15.077 E13.60377
G1 X106.107 Y20.639 E13.90485
G1 X106.513 Y21.101 E13.92838
G1 X106.855 Y21.612 E13.95191
G1 X107.128 Y22.162 E13.97541
G1 X107.327 Y22.743 E13.99892
G1 X107.449 Y23.346 E14.02246
G1 X107.492 Y23.959 E14.04598
G1 X107.455 Y24.572 E14.06948
G1 X107.394 Y24.938 E14.08368
G1 X103.766 Y42.478 E14.76914
G1 X103.603 Y43.07 E14.79264
G1 X103.364 Y43.637 E14.81619
G1 X103.054 Y44.167 E14.83969
G1 X102.48 Y44.862 E14.87418
G1 X84.797 Y62.544 E15.83119
G1 X84.335 Y62.949 E15.85471
G1 X83.825 Y63.291 E15.87821
G1 X83.274 Y63.564 E15.90174
G1 X82.693 Y63.763 E15.92524
G1 X82.54 Y63.794 E15.93122
G1 X82.519 Y63.902 E15.93543
G1 X82.326 Y64.485 E15.95893
G1 X82.058 Y65.038 E15.98245
G1 X81.72 Y65.552 E16.00599
G1 X81.29 Y66.048 E16.03111
G1 X68.148 Y79.194 E16.74249
G1 X67.686 Y79.599 E16.766
G1 X67.175 Y79.941 E16.78953
G1 X66.625 Y80.214 E16.81303
G1 X66.043 Y80.413 E16.83657
G1 X65.891 Y80.444 E16.84251
G1 X65.871 Y80.55 E16.84664
G1 X65.677 Y81.133 E16.87015
G1 X65.41 Y81.687 E16.89369
G1 X65.073 Y82.2 E16.91718
G1 X64.64 Y82.698 E16.94243
G1 X45.362 Y101.979 E17.98587
G1 X44.901 Y102.384 E18.00936
G1 X44.39 Y102.726 E18.03289
G1 X43.839 Y102.999 E18.05642
G1 X43.258 Y103.198 E18.07993
G1 X42.946 Y103.272 E18.0922
G1 X25.566 Y106.741 E18.77045
G1 X24.957 Y106.821 E18.79396
G1 X24.342 Y106.823 E18.81749
G1 X23.733 Y106.744 E18.84099
G1 X23.139 Y106.587 E18.86451
G1 X22.57 Y106.354 E18.88804
G1 X22.036 Y106.049 E18.91157
G1 X21.547 Y105.678 E18.93506
G1 X21.301 Y105.449 E18.94792
G1 X15.737 Y99.887 E19.249
G1 X15.331 Y99.425 E19.27254
G1 X14.989 Y98.914 E19.29607
G1 X14.716 Y98.364 E19.31957
G1 X14.517 Y97.783 E19.34307
G1 X14.395 Y97.18 E19.36662
G1 X14.352 Y96.567 E19.39014
G1 X14.389 Y95.954 E19.41364
G1 X14.443 Y95.62 E19.42659
G1 X17.913 Y78.241 E20.10481
G1 X18.073 Y77.647 E20.12835
G1 X18.308 Y77.08 E20.15184
G1 X18.614 Y76.547 E20.17536
G1 X18.987 Y76.059 E20.19887
G1 X19.206 Y75.825 E20.21113
G1 X38.485 Y56.545 E21.25457
G1 X38.947 Y56.14 E21.27809
G1 X39.457 Y55.798 E21.30159
G1 X40.008 Y55.525 E21.32512
G1 X40.589 Y55.326 E21.34862
G1 X40.741 Y55.295 E21.35456
G1 X40.762 Y55.185 E21.35884
G1 X40.955 Y54.602 E21.38235
G1 X41.223 Y54.049 E21.40586
G1 X41.541 Y53.565 E21.42803
G0 F1458 X41.561 Y53.535
G0 X41.992 Y53.039
G0 F4320 X42.239 Y53.286
G1 F2400 E21.45459
G1 F1620 X55.383 Y40.142 E22.16596
G1 X55.829 Y39.754 E22.18859
G1 X56.323 Y39.428 E22.21124
G1 X56.856 Y39.173 E22.23385
G1 X57.418 Y38.991 E22.25646
G1 X57.684 Y38.944 E22.2668
G1 X57.801 Y38.444 E22.28645
G1 X58.013 Y37.892 E22.30908
G1 X58.297 Y37.373 E22.33172
G1 X58.649 Y36.898 E22.35434
G1 X58.889 Y36.636 E22.36794
G1 X76.57 Y18.955 E23.32487
G1 X77.016 Y18.567 E23.34749
G1 X77.51 Y18.241 E23.37014
G1 X78.043 Y17.986 E23.39276
G1 X78.777 Y17.765 E23.42209
G1 X96.316 Y14.135 E24.10753
G1 X96.902 Y14.054 E24.13017
G1 X97.493 Y14.054 E24.15279
G1 X98.079 Y14.133 E24.17542
G1 X98.649 Y14.29 E24.19805
G1 X99.193 Y14.523 E24.22069
G1 X99.7 Y14.827 E24.24332
G1 X100.296 Y15.325 E24.27304
G1 X105.86 Y20.887 E24.57412
G1 X106.249 Y21.332 E24.59674
G1 X106.574 Y21.826 E24.61937
G1 X106.83 Y22.359 E24.642
G1 X107.012 Y22.922 E24.66464
G1 X107.116 Y23.504 E24.68727
G1 X107.141 Y24.094 E24.70987
G1 X107.051 Y24.867 E24.73965
G1 X103.423 Y42.407 E25.42512
G1 X103.265 Y42.977 E25.44775
G1 X103.031 Y43.52 E25.47038
G1 X102.726 Y44.026 E25.49299
G1 X102.233 Y44.615 E25.52238
G1 X84.55 Y62.297 E26.47939
G1 X84.104 Y62.686 E26.50204
G1 X83.61 Y63.011 E26.52467
G1 X83.077 Y63.267 E26.5473
G1 X82.515 Y63.448 E26.5699
G1 X82.246 Y63.496 E26.58035
G1 X82.132 Y63.986 E26.59961
G1 X81.921 Y64.538 E26.62222
G1 X81.638 Y65.057 E26.64485
G1 X81.288 Y65.533 E26.66746
G1 X81.042 Y65.8 E26.68135
G1 X67.9 Y78.946 E27.39273
G1 X67.455 Y79.335 E27.41535
G1 X66.961 Y79.66 E27.43798
G1 X66.428 Y79.916 E27.46061
G1 X65.865 Y80.098 E27.48325
G1 X65.597 Y80.146 E27.49367
G1 X65.484 Y80.634 E27.51284
G1 X65.273 Y81.186 E27.53546
G1 X64.99 Y81.706 E27.55811
G1 X64.64 Y82.182 E27.58072
G1 X64.393 Y82.45 E27.59467
G1 X45.115 Y101.731 E28.63811
G1 X44.669 Y102.12 E28.66076
G1 X44.176 Y102.446 E28.68338
G1 X43.643 Y102.701 E28.70599
G1 X42.877 Y102.928 E28.73657
G1 X25.497 Y106.397 E29.41482
G1 X24.911 Y106.474 E29.43744
G1 X24.32 Y106.47 E29.46006
G1 X23.734 Y106.387 E29.48271
G1 X23.166 Y106.226 E29.5053
G1 X22.624 Y105.989 E29.52794
G1 X22.119 Y105.682 E29.55056
G1 X21.548 Y105.201 E29.57913
G1 X15.984 Y99.639 E29.88021
G1 X15.595 Y99.194 E29.90283
G1 X15.27 Y98.7 E29.92546
G1 X15.014 Y98.167 E29.94809
G1 X14.832 Y97.604 E29.97073
G1 X14.728 Y97.022 E29.99336
G1 X14.703 Y96.432 E30.01596
G1 X14.787 Y95.688 E30.04461
G1 X18.257 Y78.309 E30.72283
G1 X18.411 Y77.739 E30.74543
G1 X18.642 Y77.194 E30.76808
G1 X18.943 Y76.685 E30.79071
G1 X19.453 Y76.072 E30.82123
G1 X38.732 Y56.792 E31.86467
G1 X39.178 Y56.404 E31.88729
G1 X39.671 Y56.078 E31.90991
G1 X40.205 Y55.823 E31.93256
G1 X40.767 Y55.641 E31.95517
G1 X41.034 Y55.593 E31.96555
G1 X41.149 Y55.101 E31.98489
G1 X41.36 Y54.549 E32.0075
G1 X41.643 Y54.03 E32.03012
G1 X41.797 Y53.821 E32.04006
G0 F1458 X41.993 Y53.554
G0 X42.239 Y53.286
G0 F4320 X42.487 Y53.534
G1 F2400 E32.06662
G1 F1620 X55.631 Y40.39 E32.778
G1 X56.059 Y40.018 E32.7997
G1 X56.535 Y39.71 E32.8214
G1 X57.05 Y39.472 E32.84311
G1 X57.593 Y39.309 E32.8648
G1 X57.997 Y39.248 E32.88044
G1 X58.041 Y38.917 E32.89322
G1 X58.194 Y38.371 E32.91492
G1 X58.423 Y37.852 E32.93663
G1 X58.722 Y37.37 E32.95834
G1 X59.137 Y36.884 E32.98279
G1 X76.818 Y19.203 E33.93972
G1 X77.246 Y18.831 E33.96142
G1 X77.722 Y18.523 E33.98312
G1 X78.237 Y18.285 E34.00483
G1 X78.848 Y18.108 E34.02918
G1 X96.387 Y14.478 E34.71462
G1 X96.949 Y14.402 E34.73632
G1 X97.516 Y14.406 E34.75802
G1 X98.077 Y14.49 E34.77973
G1 X98.621 Y14.652 E34.80145
G1 X99.136 Y14.889 E34.82315
G1 X99.613 Y15.195 E34.84484
G1 X100.049 Y15.572 E34.8669
G1 X105.613 Y21.134 E35.16798
G1 X105.984 Y21.563 E35.18968
G1 X106.292 Y22.039 E35.21138
G1 X106.53 Y22.554 E35.23309
G1 X106.694 Y23.097 E35.2548
G1 X106.779 Y23.657 E35.27648
G1 X106.785 Y24.224 E35.29818
G1 X106.709 Y24.796 E35.32026
G1 X103.081 Y42.336 E36.00572
G1 X102.927 Y42.882 E36.02743
G1 X102.698 Y43.401 E36.04914
G1 X102.398 Y43.883 E36.07087
G1 X101.985 Y44.367 E36.09522
G1 X84.302 Y62.049 E37.05223
G1 X83.874 Y62.421 E37.07393
G1 X83.398 Y62.729 E37.09563
G1 X82.883 Y62.967 E37.11734
G1 X82.34 Y63.13 E37.13904
G1 X81.934 Y63.192 E37.15475
G1 X81.891 Y63.513 E37.16715
G1 X81.739 Y64.059 E37.18884
G1 X81.511 Y64.579 E37.21057
G1 X81.213 Y65.061 E37.23226
G1 X80.795 Y65.553 E37.25696
G1 X67.653 Y78.699 E37.96834
G1 X67.224 Y79.07 E37.99005
G1 X66.748 Y79.378 E38.01174
G1 X66.233 Y79.616 E38.03345
G1 X65.69 Y79.78 E38.05516
G1 X65.285 Y79.841 E38.07084
G1 X65.243 Y80.161 E38.08319
G1 X65.091 Y80.708 E38.10491
G1 X64.863 Y81.227 E38.12661
G1 X64.565 Y81.71 E38.14833
G1 X64.145 Y82.203 E38.17311
G1 X44.867 Y101.484 E39.21656
G1 X44.439 Y101.856 E39.23826
G1 X43.963 Y102.164 E39.25996
G1 X43.448 Y102.402 E39.28167
G1 X42.809 Y102.585 E39.30711
G1 X25.429 Y106.054 E39.98536
G1 X24.866 Y106.126 E40.00708
G1 X24.299 Y106.117 E40.02878
G1 X23.739 Y106.03 E40.05047
G1 X23.197 Y105.864 E40.07216
G1 X22.683 Y105.624 E40.09387
G1 X22.208 Y105.314 E40.11558
G1 X21.795 Y104.954 E40.13654
G1 X16.231 Y99.392 E40.43762
G1 X15.86 Y98.963 E40.45933
G1 X15.552 Y98.487 E40.48103
G1 X15.314 Y97.972 E40.50274
G1 X15.15 Y97.429 E40.52445
G1 X15.065 Y96.869 E40.54612
G1 X15.059 Y96.302 E40.56782
G1 X15.13 Y95.757 E40.58886
G1 X18.6 Y78.378 E41.26708
G1 X18.75 Y77.831 E41.28879
G1 X18.975 Y77.311 E41.31047
G1 X19.271 Y76.827 E41.33218
G1 X19.701 Y76.32 E41.35762
G1 X38.98 Y57.04 E42.40106
G1 X39.408 Y56.668 E42.42277
G1 X39.884 Y56.36 E42.44446
G1 X40.399 Y56.122 E42.46618
G1 X40.942 Y55.959 E42.48787
G1 X41.347 Y55.898 E42.50355
G1 X41.39 Y55.574 E42.51605
G1 X41.542 Y55.028 E42.53774
G1 X41.77 Y54.508 E42.55947
G1 X42.043 Y54.066 E42.57936
G0 F1458 X42.068 Y54.026
G0 X42.487 Y53.534
G0 F4320 X42.734 Y53.781
G1 F2400 E42.60592
G1 F1620 X55.878 Y40.637 E43.31729
G1 X56.289 Y40.284 E43.33803
G1 X56.747 Y39.994 E43.35877
G1 X57.242 Y39.775 E43.37949
G1 X57.765 Y39.631 E43.40025
G1 X58.302 Y39.565 E43.42095
G1 X58.321 Y39.565 E43.42168
G1 X58.327 Y39.356 E43.42968
G1 X58.422 Y38.823 E43.4504
G1 X58.594 Y38.309 E43.47114
G1 X58.84 Y37.826 E43.49189
G1 X59.154 Y37.385 E43.51261
G1 X59.384 Y37.131 E43.52572
G1 X77.065 Y19.45 E44.48265
G1 X77.476 Y19.097 E44.50338
G1 X77.934 Y18.807 E44.52413
G1 X78.429 Y18.588 E44.54484
G1 X78.919 Y18.45 E44.56433
G1 X96.458 Y14.82 E45.24977
G1 X96.995 Y14.75 E45.27049
G1 X97.537 Y14.759 E45.29124
G1 X98.072 Y14.848 E45.31199
G1 X98.587 Y15.015 E45.33271
G1 X99.073 Y15.255 E45.35346
G1 X99.518 Y15.565 E45.37421
G1 X99.801 Y15.82 E45.38879
G1 X105.365 Y21.382 E45.68987
G1 X105.719 Y21.792 E45.7106
G1 X106.009 Y22.25 E45.73134
G1 X106.228 Y22.746 E45.75209
G1 X106.372 Y23.268 E45.77282
G1 X106.438 Y23.806 E45.79356
G1 X106.424 Y24.347 E45.81427
G1 X106.366 Y24.725 E45.82891
G1 X102.738 Y42.265 E46.51437
G1 X102.589 Y42.786 E46.53511
G1 X102.366 Y43.28 E46.55585
G1 X102.072 Y43.735 E46.57658
G1 X101.738 Y44.12 E46.59609
G1 X84.055 Y61.802 E47.5531
G1 X83.644 Y62.156 E47.57386
G1 X83.186 Y62.445 E47.59458
G1 X82.691 Y62.664 E47.6153
G1 X82.168 Y62.808 E47.63606
G1 X81.63 Y62.874 E47.6568
G1 X81.61 Y62.873 E47.65757
G1 X81.605 Y63.074 E47.66526
G1 X81.511 Y63.608 E47.68601
G1 X81.34 Y64.122 E47.70674
G1 X81.095 Y64.605 E47.72747
G1 X80.781 Y65.047 E47.74822
G1 X80.547 Y65.305 E47.76155
G1 X67.405 Y78.451 E48.47293
G1 X66.995 Y78.805 E48.49366
G1 X66.537 Y79.095 E48.5144
G1 X66.041 Y79.314 E48.53515
G1 X65.519 Y79.458 E48.55588
G1 X64.981 Y79.524 E48.57662
G1 X64.961 Y79.523 E48.57739
G1 X64.956 Y79.722 E48.585
G1 X64.862 Y80.256 E48.60575
G1 X64.691 Y80.77 E48.62649
G1 X64.447 Y81.254 E48.64723
G1 X64.134 Y81.696 E48.66796
G1 X63.898 Y81.955 E48.68137
G1 X44.62 Y101.236 E49.72481
G1 X44.209 Y101.59 E49.74557
G1 X43.752 Y101.88 E49.76628
G1 X43.256 Y102.099 E49.78703
G1 X42.74 Y102.242 E49.80752
G1 X25.36 Y105.711 E50.48577
G1 X24.823 Y105.778 E50.50648
G1 X24.281 Y105.764 E50.52723
G1 X23.747 Y105.672 E50.54797
G1 X23.233 Y105.501 E50.5687
G1 X22.749 Y105.257 E50.58944
G1 X22.306 Y104.945 E50.61018
G1 X22.043 Y104.706 E50.62378
G1 X16.479 Y99.144 E50.92486
G1 X16.125 Y98.734 E50.94559
G1 X15.835 Y98.276 E50.96634
G1 X15.616 Y97.78 E50.98709
G1 X15.472 Y97.258 E51.00781
G1 X15.406 Y96.72 E51.02855
G1 X15.42 Y96.179 E51.04926
G1 X15.473 Y95.825 E51.06296
G1 X18.943 Y78.446 E51.74118
G1 X19.088 Y77.924 E51.76192
G1 X19.308 Y77.429 E51.78265
G1 X19.599 Y76.972 E51.80338
G1 X19.948 Y76.567 E51.82384
G1 X39.227 Y57.287 E52.86728
G1 X39.638 Y56.934 E52.88802
G1 X40.096 Y56.644 E52.90876
G1 X40.591 Y56.425 E52.92948
G1 X41.113 Y56.281 E52.9502
G1 X41.651 Y56.215 E52.97095
G1 X41.671 Y56.216 E52.97171
G1 X41.676 Y56.013 E52.97948
G1 X41.77 Y55.479 E53.00023
G1 X41.941 Y54.965 E53.02096
G1 X42.186 Y54.482 E53.04169
G1 X42.301 Y54.321 E53.04926
G0 F1458 X42.5 Y54.04
G0 X42.734 Y53.781
G0 F4320 X42.982 Y54.029
G1 F2400 E53.07582
G1 F1620 X56.126 Y40.885 E53.7872
G1 X56.517 Y40.55 E53.8069
G1 X56.956 Y40.279 E53.82665
G1 X57.431 Y40.08 E53.84636
G1 X57.932 Y39.956 E53.86611
G1 X58.445 Y39.911 E53.88582
G1 X58.673 Y39.926 E53.89456
G1 X58.658 Y39.756 E53.90109
G1 X58.694 Y39.242 E53.92081
G1 X58.809 Y38.74 E53.94052
G1 X59 Y38.261 E53.96026
G1 X59.263 Y37.818 E53.97997
G1 X59.632 Y37.379 E54.00192
G1 X77.313 Y19.698 E54.95885
G1 X77.704 Y19.363 E54.97855
G1 X78.143 Y19.092 E54.9983
G1 X78.618 Y18.893 E55.018
