;FLAVOR:Marlin
;TIME:6085
;Filament used: 4.98719m
;Layer height: 0.2625
;Generated with Cura_SteamEngine 3.6.0
M140 S60
M105
M190 S60
M104 S210
M105
M109 S210
M82 ;absolute extrusion mode
G21;(metric values)
G90;(absolute positioning)
M82;(set extruder to absolute mode)
M107;(start with the fan off)
G28;(Home the printer)
G92 E0;(Reset the extruder to 0)
G0 Z5 E5 F500;(Move up and prime the nozzle)
G0 X-1 Z0;(Move outside the printable area)
G1 Y60 E8 F500;(Draw a priming/wiping line to the rear)
G1 X-1;(Move a little closer to the print area)
G1 Y10 E16 F500;(draw more priming/wiping)
G1 E15 F250;(Small retract)
G92 E0;(Zero the extruder)
G92 E0
G1 F2400 E-2.5
;LAYER_COUNT:50
;LAYER:0
M107
G0 F4320 X43.727 Y42.6 Z0.263
;TYPE:SKIRT
G1 F2400 E0
G1 F1620 X43.829 Y42.892 E0.01184
G1 X43.962 Y43.515 E0.03622
G1 X44.016 Y44.15 E0.06061
G1 X43.99 Y44.786 E0.08497
G1 X43.942 Y45.127 E0.09814
G1 X41.692 Y58.086 E0.6015
G1 X41.544 Y58.706 E0.6259
G1 X41.32 Y59.302 E0.65026
G1 X41.022 Y59.865 E0.67464
G1 X40.711 Y60.308 E0.69536
G1 X40.803 Y60.35 E0.69923
G1 X41.345 Y60.684 E0.72359
G1 X41.841 Y61.083 E0.74795
G1 X42.284 Y61.541 E0.77234
G1 X42.488 Y61.797 E0.78487
G1 X48.511 Y69.879 E1.17061
G1 X48.514 Y69.883 E1.1708
G1 X50.348 Y72.348 E1.28838
G1 X50.695 Y72.881 E1.31272
G1 X50.973 Y73.455 E1.33713
G1 X51.177 Y74.058 E1.36149
G1 X51.239 Y74.364 E1.37344
G1 X51.686 Y74.221 E1.3914
G1 X52.312 Y74.104 E1.41577
G1 X52.948 Y74.066 E1.44015
G1 X53.294 Y74.079 E1.4534
G1 X66.411 Y75.025 E1.95669
G1 X67.042 Y75.111 E1.98106
G1 X67.658 Y75.275 E2.00546
G1 X68.248 Y75.514 E2.02982
G1 X68.286 Y75.535 E2.03148
G1 X68.35 Y75.362 E2.03854
G1 X68.642 Y74.796 E2.06292
G1 X69.003 Y74.272 E2.08727
G1 X69.21 Y74.025 E2.0996
G1 X77.971 Y64.218 E2.60287
G1 X78.425 Y63.771 E2.62725
G1 X78.93 Y63.383 E2.65162
G1 X79.245 Y63.199 E2.66558
G1 X79.025 Y62.802 E2.68295
G1 X78.788 Y62.211 E2.70732
G1 X78.695 Y61.892 E2.72004
G1 X75.412 Y49.158 E3.2233
G1 X75.292 Y48.533 E3.24766
G1 X75.252 Y47.92 E3.27117
G1 X74.644 Y47.846 E3.2946
G1 X74.304 Y47.771 E3.30793
G1 X61.568 Y44.498 E3.81117
G1 X60.962 Y44.301 E3.83556
G1 X60.386 Y44.03 E3.85992
G1 X59.848 Y43.689 E3.8843
G1 X59.357 Y43.283 E3.90868
G1 X58.921 Y42.819 E3.93305
G1 X58.713 Y42.549 E3.94609
G1 X58.574 Y42.356 E3.95519
G1 X58.235 Y41.817 E3.97956
G1 X58.058 Y41.436 E3.99564
G1 X56.447 Y41.973 E4.06063
G1 X53.692 Y42.891 E4.17176
G1 X53.077 Y43.054 E4.19611
G1 X52.446 Y43.138 E4.22047
G1 X51.809 Y43.143 E4.24485
G1 X51.176 Y43.068 E4.26924
G1 X50.558 Y42.915 E4.29361
G1 X49.964 Y42.685 E4.31798
G1 X49.404 Y42.383 E4.34233
G1 X48.885 Y42.013 E4.36672
G1 X48.417 Y41.581 E4.3911
G1 X48.007 Y41.093 E4.41549
G1 X47.701 Y40.627 E4.43683
G1 X47.68 Y40.591 E4.43842
G1 X46.19 Y41.669 E4.5088
G1 X45.651 Y42.01 E4.53321
G1 X45.074 Y42.279 E4.55758
G1 X44.468 Y42.475 E4.58195
G1 X44.411 Y42.486 E4.58417
G0 F1458 X43.843 Y42.593
G0 X43.727 Y42.6
G0 F4320 X43.714 Y42.256
G1 F2400 E4.61073
G1 F1620 X43.216 Y42.265 E4.62979
G1 X43.306 Y42.446 E4.63753
G1 X43.504 Y43.028 E4.66105
G1 X43.625 Y43.631 E4.68459
G1 X43.667 Y44.244 E4.70811
G1 X43.597 Y45.067 E4.73972
G1 X41.347 Y58.026 E5.24308
G1 X41.203 Y58.624 E5.26662
G1 X40.983 Y59.197 E5.2901
G1 X40.689 Y59.737 E5.31363
G1 X40.329 Y60.235 E5.33715
G1 X40.138 Y60.43 E5.3476
G1 X40.676 Y60.679 E5.37029
G1 X41.196 Y61.007 E5.39381
G1 X41.669 Y61.4 E5.41735
G1 X42.208 Y62.007 E5.44841
G1 X48.231 Y70.089 E5.83415
G1 X48.233 Y70.092 E5.83429
G1 X50.067 Y72.557 E5.95187
G1 X50.401 Y73.072 E5.97537
G1 X50.665 Y73.627 E5.99889
G1 X50.855 Y74.212 E6.02242
G1 X50.968 Y74.816 E6.04594
G1 X50.969 Y74.852 E6.04732
G1 X51.247 Y74.725 E6.05902
G1 X51.835 Y74.544 E6.08256
G1 X52.44 Y74.441 E6.10605
G1 X53.269 Y74.428 E6.13778
G1 X66.386 Y75.374 E6.64107
G1 X66.995 Y75.458 E6.66459
G1 X67.587 Y75.62 E6.68808
G1 X68.154 Y75.858 E6.71162
G1 X68.472 Y76.044 E6.72571
G1 X68.478 Y76.018 E6.72674
G1 X68.697 Y75.444 E6.75025
G1 X68.988 Y74.903 E6.77376
G1 X69.471 Y74.258 E6.80459
G1 X78.232 Y64.451 E7.30786
G1 X78.671 Y64.02 E7.3314
G1 X79.161 Y63.65 E7.3549
G1 X79.695 Y63.347 E7.3784
G1 X79.745 Y63.327 E7.38046
G1 X79.594 Y63.116 E7.39039
G1 X79.305 Y62.574 E7.41389
G1 X79.034 Y61.805 E7.4451
G1 X75.751 Y49.071 E7.94836
G1 X75.636 Y48.467 E7.97189
G1 X75.601 Y47.853 E7.99543
G1 X75.622 Y47.572 E8.00621
G1 X75.21 Y47.567 E8.02198
G1 X74.391 Y47.432 E8.05375
G1 X61.655 Y44.159 E8.55699
G1 X61.071 Y43.968 E8.58051
G1 X60.517 Y43.702 E8.60402
G1 X60.002 Y43.367 E8.62754
G1 X59.535 Y42.968 E8.65104
G1 X58.997 Y42.344 E8.68257
G1 X58.858 Y42.151 E8.69168
G1 X58.532 Y41.63 E8.7152
G1 X58.276 Y41.072 E8.73869
G1 X58.254 Y41.002 E8.7415
G1 X56.337 Y41.641 E8.81883
G1 X53.582 Y42.559 E8.92996
G1 X52.987 Y42.715 E8.9535
G1 X52.378 Y42.792 E8.977
G1 X51.763 Y42.79 E9.00053
G1 X51.154 Y42.708 E9.02405
G1 X50.561 Y42.547 E9.04756
G1 X49.994 Y42.312 E9.07105
G1 X49.462 Y42.004 E9.09458
G1 X48.974 Y41.63 E9.11811
G1 X48.539 Y41.196 E9.14162
G1 X48.004 Y40.452 E9.17669
G1 X47.789 Y40.082 E9.19307
G1 X45.985 Y41.386 E9.27826
G1 X45.464 Y41.713 E9.3018
G1 X44.906 Y41.969 E9.32529
G1 X44.395 Y42.128 E9.34577
G0 F1458 X44.319 Y42.151
G0 X43.714 Y42.256
G0 F4320 X43.588 Y41.916
G1 F2400 E9.37233
G1 F1620 X42.921 Y41.922 E9.39786
G1 X42.684 Y41.906 E9.40695
G1 X42.63 Y41.899 E9.40904
G1 X42.73 Y42.071 E9.41665
G1 X42.991 Y42.601 E9.43926
G1 X43.177 Y43.162 E9.46188
G1 X43.287 Y43.744 E9.48454
G1 X43.316 Y44.334 E9.50715
G1 X43.253 Y45.007 E9.53302
G1 X41.003 Y57.966 E10.03638
G1 X40.862 Y58.541 E10.05904
G1 X40.646 Y59.091 E10.08165
G1 X40.357 Y59.607 E10.10428
G1 X40.002 Y60.079 E10.12689
G1 X39.544 Y60.536 E10.15165
G1 X39.483 Y60.588 E10.15471
G1 X40.014 Y60.756 E10.17603
G1 X40.548 Y61.008 E10.19863
G1 X41.044 Y61.33 E10.22126
G1 X41.492 Y61.716 E10.24389
G1 X41.927 Y62.216 E10.26925
G1 X47.95 Y70.298 E10.65499
G1 X47.952 Y70.3 E10.6551
G1 X49.786 Y72.765 E10.77268
G1 X50.106 Y73.263 E10.79533
G1 X50.356 Y73.798 E10.81793
G1 X50.532 Y74.363 E10.84058
G1 X50.63 Y74.946 E10.86321
G1 X50.641 Y75.424 E10.8815
G1 X50.874 Y75.279 E10.89201
G1 X51.414 Y75.037 E10.91465
G1 X51.981 Y74.87 E10.93727
G1 X52.566 Y74.781 E10.95992
G1 X53.244 Y74.777 E10.98587
G1 X66.361 Y75.723 E11.48916
G1 X66.946 Y75.806 E11.51177
G1 X67.515 Y75.966 E11.53439
G1 X68.058 Y76.202 E11.55705
G1 X68.563 Y76.509 E11.57966
G1 X68.694 Y76.617 E11.58616
G1 X68.826 Y76.078 E11.6074
G1 X69.043 Y75.528 E11.63003
G1 X69.333 Y75.013 E11.65265
G1 X69.732 Y74.491 E11.67779
G1 X78.493 Y64.684 E12.18105
G1 X78.916 Y64.271 E12.20368
G1 X79.391 Y63.918 E12.22633
G1 X79.909 Y63.633 E12.24895
G1 X80.304 Y63.48 E12.26516
G1 X80.194 Y63.36 E12.27139
G1 X79.856 Y62.874 E12.29405
G1 X79.587 Y62.348 E12.31666
G1 X79.373 Y61.717 E12.34216
G1 X76.09 Y48.983 E12.84542
G1 X75.981 Y48.402 E12.86805
G1 X75.952 Y47.811 E12.89069
G1 X76.002 Y47.222 E12.91331
G1 X76.007 Y47.199 E12.91421
G1 X75.738 Y47.228 E12.92457
G1 X75.147 Y47.211 E12.94719
G1 X74.478 Y47.093 E12.97319
G1 X61.742 Y43.82 E13.47644
G1 X61.181 Y43.635 E13.49904
G1 X60.649 Y43.375 E13.5217
G1 X60.158 Y43.046 E13.54432
G1 X59.715 Y42.654 E13.56696
G1 X59.281 Y42.14 E13.59271
G1 X59.142 Y41.947 E13.60181
G1 X58.83 Y41.445 E13.62443
G1 X58.588 Y40.905 E13.64707
G1 X58.485 Y40.556 E13.661
G1 X56.226 Y41.309 E13.75213
G1 X53.471 Y42.227 E13.86326
G1 X52.899 Y42.375 E13.88587
G1 X52.312 Y42.445 E13.90849
G1 X51.721 Y42.436 E13.93112
G1 X51.136 Y42.346 E13.95377
G1 X50.569 Y42.179 E13.97639
G1 X50.03 Y41.937 E13.999
G1 X49.528 Y41.624 E14.02164
G1 X49.073 Y41.246 E14.04428
G1 X48.673 Y40.811 E14.06689
G1 X48.306 Y40.276 E14.09172
G1 X47.896 Y39.572 E14.1229
G1 X45.78 Y41.102 E14.22283
G1 X45.278 Y41.416 E14.24549
G1 X44.739 Y41.658 E14.2681
G1 X44.271 Y41.797 E14.28678
G0 F1458 X44.172 Y41.826
G0 X43.588 Y41.916
G0 F4320 X43.466 Y41.574
G1 F2400 E14.31334
G1 F1620 X42.945 Y41.573 E14.33328
G1 X42.708 Y41.557 E14.34237
G1 X42.146 Y41.479 E14.36409
G1 X41.83 Y41.389 E14.37666
G1 X42.106 Y41.725 E14.3933
G1 X42.308 Y42.04 E14.40762
G1 X42.427 Y42.246 E14.41673
G1 X42.676 Y42.755 E14.43841
G1 X42.85 Y43.295 E14.46012
G1 X42.947 Y43.854 E14.48184
G1 X42.964 Y44.421 E14.50355
G1 X42.908 Y44.948 E14.52383
G1 X40.658 Y57.907 E15.02719
G1 X40.522 Y58.457 E15.04887
G1 X40.309 Y58.983 E15.07059
G1 X40.025 Y59.474 E15.09229
G1 X39.675 Y59.92 E15.11399
G1 X39.316 Y60.27 E15.13318
G1 X39.138 Y60.423 E15.14216
G1 X38.683 Y60.762 E15.16388
G1 X38.647 Y60.782 E15.16545
G1 X38.76 Y60.79 E15.16979
G1 X39.136 Y60.862 E15.18444
G1 X39.367 Y60.918 E15.19353
G1 X39.908 Y61.09 E15.21526
G1 X40.418 Y61.337 E15.23695
G1 X40.89 Y61.652 E15.25866
G1 X41.312 Y62.031 E15.28037
G1 X41.646 Y62.425 E15.30014
G1 X47.669 Y70.507 E15.68588
G1 X47.671 Y70.509 E15.68599
G1 X49.505 Y72.974 E15.80357
G1 X49.811 Y73.452 E15.82529
G1 X50.046 Y73.968 E15.84699
G1 X50.207 Y74.512 E15.8687
G1 X50.289 Y75.073 E15.89039
G1 X50.296 Y75.581 E15.90984
G1 X50.284 Y75.817 E15.91888
G1 X50.247 Y76.122 E15.93064
G1 X50.384 Y76.014 E15.93732
G1 X50.577 Y75.875 E15.94642
G1 X51.059 Y75.577 E15.9681
G1 X51.579 Y75.349 E15.98983
G1 X52.125 Y75.197 E16.01152
G1 X52.687 Y75.123 E16.03322
G1 X53.219 Y75.126 E16.05358
G1 X66.336 Y76.072 E16.55687
G1 X66.897 Y76.153 E16.57856
G1 X67.441 Y76.312 E16.60025
G1 X67.958 Y76.545 E16.62195
G1 X68.437 Y76.849 E16.64366
G1 X68.832 Y77.182 E16.66343
G1 X68.971 Y77.315 E16.6708
G1 X68.973 Y77.254 E16.67313
G1 X69.034 Y76.69 E16.69484
G1 X69.174 Y76.141 E16.71653
G1 X69.39 Y75.616 E16.73825
G1 X69.677 Y75.127 E16.75995
G1 X69.993 Y74.724 E16.77955
G1 X78.754 Y64.917 E17.28281
G1 X79.161 Y64.522 E17.30452
G1 X79.619 Y64.188 E17.32621
G1 X80.12 Y63.922 E17.34792
G1 X80.653 Y63.728 E17.36963
G1 X80.977 Y63.658 E17.38231
G1 X80.818 Y63.525 E17.39025
G1 X80.438 Y63.104 E17.41195
G1 X80.121 Y62.634 E17.43365
G1 X79.874 Y62.124 E17.45533
G1 X79.711 Y61.63 E17.47524
G1 X76.428 Y48.896 E17.9785
G1 X76.326 Y48.338 E18.00021
G1 X76.303 Y47.771 E18.02193
G1 X76.36 Y47.207 E18.04362
G1 X76.467 Y46.769 E18.06088
G1 X76.22 Y46.828 E18.0706
G1 X75.655 Y46.88 E18.09231
G1 X75.089 Y46.852 E18.114
G1 X74.565 Y46.754 E18.1344
G1 X61.829 Y43.481 E18.63764
G1 X61.291 Y43.302 E18.65934
G1 X60.784 Y43.049 E18.68103
G1 X60.317 Y42.726 E18.70276
G1 X59.9 Y42.342 E18.72445
G1 X59.565 Y41.935 E18.74463
G1 X59.426 Y41.742 E18.75373
G1 X59.128 Y41.26 E18.77541
G1 X58.9 Y40.74 E18.79714
G1 X58.748 Y40.194 E18.81883
G1 X58.736 Y40.104 E18.82231
G1 X56.115 Y40.977 E18.92803
G1 X53.36 Y41.895 E19.03916
G1 X52.811 Y42.036 E19.06086
G1 X52.247 Y42.098 E19.08257
G1 X51.681 Y42.08 E19.10424
G1 X51.122 Y41.983 E19.12596
G1 X50.582 Y41.809 E19.14767
G1 X50.073 Y41.56 E19.16935
G1 X49.603 Y41.242 E19.19107
G1 X49.183 Y40.862 E19.21275
G1 X48.82 Y40.426 E19.23446
G1 X48.609 Y40.1 E19.24932
G1 X48.005 Y39.062 E19.29528
G1 X45.575 Y40.819 E19.41004
G1 X45.093 Y41.118 E19.43174
G1 X44.574 Y41.346 E19.45344
G1 X44.151 Y41.465 E19.47025
G0 F1458 X44.028 Y41.499
G0 X43.466 Y41.574
G0 F4320 X42.36 Y42.909
G1 F2400 E19.49681
G1 F1620 X42.521 Y43.426 E19.51754
G1 X42.605 Y43.961 E19.53826
G1 X42.609 Y44.503 E19.559
G1 X42.563 Y44.888 E19.57384
G1 X40.313 Y57.847 E20.0772
G1 X40.181 Y58.372 E20.09792
G1 X39.973 Y58.873 E20.11868
G1 X39.694 Y59.337 E20.1394
G1 X39.35 Y59.756 E20.16015
G1 X39.088 Y60.005 E20.17398
G1 X38.91 Y60.158 E20.18296
G1 X38.474 Y60.48 E20.20371
G1 X37.995 Y60.734 E20.22445
G1 X37.485 Y60.916 E20.24518
G1 X36.953 Y61.02 E20.26592
G1 X36.412 Y61.045 E20.28665
G1 X35.987 Y61.002 E20.303
G1 X36.155 Y61.723 E20.33133
G1 X36.27 Y61.64 E20.33676
G1 X36.751 Y61.391 E20.35748
G1 X37.264 Y61.217 E20.37822
G1 X37.797 Y61.12 E20.39895
G1 X38.339 Y61.102 E20.4197
G1 X39.054 Y61.202 E20.44733
G1 X39.285 Y61.258 E20.45643
G1 X39.801 Y61.425 E20.47718
G1 X40.286 Y61.665 E20.49789
G1 X40.731 Y61.974 E20.51863
G1 X41.126 Y62.345 E20.53936
G1 X41.366 Y62.634 E20.55374
G1 X47.389 Y70.716 E20.93948
G1 X47.39 Y70.718 E20.93957
G1 X49.224 Y73.183 E21.05715
G1 X49.515 Y73.641 E21.07791
G1 X49.735 Y74.136 E21.09865
G1 X49.88 Y74.658 E21.11938
G1 X49.947 Y75.196 E21.14013
G1 X49.946 Y75.564 E21.15421
G1 X49.934 Y75.8 E21.16325
G1 X49.867 Y76.337 E21.18396
G1 X49.721 Y76.859 E21.20471
G1 X49.5 Y77.354 E21.22545
G1 X49.209 Y77.811 E21.24619
G1 X48.854 Y78.22 E21.26691
G1 X48.637 Y78.407 E21.27788
G1 X49.113 Y78.671 E21.29871
G1 X49.237 Y78.156 E21.31898
G1 X49.44 Y77.654 E21.3397
G1 X49.715 Y77.187 E21.36044
G1 X50.056 Y76.765 E21.38121
G1 X50.588 Y76.298 E21.4083
G1 X50.781 Y76.159 E21.4174
G1 X51.243 Y75.876 E21.43813
G1 X51.742 Y75.663 E21.4589
G1 X52.266 Y75.526 E21.47962
G1 X52.805 Y75.468 E21.50037
G1 X53.193 Y75.476 E21.51522
G1 X66.31 Y76.422 E22.01851
G1 X66.846 Y76.5 E22.03924
G1 X67.365 Y76.657 E22.05999
G1 X67.855 Y76.888 E22.08073
G1 X68.306 Y77.189 E22.10148
G1 X68.59 Y77.435 E22.11585
G1 X68.761 Y77.599 E22.12492
G1 X69.123 Y78.002 E22.14565
G1 X69.405 Y78.428 E22.16521
G1 X69.359 Y78.234 E22.17284
G1 X69.314 Y77.505 E22.20079
G1 X69.323 Y77.267 E22.2099
G1 X69.383 Y76.729 E22.23062
G1 X69.522 Y76.205 E22.25137
G1 X69.736 Y75.707 E22.27211
G1 X70.021 Y75.247 E22.29282
G1 X70.254 Y74.958 E22.30703
G1 X79.015 Y65.151 E22.81029
G1 X79.405 Y64.774 E22.83105
G1 X79.846 Y64.459 E22.85179
G1 X80.328 Y64.213 E22.8725
G1 X80.842 Y64.039 E22.89327
G1 X81.212 Y63.964 E22.90771
G1 X81.446 Y63.929 E22.91677
G1 X81.91 Y63.895 E22.93457
G1 X81.652 Y63.745 E22.94599
G1 X81.458 Y63.605 E22.95515
G1 X81.044 Y63.256 E22.97587
G1 X80.685 Y62.851 E22.99658
G1 X80.389 Y62.396 E23.01736
G1 X80.164 Y61.904 E23.03806
G1 X80.05 Y61.542 E23.05259
G1 X76.767 Y48.808 E23.55585
G1 X76.671 Y48.275 E23.57658
G1 X76.654 Y47.734 E23.59729
G1 X76.717 Y47.195 E23.61806
G1 X76.859 Y46.672 E23.6388
G1 X76.997 Y46.335 E23.65274
G1 X77.056 Y46.209 E23.65806
G1 X76.644 Y46.37 E23.67499
G1 X76.115 Y46.49 E23.69575
G1 X75.575 Y46.531 E23.71647
G1 X75.035 Y46.492 E23.73719
G1 X74.652 Y46.415 E23.75214
G1 X61.916 Y43.142 E24.25539
G1 X61.403 Y42.969 E24.27611
G1 X60.92 Y42.722 E24.29687
G1 X60.48 Y42.407 E24.31758
G1 X60.09 Y42.031 E24.33831
G1 X59.849 Y41.731 E24.35303
G1 X59.71 Y41.538 E24.36214
G1 X59.427 Y41.076 E24.38287
G1 X59.214 Y40.577 E24.40363
G1 X59.077 Y40.053 E24.42436
G1 X59.032 Y39.636 E24.44041
G1 X56.005 Y40.645 E24.56252
G1 X53.25 Y41.563 E24.67366
G1 X52.725 Y41.695 E24.69437
G1 X52.185 Y41.75 E24.71515
G1 X51.644 Y41.724 E24.73587
G1 X51.113 Y41.619 E24.75659
G1 X50.602 Y41.437 E24.77735
G1 X50.124 Y41.182 E24.79808
G1 X49.689 Y40.86 E24.81879
G1 X49.305 Y40.477 E24.83955
G1 X48.911 Y39.924 E24.86553
G1 X48.112 Y38.551 E24.92633
G1 X47.862 Y38.732 E24.93814
G1 X47.861 Y38.733 E24.93819
G1 X45.369 Y40.535 E25.05588
G1 X44.908 Y40.819 E25.07661
G1 X44.41 Y41.033 E25.09735
G1 X43.886 Y41.17 E25.11808
G1 X43.347 Y41.23 E25.13883
G1 X42.968 Y41.224 E25.15334
G1 X42.731 Y41.208 E25.16243
G1 X42.195 Y41.131 E25.18315
G1 X41.676 Y40.977 E25.20387
G1 X41.185 Y40.748 E25.2246
G1 X40.732 Y40.449 E25.24538
G1 X40.329 Y40.087 E25.26611
G1 X39.998 Y39.687 E25.28598
G1 X39.514 Y40.454 E25.32069
G1 X39.775 Y40.504 E25.33086
G1 X40.287 Y40.682 E25.3516
G1 X40.767 Y40.934 E25.37235
G1 X41.204 Y41.254 E25.39308
G1 X41.59 Y41.634 E25.4138
G1 X42.005 Y42.215 E25.44113
G1 X42.048 Y42.289 E25.4444
G0 F1458 X42.124 Y42.421
G0 X42.36 Y42.909
G0 F4320 X42.044 Y43.061
G1 F2400 E25.47096
G1 F1620 X42.191 Y43.554 E25.49065
G1 X42.261 Y44.065 E25.51039
G1 X42.218 Y44.828 E25.53964
G1 X39.968 Y57.787 E26.043
G1 X39.841 Y58.286 E26.0627
G1 X39.638 Y58.76 E26.08244
G1 X39.364 Y59.197 E26.10218
G1 X38.859 Y59.74 E26.13055
G1 X38.681 Y59.893 E26.13954
G1 X38.266 Y60.197 E26.15922
G1 X37.808 Y60.434 E26.17896
G1 X37.319 Y60.597 E26.19869
G1 X36.811 Y60.683 E26.2184
G1 X36.296 Y60.689 E26.23811
G1 X35.785 Y60.615 E26.25787
G1 X35.518 Y60.533 E26.26856
G1 X35.939 Y62.338 E26.33949
G1 X36.073 Y62.208 E26.34664
G1 X36.495 Y61.912 E26.36637
G1 X36.958 Y61.685 E26.3861
G1 X37.45 Y61.532 E26.40582
G1 X37.96 Y61.457 E26.42554
G1 X38.475 Y61.461 E26.44525
G1 X38.971 Y61.543 E26.46449
