;FLAVOR:Marlin
;TIME:12987
;Filament used: 17.0748m
;Layer height: 0.2625
;Generated with Cura_SteamEngine 3.6.0
M140 S60
M105
M190 S60
M104 S210
M105
M109 S210
M82 ;absolute extrusion mode
G21;(metric values)
G90;(absolute positioning)
M82;(set extruder to absolute mode)
M107;(start with the fan off)
G28;(Home the printer)
G92 E0;(Reset the extruder to 0)
G0 Z5 E5 F500;(Move up and prime the nozzle)
G0 X-1 Z0;(Move outside the printable area)
G1 Y60 E8 F500;(Draw a priming/wiping line to the rear)
G1 X-1;(Move a little closer to the print area)
G1 Y10 E16 F500;(draw more priming/wiping)
G1 E15 F250;(Small retract)
G92 E0;(Zero the extruder)
G92 E0
G1 F2400 E-2.5
;LAYER_COUNT:442
;LAYER:0
M107
G0 F4320 X27.28 Y46.98 Z0.263
;TYPE:SKIRT
G1 F2400 E0
G1 F1620 X27.837 Y46.673 E0.02434
G1 X28.429 Y46.438 E0.04872
G1 X29.046 Y46.279 E0.0731
G1 X29.678 Y46.198 E0.09748
G1 X30.002 Y46.188 E0.10989
G1 X40.308 Y46.188 E0.5043
G1 X40.308 Y45.796 E0.5193
G1 X40.348 Y45.16 E0.54369
G1 X40.467 Y44.535 E0.56804
G1 X40.664 Y43.929 E0.59242
G1 X40.935 Y43.353 E0.61678
G1 X41.276 Y42.815 E0.64116
G1 X41.682 Y42.324 E0.66554
G1 X42.146 Y41.888 E0.68991
G1 X42.661 Y41.513 E0.71429
G1 X43.218 Y41.206 E0.73863
G1 X43.81 Y40.971 E0.76301
G1 X44.427 Y40.812 E0.78739
G1 X45.059 Y40.731 E0.81177
G1 X45.383 Y40.721 E0.82418
G1 X51.701 Y40.721 E1.06597
G1 X51.99 Y40.372 E1.08331
G1 X52.454 Y39.936 E1.10768
G1 X52.969 Y39.561 E1.13206
G1 X53.526 Y39.254 E1.1564
G1 X54.118 Y39.019 E1.18077
G1 X54.735 Y38.86 E1.20516
G1 X55.367 Y38.779 E1.22954
G1 X55.691 Y38.769 E1.24195
G1 X61.707 Y38.769 E1.47218
G1 X62.343 Y38.809 E1.49657
G1 X62.968 Y38.928 E1.52091
G1 X63.574 Y39.125 E1.5453
G1 X64.038 Y39.343 E1.56492
G1 X64.341 Y39.204 E1.57768
G1 X64.948 Y39.012 E1.60204
G1 X65.376 Y38.925 E1.61876
G1 X65.97 Y38.831 E1.64177
G1 X66.765 Y38.769 E1.67229
G1 X77.772 Y38.773 E2.09353
G1 X78.661 Y38.852 E2.12768
G1 X79.199 Y38.948 E2.1486
G1 X79.818 Y39.099 E2.17298
G1 X80.413 Y39.326 E2.19735
G1 X80.435 Y39.337 E2.19829
G1 X80.586 Y39.254 E2.20489
G1 X81.178 Y39.019 E2.22926
G1 X81.795 Y38.86 E2.25365
G1 X82.427 Y38.779 E2.27803
G1 X82.752 Y38.769 E2.29048
G1 X88.565 Y38.769 E2.51294
G1 X89.201 Y38.809 E2.53733
G1 X89.826 Y38.928 E2.56167
G1 X90.432 Y39.125 E2.58606
G1 X90.996 Y39.389 E2.60989
G1 X103.877 Y46.417 E3.17145
G1 X104.416 Y46.756 E3.19582
G1 X104.908 Y47.161 E3.2202
G1 X105.345 Y47.624 E3.24457
G1 X105.721 Y48.137 E3.26891
G1 X106.03 Y48.694 E3.29329
G1 X106.267 Y49.286 E3.31769
G1 X106.427 Y49.902 E3.34205
G1 X106.51 Y50.534 E3.36644
G1 X106.521 Y50.872 E3.37938
G1 X106.521 Y64.148 E3.88746
G1 X106.481 Y64.784 E3.91184
G1 X106.362 Y65.409 E3.93619
G1 X106.165 Y66.015 E3.96058
G1 X105.894 Y66.591 E3.98494
G1 X105.553 Y67.129 E4.00932
G1 X105.147 Y67.62 E4.0337
G1 X104.683 Y68.056 E4.05807
G1 X104.168 Y68.431 E4.08245
G1 X103.877 Y68.603 E4.09538
G1 X90.996 Y75.632 E4.65696
G1 X90.419 Y75.901 E4.68132
G1 X89.813 Y76.096 E4.70568
G1 X89.187 Y76.214 E4.73006
G1 X88.565 Y76.252 E4.75391
G1 X82.753 Y76.252 E4.97633
G1 X82.117 Y76.212 E5.00072
G1 X81.492 Y76.093 E5.02507
G1 X80.886 Y75.896 E5.04946
G1 X80.423 Y75.678 E5.06904
G1 X80.176 Y75.795 E5.0795
G1 X79.571 Y75.994 E5.10387
G1 X79.085 Y76.096 E5.12288
G1 X78.491 Y76.19 E5.14589
G1 X77.687 Y76.252 E5.17675
G1 X66.45 Y76.228 E5.6068
G1 X65.815 Y76.187 E5.63115
G1 X65.189 Y76.066 E5.65555
G1 X64.879 Y75.975 E5.66791
G1 X64.318 Y75.791 E5.69051
G1 X64.035 Y75.678 E5.70217
G1 X63.874 Y75.767 E5.70921
G1 X63.282 Y76.002 E5.73358
G1 X62.665 Y76.161 E5.75797
G1 X62.033 Y76.242 E5.78235
G1 X61.708 Y76.252 E5.7948
G1 X55.692 Y76.252 E6.02503
G1 X55.056 Y76.212 E6.04942
G1 X54.431 Y76.093 E6.07376
G1 X53.825 Y75.896 E6.09815
G1 X53.249 Y75.625 E6.12251
G1 X52.711 Y75.284 E6.14689
G1 X52.22 Y74.878 E6.17127
G1 X51.784 Y74.414 E6.19564
G1 X51.7 Y74.299 E6.20109
G1 X45.384 Y74.299 E6.4428
G1 X44.748 Y74.259 E6.46719
G1 X44.123 Y74.14 E6.49154
G1 X43.517 Y73.943 E6.51592
G1 X42.941 Y73.672 E6.54028
G1 X42.403 Y73.331 E6.56466
G1 X41.912 Y72.925 E6.58904
G1 X41.476 Y72.461 E6.61341
G1 X41.101 Y71.946 E6.63779
G1 X40.794 Y71.389 E6.66213
G1 X40.559 Y70.797 E6.68651
G1 X40.4 Y70.18 E6.71089
G1 X40.319 Y69.548 E6.73527
G1 X40.309 Y69.225 E6.74764
G1 X40.309 Y68.833 E6.76264
G1 X30.002 Y68.833 E7.15709
G1 X29.366 Y68.793 E7.18148
G1 X28.741 Y68.674 E7.20583
G1 X28.135 Y68.477 E7.23021
G1 X27.559 Y68.206 E7.25458
G1 X27.021 Y67.865 E7.27895
G1 X26.53 Y67.459 E7.30333
G1 X26.094 Y66.995 E7.3277
G1 X25.719 Y66.48 E7.35208
G1 X25.412 Y65.923 E7.37642
G1 X25.177 Y65.331 E7.4008
G1 X25.018 Y64.714 E7.42518
G1 X24.937 Y64.082 E7.44957
G1 X24.927 Y63.758 E7.46197
G1 X24.927 Y51.263 E7.94015
G1 X24.967 Y50.627 E7.96454
G1 X25.086 Y50.002 E7.98889
G1 X25.283 Y49.396 E8.01328
G1 X25.554 Y48.82 E8.03764
G1 X25.895 Y48.282 E8.06201
G1 X26.301 Y47.791 E8.0864
G1 X26.724 Y47.394 E8.1086
G0 F1458 X26.765 Y47.355
G0 X27.28 Y46.98
G0 F4320 X27.615 Y47.185
G1 F2400 E8.13516
G1 F1620 X28.164 Y46.91 E8.15866
G1 X28.745 Y46.708 E8.1822
G1 X29.346 Y46.584 E8.20568
G1 X30.002 Y46.538 E8.23085
G1 X40.658 Y46.538 E8.63865
G1 X40.658 Y45.796 E8.66705
G1 X40.698 Y45.183 E8.69056
G1 X40.817 Y44.58 E8.71408
G1 X41.014 Y43.998 E8.73759
G1 X41.284 Y43.446 E8.76111
G1 X41.624 Y42.934 E8.78463
G1 X42.027 Y42.47 E8.80815
G1 X42.487 Y42.063 E8.83166
G1 X42.996 Y41.718 E8.85519
G1 X43.545 Y41.443 E8.87869
G1 X44.126 Y41.241 E8.90223
G1 X44.727 Y41.117 E8.92571
G1 X45.383 Y41.071 E8.95088
G1 X51.873 Y41.071 E9.19925
G1 X51.932 Y40.982 E9.20334
G1 X52.335 Y40.518 E9.22686
G1 X52.795 Y40.111 E9.25036
G1 X53.304 Y39.766 E9.2739
G1 X53.853 Y39.491 E9.29739
G1 X54.434 Y39.289 E9.32093
G1 X55.035 Y39.165 E9.34442
G1 X55.691 Y39.119 E9.36959
G1 X61.707 Y39.119 E9.59982
G1 X62.32 Y39.159 E9.62333
G1 X62.923 Y39.278 E9.64685
G1 X63.505 Y39.475 E9.67036
G1 X64.029 Y39.732 E9.6927
G1 X64.487 Y39.522 E9.71198
G1 X65.074 Y39.342 E9.73548
G1 X65.43 Y39.271 E9.74937
G1 X66.024 Y39.177 E9.77239
G1 X66.765 Y39.119 E9.80083
G1 X77.772 Y39.123 E10.22207
G1 X78.6 Y39.196 E10.25388
G1 X79.138 Y39.292 E10.27479
G1 X79.735 Y39.44 E10.29833
G1 X80.428 Y39.735 E10.32716
G1 X80.913 Y39.492 E10.34792
G1 X81.493 Y39.29 E10.37142
G1 X82.095 Y39.165 E10.39495
G1 X82.752 Y39.119 E10.42016
G1 X88.565 Y39.119 E10.64262
G1 X89.178 Y39.159 E10.66613
G1 X89.781 Y39.278 E10.68965
G1 X90.363 Y39.475 E10.71316
G1 X90.828 Y39.696 E10.73287
G1 X103.709 Y46.724 E11.29442
G1 X104.228 Y47.053 E11.31794
G1 X104.7 Y47.446 E11.34144
G1 X105.117 Y47.898 E11.36498
G1 X105.472 Y48.399 E11.38848
G1 X105.759 Y48.943 E11.41202
G1 X105.973 Y49.519 E11.43553
G1 X106.11 Y50.118 E11.45905
G1 X106.171 Y50.872 E11.488
G1 X106.171 Y64.148 E11.99607
G1 X106.131 Y64.761 E12.01958
G1 X106.012 Y65.364 E12.0431
G1 X105.815 Y65.946 E12.06662
G1 X105.545 Y66.498 E12.09013
G1 X105.205 Y67.01 E12.11365
G1 X104.802 Y67.474 E12.13717
G1 X104.342 Y67.881 E12.16068
G1 X103.709 Y68.296 E12.18965
G1 X90.828 Y75.325 E12.75122
G1 X90.271 Y75.583 E12.77471
G1 X89.685 Y75.767 E12.79822
G1 X89.079 Y75.874 E12.82177
G1 X88.565 Y75.902 E12.84147
G1 X82.753 Y75.902 E13.06389
G1 X82.14 Y75.862 E13.0874
G1 X81.537 Y75.743 E13.11092
G1 X80.955 Y75.546 E13.13444
G1 X80.428 Y75.288 E13.15689
G1 X80.026 Y75.478 E13.17391
G1 X79.441 Y75.666 E13.19743
G1 X79.031 Y75.75 E13.21344
G1 X78.437 Y75.844 E13.23646
G1 X77.688 Y75.902 E13.26521
G1 X66.451 Y75.878 E13.69525
G1 X65.838 Y75.837 E13.71876
G1 X64.988 Y75.643 E13.75213
G1 X64.427 Y75.459 E13.77472
G1 X64.016 Y75.294 E13.79167
G1 X63.547 Y75.529 E13.81175
G1 X62.967 Y75.731 E13.83525
G1 X62.365 Y75.856 E13.85878
G1 X61.708 Y75.902 E13.88398
G1 X55.692 Y75.902 E14.11422
G1 X55.079 Y75.862 E14.13773
G1 X54.476 Y75.743 E14.16125
G1 X53.894 Y75.546 E14.18476
G1 X53.342 Y75.276 E14.20828
G1 X52.83 Y74.936 E14.2318
G1 X52.366 Y74.533 E14.25532
G1 X51.959 Y74.073 E14.27883
G1 X51.875 Y73.949 E14.28456
G1 X45.384 Y73.949 E14.53297
G1 X44.771 Y73.909 E14.55648
G1 X44.168 Y73.79 E14.58
G1 X43.586 Y73.593 E14.60351
G1 X43.034 Y73.323 E14.62703
G1 X42.522 Y72.983 E14.65055
G1 X42.058 Y72.58 E14.67407
G1 X41.651 Y72.12 E14.69758
G1 X41.306 Y71.611 E14.72111
G1 X41.031 Y71.062 E14.74461
G1 X40.829 Y70.481 E14.76815
G1 X40.705 Y69.88 E14.79163
G1 X40.659 Y69.225 E14.81676
G1 X40.659 Y68.483 E14.84516
G1 X30.002 Y68.483 E15.253
G1 X29.389 Y68.443 E15.27651
G1 X28.786 Y68.324 E15.30003
G1 X28.204 Y68.127 E15.32355
G1 X27.652 Y67.857 E15.34706
G1 X27.14 Y67.517 E15.37058
G1 X26.676 Y67.114 E15.3941
G1 X26.269 Y66.654 E15.41761
G1 X25.924 Y66.145 E15.44114
G1 X25.649 Y65.596 E15.46464
G1 X25.447 Y65.015 E15.48818
G1 X25.323 Y64.414 E15.51166
G1 X25.277 Y63.758 E15.53683
G1 X25.277 Y51.263 E16.01501
G1 X25.317 Y50.65 E16.03852
G1 X25.436 Y50.047 E16.06205
G1 X25.633 Y49.465 E16.08556
G1 X25.903 Y48.913 E16.10908
G1 X26.243 Y48.401 E16.1326
G1 X26.646 Y47.937 E16.15612
G1 X27.047 Y47.583 E16.17659
G0 F1458 X27.106 Y47.53
G0 X27.615 Y47.185
G0 F4320 X27.446 Y47.713
G1 F2400 E16.20315
G1 F1620 X27.948 Y47.4 E16.22579
G1 X28.487 Y47.159 E16.24838
G1 X29.055 Y46.992 E16.27104
G1 X29.639 Y46.903 E16.29365
G1 X30.002 Y46.888 E16.30755
G1 X41.008 Y46.888 E16.72875
G1 X41.008 Y45.796 E16.77054
G1 X41.048 Y45.206 E16.79317
G1 X41.167 Y44.627 E16.81579
G1 X41.363 Y44.069 E16.83843
G1 X41.633 Y43.543 E16.86105
G1 X41.971 Y43.058 E16.88368
G1 X42.371 Y42.623 E16.90629
G1 X42.827 Y42.246 E16.92894
G1 X43.329 Y41.933 E16.95158
G1 X43.868 Y41.692 E16.97417
G1 X44.436 Y41.525 E16.99683
G1 X45.02 Y41.436 E17.01944
G1 X45.383 Y41.421 E17.03334
G1 X52.059 Y41.421 E17.28883
G1 X52.279 Y41.106 E17.30354
G1 X52.679 Y40.671 E17.32615
G1 X53.135 Y40.294 E17.34879
G1 X53.637 Y39.981 E17.37143
G1 X54.176 Y39.74 E17.39403
G1 X54.744 Y39.573 E17.41669
G1 X55.328 Y39.484 E17.43929
G1 X55.691 Y39.469 E17.4532
G1 X61.707 Y39.469 E17.68343
G1 X62.297 Y39.509 E17.70606
G1 X62.876 Y39.628 E17.72868
G1 X63.434 Y39.824 E17.75132
G1 X63.96 Y40.094 E17.77394
G1 X64.012 Y40.13 E17.77636
G1 X64.094 Y40.086 E17.77993
G1 X64.633 Y39.842 E17.80257
G1 X65.485 Y39.617 E17.83629
G1 X66.079 Y39.523 E17.85931
G1 X66.765 Y39.469 E17.88564
G1 X77.772 Y39.473 E18.30688
G1 X78.539 Y39.541 E18.33635
G1 X79.077 Y39.637 E18.35726
G1 X79.65 Y39.78 E18.37986
G1 X80.402 Y40.103 E18.41118
G1 X80.455 Y40.132 E18.4135
G1 X80.697 Y39.982 E18.42439
G1 X81.236 Y39.74 E18.447
G1 X81.803 Y39.573 E18.46962
G1 X82.388 Y39.484 E18.49227
G1 X82.752 Y39.469 E18.50621
G1 X88.565 Y39.469 E18.72868
G1 X89.155 Y39.509 E18.75131
G1 X89.734 Y39.628 E18.77393
G1 X90.292 Y39.824 E18.79656
G1 X90.66 Y40.003 E18.81222
G1 X103.541 Y47.031 E19.37378
G1 X104.04 Y47.349 E19.39642
G1 X104.491 Y47.731 E19.41904
G1 X104.887 Y48.17 E19.44167
G1 X105.22 Y48.659 E19.46431
G1 X105.484 Y49.188 E19.48693
G1 X105.674 Y49.748 E19.50957
G1 X105.787 Y50.328 E19.53218
G1 X105.821 Y50.872 E19.55304
G1 X105.821 Y64.148 E20.06111
G1 X105.781 Y64.738 E20.08374
G1 X105.662 Y65.317 E20.10636
G1 X105.466 Y65.875 E20.129
G1 X105.196 Y66.401 E20.15162
G1 X104.858 Y66.886 E20.17425
G1 X104.458 Y67.321 E20.19686
G1 X104.002 Y67.698 E20.21951
G1 X103.542 Y67.988 E20.24032
G1 X90.661 Y75.017 E20.80189
G1 X90.124 Y75.265 E20.82453
G1 X89.558 Y75.438 E20.84718
G1 X88.975 Y75.533 E20.86978
G1 X88.565 Y75.552 E20.88549
G1 X82.753 Y75.552 E21.10792
G1 X82.163 Y75.512 E21.13055
G1 X81.584 Y75.393 E21.15317
G1 X81.026 Y75.197 E21.1758
G1 X80.5 Y74.927 E21.19843
G1 X80.447 Y74.89 E21.2009
G1 X80.412 Y74.91 E21.20245
G1 X79.877 Y75.161 E21.22506
G1 X79.313 Y75.337 E21.24767
G1 X78.976 Y75.404 E21.26082
G1 X78.382 Y75.498 E21.28384
G1 X77.689 Y75.552 E21.31044
G1 X66.452 Y75.528 E21.74048
G1 X65.862 Y75.487 E21.76311
G1 X65.098 Y75.31 E21.79313
G1 X64.537 Y75.126 E21.81572
G1 X63.988 Y74.904 E21.83838
G1 X63.984 Y74.902 E21.83855
G1 X63.763 Y75.039 E21.8485
G1 X63.224 Y75.281 E21.87112
G1 X62.657 Y75.448 E21.89374
G1 X62.072 Y75.537 E21.91638
G1 X61.708 Y75.552 E21.93032
G1 X55.692 Y75.552 E22.16056
G1 X55.102 Y75.512 E22.18319
G1 X54.523 Y75.393 E22.20581
G1 X53.965 Y75.197 E22.22844
G1 X53.439 Y74.927 E22.25107
G1 X52.954 Y74.589 E22.27369
G1 X52.519 Y74.189 E22.29631
G1 X52.142 Y73.733 E22.31895
G1 X52.058 Y73.599 E22.325
G1 X45.384 Y73.599 E22.58042
G1 X44.794 Y73.559 E22.60305
G1 X44.215 Y73.44 E22.62567
G1 X43.657 Y73.244 E22.6483
G1 X43.131 Y72.974 E22.67093
G1 X42.646 Y72.636 E22.69356
G1 X42.211 Y72.236 E22.71617
G1 X41.834 Y71.78 E22.73881
G1 X41.521 Y71.278 E22.76145
G1 X41.28 Y70.739 E22.78405
G1 X41.113 Y70.171 E22.80671
G1 X41.024 Y69.587 E22.82931
G1 X41.009 Y69.225 E22.84318
G1 X41.009 Y68.133 E22.88497
G1 X30.002 Y68.133 E23.30621
G1 X29.412 Y68.093 E23.32884
G1 X28.833 Y67.974 E23.35146
G1 X28.275 Y67.778 E23.37409
G1 X27.749 Y67.508 E23.39672
G1 X27.264 Y67.17 E23.41934
G1 X26.829 Y66.77 E23.44196
G1 X26.452 Y66.314 E23.4646
G1 X26.139 Y65.812 E23.48724
G1 X25.898 Y65.273 E23.50984
G1 X25.731 Y64.705 E23.5325
G1 X25.642 Y64.121 E23.5551
G1 X25.627 Y63.758 E23.56901
G1 X25.627 Y51.263 E24.04719
G1 X25.667 Y50.673 E24.06982
G1 X25.786 Y50.094 E24.09244
G1 X25.982 Y49.536 E24.11508
G1 X26.252 Y49.01 E24.1377
G1 X26.59 Y48.525 E24.16033
G1 X26.921 Y48.165 E24.17904
G0 F1458 X26.99 Y48.09
G0 X27.446 Y47.713
G0 F4320 X27.784 Y47.904
G1 F2400 E24.2056
G1 F1620 X28.278 Y47.626 E24.2273
G1 X28.806 Y47.42 E24.24899
G1 X29.358 Y47.29 E24.27069
G1 X30.002 Y47.238 E24.29541
G1 X41.358 Y47.238 E24.73001
G1 X41.358 Y45.796 E24.78519
G1 X41.398 Y45.23 E24.80691
G1 X41.517 Y44.676 E24.82859
G1 X41.713 Y44.144 E24.85029
G1 X41.981 Y43.644 E24.872
G1 X42.318 Y43.188 E24.8937
G1 X42.715 Y42.783 E24.9154
G1 X43.165 Y42.437 E24.93713
G1 X43.659 Y42.159 E24.95882
G1 X44.187 Y41.953 E24.98051
G1 X44.739 Y41.823 E25.00221
G1 X45.383 Y41.771 E25.02694
G1 X52.247 Y41.771 E25.28963
G1 X52.289 Y41.692 E25.29305
G1 X52.626 Y41.236 E25.31475
G1 X53.023 Y40.831 E25.33645
G1 X53.473 Y40.485 E25.35818
G1 X53.967 Y40.207 E25.37987
G1 X54.495 Y40.001 E25.40156
G1 X55.047 Y39.871 E25.42326
G1 X55.691 Y39.819 E25.44799
G1 X61.707 Y39.819 E25.67822
G1 X62.273 Y39.859 E25.69994
G1 X62.827 Y39.978 E25.72162
G1 X63.359 Y40.174 E25.74332
G1 X63.859 Y40.442 E25.76503
G1 X63.99 Y40.539 E25.77127
G1 X64.26 Y40.394 E25.783
G1 X64.777 Y40.161 E25.8047
G1 X65.54 Y39.962 E25.83487
G1 X66.134 Y39.868 E25.85789
G1 X66.764 Y39.819 E25.88207
G1 X77.771 Y39.823 E26.30331
G1 X78.477 Y39.886 E26.33044
G1 X79.015 Y39.982 E26.35135
G1 X79.565 Y40.12 E26.37305
G1 X80.234 Y40.41 E26.40096
G1 X80.467 Y40.537 E26.41111
G1 X80.533 Y40.486 E26.4143
G1 X81.027 Y40.207 E26.43602
G1 X81.555 Y40.001 E26.45771
G1 X82.107 Y39.871 E26.47941
G1 X82.752 Y39.819 E26.50417
G1 X88.565 Y39.819 E26.72664
G1 X89.131 Y39.859 E26.74835
G1 X89.685 Y39.978 E26.77004
G1 X90.217 Y40.174 E26.79173
G1 X90.493 Y40.311 E26.80353
G1 X103.374 Y47.339 E27.36508
G1 X103.851 Y47.645 E27.38677
G1 X104.281 Y48.015 E27.40848
G1 X104.654 Y48.442 E27.43018
G1 X104.964 Y48.917 E27.45188
G1 X105.204 Y49.43 E27.47356
G1 X105.369 Y49.973 E27.49528
G1 X105.457 Y50.533 E27.51697
G1 X105.471 Y50.872 E27.52996
G1 X105.471 Y64.148 E28.03803
G1 X105.431 Y64.714 E28.05974
G1 X105.312 Y65.268 E28.08143
G1 X105.116 Y65.8 E28.10313
G1 X104.848 Y66.3 E28.12484
G1 X104.511 Y66.756 E28.14654
G1 X104.114 Y67.161 E28.16824
G1 X103.664 Y67.507 E28.18996
G1 X103.374 Y67.681 E28.20291
G1 X90.493 Y74.71 E28.76448
G1 X89.977 Y74.946 E28.78619
G1 X89.434 Y75.107 E28.80787
G1 X88.873 Y75.19 E28.82957
G1 X88.565 Y75.202 E28.84137
G1 X82.753 Y75.202 E29.06379
G1 X82.187 Y75.162 E29.08551
G1 X81.633 Y75.043 E29.10719
G1 X81.101 Y74.847 E29.12889
G1 X80.601 Y74.579 E29.1506
G1 X80.467 Y74.48 E29.15698
G1 X80.243 Y74.604 E29.16677
G1 X79.728 Y74.843 E29.1885
G1 X78.921 Y75.059 E29.22047
G1 X78.327 Y75.153 E29.24349
G1 X77.689 Y75.202 E29.26798
G1 X66.452 Y75.178 E29.69802
G1 X65.887 Y75.137 E29.7197
G1 X65.207 Y74.978 E29.74642
G1 X64.646 Y74.794 E29.76902
G1 X64.121 Y74.579 E29.79073
G1 X63.978 Y74.496 E29.79706
G1 X63.927 Y74.535 E29.79951
G1 X63.433 Y74.814 E29.82123
G1 X62.905 Y75.02 E29.84292
