;FLAVOR:Marlin
;TIME:390
;Filament used: 0.335681m
;Layer height: 0.2625
;Generated with Cura_SteamEngine 3.6.0
M140 S60
M105
M190 S60
M104 S210
M105
M109 S210
M82 ;absolute extrusion mode
G21;(metric values)
G90;(absolute positioning)
M82;(set extruder to absolute mode)
M107;(start with the fan off)
G28;(Home the printer)
G92 E0;(Reset the extruder to 0)
G0 Z5 E5 F500;(Move up and prime the nozzle)
G0 X-1 Z0;(Move outside the printable area)
G1 Y60 E8 F500;(Draw a priming/wiping line to the rear)
G1 X-1;(Move a little closer to the print area)
G1 Y10 E16 F500;(draw more priming/wiping)
G1 E15 F250;(Small retract)
G92 E0;(Zero the extruder)
G92 E0
G1 F2400 E-2.5
;LAYER_COUNT:16
;LAYER:0
M107
G0 F4320 X43.757 Y53.118 Z0.263
;TYPE:SKIRT
G1 F2400 E0
G1 F1620 X44.285 Y52.763 E0.02435
G1 X44.855 Y52.477 E0.04875
G1 X45.455 Y52.265 E0.07311
G1 X46.077 Y52.129 E0.09747
G1 X46.712 Y52.073 E0.12187
G1 X47.348 Y52.096 E0.14623
G1 X47.977 Y52.199 E0.17062
G1 X48.587 Y52.38 E0.19497
G1 X49.17 Y52.636 E0.21934
G1 X49.717 Y52.963 E0.24373
G1 X50.218 Y53.355 E0.26807
G1 X50.663 Y53.804 E0.29226
G1 X52.464 Y55.862 E0.39692
G1 X52.853 Y56.366 E0.42129
G1 X52.872 Y56.398 E0.42271
G1 X53.183 Y55.993 E0.44225
G1 X54.028 Y55.077 E0.48995
G1 X54.688 Y54.477 E0.52408
G1 X55.716 Y53.696 E0.57349
G1 X56.246 Y53.343 E0.59786
G1 X57.014 Y52.982 E0.63034
G1 X57.454 Y52.818 E0.64831
G1 X58.063 Y52.633 E0.67266
G1 X58.691 Y52.526 E0.69704
G1 X59.493 Y52.505 E0.72775
G1 X59.967 Y52.53 E0.74591
G1 X60.6 Y52.603 E0.7703
G1 X61.218 Y52.755 E0.79465
G1 X61.72 Y52.942 E0.81515
G1 X62.068 Y53.093 E0.82967
G1 X62.635 Y53.383 E0.85404
G1 X63.162 Y53.741 E0.87843
G1 X63.473 Y54.004 E0.89401
G1 X63.693 Y54.206 E0.90544
G1 X65.138 Y54.999 E0.96852
G1 X66.804 Y55.81 E1.03943
G1 X68.862 Y56.56 E1.12326
G1 X69.445 Y56.815 E1.14761
G1 X70.105 Y57.221 E1.17727
G1 X70.469 Y57.485 E1.19448
G1 X70.96 Y57.89 E1.21883
G1 X71.396 Y58.354 E1.2432
G1 X71.883 Y59.053 E1.2758
G1 X72.109 Y59.444 E1.29309
G1 X72.392 Y60.015 E1.31748
G1 X72.602 Y60.616 E1.34184
G1 X72.76 Y61.437 E1.37384
G1 X72.809 Y61.889 E1.39124
G1 X72.838 Y62.525 E1.4156
G1 X72.787 Y63.16 E1.43998
G1 X72.59 Y64.007 E1.47326
G1 X72.45 Y64.437 E1.49057
G1 X72.215 Y65.029 E1.51494
G1 X71.908 Y65.587 E1.53932
G1 X71.403 Y66.254 E1.57133
G1 X71.1 Y66.592 E1.5887
G1 X70.646 Y67.038 E1.61306
G1 X70.139 Y67.424 E1.63745
G1 X69.318 Y67.87 E1.6732
G1 X68.867 Y68.063 E1.69198
G1 X68.267 Y68.276 E1.71634
G1 X67.644 Y68.413 E1.74075
G1 X67.266 Y68.457 E1.75532
G1 X66.285 Y68.534 E1.79298
G1 X65.79 Y68.656 E1.81249
G1 X65.316 Y68.854 E1.83215
G1 X64.858 Y69.139 E1.85279
G1 X64.223 Y69.677 E1.88464
G1 X63.712 Y70.058 E1.90903
G1 X63.417 Y70.236 E1.92222
G1 X61.849 Y71.113 E1.99098
G1 X61.146 Y71.439 E2.02063
G1 X59.131 Y72.191 E2.10294
G1 X58.762 Y72.313 E2.11781
G1 X56.961 Y72.832 E2.18954
G1 X56.678 Y72.904 E2.20072
G1 X54.349 Y73.432 E2.29211
G1 X53.878 Y73.516 E2.31042
G1 X51.589 Y73.812 E2.39875
G1 X50.694 Y73.848 E2.43303
G1 X49.488 Y73.79 E2.47924
G1 X48.569 Y73.661 E2.51475
G1 X47.392 Y73.384 E2.56102
G1 X46.506 Y73.087 E2.59679
G1 X45.398 Y72.598 E2.64313
G1 X44.581 Y72.143 E2.67892
G1 X43.583 Y71.46 E2.7252
G1 X43.081 Y71.068 E2.74958
G1 X42.772 Y70.77 E2.76601
G1 X41.716 Y69.66 E2.82464
G1 X41.307 Y69.172 E2.84901
G1 X40.962 Y68.637 E2.87337
G1 X40.68 Y68.045 E2.89847
G1 X40.202 Y66.849 E2.94776
G1 X39.954 Y66.035 E2.98032
G1 X39.674 Y64.736 E3.03118
G1 X39.565 Y63.884 E3.06405
G1 X39.508 Y62.554 E3.11499
G1 X39.545 Y61.689 E3.14813
G1 X39.715 Y60.368 E3.1991
G1 X39.896 Y59.527 E3.23202
G1 X40.286 Y58.256 E3.2829
G1 X40.605 Y57.463 E3.31561
G1 X41.203 Y56.275 E3.36651
G1 X41.524 Y55.725 E3.39088
G1 X41.745 Y55.423 E3.4052
G1 X42.853 Y54.012 E3.47386
G1 X43.239 Y53.579 E3.49606
G0 F1458 X43.277 Y53.536
G0 X43.757 Y53.118
G0 F4320 X44.004 Y53.37
G1 F2400 E3.52262
G1 F1620 X44.518 Y53.033 E3.54614
G1 X45.072 Y52.766 E3.56968
G1 X45.655 Y52.573 E3.59318
G1 X46.258 Y52.457 E3.61668
G1 X46.872 Y52.421 E3.64022
G1 X47.485 Y52.465 E3.66374
G1 X48.087 Y52.587 E3.68724
G1 X48.668 Y52.787 E3.71076
G1 X49.218 Y53.061 E3.73428
G1 X49.728 Y53.403 E3.75778
G1 X50.19 Y53.809 E3.78131
G1 X50.4 Y54.034 E3.79309
G1 X52.201 Y56.092 E3.89775
G1 X52.574 Y56.58 E3.92126
G1 X52.838 Y57.037 E3.94146
G1 X52.923 Y56.903 E3.94753
G1 X53.44 Y56.23 E3.98001
G1 X54.285 Y55.314 E4.0277
G1 X54.9 Y54.756 E4.05948
G1 X55.928 Y53.975 E4.10889
G1 X56.44 Y53.636 E4.13239
G1 X57.136 Y53.31 E4.1618
G1 X57.576 Y53.146 E4.17977
G1 X58.164 Y52.969 E4.20327
G1 X58.771 Y52.87 E4.22681
G1 X59.475 Y52.855 E4.25376
G1 X59.949 Y52.88 E4.27192
G1 X60.559 Y52.952 E4.29543
G1 X61.155 Y53.103 E4.31896
G1 X61.581 Y53.263 E4.33637
G1 X61.929 Y53.414 E4.35089
G1 X62.475 Y53.695 E4.37439
G1 X62.981 Y54.044 E4.39791
G1 X63.237 Y54.263 E4.41081
G1 X63.486 Y54.491 E4.42373
G1 X64.989 Y55.317 E4.48936
G1 X66.663 Y56.132 E4.56061
G1 X68.742 Y56.889 E4.64529
G1 X69.304 Y57.137 E4.6688
G1 X69.899 Y57.504 E4.69555
G1 X70.263 Y57.768 E4.71276
G1 X70.736 Y58.16 E4.73627
G1 X71.154 Y58.611 E4.7598
G1 X71.58 Y59.228 E4.78849
G1 X71.806 Y59.619 E4.80578
G1 X72.078 Y60.17 E4.82929
G1 X72.277 Y60.752 E4.85283
G1 X72.412 Y61.475 E4.88098
G1 X72.461 Y61.927 E4.89838
G1 X72.488 Y62.541 E4.9219
G1 X72.434 Y63.153 E4.94541
G1 X72.257 Y63.899 E4.97475
G1 X72.117 Y64.329 E4.99206
G1 X71.889 Y64.899 E5.01556
G1 X71.589 Y65.436 E5.0391
G1 X71.142 Y66.02 E5.06724
G1 X70.839 Y66.358 E5.08461
G1 X70.4 Y66.788 E5.10813
G1 X69.909 Y67.157 E5.13164
G1 X69.18 Y67.548 E5.16329
G1 X68.729 Y67.741 E5.18207
G1 X68.149 Y67.945 E5.2056
G1 X67.548 Y68.073 E5.22911
G1 X67.238 Y68.108 E5.24105
G1 X66.229 Y68.187 E5.27978
G1 X65.684 Y68.321 E5.30126
G1 X65.153 Y68.543 E5.32329
G1 X64.648 Y68.857 E5.34605
G1 X63.996 Y69.41 E5.37876
G1 X63.246 Y69.931 E5.41371
G1 X61.678 Y70.808 E5.48247
G1 X61.024 Y71.111 E5.51005
G1 X59.009 Y71.863 E5.59236
G1 X58.665 Y71.976 E5.60622
G1 X56.864 Y72.495 E5.67795
G1 X56.601 Y72.563 E5.68834
G1 X54.272 Y73.091 E5.77974
G1 X53.833 Y73.169 E5.7968
G1 X51.544 Y73.465 E5.88513
G1 X50.711 Y73.499 E5.91703
G1 X49.505 Y73.441 E5.96324
G1 X48.65 Y73.32 E5.99629
G1 X47.473 Y73.043 E6.04256
G1 X46.647 Y72.767 E6.07589
G1 X45.539 Y72.278 E6.12224
G1 X44.778 Y71.854 E6.15558
G1 X43.78 Y71.171 E6.20186
G1 X43.297 Y70.792 E6.22536
G1 X43.026 Y70.529 E6.23981
G1 X41.97 Y69.419 E6.29844
G1 X41.576 Y68.947 E6.32197
G1 X41.247 Y68.428 E6.34549
G1 X41.005 Y67.916 E6.36716
G1 X40.527 Y66.72 E6.41645
G1 X40.296 Y65.962 E6.44678
G1 X40.016 Y64.663 E6.49763
G1 X39.914 Y63.869 E6.52827
G1 X39.857 Y62.539 E6.57921
G1 X39.892 Y61.734 E6.61005
G1 X40.062 Y60.413 E6.66102
G1 X40.231 Y59.63 E6.69168
G1 X40.621 Y58.359 E6.74256
G1 X40.918 Y57.621 E6.773
G1 X41.516 Y56.433 E6.8239
G1 X41.827 Y55.903 E6.84742
G1 X42.02 Y55.639 E6.85993
G1 X43.128 Y54.228 E6.92859
G1 X43.485 Y53.829 E6.94908
G0 F1458 X43.538 Y53.77
G0 X44.004 Y53.37
G0 F4320 X44.25 Y53.623
G1 F2400 E6.97564
G1 F1620 X44.749 Y53.305 E6.99828
G1 X45.286 Y53.058 E7.0209
G1 X45.851 Y52.885 E7.04352
G1 X46.435 Y52.79 E7.06616
G1 X47.026 Y52.775 E7.08879
G1 X47.614 Y52.839 E7.11142
G1 X48.188 Y52.982 E7.13406
G1 X48.737 Y53.202 E7.15669
G1 X49.251 Y53.493 E7.1793
G1 X49.722 Y53.851 E7.20194
G1 X50.136 Y54.265 E7.22435
G1 X51.937 Y56.323 E7.32901
G1 X52.296 Y56.793 E7.35164
G1 X52.587 Y57.307 E7.37424
G1 X52.779 Y57.785 E7.39396
G1 X53.219 Y57.091 E7.42541
G1 X53.697 Y56.468 E7.45546
G1 X54.542 Y55.552 E7.50315
G1 X55.111 Y55.034 E7.5326
G1 X56.139 Y54.253 E7.582
G1 X56.633 Y53.928 E7.60463
G1 X57.258 Y53.638 E7.631
G1 X57.698 Y53.474 E7.64897
G1 X58.265 Y53.305 E7.67162
G1 X58.849 Y53.214 E7.69423
G1 X59.456 Y53.204 E7.71747
G1 X59.93 Y53.229 E7.73563
G1 X60.517 Y53.3 E7.75826
G1 X61.089 Y53.45 E7.78089
G1 X61.441 Y53.585 E7.79532
G1 X61.789 Y53.736 E7.80984
G1 X62.315 Y54.007 E7.83248
G1 X63.001 Y54.521 E7.86529
G1 X63.284 Y54.78 E7.87997
G1 X64.807 Y55.617 E7.94648
G1 X66.534 Y56.458 E8.01999
G1 X68.622 Y57.218 E8.10502
G1 X69.163 Y57.457 E8.12766
G1 X69.694 Y57.787 E8.15158
G1 X70.058 Y58.051 E8.16879
G1 X70.512 Y58.43 E8.19143
G1 X70.911 Y58.867 E8.21407
G1 X71.277 Y59.404 E8.23894
G1 X71.503 Y59.795 E8.25623
G1 X71.763 Y60.325 E8.27882
G1 X71.95 Y60.886 E8.30145
G1 X72.065 Y61.512 E8.32581
G1 X72.114 Y61.964 E8.34321
G1 X72.137 Y62.555 E8.36584
G1 X72.081 Y63.144 E8.38848
G1 X71.924 Y63.79 E8.41392
G1 X71.784 Y64.22 E8.43123
G1 X71.563 Y64.769 E8.45388
G1 X71.271 Y65.283 E8.4765
G1 X70.882 Y65.786 E8.50084
G1 X70.579 Y66.124 E8.51821
G1 X70.155 Y66.537 E8.54086
G1 X69.68 Y66.889 E8.56349
G1 X69.042 Y67.226 E8.5911
G1 X68.591 Y67.419 E8.60987
G1 X68.033 Y67.615 E8.63251
G1 X67.211 Y67.759 E8.66444
G1 X66.172 Y67.84 E8.70433
G1 X65.575 Y67.987 E8.72786
G1 X64.993 Y68.231 E8.75201
G1 X64.446 Y68.57 E8.77664
G1 X63.77 Y69.144 E8.81058
G1 X63.076 Y69.625 E8.84289
G1 X61.508 Y70.502 E8.91165
G1 X60.902 Y70.783 E8.93721
G1 X58.887 Y71.535 E9.01952
G1 X58.568 Y71.64 E9.03237
G1 X56.767 Y72.159 E9.1041
G1 X56.523 Y72.222 E9.11374
G1 X54.194 Y72.75 E9.20514
G1 X53.788 Y72.822 E9.22092
G1 X51.499 Y73.118 E9.30925
G1 X50.728 Y73.149 E9.33878
G1 X49.522 Y73.091 E9.38498
G1 X48.73 Y72.98 E9.41559
G1 X47.553 Y72.703 E9.46186
G1 X46.789 Y72.447 E9.4927
G1 X45.681 Y71.958 E9.53905
G1 X44.976 Y71.565 E9.56994
G1 X43.978 Y70.882 E9.61622
G1 X43.514 Y70.516 E9.63883
G1 X43.279 Y70.288 E9.65137
G1 X42.223 Y69.178 E9.71
G1 X41.846 Y68.723 E9.73261
G1 X41.533 Y68.221 E9.75525
G1 X41.33 Y67.786 E9.77362
G1 X40.852 Y66.59 E9.82291
G1 X40.638 Y65.888 E9.851
G1 X40.358 Y64.589 E9.90185
G1 X40.264 Y63.854 E9.93021
G1 X40.207 Y62.524 E9.98116
G1 X40.239 Y61.779 E10.00969
G1 X40.409 Y60.458 E10.06067
G1 X40.565 Y59.733 E10.08905
G1 X40.955 Y58.462 E10.13993
G1 X41.23 Y57.778 E10.16814
G1 X41.828 Y56.59 E10.21904
G1 X42.295 Y55.855 E10.25236
G1 X43.403 Y54.444 E10.32102
G1 X43.73 Y54.081 E10.33972
G0 F1458 X43.799 Y54.005
G0 X44.25 Y53.623
G0 F4320 X44.495 Y53.877
G1 F2400 E10.36628
G1 F1620 X44.978 Y53.58 E10.38798
G1 X45.498 Y53.353 E10.40969
G1 X46.044 Y53.201 E10.43138
G1 X46.606 Y53.128 E10.45307
G1 X47.174 Y53.135 E10.47481
G1 X47.734 Y53.221 E10.49649
G1 X48.277 Y53.385 E10.5182
G1 X48.791 Y53.623 E10.53988
G1 X49.267 Y53.932 E10.5616
G1 X49.873 Y54.495 E10.59325
G1 X51.674 Y56.553 E10.69791
G1 X52.016 Y57.005 E10.7196
G1 X52.292 Y57.501 E10.74132
G1 X52.495 Y58.03 E10.76301
G1 X52.622 Y58.583 E10.78472
G1 X52.635 Y58.742 E10.79083
G1 X52.848 Y58.328 E10.80865
G1 X53.514 Y57.278 E10.85623
G1 X53.955 Y56.705 E10.8839
G1 X54.8 Y55.789 E10.9316
G1 X55.323 Y55.313 E10.95866
G1 X56.351 Y54.532 E11.00807
G1 X56.826 Y54.222 E11.02977
G1 X57.38 Y53.965 E11.05315
G1 X57.82 Y53.801 E11.07112
G1 X58.364 Y53.641 E11.09282
G1 X58.925 Y53.559 E11.11451
G1 X59.438 Y53.554 E11.13415
G1 X59.912 Y53.579 E11.15231
G1 X60.475 Y53.648 E11.17402
G1 X61.022 Y53.796 E11.19571
G1 X61.302 Y53.906 E11.20722
G1 X61.65 Y54.057 E11.22174
G1 X62.153 Y54.318 E11.24342
G1 X62.765 Y54.779 E11.27275
G1 X63.08 Y55.067 E11.28908
G1 X64.65 Y55.93 E11.35764
G1 X66.397 Y56.781 E11.43201
G1 X68.502 Y57.547 E11.51774
G1 X69.02 Y57.778 E11.53944
G1 X69.488 Y58.071 E11.56057
G1 X69.852 Y58.335 E11.57778
G1 X70.287 Y58.699 E11.59949
G1 X70.666 Y59.121 E11.6212
G1 X70.974 Y59.579 E11.64232
G1 X71.2 Y59.97 E11.6596
G1 X71.448 Y60.48 E11.6813
G1 X71.623 Y61.019 E11.70299
G1 X71.717 Y61.55 E11.72363
G1 X71.766 Y62.002 E11.74103
G1 X71.787 Y62.569 E11.76274
G1 X71.728 Y63.133 E11.78444
G1 X71.591 Y63.682 E11.8061
G1 X71.451 Y64.112 E11.82341
G1 X71.238 Y64.638 E11.84512
G1 X70.953 Y65.128 E11.86682
G1 X70.621 Y65.553 E11.88746
G1 X70.318 Y65.891 E11.90483
G1 X69.911 Y66.285 E11.92651
G1 X69.452 Y66.619 E11.94823
G1 X68.905 Y66.904 E11.97184
G1 X68.454 Y67.097 E11.99061
G1 X67.918 Y67.283 E12.01232
G1 X67.184 Y67.41 E12.04083
G1 X66.116 Y67.493 E12.08183
G1 X65.464 Y67.654 E12.10753
G1 X64.831 Y67.919 E12.13379
G1 X64.238 Y68.287 E12.1605
G1 X63.543 Y68.877 E12.19539
G1 X62.905 Y69.32 E12.22511
G1 X61.337 Y70.197 E12.29387
G1 X60.779 Y70.455 E12.31739
G1 X58.764 Y71.207 E12.3997
G1 X58.472 Y71.304 E12.41148
G1 X56.671 Y71.823 E12.48321
G1 X56.446 Y71.88 E12.49209
G1 X54.117 Y72.408 E12.58348
G1 X53.743 Y72.475 E12.59802
G1 X51.454 Y72.771 E12.68635
G1 X50.745 Y72.799 E12.71351
G1 X49.539 Y72.741 E12.75971
G1 X48.81 Y72.639 E12.78788
G1 X47.633 Y72.362 E12.83416
G1 X46.93 Y72.126 E12.86254
G1 X45.822 Y71.637 E12.90889
G1 X45.174 Y71.277 E12.93726
G1 X44.176 Y70.594 E12.98354
G1 X43.533 Y70.046 E13.01587
G1 X42.477 Y68.936 E13.0745
G1 X42.116 Y68.499 E13.09619
G1 X41.82 Y68.015 E13.11791
G1 X41.655 Y67.656 E13.13303
G1 X41.177 Y66.46 E13.18232
G1 X40.98 Y65.814 E13.20816
G1 X40.7 Y64.515 E13.25902
G1 X40.614 Y63.839 E13.2851
G1 X40.557 Y62.509 E13.33604
G1 X40.586 Y61.823 E13.36232
G1 X40.756 Y60.502 E13.41329
G1 X40.9 Y59.835 E13.43941
G1 X41.29 Y58.564 E13.49028
G1 X41.543 Y57.935 E13.51623
G1 X42.141 Y56.747 E13.56713
G1 X42.57 Y56.071 E13.59777
G1 X43.678 Y54.66 E13.66643
G1 X43.974 Y54.334 E13.68328
G0 F1458 X44.059 Y54.24
G0 X44.495 Y53.877
G0 F4320 X44.739 Y54.134
G1 F2400 E13.70984
G1 F1620 X45.205 Y53.857 E13.73059
G1 X45.706 Y53.652 E13.7513
G1 X46.232 Y53.522 E13.77204
G1 X46.772 Y53.472 E13.79279
G1 X47.313 Y53.501 E13.81353
G1 X47.844 Y53.61 E13.83427
G1 X48.353 Y53.795 E13.855
G1 X48.829 Y54.053 E13.87572
G1 X49.262 Y54.379 E13.89646
G1 X49.61 Y54.726 E13.91527
G1 X51.411 Y56.784 E14.01993
G1 X51.736 Y57.217 E14.04065
G1 X51.995 Y57.693 E14.06138
G1 X52.181 Y58.202 E14.08212
G1 X52.29 Y58.733 E14.10287
G1 X52.319 Y59.274 E14.1236
G1 X52.269 Y59.813 E14.14432
G1 X52.14 Y60.34 E14.16508
G1 X51.935 Y60.841 E14.1858
G1 X51.601 Y61.388 E14.21033
G1 X51.225 Y61.897 E14.23454
G1 X51.174 Y62.014 E14.23943
G1 X51.144 Y62.154 E14.24491
G1 X51.144 Y62.2 E14.24667
G1 X51.147 Y62.199 E14.24679
G1 X51.151 Y62.196 E14.24698
G1 X51.792 Y61.365 E14.28714
G1 X52.189 Y60.714 E14.31633
G1 X52.84 Y59.105 E14.38275
G1 X53.144 Y58.516 E14.40812
G1 X53.81 Y57.466 E14.4557
G1 X54.212 Y56.942 E14.48098
G1 X55.057 Y56.026 E14.52867
G1 X55.535 Y55.592 E14.55338
G1 X56.563 Y54.811 E14.60279
G1 X57.017 Y54.516 E14.62351
G1 X57.502 Y54.293 E14.64394
G1 X57.942 Y54.129 E14.66191
G1 X58.463 Y53.978 E14.68267
G1 X59 Y53.905 E14.7034
G1 X59.42 Y53.903 E14.71948
G1 X59.894 Y53.928 E14.73764
G1 X60.431 Y53.996 E14.75836
G1 X61.163 Y54.227 E14.78773
G1 X61.511 Y54.378 E14.80225
G1 X61.991 Y54.629 E14.82298
G1 X62.529 Y55.037 E14.84882
G1 X62.874 Y55.353 E14.86673
G1 X64.5 Y56.247 E14.93774
G1 X66.26 Y57.103 E15.01264
G1 X68.382 Y57.876 E15.09907
G1 X68.877 Y58.098 E15.11983
G1 X69.283 Y58.354 E15.1382
G1 X69.647 Y58.618 E15.1554
G1 X70.061 Y58.968 E15.17615
G1 X70.419 Y59.374 E15.19687
G1 X70.671 Y59.754 E15.21432
G1 X70.897 Y60.145 E15.2316
G1 X71.133 Y60.633 E15.25235
G1 X71.294 Y61.15 E15.27307
G1 X71.369 Y61.588 E15.29007
G1 X71.418 Y62.04 E15.30747
G1 X71.436 Y62.581 E15.32819
G1 X71.375 Y63.12 E15.34895
G1 X71.258 Y63.574 E15.36689
G1 X71.118 Y64.004 E15.3842
G1 X70.913 Y64.505 E15.40491
G1 X70.636 Y64.971 E15.42566
G1 X70.36 Y65.319 E15.44266
G1 X70.057 Y65.657 E15.46003
G1 X69.667 Y66.033 E15.48076
G1 X69.226 Y66.347 E15.50148
G1 X68.767 Y66.583 E15.52123
G1 X68.316 Y66.776 E15.54001
G1 X67.803 Y66.952 E15.56076
G1 X67.156 Y67.061 E15.58587
G1 X66.06 Y67.147 E15.62794
G1 X65.355 Y67.32 E15.65572
G1 X64.671 Y67.606 E15.6841
G1 X64.032 Y68.003 E15.71289
G1 X63.317 Y68.61 E15.74878
G1 X62.734 Y69.014 E15.77593
G1 X61.166 Y69.891 E15.84468
G1 X60.657 Y70.127 E15.86615
G1 X58.642 Y70.879 E15.94846
G1 X58.375 Y70.967 E15.95922
G1 X56.574 Y71.486 E16.03095
G1 X56.369 Y71.539 E16.03905
G1 X54.04 Y72.067 E16.13044
G1 X53.698 Y72.128 E16.14374
G1 X51.409 Y72.424 E16.23207
G1 X50.761 Y72.45 E16.25689
G1 X49.555 Y72.392 E16.30309
G1 X48.89 Y72.298 E16.3288
G1 X47.713 Y72.021 E16.37507
G1 X47.071 Y71.806 E16.40098
G1 X45.963 Y71.317 E16.44733
G1 X45.371 Y70.988 E16.47325
G1 X44.373 Y70.305 E16.51953
G1 X43.786 Y69.805 E16.54904
G1 X42.73 Y68.695 E16.60767
G1 X42.387 Y68.276 E16.6284
G1 X42.109 Y67.811 E16.64913
