;FLAVOR:Marlin
;TIME:18481
;Filament used: 27.1178m
;Layer height: 0.2625
;Generated with Cura_SteamEngine 3.6.0
M140 S60
M105
M190 S60
M104 S200
M105
M109 S200
M82 ;absolute extrusion mode
G21;(metric values)
G90;(absolute positioning)
M82;(set extruder to absolute mode)
M107;(start with the fan off)
G28;(Home the printer)
G92 E0;(Reset the extruder to 0)
G0 Z5 E5 F500;(Move up and prime the nozzle)
G0 X-1 Z0;(Move outside the printable area)
G1 Y60 E8 F500;(Draw a priming/wiping line to the rear)
G1 X-1;(Move a little closer to the print area)
G1 Y10 E16 F500;(draw more priming/wiping)
G1 E15 F250;(Small retract)
G92 E0;(Zero the extruder)
G92 E0
G1 F2400 E-2.5
;LAYER_COUNT:445
;LAYER:0
M107
G0 F4320 X73.722 Y21.621 Z0.263
;TYPE:SKIRT
G1 F2400 E0
G1 F1800 X73.919 Y21.015 E0.02439
G1 X74.19 Y20.439 E0.04875
G1 X74.645 Y19.75 E0.08035
G1 X84.481 Y7.209 E0.6903
G1 X84.904 Y6.734 E0.71464
G1 X85.384 Y6.315 E0.73902
G1 X85.913 Y5.96 E0.7634
G1 X86.482 Y5.673 E0.78779
G1 X87.082 Y5.461 E0.81215
G1 X87.704 Y5.325 E0.83651
G1 X88.475 Y5.266 E0.8661
G1 X96.343 Y5.267 E1.16721
G1 X96.978 Y5.307 E1.19156
G1 X97.604 Y5.426 E1.21595
G1 X98.21 Y5.623 E1.24033
G1 X98.786 Y5.894 E1.26469
G1 X99.324 Y6.235 E1.28907
G1 X99.815 Y6.641 E1.31345
G1 X100.335 Y7.21 E1.34295
G1 X110.17 Y19.751 E1.95288
G1 X110.531 Y20.276 E1.97726
G1 X110.823 Y20.842 E2.00164
G1 X111.043 Y21.44 E2.02602
G1 X111.185 Y22.061 E2.0504
G1 X111.252 Y22.883 E2.08196
G1 X111.252 Y44.035 E2.89145
G1 X111.212 Y44.671 E2.91584
G1 X111.093 Y45.296 E2.94019
G1 X110.896 Y45.902 E2.96457
G1 X110.651 Y46.422 E2.98657
G1 X110.767 Y46.633 E2.99578
G1 X111.001 Y47.225 E3.02015
G1 X111.16 Y47.842 E3.04453
G1 X111.24 Y48.474 E3.06891
G1 X111.25 Y48.794 E3.08116
G1 X111.252 Y66.529 E3.75988
G1 X111.212 Y67.165 E3.78427
G1 X111.093 Y67.791 E3.80865
G1 X110.896 Y68.396 E3.833
G1 X110.652 Y68.915 E3.85495
G1 X110.767 Y69.123 E3.86405
G1 X111.002 Y69.715 E3.88842
G1 X111.161 Y70.332 E3.91281
G1 X111.242 Y70.964 E3.93719
G1 X111.252 Y71.288 E3.9496
G1 X111.252 Y90.725 E4.69345
G1 X111.212 Y91.361 E4.71784
G1 X111.093 Y91.986 E4.74219
G1 X110.896 Y92.592 E4.76657
G1 X110.625 Y93.168 E4.79093
G1 X110.169 Y93.858 E4.82258
G1 X100.334 Y106.389 E5.43221
G1 X99.91 Y106.865 E5.45661
G1 X99.43 Y107.283 E5.48096
G1 X98.902 Y107.638 E5.50531
G1 X98.333 Y107.924 E5.52969
G1 X97.732 Y108.137 E5.55409
G1 X97.11 Y108.273 E5.57845
G1 X96.342 Y108.331 E5.60793
G1 X88.474 Y108.331 E5.90904
G1 X87.838 Y108.291 E5.93342
G1 X87.213 Y108.172 E5.95777
G1 X86.607 Y107.975 E5.98216
G1 X86.031 Y107.704 E6.00652
G1 X85.493 Y107.363 E6.0309
G1 X85.002 Y106.957 E6.05528
G1 X84.482 Y106.39 E6.08472
G1 X74.646 Y93.859 E6.69437
G1 X74.285 Y93.334 E6.71876
G1 X73.992 Y92.768 E6.74315
G1 X73.773 Y92.17 E6.76752
G1 X73.63 Y91.55 E6.79187
G1 X73.563 Y90.725 E6.82354
G1 X73.563 Y71.292 E7.56724
G1 X73.603 Y70.656 E7.59163
G1 X73.722 Y70.031 E7.61598
G1 X73.919 Y69.425 E7.64037
G1 X74.164 Y68.903 E7.66244
G1 X74.047 Y68.69 E7.67174
G1 X73.813 Y68.097 E7.69613
G1 X73.655 Y67.481 E7.72047
G1 X73.565 Y66.532 E7.75695
G1 X73.563 Y48.795 E8.43574
G1 X73.603 Y48.159 E8.46013
G1 X73.722 Y47.533 E8.48452
G1 X73.919 Y46.928 E8.50887
G1 X74.163 Y46.409 E8.53082
G1 X74.048 Y46.2 E8.53995
G1 X73.813 Y45.608 E8.56432
G1 X73.654 Y44.991 E8.5887
G1 X73.573 Y44.359 E8.61309
G1 X73.563 Y44.035 E8.62549
G1 X73.563 Y22.882 E9.43502
G1 X73.6 Y22.303 E9.45722
G0 F1620 X73.603 Y22.246
G0 X73.722 Y21.621
G0 F4320 X74.072 Y21.666
G1 F2400 E9.48378
G1 F1800 X74.269 Y21.084 E9.5073
G1 X74.539 Y20.532 E9.53081
G1 X74.92 Y19.966 E9.55692
G1 X84.756 Y7.425 E10.16687
G1 X85.166 Y6.967 E10.1904
G1 X85.632 Y6.566 E10.21393
G1 X86.146 Y6.229 E10.23745
G1 X86.699 Y5.962 E10.26095
G1 X87.282 Y5.769 E10.28445
G1 X87.886 Y5.653 E10.30799
G1 X88.475 Y5.616 E10.33057
G1 X96.343 Y5.617 E10.63168
G1 X96.956 Y5.657 E10.65519
G1 X97.559 Y5.776 E10.67871
G1 X98.141 Y5.973 E10.70223
G1 X98.693 Y6.243 E10.72575
G1 X99.205 Y6.583 E10.74927
G1 X99.668 Y6.986 E10.77276
G1 X100.06 Y7.426 E10.79531
G1 X109.895 Y19.967 E11.40524
G1 X110.242 Y20.474 E11.42875
G1 X110.52 Y21.022 E11.45226
G1 X110.725 Y21.602 E11.47581
G1 X110.853 Y22.203 E11.49932
G1 X110.902 Y22.883 E11.52541
G1 X110.902 Y44.035 E12.3349
G1 X110.862 Y44.648 E12.35841
G1 X110.743 Y45.251 E12.38193
G1 X110.546 Y45.833 E12.40545
G1 X110.276 Y46.385 E12.42896
G1 X110.256 Y46.415 E12.43034
G1 X110.529 Y46.96 E12.45367
G1 X110.73 Y47.54 E12.47716
G1 X110.855 Y48.142 E12.50069
G1 X110.9 Y48.794 E12.5257
G1 X110.902 Y66.529 E13.20442
G1 X110.862 Y67.143 E13.22797
G1 X110.743 Y67.745 E13.25145
G1 X110.547 Y68.328 E13.27499
G1 X110.276 Y68.88 E13.29852
G1 X110.258 Y68.907 E13.29977
G1 X110.53 Y69.45 E13.32301
G1 X110.732 Y70.031 E13.34655
G1 X110.856 Y70.632 E13.37003
G1 X110.902 Y71.288 E13.3952
G1 X110.902 Y90.725 E14.13905
G1 X110.862 Y91.338 E14.16256
G1 X110.743 Y91.941 E14.18608
G1 X110.546 Y92.523 E14.2096
G1 X110.276 Y93.075 E14.23312
G1 X109.894 Y93.642 E14.25928
G1 X100.059 Y106.173 E14.86891
G1 X99.649 Y106.631 E14.89243
G1 X99.183 Y107.032 E14.91596
G1 X98.669 Y107.368 E14.93946
G1 X98.116 Y107.635 E14.96296
G1 X97.532 Y107.829 E14.98651
G1 X96.929 Y107.944 E15.01
G1 X96.342 Y107.981 E15.03251
G1 X88.474 Y107.981 E15.33362
G1 X87.861 Y107.941 E15.35713
G1 X87.258 Y107.822 E15.38065
G1 X86.676 Y107.625 E15.40417
G1 X86.124 Y107.355 E15.42768
G1 X85.612 Y107.015 E15.4512
G1 X85.148 Y106.612 E15.47472
G1 X84.757 Y106.173 E15.49722
G1 X74.921 Y93.642 E16.10687
G1 X74.574 Y93.135 E16.13038
G1 X74.296 Y92.588 E16.15387
G1 X74.091 Y92.008 E16.17741
G1 X73.963 Y91.407 E16.20092
G1 X73.913 Y90.725 E16.22709
G1 X73.913 Y71.292 E16.97079
G1 X73.953 Y70.679 E16.9943
G1 X74.072 Y70.076 E17.01782
G1 X74.269 Y69.494 E17.04134
G1 X74.539 Y68.942 E17.06486
G1 X74.559 Y68.912 E17.06624
G1 X74.285 Y68.363 E17.08972
G1 X74.084 Y67.783 E17.11321
G1 X73.96 Y67.181 E17.13673
G1 X73.915 Y66.532 E17.16163
G1 X73.913 Y48.795 E17.84042
G1 X73.953 Y48.181 E17.86397
G1 X74.072 Y47.579 E17.88745
G1 X74.268 Y46.996 E17.91099
G1 X74.539 Y46.444 E17.93453
G1 X74.557 Y46.416 E17.9358
G1 X74.285 Y45.873 E17.95904
G1 X74.083 Y45.292 E17.98258
G1 X73.959 Y44.691 E18.00607
G1 X73.913 Y44.035 E18.03123
G1 X73.913 Y22.882 E18.84076
G1 X73.948 Y22.348 E18.86124
G0 F1620 X73.953 Y22.269
G0 X74.072 Y21.666
G0 F4320 X74.422 Y21.713
G1 F2400 E18.8878
G1 F1800 X74.618 Y21.155 E18.91043
G1 X74.888 Y20.629 E18.93306
G1 X75.196 Y20.182 E18.95383
G1 X85.032 Y7.641 E19.56378
G1 X85.427 Y7.202 E19.58638
G1 X85.878 Y6.819 E19.60903
G1 X86.377 Y6.501 E19.63167
G1 X86.914 Y6.254 E19.65429
G1 X87.479 Y6.081 E19.67691
G1 X88.063 Y5.985 E19.69956
G1 X88.475 Y5.966 E19.71534
G1 X96.343 Y5.967 E20.01645
G1 X96.932 Y6.007 E20.03904
G1 X97.512 Y6.126 E20.0617
G1 X98.069 Y6.322 E20.0843
G1 X98.596 Y6.592 E20.10696
G1 X99.081 Y6.93 E20.12958
G1 X99.516 Y7.331 E20.15222
G1 X99.785 Y7.642 E20.16796
G1 X109.62 Y20.183 E20.77789
G1 X109.952 Y20.672 E20.80051
G1 X110.216 Y21.201 E20.82313
G1 X110.406 Y21.761 E20.84576
G1 X110.518 Y22.342 E20.86841
G1 X110.552 Y22.883 E20.88915
G1 X110.552 Y44.035 E21.69864
G1 X110.512 Y44.625 E21.72127
G1 X110.393 Y45.204 E21.74389
G1 X110.197 Y45.762 E21.76652
G1 X109.927 Y46.288 E21.78915
G1 X109.837 Y46.418 E21.7952
G1 X110.039 Y46.743 E21.80985
G1 X110.28 Y47.283 E21.83248
G1 X110.447 Y47.85 E21.8551
G1 X110.535 Y48.435 E21.87774
G1 X110.55 Y48.795 E21.89153
G1 X110.552 Y66.53 E22.57024
G1 X110.512 Y67.119 E22.59284
G1 X110.393 Y67.699 E22.6155
G1 X110.197 Y68.256 E22.63809
G1 X109.927 Y68.783 E22.66075
G1 X109.838 Y68.91 E22.66669
G1 X110.04 Y69.234 E22.6813
G1 X110.281 Y69.773 E22.7039
G1 X110.448 Y70.341 E22.72655
G1 X110.537 Y70.925 E22.74916
G1 X110.552 Y71.288 E22.76307
G1 X110.552 Y90.725 E23.50692
G1 X110.512 Y91.315 E23.52955
G1 X110.393 Y91.894 E23.55217
G1 X110.197 Y92.452 E23.57481
G1 X109.927 Y92.978 E23.59743
G1 X109.619 Y93.426 E23.61824
G1 X99.784 Y105.957 E24.22786
G1 X99.388 Y106.397 E24.25052
G1 X98.937 Y106.779 E24.27314
G1 X98.438 Y107.096 E24.29576
G1 X97.901 Y107.344 E24.3184
G1 X97.336 Y107.517 E24.34101
G1 X96.752 Y107.612 E24.36366
G1 X96.342 Y107.631 E24.37936
G1 X88.474 Y107.631 E24.68047
G1 X87.884 Y107.591 E24.7031
G1 X87.305 Y107.472 E24.72572
G1 X86.747 Y107.276 E24.74836
G1 X86.221 Y107.006 E24.77098
G1 X85.736 Y106.668 E24.79361
G1 X85.301 Y106.268 E24.81622
G1 X85.033 Y105.957 E24.83193
G1 X75.197 Y93.426 E25.44158
G1 X74.864 Y92.938 E25.46419
G1 X74.6 Y92.408 E25.48685
G1 X74.41 Y91.849 E25.50945
G1 X74.297 Y91.268 E25.5321
G1 X74.263 Y90.725 E25.55292
G1 X74.263 Y71.292 E26.29662
G1 X74.303 Y70.702 E26.31925
G1 X74.422 Y70.123 E26.34187
G1 X74.618 Y69.565 E26.36451
G1 X74.888 Y69.039 E26.38713
G1 X74.979 Y68.909 E26.39321
G1 X74.775 Y68.58 E26.40802
G1 X74.534 Y68.041 E26.43062
G1 X74.368 Y67.473 E26.45326
G1 X74.28 Y66.888 E26.4759
G1 X74.265 Y66.531 E26.48958
G1 X74.263 Y48.794 E27.16837
G1 X74.303 Y48.205 E27.19097
G1 X74.422 Y47.625 E27.21362
G1 X74.618 Y47.068 E27.23622
G1 X74.888 Y46.541 E27.25888
G1 X74.977 Y46.413 E27.26485
G1 X74.775 Y46.089 E27.27946
G1 X74.534 Y45.55 E27.30206
G1 X74.367 Y44.982 E27.32471
G1 X74.278 Y44.398 E27.34732
G1 X74.263 Y44.035 E27.36123
G1 X74.263 Y22.882 E28.17075
G1 X74.297 Y22.394 E28.18947
G0 F1620 X74.303 Y22.292
G0 X74.422 Y21.713
G0 F4320 X74.772 Y21.762
G1 F2400 E28.21603
G1 F1800 X74.968 Y21.23 E28.23773
G1 X75.236 Y20.73 E28.25944
G1 X75.471 Y20.398 E28.275
G1 X85.307 Y7.857 E28.88496
G1 X85.687 Y7.437 E28.90663
G1 X86.123 Y7.074 E28.92834
G1 X86.606 Y6.776 E28.95006
G1 X87.125 Y6.549 E28.97174
G1 X87.672 Y6.397 E28.99347
G1 X88.475 Y6.316 E29.02436
G1 X96.343 Y6.317 E29.32546
G1 X96.908 Y6.357 E29.34714
G1 X97.463 Y6.476 E29.36886
G1 X97.995 Y6.672 E29.39056
G1 X98.494 Y6.941 E29.41225
G1 X98.951 Y7.277 E29.43396
G1 X99.509 Y7.858 E29.46479
G1 X109.344 Y20.399 E30.07472
G1 X109.662 Y20.869 E30.09644
G1 X109.91 Y21.379 E30.11814
G1 X110.085 Y21.918 E30.13983
G1 X110.181 Y22.477 E30.16153
G1 X110.202 Y22.883 E30.17709
G1 X110.202 Y44.035 E30.98658
G1 X110.162 Y44.601 E31.00829
G1 X110.043 Y45.155 E31.02998
G1 X109.847 Y45.687 E31.05167
G1 X109.579 Y46.187 E31.07338
G1 X109.41 Y46.416 E31.08428
G1 X109.535 Y46.579 E31.09214
G1 X109.813 Y47.073 E31.11383
G1 X110.019 Y47.601 E31.13552
G1 X110.149 Y48.154 E31.15726
G1 X110.2 Y48.795 E31.18187
G1 X110.202 Y66.53 E31.86059
G1 X110.162 Y67.095 E31.88226
G1 X110.043 Y67.65 E31.90399
G1 X109.847 Y68.182 E31.92568
G1 X109.579 Y68.681 E31.94736
G1 X109.412 Y68.908 E31.95814
G1 X109.536 Y69.07 E31.96595
G1 X109.814 Y69.564 E31.98765
G1 X110.02 Y70.092 E32.00934
G1 X110.15 Y70.644 E32.03104
G1 X110.202 Y71.288 E32.05576
G1 X110.202 Y90.725 E32.79962
G1 X110.162 Y91.291 E32.82133
G1 X110.043 Y91.845 E32.84302
G1 X109.847 Y92.377 E32.86471
G1 X109.579 Y92.877 E32.88642
G1 X109.343 Y93.21 E32.90204
G1 X99.508 Y105.741 E33.51167
G1 X99.128 Y106.161 E33.53335
G1 X98.692 Y106.524 E33.55506
G1 X98.209 Y106.822 E33.57678
G1 X97.689 Y107.049 E33.59849
G1 X97.143 Y107.201 E33.62018
G1 X96.342 Y107.281 E33.65099
G1 X88.474 Y107.281 E33.9521
G1 X87.908 Y107.241 E33.97381
G1 X87.354 Y107.122 E33.9955
G1 X86.822 Y106.926 E34.01719
G1 X86.322 Y106.658 E34.0389
G1 X85.866 Y106.321 E34.0606
G1 X85.308 Y105.741 E34.0914
G1 X75.472 Y93.21 E34.70105
G1 X75.154 Y92.741 E34.72274
G1 X74.905 Y92.231 E34.74446
G1 X74.731 Y91.691 E34.76617
G1 X74.634 Y91.133 E34.78785
G1 X74.613 Y90.725 E34.80348
G1 X74.613 Y71.292 E35.54718
G1 X74.653 Y70.726 E35.5689
G1 X74.772 Y70.172 E35.59058
G1 X74.968 Y69.64 E35.61228
G1 X75.236 Y69.14 E35.63399
G1 X75.406 Y68.911 E35.6449
G1 X75.279 Y68.745 E35.6529
G1 X75.001 Y68.251 E35.6746
G1 X74.795 Y67.722 E35.69632
G1 X74.666 Y67.17 E35.71802
G1 X74.615 Y66.531 E35.74255
G1 X74.613 Y48.794 E36.42134
G1 X74.653 Y48.229 E36.44302
G1 X74.772 Y47.674 E36.46474
G1 X74.968 Y47.142 E36.48644
G1 X75.236 Y46.643 E36.50811
G1 X75.404 Y46.415 E36.51895
G1 X75.279 Y46.253 E36.52678
G1 X75.001 Y45.759 E36.54848
G1 X74.795 Y45.231 E36.57017
G1 X74.665 Y44.679 E36.59187
G1 X74.613 Y44.035 E36.6166
G1 X74.613 Y22.882 E37.42612
G1 X74.644 Y22.443 E37.44296
G0 F1620 X74.653 Y22.316
G0 X74.772 Y21.762
G0 F4320 X75.122 Y21.813
G1 F2400 E37.46952
G1 F1800 X75.317 Y21.308 E37.49024
G1 X75.585 Y20.836 E37.51101
G1 X75.746 Y20.614 E37.52151
G1 X85.582 Y8.073 E38.13146
G1 X85.947 Y7.672 E38.15221
G1 X86.367 Y7.33 E38.17294
G1 X86.833 Y7.053 E38.19368
G1 X87.334 Y6.847 E38.21441
G1 X87.86 Y6.718 E38.23514
G1 X88.474 Y6.666 E38.25872
G1 X96.342 Y6.667 E38.55983
G1 X96.883 Y6.707 E38.58059
G1 X97.411 Y6.826 E38.6013
G1 X97.917 Y7.022 E38.62207
G1 X98.388 Y7.289 E38.64279
G1 X98.815 Y7.623 E38.66354
G1 X99.234 Y8.074 E38.6871
G1 X109.069 Y20.615 E39.29702
G1 X109.371 Y21.065 E39.31776
G1 X109.603 Y21.554 E39.33848
G1 X109.762 Y22.073 E39.35925
G1 X109.842 Y22.609 E39.37999
G1 X109.852 Y22.883 E39.39048
G1 X109.852 Y44.035 E40.19997
G1 X109.812 Y44.575 E40.22069
G1 X109.693 Y45.104 E40.24144
G1 X109.498 Y45.609 E40.26216
G1 X109.23 Y46.081 E40.28293
G1 X108.969 Y46.415 E40.29915
G1 X109.022 Y46.471 E40.3021
G1 X109.332 Y46.915 E40.32283
G1 X109.575 Y47.399 E40.34355
G1 X109.743 Y47.914 E40.36429
G1 X109.834 Y48.449 E40.38505
G1 X109.85 Y48.795 E40.39831
G1 X109.852 Y66.53 E41.07703
G1 X109.812 Y67.07 E41.09775
G1 X109.693 Y67.599 E41.1185
G1 X109.498 Y68.104 E41.13922
G1 X109.23 Y68.575 E41.15996
G1 X108.97 Y68.907 E41.17609
G1 X109.022 Y68.962 E41.17899
G1 X109.333 Y69.406 E41.19974
G1 X109.576 Y69.89 E41.22046
G1 X109.744 Y70.405 E41.24119
G1 X109.835 Y70.939 E41.26192
G1 X109.852 Y71.288 E41.2753
G1 X109.852 Y90.725 E42.01915
G1 X109.812 Y91.265 E42.03987
G1 X109.693 Y91.794 E42.06062
G1 X109.498 Y92.299 E42.08134
G1 X109.23 Y92.771 E42.10211
G1 X109.068 Y92.994 E42.11266
G1 X99.233 Y105.525 E42.72229
G1 X98.868 Y105.925 E42.74301
G1 X98.448 Y106.268 E42.76376
G1 X97.982 Y106.545 E42.78451
G1 X97.481 Y106.75 E42.80522
G1 X96.955 Y106.88 E42.82596
G1 X96.342 Y106.931 E42.8495
G1 X88.474 Y106.931 E43.15061
G1 X87.934 Y106.891 E43.17133
G1 X87.405 Y106.772 E43.19208
G1 X86.9 Y106.577 E43.2128
G1 X86.428 Y106.309 E43.23357
G1 X86.002 Y105.975 E43.25429
G1 X85.583 Y105.525 E43.27782
G1 X75.747 Y92.994 E43.88747
G1 X75.445 Y92.544 E43.90821
G1 X75.212 Y92.055 E43.92894
G1 X75.054 Y91.537 E43.94966
G1 X74.973 Y91.001 E43.97041
G1 X74.963 Y90.725 E43.98098
G1 X74.963 Y71.292 E44.72468
G1 X75.003 Y70.752 E44.7454
G1 X75.122 Y70.223 E44.76615
G1 X75.317 Y69.718 E44.78687
G1 X75.585 Y69.246 E44.80764
G1 X75.847 Y68.912 E44.82389
G1 X75.792 Y68.853 E44.82697
G1 X75.481 Y68.409 E44.84772
G1 X75.239 Y67.925 E44.86843
G1 X75.072 Y67.409 E44.88918
G1 X74.981 Y66.875 E44.90991
G1 X74.965 Y66.531 E44.92309
G1 X74.963 Y48.794 E45.60189
G1 X75.003 Y48.254 E45.62261
G1 X75.122 Y47.725 E45.64336
G1 X75.317 Y47.22 E45.66408
G1 X75.585 Y46.749 E45.68482
G1 X75.845 Y46.416 E45.70098
G1 X75.793 Y46.361 E45.70388
G1 X75.482 Y45.917 E45.72463
G1 X75.239 Y45.433 E45.74535
G1 X75.071 Y44.918 E45.76608
G1 X74.98 Y44.384 E45.78681
G1 X74.963 Y44.035 E45.80019
G1 X74.963 Y22.882 E46.60971
G1 X74.992 Y22.493 E46.62464
G0 F1620 X75.003 Y22.342
G0 X75.122 Y21.813
G0 F4320 X75.472 Y21.867
G1 F2400 E46.6512
G1 F1800 X75.667 Y21.39 E46.67092
G1 X76.022 Y20.83 E46.69629
G1 X85.858 Y8.289 E47.30624
G1 X86.206 Y7.909 E47.32596
G1 X86.609 Y7.588 E47.34568
G1 X87.057 Y7.333 E47.36541
G1 X87.539 Y7.15 E47.38514
G1 X88.043 Y7.044 E47.40485
G1 X88.474 Y7.016 E47.42138
G1 X96.342 Y7.017 E47.72249
G1 X96.856 Y7.057 E47.74222
G1 X97.358 Y7.176 E47.76196
G1 X97.835 Y7.371 E47.78168
G1 X98.276 Y7.637 E47.80139
G1 X98.671 Y7.969 E47.82114
G1 X98.958 Y8.29 E47.83762
G1 X108.793 Y20.831 E48.44755
G1 X109.079 Y21.26 E48.46728
G1 X109.295 Y21.728 E48.487
G1 X109.436 Y22.224 E48.50674
G1 X109.502 Y22.883 E48.53208
G1 X109.502 Y44.035 E49.34157
G1 X109.462 Y44.549 E49.3613
G1 X109.343 Y45.05 E49.38101
G1 X109.148 Y45.527 E49.40073
G1 X108.882 Y45.969 E49.42047
G1 X108.551 Y46.363 E49.44016
G1 X108.493 Y46.413 E49.44309
G1 X108.505 Y46.423 E49.44369
