;FLAVOR:Marlin
;TIME:18808
;Filament used: 27.4772m
;Layer height: 0.2625
;Generated with Cura_SteamEngine 3.6.0
M140 S65
M105
M190 S65
M104 S205
M105
M109 S205
M82 ;absolute extrusion mode
G21;(metric values)
G90;(absolute positioning)
M82;(set extruder to absolute mode)
M107;(start with the fan off)
G28;(Home the printer)
G92 E0;(Reset the extruder to 0)
G0 Z5 E5 F500;(Move up and prime the nozzle)
G0 X-1 Z0;(Move outside the printable area)
G1 Y60 E8 F500;(Draw a priming/wiping line to the rear)
G1 X-1;(Move a little closer to the print area)
G1 Y10 E16 F500;(draw more priming/wiping)
G1 E15 F250;(Small retract)
G92 E0;(Zero the extruder)
G92 E0
G1 F2400 E-2.5
;LAYER_COUNT:445
;LAYER:0
M107
G0 F4320 X64.342 Y21.295 Z0.263
;TYPE:SKIRT
G1 F2400 E0
G1 F1800 X64.614 Y20.719 E0.02438
G1 X64.936 Y20.208 E0.04749
G1 X74.791 Y6.47 E0.69453
G1 X75.194 Y5.977 E0.7189
G1 X75.656 Y5.538 E0.74329
G1 X76.169 Y5.16 E0.76768
G1 X76.725 Y4.85 E0.79204
G1 X77.315 Y4.612 E0.81638
G1 X77.931 Y4.449 E0.84077
G1 X78.563 Y4.365 E0.86517
G1 X78.94 Y4.353 E0.8796
G1 X86.762 Y4.392 E1.17896
G1 X87.398 Y4.435 E1.20335
G1 X88.023 Y4.558 E1.22773
G1 X88.627 Y4.757 E1.25207
G1 X89.202 Y5.031 E1.27644
G1 X89.739 Y5.375 E1.30085
G1 X90.227 Y5.783 E1.32519
G1 X90.661 Y6.249 E1.34956
G1 X90.867 Y6.518 E1.36253
G1 X100.647 Y20.217 E2.00668
G1 X100.984 Y20.758 E2.03107
G1 X101.251 Y21.336 E2.05544
G1 X101.443 Y21.943 E2.0798
G1 X101.557 Y22.57 E2.10419
G1 X101.592 Y23.161 E2.12685
G1 X101.608 Y40.789 E2.80147
G1 X101.569 Y41.425 E2.82586
G1 X101.45 Y42.051 E2.85024
G1 X101.254 Y42.657 E2.87462
G1 X100.983 Y43.233 E2.89898
G1 X100.91 Y43.349 E2.90422
G1 X101.178 Y43.868 E2.92658
G1 X101.397 Y44.466 E2.95095
G1 X101.539 Y45.086 E2.97529
G1 X101.606 Y45.906 E3.00678
G1 X101.608 Y63.815 E3.69215
G1 X101.568 Y64.451 E3.71654
G1 X101.449 Y65.077 E3.74093
G1 X101.252 Y65.682 E3.76528
G1 X100.981 Y66.259 E3.78967
G1 X100.912 Y66.367 E3.79458
G1 X101.198 Y66.934 E3.81888
G1 X101.411 Y67.534 E3.84325
G1 X101.547 Y68.156 E3.86761
G1 X101.606 Y68.953 E3.8982
G1 X101.567 Y77.002 E4.20624
G1 X101.524 Y77.637 E4.23059
G1 X101.402 Y78.262 E4.25496
G1 X101.202 Y78.867 E4.27935
G1 X100.928 Y79.442 E4.30373
G1 X100.585 Y79.978 E4.32808
G1 X100.428 Y80.166 E4.33745
G1 X100.506 Y80.243 E4.34165
G1 X100.902 Y80.743 E4.36606
G1 X101.231 Y81.287 E4.39039
G1 X101.49 Y81.869 E4.41477
G1 X101.674 Y82.479 E4.43915
G1 X101.78 Y83.107 E4.46352
G1 X101.808 Y83.637 E4.48383
G1 X101.808 Y88.384 E4.6655
G1 X101.768 Y89.02 E4.68989
G1 X101.653 Y89.627 E4.71353
G1 X101.488 Y90.28 E4.73931
G1 X101.294 Y90.887 E4.7637
G1 X101.025 Y91.464 E4.78806
G1 X100.676 Y92.017 E4.81308
G1 X97.586 Y96.277 E5.01449
G1 X97.181 Y96.768 E5.03884
G1 X96.717 Y97.204 E5.06321
G1 X96.202 Y97.579 E5.08759
G1 X95.644 Y97.887 E5.11198
G1 X95.052 Y98.122 E5.13636
G1 X94.61 Y98.236 E5.15383
G1 X94.632 Y98.745 E5.17333
G1 X94.58 Y99.38 E5.19771
G1 X94.449 Y100.003 E5.22207
G1 X94.241 Y100.605 E5.24645
G1 X93.959 Y101.176 E5.27082
G1 X93.665 Y101.629 E5.29149
G1 X90.768 Y105.621 E5.48025
G1 X90.363 Y106.112 E5.50461
G1 X89.899 Y106.548 E5.52897
G1 X89.384 Y106.923 E5.55335
G1 X88.826 Y107.23 E5.57773
G1 X88.234 Y107.465 E5.6021
G1 X87.617 Y107.624 E5.62649
G1 X86.986 Y107.705 E5.65083
G1 X86.635 Y107.715 E5.66427
G1 X78.813 Y107.675 E5.96362
G1 X78.178 Y107.632 E5.98798
G1 X77.553 Y107.509 E6.01236
G1 X76.948 Y107.31 E6.03673
G1 X76.373 Y107.036 E6.06111
G1 X75.837 Y106.692 E6.08548
G1 X75.348 Y106.284 E6.10985
G1 X74.914 Y105.817 E6.13425
G1 X74.708 Y105.548 E6.14722
G1 X71.888 Y101.597 E6.33299
G1 X71.552 Y101.057 E6.35733
G1 X71.285 Y100.478 E6.38173
G1 X71.093 Y99.871 E6.40609
G1 X70.979 Y99.244 E6.43048
G1 X70.944 Y98.609 E6.45482
G1 X70.964 Y98.232 E6.46927
G1 X70.568 Y98.134 E6.48488
G1 X69.974 Y97.904 E6.50926
G1 X69.414 Y97.602 E6.5336
G1 X68.896 Y97.231 E6.55799
G1 X68.428 Y96.799 E6.58236
G1 X67.99 Y96.274 E6.60853
G1 X64.894 Y92.003 E6.81041
G1 X64.553 Y91.464 E6.83481
G1 X64.283 Y90.888 E6.85916
G1 X64.095 Y90.314 E6.88228
G1 X63.936 Y89.709 E6.90621
G1 X63.813 Y89.084 E6.93059
G1 X63.769 Y88.419 E6.9561
G1 X63.769 Y83.638 E7.13907
G1 X63.809 Y83.002 E7.16345
G1 X63.928 Y82.377 E7.1878
G1 X64.125 Y81.771 E7.21219
G1 X64.396 Y81.195 E7.23655
G1 X64.737 Y80.657 E7.26093
G1 X65.143 Y80.166 E7.28531
G1 X65.154 Y80.156 E7.28588
G1 X64.793 Y79.673 E7.30895
G1 X64.48 Y79.119 E7.33331
G1 X64.238 Y78.529 E7.35771
G1 X64.071 Y77.915 E7.38206
G1 X63.984 Y77.284 E7.40644
G1 X63.969 Y76.9 E7.42115
G1 X63.969 Y68.929 E7.7262
G1 X64.009 Y68.293 E7.75058
G1 X64.128 Y67.668 E7.77493
G1 X64.325 Y67.062 E7.79932
G1 X64.596 Y66.486 E7.82368
G1 X64.665 Y66.378 E7.82858
G1 X64.378 Y65.809 E7.85297
G1 X64.165 Y65.209 E7.87734
G1 X64.029 Y64.587 E7.9017
G1 X63.97 Y63.815 E7.93134
G1 X63.969 Y45.909 E8.6166
G1 X64.009 Y45.274 E8.64095
G1 X64.128 Y44.648 E8.66533
G1 X64.325 Y44.042 E8.68972
G1 X64.596 Y43.466 E8.71408
G1 X64.665 Y43.358 E8.71898
G1 X64.378 Y42.789 E8.74337
G1 X64.165 Y42.189 E8.76774
G1 X64.029 Y41.567 E8.79211
G1 X63.97 Y40.791 E8.82189
G1 X63.985 Y23.162 E9.49655
G1 X64.026 Y22.526 E9.52094
G1 X64.135 Y21.957 E9.54311
G0 F1620 X64.145 Y21.901
G0 X64.342 Y21.295
G0 F4320 X64.692 Y21.364
G1 F2400 E9.56967
G1 F1800 X64.963 Y20.812 E9.5932
G1 X65.221 Y20.412 E9.61142
G1 X75.076 Y6.674 E10.25846
G1 X75.466 Y6.199 E10.28198
G1 X75.914 Y5.779 E10.30548
G1 X76.413 Y5.42 E10.32901
G1 X76.954 Y5.129 E10.35251
G1 X77.529 Y4.911 E10.37605
G1 X78.127 Y4.769 E10.39957
G1 X78.939 Y4.703 E10.43075
G1 X86.761 Y4.742 E10.7301
G1 X87.374 Y4.785 E10.75362
G1 X87.976 Y4.907 E10.77712
G1 X88.557 Y5.107 E10.80064
G1 X89.108 Y5.38 E10.82417
G1 X89.618 Y5.722 E10.84767
G1 X90.08 Y6.127 E10.87118
G1 X90.583 Y6.722 E10.901
G1 X100.363 Y20.421 E11.54515
G1 X100.686 Y20.943 E11.56865
G1 X100.94 Y21.503 E11.59218
G1 X101.118 Y22.091 E11.61569
G1 X101.219 Y22.697 E11.6392
G1 X101.242 Y23.162 E11.65702
G1 X101.258 Y40.79 E12.33164
G1 X101.219 Y41.403 E12.35515
G1 X101.1 Y42.006 E12.37867
G1 X100.904 Y42.588 E12.40217
G1 X100.634 Y43.14 E12.42569
G1 X100.495 Y43.351 E12.43536
G1 X100.608 Y43.518 E12.44308
G1 X100.883 Y44.068 E12.46661
G1 X101.085 Y44.648 E12.49011
G1 X101.21 Y45.25 E12.51364
G1 X101.256 Y45.906 E12.53881
G1 X101.258 Y63.815 E13.22419
G1 X101.218 Y64.429 E13.24773
G1 X101.099 Y65.032 E13.27126
G1 X100.903 Y65.614 E13.29476
G1 X100.632 Y66.166 E13.31829
G1 X100.495 Y66.374 E13.32782
G1 X100.631 Y66.579 E13.33724
G1 X100.901 Y67.131 E13.36075
G1 X101.097 Y67.714 E13.38429
G1 X101.216 Y68.316 E13.40778
G1 X101.256 Y68.951 E13.43213
G1 X101.217 Y77 E13.74017
G1 X101.174 Y77.613 E13.76368
G1 X101.052 Y78.215 E13.78719
G1 X100.853 Y78.796 E13.81069
G1 X100.58 Y79.347 E13.83423
G1 X100.238 Y79.857 E13.85773
G1 X99.952 Y80.183 E13.87432
G1 X99.998 Y80.222 E13.87663
G1 X100.414 Y80.675 E13.90017
G1 X100.767 Y81.177 E13.92365
G1 X101.052 Y81.722 E13.94719
G1 X101.264 Y82.298 E13.97068
G1 X101.4 Y82.898 E13.99422
G1 X101.458 Y83.637 E14.02259
G1 X101.458 Y88.384 E14.20426
G1 X101.418 Y88.997 E14.22777
G1 X101.314 Y89.542 E14.249
G1 X101.149 Y90.195 E14.27478
G1 X100.96 Y90.779 E14.29827
G1 X100.697 Y91.334 E14.32177
G1 X100.393 Y91.811 E14.34342
G1 X97.303 Y96.071 E14.54482
G1 X96.91 Y96.544 E14.56836
G1 X96.46 Y96.962 E14.59186
G1 X95.959 Y97.318 E14.61538
G1 X95.416 Y97.606 E14.6389
G1 X94.841 Y97.821 E14.6624
G1 X94.242 Y97.96 E14.68593
G1 X94.231 Y97.961 E14.68635
G1 X94.242 Y98.015 E14.68846
G1 X94.256 Y98.146 E14.6935
G1 X94.282 Y98.76 E14.71702
G1 X94.227 Y99.372 E14.74054
G1 X94.094 Y99.972 E14.76406
G1 X93.884 Y100.549 E14.78756
G1 X93.6 Y101.094 E14.81108
G1 X93.382 Y101.423 E14.82618
G1 X90.485 Y105.415 E15.01494
G1 X90.093 Y105.888 E15.03845
G1 X89.642 Y106.306 E15.06199
G1 X89.141 Y106.662 E15.08551
G1 X88.598 Y106.95 E15.10903
G1 X88.023 Y107.165 E15.13252
G1 X87.424 Y107.303 E15.15605
G1 X86.637 Y107.365 E15.18626
G1 X78.815 Y107.325 E15.48561
G1 X78.202 Y107.282 E15.50913
G1 X77.6 Y107.16 E15.53263
G1 X77.018 Y106.96 E15.55618
G1 X76.468 Y106.687 E15.57968
G1 X75.958 Y106.345 E15.60318
G1 X75.496 Y105.939 E15.62672
G1 X74.993 Y105.345 E15.65651
G1 X72.173 Y101.394 E15.84228
G1 X71.849 Y100.872 E15.86579
G1 X71.596 Y100.312 E15.88931
G1 X71.418 Y99.724 E15.91282
G1 X71.317 Y99.118 E15.93633
G1 X71.296 Y98.503 E15.95988
G1 X71.317 Y98.182 E15.97219
G1 X71.33 Y98.051 E15.97723
G1 X71.347 Y97.95 E15.98115
G1 X70.954 Y97.879 E15.99643
G1 X70.369 Y97.692 E16.01993
G1 X69.813 Y97.43 E16.04346
G1 X69.296 Y97.098 E16.06697
G1 X68.826 Y96.702 E16.09049
G1 X68.273 Y96.068 E16.12269
G1 X65.177 Y91.797 E16.32456
G1 X64.85 Y91.277 E16.34807
G1 X64.593 Y90.719 E16.37158
G1 X64.433 Y90.225 E16.39146
G1 X64.274 Y89.62 E16.4154
G1 X64.157 Y89.017 E16.4389
G1 X64.119 Y88.419 E16.46183
G1 X64.119 Y83.638 E16.6448
G1 X64.159 Y83.025 E16.66831
G1 X64.278 Y82.422 E16.69183
G1 X64.475 Y81.84 E16.71535
G1 X64.745 Y81.288 E16.73886
G1 X65.085 Y80.776 E16.76239
G1 X65.488 Y80.312 E16.78591
G1 X65.648 Y80.171 E16.79407
G1 X65.413 Y79.924 E16.80711
G1 X65.052 Y79.427 E16.83062
G1 X64.757 Y78.888 E16.85414
G1 X64.536 Y78.314 E16.87768
G1 X64.39 Y77.717 E16.9012
G1 X64.319 Y76.9 E16.93258
G1 X64.319 Y68.929 E17.23763
G1 X64.359 Y68.316 E17.26114
G1 X64.478 Y67.713 E17.28466
G1 X64.675 Y67.131 E17.30818
G1 X64.945 Y66.579 E17.33169
G1 X65.083 Y66.372 E17.34121
G1 X64.945 Y66.164 E17.35077
G1 X64.675 Y65.612 E17.37428
G1 X64.479 Y65.029 E17.39782
G1 X64.36 Y64.427 E17.42131
G1 X64.32 Y63.815 E17.44478
G1 X64.319 Y45.909 E18.13004
G1 X64.359 Y45.296 E18.15355
G1 X64.478 Y44.693 E18.17707
G1 X64.674 Y44.111 E18.20057
G1 X64.945 Y43.559 E18.22411
G1 X65.083 Y43.351 E18.23366
G1 X64.945 Y43.144 E18.24318
G1 X64.675 Y42.592 E18.2667
G1 X64.479 Y42.009 E18.29024
G1 X64.36 Y41.407 E18.31372
G1 X64.32 Y40.791 E18.33734
G1 X64.335 Y23.162 E19.012
G1 X64.375 Y22.549 E19.03551
G1 X64.48 Y22.024 E19.056
G0 F1620 X64.495 Y21.946
G0 X64.692 Y21.364
G0 F4320 X65.042 Y21.436
G1 F2400 E19.08256
G1 F1800 X65.312 Y20.91 E19.10519
G1 X65.505 Y20.616 E19.11865
G1 X75.36 Y6.878 E19.76569
G1 X75.736 Y6.422 E19.78831
G1 X76.171 Y6.021 E19.81095
G1 X76.655 Y5.682 E19.83356
G1 X77.181 Y5.411 E19.85621
G1 X77.738 Y5.214 E19.87882
G1 X78.317 Y5.094 E19.90145
G1 X78.937 Y5.053 E19.92522
G1 X86.759 Y5.092 E20.22458
G1 X87.349 Y5.135 E20.24722
G1 X87.927 Y5.257 E20.26982
G1 X88.484 Y5.456 E20.29246
G1 X89.009 Y5.728 E20.31509
G1 X89.492 Y6.069 E20.33771
G1 X89.925 Y6.471 E20.36033
G1 X90.298 Y6.925 E20.38281
G1 X100.078 Y20.624 E21.02697
G1 X100.388 Y21.127 E21.04958
G1 X100.627 Y21.668 E21.07221
G1 X100.792 Y22.236 E21.09485
G1 X100.878 Y22.821 E21.11748
G1 X100.892 Y23.162 E21.13054
G1 X100.908 Y40.79 E21.80516
G1 X100.869 Y41.38 E21.82779
G1 X100.75 Y41.959 E21.85041
G1 X100.554 Y42.517 E21.87304
G1 X100.285 Y43.044 E21.89569
G1 X100.073 Y43.35 E21.90993
G1 X100.328 Y43.734 E21.92757
G1 X100.587 Y44.266 E21.95022
G1 X100.771 Y44.828 E21.97285
G1 X100.878 Y45.409 E21.99546
G1 X100.906 Y45.907 E22.01455
G1 X100.908 Y63.816 E22.69992
G1 X100.868 Y64.405 E22.72252
G1 X100.749 Y64.985 E22.74518
G1 X100.553 Y65.542 E22.76777
G1 X100.283 Y66.069 E22.79043
G1 X100.073 Y66.37 E22.80448
G1 X100.349 Y66.792 E22.82378
G1 X100.602 Y67.326 E22.84639
G1 X100.781 Y67.89 E22.86904
G1 X100.882 Y68.473 E22.89168
G1 X100.906 Y68.949 E22.90992
G1 X100.867 Y76.998 E23.21796
G1 X100.824 Y77.588 E23.2406
G1 X100.702 Y78.166 E23.2632
G1 X100.503 Y78.723 E23.28584
G1 X100.231 Y79.248 E23.30847
G1 X99.891 Y79.732 E23.3311
G1 X99.488 Y80.165 E23.35374
G1 X99.439 Y80.205 E23.35616
G1 X99.497 Y80.246 E23.35888
G1 X99.929 Y80.65 E23.38152
G1 X100.303 Y81.108 E23.40415
G1 X100.611 Y81.612 E23.42675
G1 X100.849 Y82.154 E23.4494
G1 X101.011 Y82.722 E23.47201
G1 X101.096 Y83.308 E23.49467
G1 X101.108 Y83.637 E23.50727
G1 X101.108 Y88.384 E23.68894
G1 X101.068 Y88.974 E23.71157
G1 X100.975 Y89.456 E23.73035
G1 X100.81 Y90.109 E23.75613
G1 X100.626 Y90.671 E23.77876
G1 X100.369 Y91.203 E23.80137
G1 X100.109 Y91.606 E23.81973
G1 X97.019 Y95.866 E24.02113
G1 X96.641 Y96.32 E24.04374
G1 X96.204 Y96.719 E24.06638
G1 X95.718 Y97.055 E24.08899
G1 X95.191 Y97.323 E24.11162
G1 X94.632 Y97.517 E24.13426
G1 X94.053 Y97.634 E24.15687
G1 X93.817 Y97.649 E24.16592
G1 X93.894 Y98.052 E24.18162
G1 X93.908 Y98.183 E24.18666
G1 X93.931 Y98.774 E24.2093
G1 X93.874 Y99.362 E24.23191
G1 X93.739 Y99.938 E24.25455
G1 X93.526 Y100.49 E24.27719
G1 X93.099 Y101.218 E24.30949
G1 X90.202 Y105.21 E24.49825
G1 X89.823 Y105.664 E24.52089
G1 X89.386 Y106.062 E24.54351
G1 X88.9 Y106.399 E24.56614
G1 X88.373 Y106.666 E24.58875
G1 X87.814 Y106.86 E24.61139
G1 X87.235 Y106.977 E24.634
G1 X86.639 Y107.015 E24.65686
G1 X78.817 Y106.975 E24.95621
G1 X78.227 Y106.932 E24.97885
G1 X77.648 Y106.81 E25.00149
G1 X77.092 Y106.611 E25.02409
G1 X76.567 Y106.339 E25.04672
G1 X76.083 Y105.998 E25.06938
G1 X75.65 Y105.596 E25.09199
G1 X75.278 Y105.142 E25.11445
G1 X72.458 Y101.191 E25.30022
G1 X72.148 Y100.687 E25.32286
G1 X71.908 Y100.147 E25.34548
G1 X71.744 Y99.579 E25.3681
G1 X71.658 Y98.994 E25.39073
G1 X71.665 Y98.217 E25.42047
G1 X71.678 Y98.086 E25.42551
G1 X71.752 Y97.648 E25.44251
G1 X71.311 Y97.599 E25.45949
G1 X70.738 Y97.453 E25.48212
G1 X70.19 Y97.232 E25.50473
G1 X69.677 Y96.938 E25.52736
G1 X69.208 Y96.578 E25.54998
G1 X68.791 Y96.158 E25.57263
G1 X68.557 Y95.863 E25.58704
G1 X65.461 Y91.592 E25.78892
G1 X65.147 Y91.091 E25.81155
G1 X64.903 Y90.552 E25.83419
G1 X64.772 Y90.136 E25.85088
G1 X64.613 Y89.531 E25.87482
G1 X64.501 Y88.95 E25.89747
G1 X64.469 Y88.419 E25.91783
G1 X64.469 Y83.638 E26.10079
G1 X64.509 Y83.048 E26.12343
G1 X64.628 Y82.469 E26.14605
G1 X64.824 Y81.911 E26.16868
G1 X65.094 Y81.385 E26.19131
G1 X65.432 Y80.9 E26.21393
G1 X65.832 Y80.465 E26.23655
G1 X66.168 Y80.187 E26.25324
G1 X66.058 Y80.097 E26.25868
G1 X65.654 Y79.665 E26.28131
G1 X65.312 Y79.183 E26.30393
G1 X65.038 Y78.659 E26.32656
G1 X64.838 Y78.103 E26.34917
G1 X64.714 Y77.524 E26.37183
G1 X64.669 Y76.9 E26.39577
G1 X64.669 Y68.929 E26.70082
G1 X64.709 Y68.339 E26.72346
G1 X64.828 Y67.76 E26.74608
G1 X65.024 Y67.202 E26.76871
G1 X65.294 Y66.676 E26.79134
G1 X65.504 Y66.375 E26.80538
G1 X65.227 Y65.951 E26.82477
G1 X64.974 Y65.417 E26.84738
G1 X64.795 Y64.853 E26.87002
G1 X64.694 Y64.27 E26.89267
G1 X64.67 Y63.815 E26.91011
G1 X64.669 Y45.909 E27.59537
G1 X64.709 Y45.319 E27.618
G1 X64.828 Y44.74 E27.64062
G1 X65.024 Y44.182 E27.66325
G1 X65.294 Y43.656 E27.68588
G1 X65.504 Y43.355 E27.69993
G1 X65.227 Y42.931 E27.71931
G1 X64.974 Y42.397 E27.74192
G1 X64.795 Y41.833 E27.76457
G1 X64.694 Y41.25 E27.78721
G1 X64.67 Y40.791 E27.8048
G1 X64.685 Y23.162 E28.47946
G1 X64.725 Y22.572 E28.50209
G1 X64.824 Y22.094 E28.52077
G0 F1620 X64.845 Y21.993
G0 X65.042 Y21.436
G0 F4320 X65.391 Y21.511
G1 F2400 E28.54733
G1 F1800 X65.789 Y20.82 E28.57785
G1 X75.644 Y7.082 E29.22489
G1 X76.007 Y6.646 E29.2466
G1 X76.427 Y6.264 E29.26833
G1 X76.896 Y5.946 E29.29001
G1 X77.405 Y5.697 E29.3117
G1 X77.945 Y5.522 E29.33342
G1 X78.503 Y5.424 E29.3551
G1 X78.935 Y5.403 E29.37166
G1 X86.757 Y5.442 E29.67101
G1 X87.323 Y5.485 E29.69273
G1 X87.876 Y5.607 E29.7144
G1 X88.408 Y5.805 E29.73613
G1 X88.906 Y6.076 E29.75782
G1 X89.361 Y6.415 E29.77954
G1 X89.764 Y6.814 E29.80124
G1 X90.013 Y7.128 E29.81658
G1 X99.793 Y20.827 E30.46073
G1 X100.089 Y21.311 E30.48244
G1 X100.314 Y21.831 E30.50413
G1 X100.464 Y22.378 E30.52583
G1 X100.542 Y23.162 E30.55599
G1 X100.558 Y40.79 E31.23061
G1 X100.519 Y41.356 E31.25232
G1 X100.4 Y41.911 E31.27404
G1 X100.205 Y42.443 E31.29573
G1 X99.936 Y42.943 E31.31746
G1 X99.634 Y43.355 E31.33701
G1 X99.737 Y43.473 E31.343
G1 X100.047 Y43.948 E31.36471
G1 X100.288 Y44.462 E31.38643
G1 X100.453 Y45.004 E31.40811
G1 X100.541 Y45.564 E31.42981
G1 X100.556 Y45.907 E31.44295
G1 X100.558 Y63.816 E32.12832
G1 X100.518 Y64.381 E32.15
G1 X100.399 Y64.936 E32.17172
G1 X100.203 Y65.468 E32.19342
G1 X99.935 Y65.967 E32.2151
G1 X99.633 Y66.377 E32.23459
G1 X99.761 Y66.526 E32.2421
G1 X100.066 Y67.004 E32.2638
G1 X100.302 Y67.52 E32.28552
