;FLAVOR:Marlin
;TIME:16729
;Filament used: 22.5605m
;Layer height: 0.2625
;Generated with Cura_SteamEngine 3.6.0
M140 S60
M105
M190 S60
M104 S210
M105
M109 S210
M82 ;absolute extrusion mode
G21;(metric values)
G90;(absolute positioning)
M82;(set extruder to absolute mode)
M107;(start with the fan off)
G28;(Home the printer)
G92 E0;(Reset the extruder to 0)
G0 Z5 E5 F500;(Move up and prime the nozzle)
G0 X-1 Z0;(Move outside the printable area)
G1 Y60 E8 F500;(Draw a priming/wiping line to the rear)
G1 X-1;(Move a little closer to the print area)
G1 Y10 E16 F500;(draw more priming/wiping)
G1 E15 F250;(Small retract)
G92 E0;(Zero the extruder)
G92 E0
G1 F2400 E-2.5
;LAYER_COUNT:445
;LAYER:0
M107
G0 F4320 X20.924 Y41.836 Z0.263
;TYPE:SKIRT
G1 F2400 E0
G1 F1620 X21.494 Y41.553 E0.02435
G1 X22.095 Y41.343 E0.04872
G1 X22.718 Y41.211 E0.07309
G1 X23.461 Y41.156 E0.1016
G1 X46.77 Y41.155 E0.99364
G1 X47.405 Y41.195 E1.01799
G1 X48.031 Y41.314 E1.04237
G1 X48.637 Y41.511 E1.06676
G1 X49.05 Y41.706 E1.08424
G1 X49.166 Y41.642 E1.08931
G1 X49.758 Y41.408 E1.11367
G1 X50.375 Y41.249 E1.13805
G1 X51.007 Y41.169 E1.16243
G1 X51.327 Y41.159 E1.17468
G1 X68.211 Y41.156 E1.82083
G1 X68.847 Y41.196 E1.84522
G1 X69.472 Y41.315 E1.86957
G1 X70.078 Y41.512 E1.89396
G1 X70.489 Y41.704 E1.91132
G1 X70.604 Y41.641 E1.91634
G1 X71.196 Y41.406 E1.94071
G1 X71.813 Y41.247 E1.96509
G1 X72.445 Y41.166 E1.98948
G1 X72.769 Y41.156 E2.00188
G1 X78.738 Y41.156 E2.23032
G1 X79.374 Y41.196 E2.25471
G1 X79.999 Y41.315 E2.27905
G1 X80.605 Y41.512 E2.30344
G1 X81.181 Y41.783 E2.3278
G1 X81.719 Y42.124 E2.35218
G1 X82.21 Y42.53 E2.37656
G1 X82.646 Y42.994 E2.40093
G1 X83.052 Y43.558 E2.42752
G1 X85.226 Y47.068 E2.58553
G1 X86.983 Y49.741 E2.70794
G1 X87.033 Y49.811 E2.71124
G1 X100.749 Y49.811 E3.23615
G1 X100.811 Y49.766 E3.23908
G1 X101.368 Y49.458 E3.26344
G1 X101.96 Y49.221 E3.28784
G1 X102.576 Y49.061 E3.3122
G1 X103.207 Y48.979 E3.33655
G1 X103.844 Y48.977 E3.36093
G1 X104.476 Y49.055 E3.3853
G1 X105.094 Y49.211 E3.40969
G1 X105.687 Y49.443 E3.43406
G1 X106.246 Y49.748 E3.45843
G1 X106.763 Y50.12 E3.4828
G1 X107.072 Y50.396 E3.49866
G1 X109.163 Y52.419 E3.61
G1 X109.592 Y52.889 E3.63436
G1 X109.958 Y53.41 E3.65872
G1 X110.257 Y53.973 E3.68312
G1 X110.483 Y54.568 E3.70748
G1 X110.632 Y55.187 E3.73184
G1 X110.709 Y56.066 E3.76561
G1 X110.709 Y63.934 E4.06672
G1 X110.669 Y64.57 E4.09111
G1 X110.55 Y65.195 E4.11546
G1 X110.353 Y65.801 E4.13984
G1 X110.082 Y66.377 E4.1642
G1 X109.741 Y66.915 E4.18858
G1 X109.164 Y67.581 E4.2223
G1 X107.074 Y69.604 E4.33362
G1 X106.589 Y70.017 E4.358
G1 X106.057 Y70.366 E4.38235
G1 X105.485 Y70.646 E4.40672
G1 X104.882 Y70.852 E4.43111
G1 X104.258 Y70.981 E4.45549
G1 X103.624 Y71.031 E4.47983
G1 X102.987 Y71.001 E4.50423
G1 X102.36 Y70.892 E4.52859
G1 X101.751 Y70.705 E4.55297
G1 X101.171 Y70.443 E4.57733
G1 X100.757 Y70.189 E4.59591
G1 X87.034 Y70.189 E5.12109
G1 X87.002 Y70.234 E5.12321
G1 X83.02 Y76.494 E5.40714
G1 X82.645 Y77.009 E5.43152
G1 X82.209 Y77.473 E5.45588
G1 X81.718 Y77.878 E5.48024
G1 X81.18 Y78.219 E5.50462
G1 X80.603 Y78.49 E5.52901
G1 X79.998 Y78.686 E5.55335
G1 X79.372 Y78.805 E5.57774
G1 X78.737 Y78.845 E5.60209
G1 X72.769 Y78.844 E5.83048
G1 X72.134 Y78.804 E5.85483
G1 X71.508 Y78.685 E5.87922
G1 X70.902 Y78.488 E5.9036
G1 X70.493 Y78.296 E5.9209
G1 X70.38 Y78.358 E5.92583
G1 X69.789 Y78.593 E5.95017
G1 X69.172 Y78.753 E5.97456
G1 X68.54 Y78.833 E5.99894
G1 X68.213 Y78.844 E6.01146
G1 X51.328 Y78.844 E6.65765
G1 X50.692 Y78.804 E6.68204
G1 X50.067 Y78.685 E6.70639
G1 X49.461 Y78.488 E6.73077
G1 X49.051 Y78.295 E6.74812
G1 X48.935 Y78.359 E6.75319
G1 X48.343 Y78.594 E6.77756
G1 X47.726 Y78.753 E6.80195
G1 X47.094 Y78.834 E6.82633
G1 X46.77 Y78.844 E6.83874
G1 X23.462 Y78.845 E7.73073
G1 X22.827 Y78.805 E7.75508
G1 X22.201 Y78.686 E7.77947
G1 X21.595 Y78.489 E7.80385
G1 X21.019 Y78.218 E7.82821
G1 X20.481 Y77.877 E7.85259
G1 X19.912 Y77.397 E7.88108
G1 X9.863 Y67.561 E8.41922
G1 X9.437 Y67.088 E8.44358
G1 X9.073 Y66.565 E8.46796
G1 X8.778 Y66.001 E8.49232
G1 X8.555 Y65.404 E8.51671
G1 X8.41 Y64.784 E8.54108
G1 X8.338 Y63.933 E8.57376
G1 X8.339 Y56.065 E8.87487
G1 X8.379 Y55.43 E8.89922
G1 X8.498 Y54.804 E8.92361
G1 X8.695 Y54.198 E8.94799
G1 X8.966 Y53.622 E8.97235
G1 X9.307 Y53.084 E8.99673
G1 X9.864 Y52.439 E9.02935
G1 X19.911 Y42.604 E9.5674
G1 X20.35 Y42.225 E9.5896
G0 F1458 X20.393 Y42.188
G0 X20.924 Y41.836
G0 F4320 X21.136 Y42.118
G1 F2400 E9.61616
G1 F1620 X21.69 Y41.851 E9.63969
G1 X22.273 Y41.658 E9.66319
G1 X22.877 Y41.542 E9.68673
G1 X23.461 Y41.506 E9.70912
G1 X46.77 Y41.505 E10.60116
G1 X47.383 Y41.545 E10.62467
G1 X47.986 Y41.664 E10.64819
G1 X48.568 Y41.86 E10.67169
G1 X49.055 Y42.099 E10.69245
G1 X49.493 Y41.88 E10.71119
G1 X50.074 Y41.679 E10.73472
G1 X50.675 Y41.554 E10.75821
G1 X51.327 Y41.509 E10.78322
G1 X68.211 Y41.506 E11.42937
G1 X68.824 Y41.546 E11.45288
G1 X69.427 Y41.665 E11.47641
G1 X70.009 Y41.861 E11.49991
G1 X70.493 Y42.098 E11.52053
G1 X70.931 Y41.878 E11.53929
G1 X71.512 Y41.676 E11.56283
G1 X72.113 Y41.552 E11.58631
G1 X72.769 Y41.506 E11.61148
G1 X78.738 Y41.506 E11.83991
G1 X79.351 Y41.546 E11.86342
G1 X79.954 Y41.665 E11.88695
G1 X80.536 Y41.862 E11.91046
G1 X81.088 Y42.132 E11.93398
G1 X81.6 Y42.472 E11.9575
G1 X82.064 Y42.875 E11.98102
G1 X82.471 Y43.335 E12.00452
G1 X82.755 Y43.743 E12.02355
G1 X84.923 Y47.242 E12.18108
G1 X86.701 Y49.948 E12.30499
G1 X86.853 Y50.161 E12.315
G1 X100.866 Y50.161 E12.85128
G1 X101.054 Y50.027 E12.86011
G1 X101.596 Y49.738 E12.88362
G1 X102.172 Y49.521 E12.90718
G1 X102.77 Y49.382 E12.93067
G1 X103.382 Y49.321 E12.95421
G1 X103.996 Y49.34 E12.97772
G1 X104.602 Y49.438 E13.00121
G1 X105.191 Y49.615 E13.02475
G1 X105.752 Y49.866 E13.04827
G1 X106.275 Y50.188 E13.07177
G1 X106.828 Y50.647 E13.09928
G1 X108.919 Y52.67 E13.21062
G1 X109.332 Y53.125 E13.23414
G1 X109.683 Y53.63 E13.25767
G1 X109.965 Y54.176 E13.28119
G1 X110.173 Y54.754 E13.3047
G1 X110.305 Y55.354 E13.32821
G1 X110.359 Y56.066 E13.35554
G1 X110.359 Y63.934 E13.65664
G1 X110.319 Y64.547 E13.68015
G1 X110.2 Y65.15 E13.70368
G1 X110.003 Y65.732 E13.72719
G1 X109.733 Y66.284 E13.75071
G1 X109.393 Y66.796 E13.77423
G1 X108.92 Y67.329 E13.8015
G1 X106.83 Y69.352 E13.91282
G1 X106.362 Y69.75 E13.93633
G1 X105.846 Y70.083 E13.95983
G1 X105.291 Y70.347 E13.98335
G1 X104.706 Y70.537 E14.00689
G1 X104.102 Y70.649 E14.0304
G1 X103.488 Y70.682 E14.05393
G1 X102.876 Y70.635 E14.07742
G1 X102.274 Y70.508 E14.10097
G1 X101.695 Y70.305 E14.12445
G1 X101.146 Y70.028 E14.14798
G1 X100.868 Y69.839 E14.16084
G1 X86.853 Y69.839 E14.6972
G1 X86.719 Y70.027 E14.70603
G1 X82.725 Y76.306 E14.99082
G1 X82.362 Y76.802 E15.01435
G1 X81.938 Y77.247 E15.03787
G1 X81.46 Y77.632 E15.06136
G1 X80.935 Y77.953 E15.08491
G1 X80.374 Y78.203 E15.10841
G1 X79.785 Y78.378 E15.13193
G1 X79.178 Y78.474 E15.15545
G1 X78.737 Y78.495 E15.17234
G1 X72.769 Y78.494 E15.40074
G1 X72.156 Y78.454 E15.42425
G1 X71.553 Y78.335 E15.44777
G1 X70.971 Y78.138 E15.47128
G1 X70.489 Y77.902 E15.49182
G1 X70.054 Y78.121 E15.51046
G1 X69.473 Y78.323 E15.534
G1 X68.872 Y78.448 E15.55749
G1 X68.213 Y78.494 E15.58277
G1 X51.328 Y78.494 E16.22896
G1 X50.715 Y78.454 E16.25247
G1 X50.112 Y78.335 E16.27599
G1 X49.53 Y78.138 E16.29951
G1 X49.047 Y77.902 E16.32008
G1 X48.608 Y78.122 E16.33887
G1 X48.027 Y78.324 E16.36241
G1 X47.426 Y78.448 E16.3859
G1 X46.77 Y78.494 E16.41106
G1 X23.462 Y78.495 E17.30306
G1 X22.849 Y78.455 E17.32657
G1 X22.246 Y78.336 E17.35009
G1 X21.664 Y78.14 E17.37359
G1 X21.112 Y77.869 E17.39713
G1 X20.6 Y77.53 E17.42063
G1 X20.157 Y77.147 E17.44304
G1 X10.108 Y67.311 E17.98118
G1 X9.698 Y66.853 E18.0047
G1 X9.35 Y66.346 E18.02823
G1 X9.072 Y65.799 E18.05172
G1 X8.866 Y65.22 E18.07523
G1 X8.738 Y64.619 E18.09875
G1 X8.688 Y63.933 E18.12507
G1 X8.689 Y56.065 E18.42618
G1 X8.729 Y55.452 E18.44969
G1 X8.848 Y54.849 E18.47321
G1 X9.045 Y54.267 E18.49673
G1 X9.315 Y53.715 E18.52024
G1 X9.655 Y53.203 E18.54377
G1 X10.109 Y52.689 E18.57001
G1 X20.156 Y42.854 E19.10807
G1 X20.562 Y42.506 E19.12853
G0 F1458 X20.622 Y42.454
G0 X21.136 Y42.118
G0 F4320 X21.347 Y42.4
G1 F2400 E19.15509
G1 F1620 X21.883 Y42.15 E19.17772
G1 X22.448 Y41.975 E19.20036
G1 X23.031 Y41.877 E19.22298
G1 X23.461 Y41.856 E19.23946
G1 X46.77 Y41.855 E20.13149
G1 X47.36 Y41.895 E20.15413
G1 X47.939 Y42.014 E20.17675
G1 X48.497 Y42.21 E20.19938
G1 X49.023 Y42.48 E20.22201
G1 X49.059 Y42.505 E20.22369
G1 X49.276 Y42.37 E20.23347
G1 X49.816 Y42.129 E20.2561
G1 X50.383 Y41.962 E20.27872
G1 X50.968 Y41.874 E20.30136
G1 X51.327 Y41.859 E20.31511
G1 X68.211 Y41.856 E20.96126
G1 X68.801 Y41.896 E20.98389
G1 X69.38 Y42.015 E21.00651
G1 X69.938 Y42.211 E21.02914
G1 X70.464 Y42.48 E21.05175
G1 X70.498 Y42.503 E21.05332
G1 X70.715 Y42.368 E21.0631
G1 X71.254 Y42.127 E21.0857
G1 X71.822 Y41.96 E21.10836
G1 X72.406 Y41.871 E21.13097
G1 X72.769 Y41.856 E21.14487
G1 X78.738 Y41.856 E21.3733
G1 X79.328 Y41.896 E21.39593
G1 X79.907 Y42.015 E21.41855
G1 X80.465 Y42.211 E21.44119
G1 X80.991 Y42.481 E21.46382
G1 X81.476 Y42.819 E21.48644
G1 X81.911 Y43.219 E21.50905
G1 X82.288 Y43.675 E21.5317
G1 X82.457 Y43.927 E21.54331
G1 X84.629 Y47.433 E21.70115
G1 X86.403 Y50.132 E21.82475
G1 X86.673 Y50.511 E21.84256
G1 X100.977 Y50.511 E22.38997
G1 X101.296 Y50.289 E22.40485
G1 X101.822 Y50.021 E22.42744
G1 X102.381 Y49.825 E22.45011
G1 X102.96 Y49.707 E22.47272
G1 X103.55 Y49.668 E22.49535
G1 X104.14 Y49.709 E22.51798
G1 X104.719 Y49.829 E22.54061
G1 X105.276 Y50.026 E22.56322
G1 X105.802 Y50.296 E22.58585
G1 X106.287 Y50.635 E22.6085
G1 X106.585 Y50.899 E22.62373
G1 X108.676 Y52.922 E22.73508
G1 X109.072 Y53.361 E22.7577
G1 X109.406 Y53.849 E22.78033
G1 X109.67 Y54.378 E22.80296
G1 X109.861 Y54.937 E22.82557
G1 X109.974 Y55.518 E22.84822
G1 X110.009 Y56.066 E22.86923
G1 X110.009 Y63.934 E23.17034
G1 X109.969 Y64.524 E23.19297
G1 X109.85 Y65.103 E23.21559
G1 X109.654 Y65.661 E23.23823
G1 X109.384 Y66.187 E23.26085
G1 X109.046 Y66.672 E23.28348
G1 X108.677 Y67.078 E23.30447
G1 X106.587 Y69.101 E23.41579
G1 X106.135 Y69.482 E23.43841
G1 X105.636 Y69.799 E23.46104
G1 X105.099 Y70.046 E23.48366
G1 X104.533 Y70.219 E23.50631
G1 X103.95 Y70.313 E23.52891
G1 X103.359 Y70.328 E23.55153
G1 X102.771 Y70.263 E23.57417
G1 X102.197 Y70.12 E23.59681
G1 X101.648 Y69.9 E23.61944
G1 X101.134 Y69.608 E23.64207
G1 X100.978 Y69.489 E23.64958
G1 X86.673 Y69.489 E24.19703
G1 X86.421 Y69.843 E24.21366
G1 X82.429 Y76.118 E24.49828
G1 X82.079 Y76.594 E24.52089
G1 X81.668 Y77.019 E24.54352
G1 X81.203 Y77.385 E24.56616
G1 X80.693 Y77.684 E24.58879
G1 X80.147 Y77.912 E24.61143
G1 X79.576 Y78.064 E24.63404
G1 X78.737 Y78.145 E24.6663
G1 X72.769 Y78.144 E24.8947
G1 X72.179 Y78.104 E24.91733
G1 X71.6 Y77.985 E24.93995
G1 X71.042 Y77.788 E24.9626
G1 X70.516 Y77.519 E24.9852
G1 X70.484 Y77.497 E24.98669
G1 X70.27 Y77.63 E24.99633
G1 X69.73 Y77.872 E25.01898
G1 X69.163 Y78.04 E25.04161
G1 X68.579 Y78.129 E25.06422
G1 X68.213 Y78.144 E25.07824
G1 X51.328 Y78.144 E25.72443
G1 X50.738 Y78.104 E25.74706
G1 X50.159 Y77.985 E25.76968
G1 X49.601 Y77.789 E25.79231
G1 X49.075 Y77.519 E25.81494
G1 X49.042 Y77.496 E25.81648
G1 X48.824 Y77.632 E25.82631
G1 X48.285 Y77.873 E25.84891
G1 X47.717 Y78.04 E25.87156
G1 X47.133 Y78.129 E25.89417
G1 X46.77 Y78.144 E25.90808
G1 X23.462 Y78.145 E26.80007
G1 X22.872 Y78.105 E26.8227
G1 X22.293 Y77.986 E26.84532
G1 X21.735 Y77.79 E26.86796
G1 X21.209 Y77.52 E26.89059
G1 X20.724 Y77.182 E26.91321
G1 X20.402 Y76.897 E26.92967
G1 X10.353 Y67.061 E27.4678
G1 X9.959 Y66.619 E27.49046
G1 X9.629 Y66.129 E27.51307
G1 X9.367 Y65.599 E27.5357
G1 X9.18 Y65.038 E27.55833
G1 X9.069 Y64.457 E27.58097
G1 X9.038 Y63.933 E27.60105
G1 X9.039 Y56.065 E27.90216
G1 X9.079 Y55.476 E27.92475
G1 X9.198 Y54.896 E27.94741
G1 X9.394 Y54.339 E27.97001
G1 X9.664 Y53.812 E27.99267
G1 X10.002 Y53.327 E28.0153
G1 X10.354 Y52.94 E28.03532
G1 X20.401 Y43.105 E28.57337
G1 X20.772 Y42.787 E28.59207
G0 F1458 X20.85 Y42.72
G0 X21.347 Y42.4
G0 F4320 X21.557 Y42.685
G1 F2400 E28.61863
G1 F1620 X22.074 Y42.452 E28.64033
G1 X22.619 Y42.295 E28.66204
G1 X23.461 Y42.206 E28.69444
G1 X46.77 Y42.205 E29.58648
G1 X47.336 Y42.245 E29.60819
G1 X47.89 Y42.364 E29.62988
G1 X48.422 Y42.56 E29.65157
G1 X48.922 Y42.828 E29.67328
G1 X49.049 Y42.922 E29.67933
G1 X49.112 Y42.874 E29.68236
G1 X49.606 Y42.596 E29.70406
G1 X50.134 Y42.39 E29.72574
G1 X50.687 Y42.26 E29.74749
G1 X51.327 Y42.209 E29.77206
G1 X68.211 Y42.206 E30.41821
G1 X68.777 Y42.246 E30.43992
G1 X69.331 Y42.365 E30.46161
G1 X69.864 Y42.561 E30.48334
G1 X70.363 Y42.829 E30.50502
G1 X70.488 Y42.921 E30.51095
G1 X70.551 Y42.872 E30.51401
G1 X71.045 Y42.594 E30.5357
G1 X71.573 Y42.388 E30.55739
G1 X72.125 Y42.258 E30.5791
G1 X72.769 Y42.206 E30.60382
G1 X78.738 Y42.206 E30.83225
G1 X79.304 Y42.246 E30.85397
G1 X79.858 Y42.365 E30.87565
G1 X80.39 Y42.561 E30.89735
G1 X80.89 Y42.829 E30.91906
G1 X81.346 Y43.166 E30.94076
G1 X81.751 Y43.563 E30.96247
G1 X82.16 Y44.111 E30.98864
G1 X84.336 Y47.624 E31.14678
G1 X86.121 Y50.339 E31.27113
G1 X86.493 Y50.861 E31.29566
G1 X101.08 Y50.861 E31.8539
G1 X101.536 Y50.554 E31.87494
G1 X102.046 Y50.307 E31.89662
G1 X102.586 Y50.133 E31.91834
G1 X103.145 Y50.038 E31.94004
G1 X103.712 Y50.022 E31.96174
G1 X104.275 Y50.085 E31.98342
G1 X104.824 Y50.227 E32.00513
G1 X105.348 Y50.445 E32.02685
G1 X105.835 Y50.735 E32.04854
G1 X106.342 Y51.15 E32.07361
G1 X108.433 Y53.173 E32.18496
G1 X108.811 Y53.595 E32.20664
G1 X109.127 Y54.066 E32.22834
G1 X109.374 Y54.577 E32.25006
G1 X109.546 Y55.118 E32.27179
G1 X109.64 Y55.677 E32.29348
G1 X109.659 Y56.066 E32.30839
G1 X109.659 Y63.934 E32.6095
G1 X109.619 Y64.5 E32.63121
G1 X109.5 Y65.054 E32.6529
G1 X109.304 Y65.586 E32.67459
G1 X109.036 Y66.086 E32.6963
G1 X108.699 Y66.542 E32.718
G1 X108.433 Y66.826 E32.73289
G1 X106.343 Y68.849 E32.84421
G1 X105.909 Y69.214 E32.86591
G1 X105.428 Y69.514 E32.88761
G1 X104.909 Y69.743 E32.90932
G1 X104.364 Y69.898 E32.931
G1 X103.802 Y69.974 E32.9527
G1 X103.235 Y69.97 E32.9744
G1 X102.674 Y69.887 E32.99611
G1 X102.13 Y69.725 E33.01783
G1 X101.614 Y69.489 E33.03954
G1 X101.137 Y69.183 E33.06123
G1 X101.086 Y69.139 E33.06381
G1 X86.493 Y69.139 E33.62228
G1 X86.137 Y69.637 E33.64571
G1 X82.134 Y75.93 E33.93114
G1 X81.797 Y76.386 E33.95284
G1 X81.399 Y76.79 E33.97454
G1 X80.948 Y77.134 E33.99625
G1 X80.453 Y77.411 E34.01796
G1 X79.924 Y77.616 E34.03967
G1 X79.372 Y77.745 E34.06136
G1 X78.737 Y77.795 E34.08574
G1 X72.769 Y77.794 E34.31413
G1 X72.204 Y77.754 E34.33581
G1 X71.649 Y77.635 E34.35753
G1 X71.117 Y77.439 E34.37923
G1 X70.618 Y77.17 E34.40093
G1 X70.494 Y77.079 E34.40681
G1 X70.433 Y77.126 E34.40976
G1 X69.94 Y77.405 E34.43144
G1 X69.411 Y77.611 E34.45316
G1 X68.86 Y77.742 E34.47484
G1 X68.213 Y77.794 E34.49968
G1 X51.328 Y77.794 E35.14587
G1 X50.762 Y77.754 E35.16758
G1 X50.208 Y77.635 E35.18927
G1 X49.676 Y77.439 E35.21096
G1 X49.176 Y77.171 E35.23267
G1 X49.052 Y77.079 E35.23858
G1 X48.988 Y77.128 E35.24167
G1 X48.494 Y77.406 E35.26336
G1 X47.966 Y77.612 E35.28505
G1 X47.414 Y77.742 E35.30675
G1 X46.77 Y77.794 E35.33148
G1 X23.462 Y77.795 E36.22348
G1 X22.896 Y77.755 E36.24519
G1 X22.342 Y77.636 E36.26688
G1 X21.81 Y77.44 E36.28857
G1 X21.31 Y77.172 E36.31028
G1 X20.647 Y76.646 E36.34267
G1 X10.598 Y66.81 E36.88081
G1 X10.221 Y66.386 E36.90252
G1 X9.908 Y65.913 E36.92423
G1 X9.665 Y65.401 E36.94592
G1 X9.496 Y64.86 E36.96761
G1 X9.405 Y64.3 E36.98932
G1 X9.388 Y63.933 E37.00338
G1 X9.389 Y56.065 E37.30449
G1 X9.429 Y55.5 E37.32617
G1 X9.548 Y54.945 E37.34789
G1 X9.744 Y54.413 E37.36959
G1 X10.013 Y53.914 E37.39128
G1 X10.349 Y53.457 E37.41299
G1 X10.598 Y53.19 E37.42696
G1 X20.645 Y43.355 E37.96502
G1 X20.981 Y43.07 E37.98188
G0 F1458 X21.078 Y42.988
G0 X21.557 Y42.685
G0 F4320 X21.765 Y42.971
G1 F2400 E38.00844
G1 F1620 X22.263 Y42.757 E38.02918
G1 X22.787 Y42.618 E38.04993
G1 X23.461 Y42.556 E38.07583
G1 X46.77 Y42.555 E38.96786
G1 X47.31 Y42.595 E38.98859
G1 X47.839 Y42.714 E39.00934
G1 X48.344 Y42.909 E39.03005
G1 X48.815 Y43.177 E39.05079
