;FLAVOR:Marlin
;TIME:19979
;Filament used: 26.9945m
;Layer height: 0.2625
;Generated with Cura_SteamEngine 3.6.0
M140 S60
M105
M190 S60
M104 S210
M105
M109 S210
M82 ;absolute extrusion mode
G21;(metric values)
G90;(absolute positioning)
M82;(set extruder to absolute mode)
M107;(start with the fan off)
G28;(Home the printer)
G92 E0;(Reset the extruder to 0)
G0 Z5 E5 F500;(Move up and prime the nozzle)
G0 X-1 Z0;(Move outside the printable area)
G1 Y60 E8 F500;(Draw a priming/wiping line to the rear)
G1 X-1;(Move a little closer to the print area)
G1 Y10 E16 F500;(draw more priming/wiping)
G1 E15 F250;(Small retract)
G92 E0;(Zero the extruder)
G92 E0
G1 F2400 E-2.5
;LAYER_COUNT:443
;LAYER:0
M107
G0 F4320 X22.762 Y41.877 Z0.263
;TYPE:SKIRT
G1 F2400 E0
G1 F1620 X23.328 Y41.585 E0.02437
G1 X23.926 Y41.366 E0.04875
G1 X24.546 Y41.223 E0.0731
G1 X25.37 Y41.156 E0.10473
G1 X46.528 Y41.156 E0.91445
G1 X47.164 Y41.196 E0.93884
G1 X47.789 Y41.315 E0.96319
G1 X48.395 Y41.512 E0.98757
G1 X48.913 Y41.756 E1.00948
G1 X49.121 Y41.641 E1.01858
G1 X49.713 Y41.406 E1.04296
G1 X50.33 Y41.247 E1.06734
G1 X50.962 Y41.166 E1.09172
G1 X51.286 Y41.156 E1.10413
G1 X69.02 Y41.156 E1.78281
G1 X69.656 Y41.196 E1.8072
G1 X70.281 Y41.315 E1.83155
G1 X70.887 Y41.512 E1.85593
G1 X71.404 Y41.755 E1.87779
G1 X71.612 Y41.641 E1.88687
G1 X72.204 Y41.406 E1.91125
G1 X72.821 Y41.247 E1.93563
G1 X73.453 Y41.166 E1.96002
G1 X73.777 Y41.156 E1.97242
G1 X93.223 Y41.156 E2.71662
G1 X93.859 Y41.196 E2.74101
G1 X94.484 Y41.315 E2.76535
G1 X95.09 Y41.512 E2.78974
G1 X95.666 Y41.783 E2.8141
G1 X96.357 Y42.24 E2.84581
G1 X108.881 Y52.075 E3.45522
G1 X109.357 Y52.499 E3.47962
G1 X109.775 Y52.979 E3.50398
G1 X110.13 Y53.508 E3.52836
G1 X110.416 Y54.077 E3.55273
G1 X110.628 Y54.677 E3.57708
G1 X110.764 Y55.299 E3.60145
G1 X110.822 Y56.066 E3.63088
G1 X110.822 Y63.934 E3.93199
G1 X110.782 Y64.57 E3.95638
G1 X110.663 Y65.195 E3.98073
G1 X110.466 Y65.801 E4.00511
G1 X110.195 Y66.377 E4.02948
G1 X109.854 Y66.915 E4.05385
G1 X109.448 Y67.406 E4.07824
G1 X108.882 Y67.925 E4.10762
G1 X96.358 Y77.761 E4.71706
G1 X95.833 Y78.122 E4.74145
G1 X95.267 Y78.415 E4.76584
G1 X94.67 Y78.634 E4.79017
G1 X94.049 Y78.777 E4.81456
G1 X93.223 Y78.845 E4.84628
G1 X73.777 Y78.845 E5.59048
G1 X73.141 Y78.805 E5.61486
G1 X72.516 Y78.686 E5.63921
G1 X71.91 Y78.489 E5.6636
G1 X71.393 Y78.246 E5.68546
G1 X71.185 Y78.36 E5.69454
G1 X70.593 Y78.595 E5.71891
G1 X69.976 Y78.754 E5.7433
G1 X69.344 Y78.835 E5.76768
G1 X69.02 Y78.845 E5.78009
G1 X51.286 Y78.845 E6.45877
G1 X50.65 Y78.805 E6.48315
G1 X50.025 Y78.686 E6.5075
G1 X49.419 Y78.489 E6.53189
G1 X48.898 Y78.244 E6.55392
G1 X48.696 Y78.355 E6.56274
G1 X48.105 Y78.59 E6.58708
G1 X47.488 Y78.75 E6.61148
G1 X46.856 Y78.83 E6.63586
G1 X46.53 Y78.841 E6.64834
G1 X25.37 Y78.845 E7.45813
G1 X24.734 Y78.805 E7.48252
G1 X24.109 Y78.686 E7.50687
G1 X23.503 Y78.489 E7.53125
G1 X22.927 Y78.219 E7.5556
G1 X22.236 Y77.763 E7.58728
G1 X9.701 Y67.927 E8.19705
G1 X9.226 Y67.503 E8.22142
G1 X8.807 Y67.023 E8.2458
G1 X8.452 Y66.494 E8.27018
G1 X8.166 Y65.925 E8.29456
G1 X7.953 Y65.325 E8.31892
G1 X7.818 Y64.703 E8.34328
G1 X7.759 Y63.933 E8.37283
G1 X7.76 Y56.065 E8.67394
G1 X7.8 Y55.43 E8.69829
G1 X7.919 Y54.804 E8.72268
G1 X8.116 Y54.198 E8.74706
G1 X8.387 Y53.622 E8.77142
G1 X8.728 Y53.084 E8.7958
G1 X9.134 Y52.593 E8.82018
G1 X9.702 Y52.073 E8.84965
G1 X22.193 Y42.273 E9.45725
G0 F1458 X22.237 Y42.238
G0 X22.762 Y41.877
G0 F4320 X22.96 Y42.167
G1 F2400 E9.48381
G1 F1620 X23.508 Y41.888 E9.50734
G1 X24.088 Y41.683 E9.53088
G1 X24.689 Y41.555 E9.5544
G1 X25.37 Y41.506 E9.58053
G1 X46.528 Y41.506 E10.39025
G1 X47.141 Y41.546 E10.41375
G1 X47.744 Y41.665 E10.43728
G1 X48.326 Y41.862 E10.46079
G1 X48.878 Y42.132 E10.48431
G1 X48.905 Y42.15 E10.48555
G1 X49.448 Y41.878 E10.50879
G1 X50.029 Y41.676 E10.53233
G1 X50.63 Y41.552 E10.55582
G1 X51.286 Y41.506 E10.58098
G1 X69.02 Y41.506 E11.25966
G1 X69.633 Y41.546 E11.28317
G1 X70.236 Y41.665 E11.30669
G1 X70.818 Y41.862 E11.33021
G1 X71.37 Y42.132 E11.35373
G1 X71.397 Y42.15 E11.35497
G1 X71.939 Y41.878 E11.37817
G1 X72.52 Y41.676 E11.40172
G1 X73.121 Y41.552 E11.4252
G1 X73.777 Y41.506 E11.45037
G1 X93.223 Y41.506 E12.19456
G1 X93.836 Y41.546 E12.21807
G1 X94.439 Y41.665 E12.24159
G1 X95.021 Y41.862 E12.26511
G1 X95.573 Y42.132 E12.28863
G1 X96.141 Y42.515 E12.31484
G1 X108.665 Y52.35 E12.92426
G1 X109.123 Y52.76 E12.94778
G1 X109.523 Y53.226 E12.97129
G1 X109.86 Y53.74 E12.99481
G1 X110.127 Y54.294 E13.01834
G1 X110.32 Y54.877 E13.04185
G1 X110.436 Y55.481 E13.06538
G1 X110.472 Y56.066 E13.08781
G1 X110.472 Y63.934 E13.38892
G1 X110.432 Y64.547 E13.41243
G1 X110.313 Y65.15 E13.43595
G1 X110.116 Y65.732 E13.45947
G1 X109.846 Y66.284 E13.48298
G1 X109.506 Y66.796 E13.5065
G1 X109.103 Y67.26 E13.53002
G1 X108.665 Y67.65 E13.55247
G1 X96.141 Y77.486 E14.16191
G1 X95.634 Y77.833 E14.18542
G1 X95.087 Y78.112 E14.20892
G1 X94.508 Y78.317 E14.23243
G1 X93.907 Y78.445 E14.25594
G1 X93.223 Y78.495 E14.28219
G1 X73.777 Y78.495 E15.02639
G1 X73.164 Y78.455 E15.04989
G1 X72.561 Y78.336 E15.07342
G1 X71.979 Y78.139 E15.09693
G1 X71.427 Y77.869 E15.12045
G1 X71.4 Y77.851 E15.12169
G1 X70.858 Y78.123 E15.1449
G1 X70.277 Y78.325 E15.16844
G1 X69.676 Y78.449 E15.19192
G1 X69.02 Y78.495 E15.21709
G1 X51.286 Y78.495 E15.89577
G1 X50.673 Y78.455 E15.91928
G1 X50.07 Y78.336 E15.9428
G1 X49.488 Y78.139 E15.96631
G1 X48.936 Y77.869 E15.98983
G1 X48.906 Y77.849 E15.99121
G1 X48.37 Y78.118 E16.01416
G1 X47.789 Y78.32 E16.0377
G1 X47.188 Y78.445 E16.06119
G1 X46.53 Y78.491 E16.08644
G1 X25.37 Y78.495 E16.89623
G1 X24.757 Y78.455 E16.91974
G1 X24.154 Y78.336 E16.94326
G1 X23.572 Y78.14 E16.96676
G1 X23.02 Y77.87 E16.99028
G1 X22.452 Y77.487 E17.0165
G1 X9.917 Y67.651 E17.62627
G1 X9.459 Y67.241 E17.64979
G1 X9.059 Y66.775 E17.67329
G1 X8.722 Y66.261 E17.69682
G1 X8.455 Y65.708 E17.72032
G1 X8.261 Y65.125 E17.74383
G1 X8.146 Y64.521 E17.76736
G1 X8.109 Y63.933 E17.78991
G1 X8.11 Y56.065 E18.09102
G1 X8.15 Y55.452 E18.11453
G1 X8.269 Y54.849 E18.13805
G1 X8.466 Y54.267 E18.16156
G1 X8.736 Y53.715 E18.18508
G1 X9.076 Y53.203 E18.2086
G1 X9.479 Y52.74 E18.23209
G1 X9.918 Y52.349 E18.25459
G1 X22.391 Y42.563 E18.86131
G0 F1458 X22.453 Y42.514
G0 X22.96 Y42.167
G0 F4320 X23.158 Y42.456
G1 F2400 E18.88787
G1 F1620 X23.687 Y42.193 E18.91048
G1 X24.247 Y42.003 E18.93311
G1 X24.828 Y41.89 E18.95576
G1 X25.37 Y41.856 E18.97655
G1 X46.528 Y41.856 E19.78626
G1 X47.118 Y41.896 E19.80889
G1 X47.697 Y42.015 E19.83151
G1 X48.255 Y42.211 E19.85415
G1 X48.781 Y42.481 E19.87677
G1 X48.908 Y42.57 E19.88271
G1 X49.232 Y42.368 E19.89732
G1 X49.771 Y42.127 E19.91992
G1 X50.339 Y41.96 E19.94257
G1 X50.923 Y41.871 E19.96518
G1 X51.286 Y41.856 E19.97909
G1 X69.02 Y41.856 E20.65776
G1 X69.61 Y41.896 E20.6804
G1 X70.189 Y42.015 E20.70302
G1 X70.747 Y42.211 E20.72565
G1 X71.273 Y42.481 E20.74828
G1 X71.4 Y42.569 E20.75419
G1 X71.723 Y42.368 E20.76875
G1 X72.262 Y42.127 E20.79135
G1 X72.83 Y41.96 E20.814
G1 X73.414 Y41.871 E20.83661
G1 X73.777 Y41.856 E20.85051
G1 X93.223 Y41.856 E21.59471
G1 X93.813 Y41.896 E21.61734
G1 X94.392 Y42.015 E21.63996
G1 X94.95 Y42.211 E21.6626
G1 X95.476 Y42.481 E21.68523
G1 X95.925 Y42.79 E21.70608
G1 X108.449 Y52.625 E22.3155
G1 X108.888 Y53.021 E22.33813
G1 X109.27 Y53.472 E22.36074
G1 X109.588 Y53.971 E22.38339
G1 X109.835 Y54.508 E22.40601
G1 X110.008 Y55.074 E22.42866
G1 X110.103 Y55.657 E22.45127
G1 X110.122 Y56.066 E22.46694
G1 X110.122 Y63.934 E22.76804
G1 X110.082 Y64.524 E22.79067
G1 X109.963 Y65.103 E22.8133
G1 X109.767 Y65.661 E22.83593
G1 X109.497 Y66.187 E22.85856
G1 X109.159 Y66.672 E22.88118
G1 X108.759 Y67.107 E22.9038
G1 X108.449 Y67.375 E22.91948
G1 X95.925 Y77.211 E23.52892
G1 X95.437 Y77.544 E23.55153
G1 X94.908 Y77.808 E23.57415
G1 X94.348 Y77.998 E23.59678
G1 X93.767 Y78.111 E23.61944
G1 X93.223 Y78.145 E23.64029
G1 X73.777 Y78.145 E24.38449
G1 X73.187 Y78.105 E24.40712
G1 X72.608 Y77.986 E24.42974
G1 X72.05 Y77.79 E24.45238
G1 X71.524 Y77.52 E24.47501
G1 X71.397 Y77.432 E24.48092
G1 X71.074 Y77.633 E24.49548
G1 X70.535 Y77.874 E24.51807
G1 X69.967 Y78.041 E24.54073
G1 X69.383 Y78.13 E24.56334
G1 X69.02 Y78.145 E24.57724
G1 X51.286 Y78.145 E25.25592
G1 X50.696 Y78.105 E25.27855
G1 X50.117 Y77.986 E25.30117
G1 X49.559 Y77.79 E25.32381
G1 X49.033 Y77.52 E25.34643
G1 X48.903 Y77.43 E25.35249
G1 X48.586 Y77.627 E25.36677
G1 X48.046 Y77.869 E25.38941
G1 X47.479 Y78.037 E25.41205
G1 X46.895 Y78.126 E25.43465
G1 X46.53 Y78.141 E25.44863
G1 X25.37 Y78.145 E26.25843
G1 X24.78 Y78.105 E26.28106
G1 X24.201 Y77.986 E26.30368
G1 X23.643 Y77.79 E26.32631
G1 X23.117 Y77.521 E26.34892
G1 X22.668 Y77.212 E26.36978
G1 X10.133 Y67.376 E26.97955
G1 X9.694 Y66.98 E27.00218
G1 X9.312 Y66.529 E27.0248
G1 X8.994 Y66.03 E27.04744
G1 X8.746 Y65.493 E27.07008
G1 X8.573 Y64.928 E27.09269
G1 X8.478 Y64.344 E27.11533
G1 X8.459 Y63.933 E27.13108
G1 X8.46 Y56.065 E27.43219
G1 X8.5 Y55.476 E27.45478
G1 X8.619 Y54.896 E27.47744
G1 X8.815 Y54.339 E27.50004
G1 X9.085 Y53.812 E27.5227
G1 X9.423 Y53.327 E27.54532
G1 X9.824 Y52.892 E27.56796
G1 X10.134 Y52.624 E27.58365
G1 X22.588 Y42.852 E28.18947
G0 F1458 X22.669 Y42.789
G0 X23.158 Y42.456
G0 F4320 X23.355 Y42.747
G1 F2400 E28.21603
G1 F1620 X23.865 Y42.498 E28.23775
G1 X24.404 Y42.324 E28.25942
G1 X24.963 Y42.227 E28.28113
G1 X25.37 Y42.206 E28.29673
G1 X46.528 Y42.206 E29.10645
G1 X47.094 Y42.246 E29.12816
G1 X47.648 Y42.365 E29.14985
G1 X48.18 Y42.561 E29.17154
G1 X48.68 Y42.829 E29.19325
G1 X48.906 Y42.996 E29.20401
G1 X49.068 Y42.872 E29.21181
G1 X49.562 Y42.594 E29.23351
G1 X50.09 Y42.388 E29.2552
G1 X50.642 Y42.258 E29.2769
G1 X51.286 Y42.206 E29.30163
G1 X69.02 Y42.206 E29.98031
G1 X69.586 Y42.246 E30.00202
G1 X70.14 Y42.365 E30.02371
G1 X70.672 Y42.561 E30.0454
G1 X71.172 Y42.829 E30.06711
G1 X71.398 Y42.996 E30.07787
G1 X71.559 Y42.872 E30.08565
G1 X72.053 Y42.594 E30.10734
G1 X72.581 Y42.388 E30.12903
G1 X73.133 Y42.258 E30.15073
G1 X73.777 Y42.206 E30.17546
G1 X93.223 Y42.206 E30.91965
G1 X93.789 Y42.246 E30.94137
G1 X94.343 Y42.365 E30.96305
G1 X94.875 Y42.561 E30.98475
G1 X95.375 Y42.829 E31.00646
G1 X95.709 Y43.065 E31.02211
G1 X108.233 Y52.9 E31.63153
G1 X108.653 Y53.281 E31.65323
G1 X109.016 Y53.717 E31.67494
G1 X109.313 Y54.2 E31.69664
G1 X109.54 Y54.72 E31.71836
G1 X109.692 Y55.266 E31.74005
G1 X109.772 Y56.066 E31.77081
G1 X109.772 Y63.934 E32.07192
G1 X109.732 Y64.5 E32.09364
G1 X109.613 Y65.054 E32.11532
G1 X109.417 Y65.586 E32.13702
G1 X109.149 Y66.086 E32.15873
G1 X108.812 Y66.542 E32.18043
G1 X108.233 Y67.099 E32.21118
G1 X95.709 Y76.935 E32.82062
G1 X95.24 Y77.253 E32.8423
G1 X94.73 Y77.502 E32.86402
G1 X94.19 Y77.677 E32.88574
G1 X93.632 Y77.774 E32.90742
G1 X93.223 Y77.795 E32.92309
G1 X73.777 Y77.795 E33.66729
G1 X73.211 Y77.755 E33.689
G1 X72.657 Y77.636 E33.71069
G1 X72.125 Y77.44 E33.73239
G1 X71.625 Y77.172 E33.7541
G1 X71.399 Y77.005 E33.76485
G1 X71.238 Y77.129 E33.77263
G1 X70.744 Y77.407 E33.79432
G1 X70.216 Y77.613 E33.81601
G1 X69.664 Y77.743 E33.83771
G1 X69.02 Y77.795 E33.86244
G1 X51.286 Y77.795 E34.54112
G1 X50.72 Y77.755 E34.56283
G1 X50.166 Y77.636 E34.58452
G1 X49.634 Y77.44 E34.60622
G1 X49.134 Y77.172 E34.62793
G1 X48.905 Y77.003 E34.63882
G1 X48.749 Y77.123 E34.64635
G1 X48.256 Y77.402 E34.66803
G1 X47.727 Y77.608 E34.68976
G1 X47.176 Y77.739 E34.71143
G1 X46.53 Y77.791 E34.73623
G1 X25.37 Y77.795 E35.54603
G1 X24.804 Y77.755 E35.56774
G1 X24.25 Y77.636 E35.58943
G1 X23.717 Y77.441 E35.61115
G1 X23.218 Y77.172 E35.63284
G1 X22.884 Y76.937 E35.64847
G1 X10.349 Y67.101 E36.25824
G1 X9.929 Y66.72 E36.27994
G1 X9.566 Y66.284 E36.30165
G1 X9.268 Y65.801 E36.32337
G1 X9.041 Y65.282 E36.34505
G1 X8.89 Y64.735 E36.36677
G1 X8.809 Y63.933 E36.39762
G1 X8.81 Y56.065 E36.69872
G1 X8.85 Y55.5 E36.7204
G1 X8.969 Y54.945 E36.74212
G1 X9.165 Y54.413 E36.76382
G1 X9.434 Y53.914 E36.78552
G1 X9.77 Y53.457 E36.80722
G1 X10.35 Y52.899 E36.83802
G1 X22.785 Y43.143 E37.44289
G0 F1458 X22.885 Y43.064
G0 X23.355 Y42.747
G0 F4320 X23.551 Y43.038
G1 F2400 E37.46945
G1 F1620 X24.041 Y42.805 E37.49022
G1 X24.559 Y42.647 E37.51094
G1 X25.095 Y42.566 E37.53169
G1 X25.37 Y42.556 E37.54222
G1 X46.528 Y42.556 E38.35193
G1 X47.068 Y42.596 E38.37266
G1 X47.597 Y42.715 E38.39341
G1 X48.102 Y42.91 E38.41413
G1 X48.574 Y43.178 E38.4349
G1 X48.905 Y43.438 E38.45101
G1 X48.96 Y43.386 E38.4539
G1 X49.404 Y43.075 E38.47465
G1 X49.888 Y42.832 E38.49537
G1 X50.403 Y42.664 E38.5161
G1 X50.937 Y42.573 E38.53684
G1 X51.286 Y42.556 E38.55021
G1 X69.02 Y42.556 E39.22889
G1 X69.56 Y42.596 E39.24961
G1 X70.089 Y42.715 E39.27036
G1 X70.594 Y42.91 E39.29108
G1 X71.066 Y43.178 E39.31185
G1 X71.397 Y43.437 E39.32793
G1 X71.451 Y43.386 E39.33078
G1 X71.895 Y43.075 E39.35152
G1 X72.379 Y42.832 E39.37225
G1 X72.894 Y42.664 E39.39298
G1 X73.428 Y42.573 E39.41371
G1 X73.777 Y42.556 E39.42708
G1 X93.223 Y42.556 E40.17128
G1 X93.763 Y42.596 E40.192
G1 X94.292 Y42.715 E40.21275
G1 X94.797 Y42.91 E40.23347
G1 X95.269 Y43.178 E40.25424
G1 X95.493 Y43.341 E40.26484
G1 X108.017 Y53.176 E40.87426
G1 X108.417 Y53.541 E40.89498
G1 X108.759 Y53.961 E40.91571
G1 X109.036 Y54.427 E40.93646
G1 X109.241 Y54.928 E40.95717
G1 X109.371 Y55.454 E40.97791
G1 X109.422 Y56.066 E41.00141
G1 X109.422 Y63.934 E41.30252
G1 X109.382 Y64.474 E41.32324
G1 X109.263 Y65.003 E41.34399
G1 X109.068 Y65.508 E41.36471
G1 X108.8 Y65.98 E41.38548
G1 X108.466 Y66.406 E41.4062
G1 X108.017 Y66.824 E41.42967
G1 X95.493 Y76.66 E42.03911
G1 X95.043 Y76.963 E42.05987
G1 X94.554 Y77.195 E42.08059
G1 X94.036 Y77.354 E42.10132
G1 X93.5 Y77.435 E42.12207
G1 X93.223 Y77.445 E42.13268
G1 X73.777 Y77.445 E42.87688
G1 X73.237 Y77.405 E42.8976
G1 X72.708 Y77.286 E42.91835
G1 X72.203 Y77.091 E42.93907
G1 X71.731 Y76.823 E42.95984
G1 X71.4 Y76.564 E42.97592
G1 X71.346 Y76.615 E42.97876
G1 X70.902 Y76.926 E42.99951
G1 X70.418 Y77.169 E43.02024
G1 X69.903 Y77.337 E43.04097
G1 X69.369 Y77.428 E43.0617
G1 X69.02 Y77.445 E43.07507
G1 X51.286 Y77.445 E43.75375
G1 X50.746 Y77.405 E43.77447
G1 X50.217 Y77.286 E43.79522
G1 X49.712 Y77.091 E43.81594
G1 X49.24 Y76.823 E43.83671
G1 X48.907 Y76.562 E43.8529
G1 X48.857 Y76.61 E43.85556
G1 X48.413 Y76.921 E43.8763
G1 X47.929 Y77.164 E43.89703
G1 X47.414 Y77.333 E43.91777
G1 X46.88 Y77.424 E43.9385
G1 X46.53 Y77.441 E43.95191
G1 X25.37 Y77.445 E44.7617
G1 X24.829 Y77.405 E44.78246
G1 X24.301 Y77.286 E44.80318
G1 X23.795 Y77.091 E44.82393
G1 X23.324 Y76.823 E44.84467
G1 X23.1 Y76.661 E44.85525
G1 X10.565 Y66.825 E45.46502
G1 X10.165 Y66.46 E45.48574
G1 X9.822 Y66.04 E45.50649
G1 X9.545 Y65.575 E45.52721
G1 X9.34 Y65.073 E45.54796
G1 X9.21 Y64.547 E45.5687
G1 X9.159 Y63.934 E45.59224
G1 X9.16 Y56.066 E45.89334
G1 X9.2 Y55.525 E45.9141
G1 X9.319 Y54.997 E45.93482
G1 X9.515 Y54.491 E45.95558
G1 X9.782 Y54.02 E45.9763
G1 X10.116 Y53.593 E45.99705
G1 X10.566 Y53.175 E46.02056
G1 X22.981 Y43.434 E46.62447
G0 F1458 X23.101 Y43.34
G0 X23.551 Y43.038
G0 F4320 X23.746 Y43.329
G1 F2400 E46.65103
G1 F1620 X24.214 Y43.113 E46.67075
G1 X24.71 Y42.972 E46.69049
G1 X25.37 Y42.906 E46.71587
G1 X46.528 Y42.906 E47.52559
G1 X47.042 Y42.946 E47.54532
G1 X47.543 Y43.065 E47.56502
G1 X48.02 Y43.26 E47.58475
G1 X48.462 Y43.526 E47.60449
G1 X48.856 Y43.857 E47.62418
G1 X48.904 Y43.912 E47.62698
G1 X48.912 Y43.903 E47.62744
G1 X49.301 Y43.564 E47.64718
G1 X49.737 Y43.289 E47.66691
G1 X50.21 Y43.085 E47.68662
G1 X50.709 Y42.956 E47.70635
G1 X51.286 Y42.906 E47.72851
G1 X69.02 Y42.906 E48.40719
G1 X69.534 Y42.946 E48.42692
G1 X70.035 Y43.065 E48.44663
G1 X70.512 Y43.26 E48.46635
G1 X70.954 Y43.526 E48.48609
G1 X71.348 Y43.857 E48.50579
G1 X71.396 Y43.912 E48.50858
G1 X71.403 Y43.903 E48.50902
G1 X71.792 Y43.564 E48.52876
G1 X72.228 Y43.289 E48.54849
G1 X72.701 Y43.085 E48.5682
G1 X73.2 Y42.956 E48.58793
G1 X73.777 Y42.906 E48.61009
G1 X93.223 Y42.906 E49.35429
G1 X93.737 Y42.946 E49.37402
G1 X94.238 Y43.065 E49.39373
G1 X94.715 Y43.26 E49.41345
G1 X95.277 Y43.616 E49.43891
G1 X107.801 Y53.451 E50.04832
G1 X108.18 Y53.8 E50.06804
