;FLAVOR:Marlin
;TIME:347
;Filament used: 0.156373m
;Layer height: 0.2625
;Generated with Cura_SteamEngine 3.6.0
M140 S60
M105
M190 S60
M104 S210
M105
M109 S210
M82 ;absolute extrusion mode
G21;(metric values)
G90;(absolute positioning)
M82;(set extruder to absolute mode)
M107;(start with the fan off)
G28;(Home the printer)
G92 E0;(Reset the extruder to 0)
G0 Z5 E5 F500;(Move up and prime the nozzle)
G0 X-1 Z0;(Move outside the printable area)
G1 Y60 E8 F500;(Draw a priming/wiping line to the rear)
G1 X-1;(Move a little closer to the print area)
G1 Y10 E16 F500;(draw more priming/wiping)
G1 E15 F250;(Small retract)
G92 E0;(Zero the extruder)
G92 E0
G1 F2400 E-2.5
;LAYER_COUNT:52
;LAYER:0
M107
G0 F4320 X59.328 Y45.646 Z0.263
;TYPE:SKIRT
G1 F2400 E0
G1 F1620 X59.769 Y45.187 E0.02436
G1 X60.265 Y44.787 E0.04875
G1 X60.824 Y44.443 E0.07386
G1 X61.232 Y44.227 E0.09153
G1 X61.813 Y43.965 E0.11592
G1 X62.422 Y43.777 E0.14031
G1 X63.049 Y43.668 E0.16467
G1 X63.581 Y43.637 E0.18506
G1 X66.734 Y43.621 E0.30573
G1 X67.37 Y43.658 E0.33011
G1 X67.996 Y43.774 E0.35448
G1 X68.404 Y43.895 E0.37076
G1 X68.813 Y44.035 E0.38731
G1 X69.401 Y44.278 E0.41165
G1 X69.954 Y44.594 E0.43603
G1 X70.646 Y45.139 E0.46974
G1 X70.914 Y45.391 E0.48382
G1 X71.349 Y45.855 E0.50816
G1 X71.723 Y46.371 E0.53255
G1 X72.03 Y46.929 E0.55692
G1 X72.196 Y47.324 E0.57332
G1 X72.365 Y47.78 E0.59193
G1 X72.548 Y48.39 E0.6163
G1 X72.654 Y49.018 E0.64067
G1 X72.68 Y49.655 E0.66507
G1 X72.659 Y50.012 E0.67876
G1 X72.612 Y50.519 E0.69825
G1 X72.514 Y51.149 E0.72265
G1 X72.337 Y51.761 E0.74703
G1 X72.086 Y52.346 E0.77139
G1 X71.871 Y52.728 E0.78816
G1 X71.65 Y53.084 E0.8042
G1 X71.281 Y53.603 E0.82857
G1 X70.849 Y54.071 E0.85294
G1 X70.363 Y54.482 E0.8773
G1 X69.976 Y54.742 E0.89514
G1 X69.58 Y54.983 E0.91289
G1 X69.017 Y55.28 E0.93725
G1 X68.42 Y55.503 E0.96163
G1 X67.801 Y55.65 E0.98598
G1 X66.999 Y55.723 E1.0168
G1 X63.892 Y55.758 E1.13571
G1 X63.256 Y55.725 E1.16009
G1 X62.629 Y55.613 E1.18446
G1 X62.293 Y55.518 E1.19782
G1 X61.804 Y55.362 E1.21747
G1 X61.21 Y55.131 E1.24186
G1 X60.65 Y54.827 E1.26624
G1 X60.133 Y54.455 E1.29062
G1 X59.752 Y54.11 E1.31029
G1 X59.426 Y53.783 E1.32796
G1 X59.005 Y53.305 E1.35234
G1 X58.648 Y52.777 E1.37673
G1 X58.36 Y52.21 E1.40107
G1 X58.175 Y51.709 E1.42151
G1 X58.047 Y51.298 E1.43798
G1 X57.896 Y50.679 E1.46236
G1 X57.824 Y50.047 E1.48671
G1 X57.841 Y49.294 E1.51553
G1 X57.886 Y48.835 E1.53318
G1 X57.988 Y48.206 E1.55757
G1 X58.168 Y47.595 E1.58194
G1 X58.423 Y47.012 E1.6063
G1 X58.685 Y46.559 E1.62632
G1 X58.916 Y46.204 E1.64253
G0 F1458 X58.947 Y46.157
G0 X59.328 Y45.646
G0 F4320 X59.609 Y45.856
G1 F2400 E1.66909
G1 F1620 X60.038 Y45.416 E1.69261
G1 X60.52 Y45.036 E1.7161
G1 X60.988 Y44.752 E1.73705
G1 X61.396 Y44.536 E1.75472
G1 X61.957 Y44.285 E1.77824
G1 X62.545 Y44.108 E1.80174
G1 X63.152 Y44.009 E1.82527
G1 X63.583 Y43.987 E1.84179
G1 X66.736 Y43.971 E1.96246
G1 X67.349 Y44.008 E1.98596
G1 X67.953 Y44.124 E2.0095
G1 X68.29 Y44.226 E2.02297
G1 X68.699 Y44.366 E2.03951
G1 X69.266 Y44.602 E2.06302
G1 X69.798 Y44.91 E2.08654
G1 X70.406 Y45.394 E2.11628
G1 X70.674 Y45.646 E2.13036
G1 X71.093 Y46.095 E2.15386
G1 X71.451 Y46.595 E2.1774
G1 X71.74 Y47.137 E2.20091
G1 X71.868 Y47.446 E2.21371
G1 X72.037 Y47.902 E2.23232
G1 X72.212 Y48.491 E2.25583
G1 X72.31 Y49.098 E2.27936
G1 X72.311 Y49.98 E2.31312
G1 X72.264 Y50.487 E2.3326
G1 X72.167 Y51.094 E2.35613
G1 X71.993 Y51.683 E2.37963
G1 X71.744 Y52.245 E2.40316
G1 X71.573 Y52.543 E2.4163
G1 X71.352 Y52.899 E2.43234
G1 X70.995 Y53.399 E2.45585
G1 X70.576 Y53.848 E2.47935
G1 X70.102 Y54.239 E2.50287
G1 X69.794 Y54.443 E2.51701
G1 X69.398 Y54.684 E2.53475
G1 X68.854 Y54.969 E2.55825
G1 X68.277 Y55.181 E2.58178
G1 X67.677 Y55.315 E2.6053
G1 X66.995 Y55.373 E2.6315
G1 X63.888 Y55.408 E2.75041
G1 X63.275 Y55.375 E2.7739
G1 X62.399 Y55.184 E2.80822
G1 X61.91 Y55.028 E2.82786
G1 X61.338 Y54.804 E2.85137
G1 X60.8 Y54.507 E2.87489
G1 X60.305 Y54.143 E2.8984
G1 X60 Y53.863 E2.91425
G1 X59.674 Y53.536 E2.93192
G1 X59.269 Y53.073 E2.95546
G1 X58.928 Y52.562 E2.97897
G1 X58.656 Y52.011 E3.00248
G1 X58.509 Y51.605 E3.01901
G1 X58.381 Y51.194 E3.03548
G1 X58.237 Y50.597 E3.05899
G1 X58.171 Y49.986 E3.0825
G1 X58.19 Y49.328 E3.1077
G1 X58.235 Y48.869 E3.12535
G1 X58.334 Y48.263 E3.14885
G1 X58.512 Y47.674 E3.17239
G1 X58.764 Y47.114 E3.19589
G1 X58.979 Y46.75 E3.21207
G1 X59.198 Y46.415 E3.22739
G0 F1458 X59.241 Y46.348
G0 X59.609 Y45.856
G0 F4320 X59.889 Y46.067
G1 F2400 E3.25395
G1 F1620 X60.305 Y45.647 E3.27657
G1 X60.774 Y45.286 E3.29922
G1 X61.152 Y45.061 E3.31606
G1 X61.56 Y44.845 E3.33373
G1 X62.1 Y44.605 E3.35634
G1 X62.668 Y44.439 E3.37899
G1 X63.252 Y44.351 E3.40159
G1 X63.585 Y44.337 E3.41434
G1 X66.738 Y44.321 E3.53501
G1 X67.328 Y44.358 E3.55763
G1 X68.177 Y44.557 E3.59101
G1 X68.586 Y44.697 E3.60755
G1 X69.131 Y44.926 E3.63017
G1 X69.64 Y45.226 E3.65278
G1 X70.166 Y45.649 E3.67862
G1 X70.434 Y45.901 E3.69269
G1 X70.836 Y46.334 E3.71531
G1 X71.177 Y46.817 E3.73793
G1 X71.539 Y47.568 E3.76984
G1 X71.708 Y48.024 E3.78845
G1 X71.876 Y48.591 E3.81108
G1 X71.965 Y49.175 E3.83369
G1 X71.962 Y49.948 E3.86327
G1 X71.915 Y50.455 E3.88276
G1 X71.821 Y51.039 E3.90539
G1 X71.649 Y51.604 E3.928
G1 X71.276 Y52.358 E3.96019
G1 X71.055 Y52.714 E3.97623
G1 X70.71 Y53.195 E3.99888
G1 X70.303 Y53.624 E4.02151
G1 X69.612 Y54.144 E4.05461
G1 X69.216 Y54.385 E4.07235
G1 X68.692 Y54.658 E4.09496
G1 X68.135 Y54.857 E4.11759
G1 X67.557 Y54.98 E4.14021
G1 X66.991 Y55.023 E4.16193
G1 X63.884 Y55.058 E4.28085
G1 X63.294 Y55.024 E4.30346
G1 X62.505 Y54.851 E4.33437
G1 X62.016 Y54.695 E4.35402
G1 X61.466 Y54.478 E4.37665
G1 X60.951 Y54.188 E4.39926
G1 X60.479 Y53.832 E4.42189
G1 X60.248 Y53.616 E4.43399
G1 X59.922 Y53.289 E4.45166
G1 X59.533 Y52.843 E4.47431
G1 X59.209 Y52.349 E4.49692
G1 X58.954 Y51.815 E4.51957
G1 X58.843 Y51.501 E4.53231
G1 X58.715 Y51.09 E4.54879
G1 X58.578 Y50.515 E4.57141
G1 X58.519 Y49.926 E4.59406
G1 X58.538 Y49.362 E4.61566
G1 X58.583 Y48.903 E4.63331
G1 X58.68 Y48.32 E4.65593
G1 X58.855 Y47.755 E4.67856
G1 X59.105 Y47.219 E4.7012
G1 X59.272 Y46.941 E4.71361
G1 X59.478 Y46.626 E4.72801
G0 F1458 X59.534 Y46.539
G0 X59.889 Y46.067
G0 F4320 X60.169 Y46.278
G1 F2400 E4.75457
G1 F1620 X60.572 Y45.879 E4.77627
G1 X61.026 Y45.54 E4.79796
G1 X61.316 Y45.371 E4.8108
G1 X61.724 Y45.155 E4.82847
G1 X62.242 Y44.925 E4.85016
G1 X62.788 Y44.771 E4.87187
G1 X63.587 Y44.687 E4.90262
G1 X66.74 Y44.671 E5.02328
G1 X67.305 Y44.708 E5.04495
G1 X68.064 Y44.888 E5.07481
G1 X68.473 Y45.028 E5.09135
G1 X68.995 Y45.249 E5.11304
G1 X69.481 Y45.541 E5.13474
G1 X69.926 Y45.904 E5.15672
G1 X70.194 Y46.156 E5.1708
G1 X70.579 Y46.572 E5.19249
G1 X70.901 Y47.039 E5.2142
G1 X71.211 Y47.689 E5.24176
G1 X71.38 Y48.145 E5.26037
G1 X71.539 Y48.69 E5.2821
G1 X71.62 Y49.251 E5.30379
G1 X71.614 Y49.916 E5.32924
G1 X71.567 Y50.423 E5.34872
G1 X71.475 Y50.982 E5.3704
G1 X71.305 Y51.523 E5.39211
G1 X70.979 Y52.174 E5.41997
G1 X70.758 Y52.53 E5.43601
G1 X70.425 Y52.989 E5.45771
G1 X70.032 Y53.398 E5.47941
G1 X69.431 Y53.845 E5.50808
G1 X69.035 Y54.086 E5.52582
G1 X68.531 Y54.346 E5.54752
G1 X67.995 Y54.533 E5.56925
G1 X67.439 Y54.642 E5.59093
G1 X66.987 Y54.673 E5.60827
G1 X63.88 Y54.708 E5.72718
G1 X63.314 Y54.674 E5.74888
G1 X62.612 Y54.518 E5.7764
G1 X62.123 Y54.362 E5.79605
G1 X61.596 Y54.152 E5.81776
G1 X61.104 Y53.87 E5.83946
G1 X60.496 Y53.369 E5.86961
G1 X60.17 Y53.042 E5.88728
G1 X59.798 Y52.613 E5.90901
G1 X59.491 Y52.136 E5.93072
G1 X59.177 Y51.397 E5.96145
G1 X59.049 Y50.986 E5.97792
G1 X58.919 Y50.434 E5.99962
G1 X58.868 Y49.869 E6.02134
G1 X58.886 Y49.396 E6.03945
G1 X58.931 Y48.937 E6.0571
G1 X59.026 Y48.378 E6.0788
G1 X59.199 Y47.838 E6.1005
G1 X59.565 Y47.132 E6.13093
G1 X59.757 Y46.837 E6.1444
G0 F1458 X59.827 Y46.73
G0 X60.169 Y46.278
G0 F4320 X60.449 Y46.49
G1 F2400 E6.17096
G1 F1620 X60.837 Y46.113 E6.19167
G1 X61.48 Y45.68 E6.22133
G1 X61.888 Y45.464 E6.239
G1 X62.384 Y45.247 E6.25972
G1 X62.907 Y45.104 E6.28047
G1 X63.588 Y45.037 E6.30666
G1 X66.741 Y45.021 E6.42732
G1 X67.282 Y45.058 E6.44808
G1 X67.95 Y45.219 E6.47437
G1 X68.359 Y45.359 E6.49092
G1 X68.857 Y45.572 E6.51165
G1 X69.319 Y45.856 E6.5324
G1 X69.686 Y46.159 E6.55061
G1 X69.954 Y46.411 E6.56469
G1 X70.321 Y46.81 E6.58544
G1 X70.624 Y47.259 E6.60617
G1 X70.883 Y47.811 E6.6295
G1 X71.052 Y48.267 E6.64811
G1 X71.202 Y48.787 E6.66883
G1 X71.274 Y49.324 E6.68956
G1 X71.265 Y49.883 E6.71096
G1 X71.218 Y50.39 E6.73044
G1 X71.129 Y50.925 E6.7512
G1 X70.961 Y51.44 E6.77193
G1 X70.681 Y51.989 E6.79551
G1 X70.46 Y52.345 E6.81155
G1 X70.141 Y52.783 E6.83229
G1 X69.761 Y53.17 E6.85304
G1 X69.249 Y53.546 E6.87735
G1 X68.853 Y53.787 E6.89509
G1 X68.37 Y54.034 E6.91586
G1 X67.857 Y54.207 E6.93657
G1 X67.323 Y54.303 E6.95734
G1 X66.983 Y54.323 E6.97037
G1 X63.876 Y54.358 E7.08928
G1 X63.336 Y54.324 E7.10999
G1 X62.718 Y54.184 E7.13424
G1 X62.229 Y54.028 E7.15388
G1 X61.726 Y53.826 E7.17463
G1 X61.259 Y53.552 E7.19535
G1 X60.743 Y53.122 E7.22106
G1 X60.417 Y52.795 E7.23873
G1 X60.064 Y52.384 E7.25946
G1 X59.775 Y51.925 E7.28022
G1 X59.511 Y51.293 E7.30643
G1 X59.383 Y50.882 E7.3229
G1 X59.261 Y50.354 E7.34364
G1 X59.217 Y49.814 E7.36438
G1 X59.235 Y49.43 E7.37909
G1 X59.28 Y48.971 E7.39674
G1 X59.372 Y48.438 E7.41744
G1 X59.542 Y47.923 E7.43819
G1 X59.858 Y47.323 E7.46415
G1 X60.037 Y47.048 E7.4767
G0 F1458 X60.12 Y46.921
G0 X60.449 Y46.49
G0 F4320 X60.727 Y46.704
G1 F2400 E7.50326
G1 F1620 X61.101 Y46.349 E7.523
G1 X61.643 Y45.989 E7.5479
G1 X62.051 Y45.773 E7.56556
G1 X62.524 Y45.568 E7.58529
G1 X63.023 Y45.439 E7.60502
G1 X63.59 Y45.387 E7.62681
G1 X66.743 Y45.371 E7.74747
G1 X67.257 Y45.408 E7.7672
G1 X67.837 Y45.55 E7.79005
G1 X68.246 Y45.69 E7.80659
G1 X68.719 Y45.894 E7.82631
G1 X69.155 Y46.169 E7.84603
G1 X69.447 Y46.414 E7.86062
G1 X69.715 Y46.666 E7.8747
G1 X70.062 Y47.047 E7.89442
G1 X70.346 Y47.477 E7.91414
G1 X70.555 Y47.933 E7.93334
G1 X70.724 Y48.389 E7.95195
G1 X70.865 Y48.884 E7.97165
G1 X70.928 Y49.396 E7.99139
G1 X70.917 Y49.851 E8.00881
G1 X70.87 Y50.358 E8.02829
G1 X70.783 Y50.866 E8.04802
G1 X70.618 Y51.354 E8.06773
G1 X70.384 Y51.805 E8.08718
G1 X70.163 Y52.161 E8.10321
G1 X69.858 Y52.576 E8.12292
G1 X69.493 Y52.94 E8.14265
G1 X69.067 Y53.247 E8.16274
G1 X68.671 Y53.488 E8.18049
G1 X68.211 Y53.721 E8.20022
G1 X67.721 Y53.881 E8.21995
G1 X66.979 Y53.973 E8.24856
G1 X63.872 Y54.008 E8.36747
G1 X63.358 Y53.974 E8.38719
G1 X62.824 Y53.851 E8.40816
G1 X62.335 Y53.695 E8.4278
G1 X61.858 Y53.5 E8.44752
G1 X61.416 Y53.235 E8.46724
G1 X60.991 Y52.875 E8.48856
G1 X60.665 Y52.548 E8.50623
G1 X60.331 Y52.155 E8.52597
G1 X60.061 Y51.716 E8.54569
G1 X59.845 Y51.189 E8.56749
G1 X59.717 Y50.778 E8.58396
G1 X59.603 Y50.275 E8.6037
G1 X59.567 Y49.761 E8.62342
G1 X59.583 Y49.465 E8.63476
G1 X59.628 Y49.006 E8.65241
G1 X59.718 Y48.498 E8.67216
G1 X59.885 Y48.011 E8.69186
G1 X60.151 Y47.515 E8.7134
G1 X60.316 Y47.263 E8.72493
G0 F1458 X60.413 Y47.113
G0 X60.727 Y46.704
G0 F4320 X61.005 Y46.918
G1 F2400 E8.75149
G1 F1620 X61.363 Y46.587 E8.77015
G1 X61.807 Y46.299 E8.7904
G1 X62.215 Y46.083 E8.80807
G1 X62.663 Y45.891 E8.82672
G1 X63.136 Y45.774 E8.84537
G1 X63.592 Y45.737 E8.86288
G1 X66.745 Y45.721 E8.98354
G1 X67.231 Y45.759 E9.0022
G1 X67.723 Y45.881 E9.0216
G1 X68.132 Y46.021 E9.03814
G1 X68.579 Y46.216 E9.0568
G1 X68.988 Y46.482 E9.07548
G1 X69.207 Y46.669 E9.0865
G1 X69.475 Y46.921 E9.10058
G1 X69.802 Y47.283 E9.11924
G1 X70.065 Y47.693 E9.13789
G1 X70.227 Y48.054 E9.15303
G1 X70.396 Y48.51 E9.17164
G1 X70.527 Y48.98 E9.19031
G1 X70.58 Y49.464 E9.20895
G1 X70.568 Y49.819 E9.22254
G1 X70.521 Y50.326 E9.24202
G1 X70.437 Y50.806 E9.26067
G1 X70.275 Y51.265 E9.2793
G1 X70.087 Y51.62 E9.29467
G1 X69.866 Y51.976 E9.31071
G1 X69.575 Y52.368 E9.32939
G1 X69.225 Y52.707 E9.34804
G1 X68.885 Y52.948 E9.36399
G1 X68.489 Y53.189 E9.38173
G1 X68.053 Y53.408 E9.4004
G1 X67.587 Y53.552 E9.41907
G1 X66.976 Y53.623 E9.44261
G1 X63.869 Y53.658 E9.56152
G1 X63.382 Y53.623 E9.58021
G1 X62.931 Y53.517 E9.59794
G1 X62.442 Y53.361 E9.61758
G1 X61.991 Y53.176 E9.63624
G1 X61.577 Y52.919 E9.65488
G1 X61.239 Y52.627 E9.67198
G1 X60.913 Y52.3 E9.68965
G1 X60.598 Y51.928 E9.7083
G1 X60.349 Y51.51 E9.72692
G1 X60.18 Y51.085 E9.74443
G1 X60.052 Y50.674 E9.7609
G1 X59.945 Y50.198 E9.77957
G1 X59.931 Y49.499 E9.80633
G1 X59.976 Y49.04 E9.82398
G1 X60.063 Y48.56 E9.84265
G1 X60.228 Y48.101 E9.86131
G1 X60.445 Y47.706 E9.87856
G1 X60.594 Y47.477 E9.88902
G0 F1458 X60.707 Y47.304
G0 X61.005 Y46.918
G0 F4320 X61.282 Y47.134
G1 F2400 E9.91558
G1 F1620 X61.623 Y46.829 E9.93309
G1 X61.971 Y46.608 E9.94886
G1 X62.379 Y46.392 E9.96653
G1 X62.801 Y46.214 E9.98406
G1 X63.247 Y46.112 E10.00157
G1 X63.594 Y46.087 E10.01488
G1 X66.747 Y46.071 E10.13555
G1 X67.203 Y46.109 E10.15306
G1 X67.61 Y46.212 E10.16913
G1 X68.019 Y46.352 E10.18567
G1 X68.438 Y46.538 E10.20321
G1 X68.967 Y46.924 E10.22827
G1 X69.235 Y47.176 E10.24235
G1 X69.54 Y47.517 E10.25986
G1 X69.781 Y47.906 E10.27737
G1 X69.898 Y48.176 E10.28864
G1 X70.067 Y48.632 E10.30725
G1 X70.188 Y49.073 E10.32475
G1 X70.231 Y49.529 E10.34228
G1 X70.22 Y49.786 E10.35212
G1 X70.173 Y50.293 E10.37161
G1 X70.091 Y50.744 E10.38915
G1 X69.932 Y51.173 E10.40666
G1 X69.789 Y51.435 E10.41808
G1 X69.568 Y51.791 E10.43412
G1 X69.294 Y52.158 E10.45164
G1 X68.96 Y52.471 E10.46916
G1 X68.703 Y52.649 E10.48113
G1 X68.307 Y52.89 E10.49887
G1 X67.896 Y53.093 E10.51641
G1 X67.457 Y53.222 E10.53392
G1 X66.972 Y53.273 E10.55258
G1 X63.865 Y53.308 E10.6715
G1 X63.408 Y53.273 E10.68904
G1 X63.037 Y53.184 E10.70364
G1 X62.548 Y53.028 E10.72328
G1 X62.126 Y52.851 E10.74079
G1 X61.741 Y52.604 E10.7583
G1 X61.487 Y52.38 E10.77126
G1 X61.161 Y52.053 E10.78893
G1 X60.867 Y51.702 E10.80645
G1 X60.639 Y51.305 E10.82397
G1 X60.514 Y50.981 E10.83726
G1 X60.386 Y50.57 E10.85374
G1 X60.288 Y50.122 E10.87129
G1 X60.28 Y49.533 E10.89383
G1 X60.325 Y49.074 E10.91148
G1 X60.409 Y48.624 E10.929
G1 X60.57 Y48.195 E10.94654
G1 X60.738 Y47.897 E10.95963
G1 X60.871 Y47.693 E10.96895
G0 F1458 X61 Y47.495
G0 X61.282 Y47.134
G0 F4320 X61.558 Y47.352
G1 F2400 E10.99551
G1 F1620 X61.881 Y47.074 E11.01182
G1 X62.135 Y46.917 E11.02324
G1 X62.543 Y46.701 E11.04091
G1 X62.936 Y46.538 E11.05719
G1 X63.353 Y46.451 E11.0735
G1 X63.595 Y46.437 E11.08277
G1 X66.748 Y46.421 E11.20344
G1 X67.173 Y46.459 E11.21977
G1 X67.497 Y46.544 E11.23259
G1 X67.906 Y46.684 E11.24913
G1 X68.294 Y46.859 E11.26542
G1 X68.727 Y47.179 E11.28603
G1 X68.995 Y47.431 E11.3001
G1 X69.277 Y47.75 E11.3164
G1 X69.57 Y48.297 E11.34015
G1 X69.739 Y48.753 E11.35876
G1 X69.849 Y49.165 E11.37508
G1 X69.871 Y49.754 E11.39763
G1 X69.824 Y50.261 E11.41712
G1 X69.745 Y50.68 E11.43344
G1 X69.492 Y51.251 E11.45734
G1 X69.271 Y51.607 E11.47337
G1 X69.013 Y51.946 E11.48968
G1 X68.521 Y52.35 E11.51404
G1 X68.125 Y52.591 E11.53178
G1 X67.742 Y52.778 E11.54809
G1 X67.33 Y52.89 E11.56443
G1 X66.968 Y52.923 E11.57834
G1 X63.861 Y52.958 E11.69726
G1 X63.436 Y52.923 E11.71358
G1 X63.144 Y52.85 E11.72509
G1 X62.655 Y52.694 E11.74474
G1 X62.262 Y52.527 E11.76108
G1 X61.908 Y52.29 E11.77738
G1 X61.735 Y52.133 E11.78632
G1 X61.409 Y51.806 E11.80399
G1 X61.138 Y51.478 E11.82028
G1 X60.932 Y51.104 E11.83662
G1 X60.848 Y50.876 E11.84592
G1 X60.72 Y50.465 E11.86239
G1 X60.632 Y50.049 E11.87866
G1 X60.628 Y49.567 E11.89711
G1 X60.673 Y49.108 E11.91476
G1 X60.754 Y48.69 E11.93105
G1 X60.912 Y48.294 E11.94737
G1 X61.031 Y48.088 E11.95648
G1 X61.147 Y47.91 E11.96461
G0 F1458 X61.293 Y47.686
G0 X61.558 Y47.352
G0 F4320 X61.833 Y47.572
G1 F2400 E11.99117
G1 F1620 X62.298 Y47.227 E12.01332
G1 X62.706 Y47.011 E12.03099
G1 X63.07 Y46.864 E12.04601
G1 X63.597 Y46.787 E12.0664
G1 X66.75 Y46.771 E12.18706
G1 X67.14 Y46.809 E12.20206
G1 X67.383 Y46.875 E12.2117
G1 X67.792 Y47.015 E12.22824
G1 X68.148 Y47.179 E12.24324
G1 X68.488 Y47.434 E12.25951
G1 X68.756 Y47.686 E12.27358
G1 X69.012 Y47.982 E12.28856
G1 X69.242 Y48.419 E12.30746
G1 X69.411 Y48.875 E12.32607
G1 X69.509 Y49.254 E12.34105
G1 X69.523 Y49.722 E12.35897
G1 X69.476 Y50.229 E12.37846
