;FLAVOR:Marlin
;TIME:16230
;Filament used: 17.6864m
;Layer height: 0.2625
;Generated with Cura_SteamEngine 3.6.0
M140 S60
M105
M190 S60
M104 S210
M105
M109 S210
M82 ;absolute extrusion mode
G21;(metric values)
G90;(absolute positioning)
M82;(set extruder to absolute mode)
M107;(start with the fan off)
G28;(Home the printer)
G92 E0;(Reset the extruder to 0)
G0 Z5 E5 F500;(Move up and prime the nozzle)
G0 X-1 Z0;(Move outside the printable area)
G1 Y60 E8 F500;(Draw a priming/wiping line to the rear)
G1 X-1;(Move a little closer to the print area)
G1 Y10 E16 F500;(draw more priming/wiping)
G1 E15 F250;(Small retract)
G92 E0;(Zero the extruder)
G92 E0
G1 F2400 E-2.5
;LAYER_COUNT:444
;LAYER:0
M107
G0 F4320 X21.432 Y49.122 Z0.263
;TYPE:SKIRT
G1 F2400 E0
G1 F1080 X22.024 Y48.887 E0.02438
G1 X22.641 Y48.728 E0.04876
G1 X23.273 Y48.647 E0.07314
G1 X23.597 Y48.637 E0.08555
G1 X35.4 Y48.637 E0.53725
G1 X35.4 Y48.209 E0.55363
G1 X35.44 Y47.573 E0.57802
G1 X35.559 Y46.948 E0.60237
G1 X35.756 Y46.342 E0.62675
G1 X36.027 Y45.766 E0.65111
G1 X36.368 Y45.228 E0.67549
G1 X36.774 Y44.737 E0.69987
G1 X37.238 Y44.301 E0.72424
G1 X37.753 Y43.926 E0.74862
G1 X38.31 Y43.619 E0.77296
G1 X38.902 Y43.384 E0.79733
G1 X39.519 Y43.225 E0.82172
G1 X40.151 Y43.144 E0.8461
G1 X40.475 Y43.134 E0.85851
G1 X46.749 Y43.134 E1.09861
G1 X47.048 Y42.772 E1.11658
G1 X47.512 Y42.336 E1.14095
G1 X48.027 Y41.961 E1.16533
G1 X48.584 Y41.654 E1.18967
G1 X49.176 Y41.419 E1.21404
G1 X49.793 Y41.26 E1.23843
G1 X50.425 Y41.179 E1.26281
G1 X50.749 Y41.169 E1.27522
G1 X56.744 Y41.169 E1.50465
G1 X57.38 Y41.209 E1.52903
G1 X58.005 Y41.328 E1.55338
G1 X58.611 Y41.525 E1.57777
G1 X59.069 Y41.74 E1.59713
G1 X59.338 Y41.615 E1.60848
G1 X59.945 Y41.42 E1.63288
G1 X60.388 Y41.328 E1.6502
G1 X60.98 Y41.233 E1.67314
G1 X61.786 Y41.169 E1.70409
G1 X72.753 Y41.174 E2.12379
G1 X73.644 Y41.253 E2.15802
G1 X74.181 Y41.349 E2.1789
G1 X74.8 Y41.5 E2.20329
G1 X75.395 Y41.728 E2.22767
G1 X75.407 Y41.734 E2.22818
G1 X75.551 Y41.654 E2.23449
G1 X76.143 Y41.419 E2.25886
G1 X76.76 Y41.26 E2.28325
G1 X77.392 Y41.179 E2.30763
G1 X77.717 Y41.169 E2.32008
G1 X83.509 Y41.169 E2.54174
G1 X84.145 Y41.209 E2.56612
G1 X84.77 Y41.328 E2.59047
G1 X85.376 Y41.525 E2.61486
G1 X85.958 Y41.799 E2.63948
G1 X98.797 Y48.874 E3.20049
G1 X99.335 Y49.216 E3.22488
G1 X99.825 Y49.622 E3.24924
G1 X100.261 Y50.087 E3.27363
G1 X100.635 Y50.602 E3.29799
G1 X100.941 Y51.161 E3.32238
G1 X101.175 Y51.753 E3.34674
G1 X101.333 Y52.37 E3.37111
G1 X101.423 Y53.319 E3.40759
G1 X101.423 Y66.683 E3.91903
G1 X101.383 Y67.319 E3.94342
G1 X101.264 Y67.944 E3.96777
G1 X101.067 Y68.55 E3.99216
G1 X100.796 Y69.126 E4.01652
G1 X100.455 Y69.664 E4.04089
G1 X100.049 Y70.155 E4.06528
G1 X99.585 Y70.591 E4.08964
G1 X98.797 Y71.128 E4.12614
G1 X85.959 Y78.201 E4.68708
G1 X85.383 Y78.473 E4.71146
G1 X84.777 Y78.67 E4.73584
G1 X84.152 Y78.79 E4.7602
G1 X83.51 Y78.831 E4.78482
G1 X77.718 Y78.831 E5.00648
G1 X77.082 Y78.791 E5.03086
G1 X76.457 Y78.672 E5.05521
G1 X75.851 Y78.475 E5.0796
G1 X75.388 Y78.257 E5.09918
G1 X75.098 Y78.392 E5.11143
G1 X74.492 Y78.586 E5.13578
G1 X74.041 Y78.679 E5.1534
G1 X73.471 Y78.769 E5.17548
G1 X72.668 Y78.831 E5.20631
G1 X61.471 Y78.807 E5.63482
G1 X60.836 Y78.766 E5.65917
G1 X60.21 Y78.645 E5.68357
G1 X59.88 Y78.547 E5.69674
G1 X59.321 Y78.361 E5.71929
G1 X59.068 Y78.259 E5.72973
G1 X58.911 Y78.346 E5.7366
G1 X58.319 Y78.581 E5.76097
G1 X57.702 Y78.74 E5.78536
G1 X57.07 Y78.821 E5.80974
G1 X56.745 Y78.831 E5.82218
G1 X50.75 Y78.831 E6.05161
G1 X50.114 Y78.791 E6.076
G1 X49.489 Y78.672 E6.10035
G1 X48.883 Y78.475 E6.12474
G1 X48.307 Y78.204 E6.1491
G1 X47.769 Y77.863 E6.17347
G1 X47.278 Y77.457 E6.19786
G1 X46.842 Y76.993 E6.22222
G1 X46.75 Y76.866 E6.22822
G1 X40.476 Y76.866 E6.46833
G1 X39.84 Y76.826 E6.49272
G1 X39.215 Y76.707 E6.51707
G1 X38.609 Y76.51 E6.54145
G1 X38.033 Y76.239 E6.56581
G1 X37.495 Y75.898 E6.59019
G1 X37.004 Y75.492 E6.61457
G1 X36.568 Y75.028 E6.63894
G1 X36.193 Y74.513 E6.66332
G1 X35.886 Y73.956 E6.68766
G1 X35.651 Y73.364 E6.71203
G1 X35.492 Y72.747 E6.73642
G1 X35.411 Y72.115 E6.7608
G1 X35.401 Y71.792 E6.77317
G1 X35.401 Y71.364 E6.78955
G1 X23.597 Y71.363 E7.24129
G1 X22.961 Y71.323 E7.26568
G1 X22.335 Y71.204 E7.29006
G1 X21.73 Y71.007 E7.31441
G1 X21.153 Y70.736 E7.33881
G1 X20.616 Y70.395 E7.36315
G1 X20.125 Y69.989 E7.38753
G1 X19.688 Y69.525 E7.41193
G1 X19.314 Y69.01 E7.43629
G1 X19.007 Y68.452 E7.46066
G1 X18.772 Y67.86 E7.48503
G1 X18.613 Y67.244 E7.50938
G1 X18.532 Y66.612 E7.53377
G1 X18.522 Y66.288 E7.54617
G1 X18.522 Y53.712 E8.02745
G1 X18.562 Y53.076 E8.05184
G1 X18.681 Y52.451 E8.07619
G1 X18.878 Y51.845 E8.10058
G1 X19.149 Y51.269 E8.12494
G1 X19.49 Y50.731 E8.14931
G1 X19.896 Y50.24 E8.1737
G1 X20.36 Y49.804 E8.19806
G1 X20.829 Y49.463 E8.22025
G0 F972 X20.875 Y49.429
G0 X21.432 Y49.122
G0 F4320 X21.759 Y49.359
G1 F2400 E8.24681
G1 F1080 X22.34 Y49.157 E8.27035
G1 X22.941 Y49.033 E8.29384
G1 X23.597 Y48.987 E8.31901
G1 X35.75 Y48.987 E8.7841
G1 X35.75 Y48.209 E8.81387
G1 X35.79 Y47.596 E8.83738
G1 X35.909 Y46.993 E8.86091
G1 X36.106 Y46.411 E8.88442
G1 X36.376 Y45.859 E8.90794
G1 X36.716 Y45.347 E8.93146
G1 X37.119 Y44.883 E8.95498
G1 X37.579 Y44.476 E8.97848
G1 X38.088 Y44.131 E9.00202
G1 X38.637 Y43.856 E9.02551
G1 X39.218 Y43.654 E9.04905
G1 X39.819 Y43.53 E9.07254
G1 X40.475 Y43.484 E9.09771
G1 X46.922 Y43.484 E9.34443
G1 X46.99 Y43.382 E9.34912
G1 X47.393 Y42.918 E9.37264
G1 X47.853 Y42.511 E9.39615
G1 X48.362 Y42.166 E9.41968
G1 X48.911 Y41.891 E9.44318
G1 X49.492 Y41.689 E9.46672
G1 X50.093 Y41.565 E9.4902
G1 X50.749 Y41.519 E9.51537
G1 X56.744 Y41.519 E9.7448
G1 X57.357 Y41.559 E9.76831
G1 X57.96 Y41.678 E9.79183
G1 X58.542 Y41.875 E9.81535
G1 X59.062 Y42.129 E9.83749
G1 X59.486 Y41.933 E9.85537
G1 X60.073 Y41.749 E9.87891
G1 X60.443 Y41.674 E9.89336
G1 X61.035 Y41.579 E9.91631
G1 X61.786 Y41.519 E9.94514
G1 X72.753 Y41.524 E10.36484
G1 X73.583 Y41.598 E10.39673
G1 X74.12 Y41.694 E10.41761
G1 X74.716 Y41.841 E10.4411
G1 X75.289 Y42.064 E10.46463
G1 X75.411 Y42.126 E10.46987
G1 X75.878 Y41.892 E10.48986
G1 X76.458 Y41.69 E10.51337
G1 X77.06 Y41.565 E10.5369
G1 X77.717 Y41.519 E10.5621
G1 X83.509 Y41.519 E10.78376
G1 X84.122 Y41.559 E10.80727
G1 X84.725 Y41.678 E10.83079
G1 X85.307 Y41.875 E10.85431
G1 X85.789 Y42.106 E10.87476
G1 X98.628 Y49.181 E11.43577
G1 X99.146 Y49.512 E11.4593
G1 X99.617 Y49.907 E11.48282
G1 X100.032 Y50.36 E11.50633
G1 X100.385 Y50.863 E11.52985
G1 X100.669 Y51.408 E11.55337
G1 X100.881 Y51.985 E11.57689
G1 X101.016 Y52.584 E11.60039
G1 X101.073 Y53.319 E11.62861
G1 X101.073 Y66.683 E12.14005
G1 X101.033 Y67.296 E12.16356
G1 X100.914 Y67.899 E12.18708
G1 X100.717 Y68.481 E12.21059
G1 X100.447 Y69.033 E12.23411
G1 X100.107 Y69.545 E12.25763
G1 X99.704 Y70.009 E12.28115
G1 X99.244 Y70.416 E12.30465
G1 X98.628 Y70.821 E12.33287
G1 X85.79 Y77.894 E12.89381
G1 X85.234 Y78.155 E12.91731
G1 X84.648 Y78.342 E12.94085
G1 X84.043 Y78.451 E12.96438
G1 X83.51 Y78.481 E12.98481
G1 X77.718 Y78.481 E13.20647
G1 X77.105 Y78.441 E13.22998
G1 X76.502 Y78.322 E13.2535
G1 X75.92 Y78.125 E13.27702
G1 X75.395 Y77.868 E13.29939
G1 X74.951 Y78.074 E13.31812
G1 X74.364 Y78.257 E13.34165
G1 X73.986 Y78.333 E13.3564
G1 X73.416 Y78.423 E13.37849
G1 X72.669 Y78.481 E13.40716
G1 X61.472 Y78.457 E13.83567
G1 X60.859 Y78.416 E13.85918
G1 X59.99 Y78.215 E13.89332
G1 X59.431 Y78.029 E13.91586
G1 X59.05 Y77.874 E13.93161
G1 X58.584 Y78.108 E13.95156
G1 X58.004 Y78.31 E13.97507
G1 X57.402 Y78.435 E13.9986
G1 X56.745 Y78.481 E14.0238
G1 X50.75 Y78.481 E14.25323
G1 X50.137 Y78.441 E14.27674
G1 X49.534 Y78.322 E14.30026
G1 X48.952 Y78.125 E14.32377
G1 X48.4 Y77.855 E14.34729
G1 X47.888 Y77.515 E14.37081
G1 X47.424 Y77.112 E14.39433
G1 X47.017 Y76.652 E14.41784
G1 X46.925 Y76.516 E14.42412
G1 X40.476 Y76.516 E14.67092
G1 X39.863 Y76.476 E14.69443
G1 X39.26 Y76.357 E14.71796
G1 X38.678 Y76.16 E14.74147
G1 X38.126 Y75.89 E14.76499
G1 X37.614 Y75.55 E14.78851
G1 X37.15 Y75.147 E14.81203
G1 X36.743 Y74.687 E14.83553
G1 X36.398 Y74.178 E14.85907
G1 X36.123 Y73.629 E14.88256
G1 X35.921 Y73.048 E14.9061
G1 X35.797 Y72.447 E14.92959
G1 X35.751 Y71.792 E14.95472
G1 X35.751 Y71.014 E14.98449
G1 X23.597 Y71.013 E15.44962
G1 X22.984 Y70.973 E15.47313
G1 X22.381 Y70.854 E15.49666
G1 X21.798 Y70.657 E15.52021
G1 X21.247 Y70.387 E15.54369
G1 X20.735 Y70.047 E15.56721
G1 X20.271 Y69.644 E15.59073
G1 X19.864 Y69.184 E15.61424
G1 X19.519 Y68.675 E15.63777
G1 X19.244 Y68.126 E15.66127
G1 X19.042 Y67.545 E15.68481
G1 X18.918 Y66.943 E15.70833
G1 X18.872 Y66.288 E15.73346
G1 X18.872 Y53.712 E16.21474
G1 X18.912 Y53.099 E16.23825
G1 X19.031 Y52.496 E16.26177
G1 X19.228 Y51.914 E16.28529
G1 X19.498 Y51.362 E16.3088
G1 X19.838 Y50.85 E16.33232
G1 X20.241 Y50.386 E16.35584
G1 X20.701 Y49.979 E16.37935
G1 X21.144 Y49.678 E16.39985
G0 F972 X21.21 Y49.634
G0 X21.759 Y49.359
G0 F4320 X21.543 Y49.849
G1 F2400 E16.42641
G1 F1080 X22.082 Y49.608 E16.449
G1 X22.65 Y49.441 E16.47166
G1 X23.234 Y49.352 E16.49427
G1 X23.597 Y49.337 E16.50817
G1 X36.1 Y49.337 E16.98666
G1 X36.1 Y48.209 E17.02983
G1 X36.14 Y47.619 E17.05246
G1 X36.259 Y47.04 E17.07508
G1 X36.455 Y46.482 E17.09771
G1 X36.725 Y45.956 E17.12034
G1 X37.063 Y45.471 E17.14296
G1 X37.463 Y45.036 E17.16558
G1 X37.919 Y44.659 E17.18822
G1 X38.421 Y44.346 E17.21086
G1 X38.96 Y44.105 E17.23346
G1 X39.528 Y43.938 E17.25612
G1 X40.112 Y43.849 E17.27872
G1 X40.475 Y43.834 E17.29263
G1 X47.108 Y43.834 E17.54647
G1 X47.337 Y43.506 E17.56178
G1 X47.737 Y43.071 E17.5844
G1 X48.193 Y42.694 E17.60704
G1 X48.695 Y42.381 E17.62968
G1 X49.234 Y42.14 E17.65228
G1 X49.802 Y41.973 E17.67493
G1 X50.386 Y41.884 E17.69754
G1 X50.749 Y41.869 E17.71144
G1 X56.744 Y41.869 E17.94087
G1 X57.334 Y41.909 E17.9635
G1 X57.913 Y42.028 E17.98612
G1 X58.471 Y42.224 E18.00876
G1 X58.997 Y42.494 E18.03139
G1 X59.044 Y42.527 E18.03358
G1 X59.096 Y42.498 E18.03586
G1 X59.633 Y42.251 E18.05848
G1 X60.199 Y42.078 E18.08113
G1 X60.499 Y42.019 E18.09283
G1 X61.091 Y41.924 E18.11578
G1 X61.786 Y41.869 E18.14246
G1 X72.753 Y41.874 E18.56217
G1 X73.521 Y41.942 E18.59167
G1 X74.058 Y42.038 E18.61255
G1 X74.632 Y42.181 E18.63519
G1 X75.397 Y42.512 E18.66709
G1 X75.427 Y42.528 E18.66839
G1 X75.662 Y42.382 E18.67898
G1 X76.201 Y42.14 E18.70159
G1 X76.768 Y41.973 E18.72421
G1 X77.353 Y41.884 E18.74685
G1 X77.717 Y41.869 E18.7608
G1 X83.509 Y41.869 E18.98246
G1 X84.099 Y41.909 E19.00509
G1 X84.678 Y42.028 E19.02771
G1 X85.236 Y42.224 E19.05034
G1 X85.62 Y42.412 E19.0667
G1 X98.459 Y49.487 E19.62772
G1 X98.957 Y49.807 E19.65037
G1 X99.407 Y50.191 E19.67301
G1 X99.8 Y50.632 E19.69561
G1 X100.131 Y51.122 E19.71824
G1 X100.393 Y51.652 E19.74087
G1 X100.581 Y52.213 E19.76351
G1 X100.691 Y52.794 E19.78614
G1 X100.723 Y53.319 E19.80627
G1 X100.723 Y66.683 E20.31771
G1 X100.683 Y67.273 E20.34034
G1 X100.564 Y67.852 E20.36296
G1 X100.368 Y68.41 E20.3856
G1 X100.098 Y68.936 E20.40822
G1 X99.76 Y69.421 E20.43085
G1 X99.36 Y69.856 E20.45346
G1 X98.904 Y70.233 E20.47611
G1 X98.459 Y70.515 E20.49627
G1 X85.621 Y77.588 E21.05721
G1 X85.085 Y77.838 E21.07984
G1 X84.52 Y78.013 E21.10248
G1 X83.937 Y78.11 E21.1251
G1 X83.51 Y78.131 E21.14146
G1 X77.718 Y78.131 E21.36312
G1 X77.128 Y78.091 E21.38575
G1 X76.549 Y77.972 E21.40837
G1 X75.991 Y77.776 E21.431
G1 X75.465 Y77.506 E21.45363
G1 X75.412 Y77.469 E21.45611
G1 X75.341 Y77.508 E21.45921
G1 X74.804 Y77.755 E21.48183
G1 X74.238 Y77.928 E21.50448
G1 X73.931 Y77.987 E21.51644
G1 X73.361 Y78.077 E21.53852
G1 X72.67 Y78.131 E21.56505
G1 X61.473 Y78.107 E21.99356
G1 X60.883 Y78.066 E22.01619
G1 X60.101 Y77.883 E22.04693
G1 X59.542 Y77.697 E22.06947
G1 X59.018 Y77.482 E22.09115
G1 X58.8 Y77.618 E22.10098
G1 X58.261 Y77.86 E22.12359
G1 X57.694 Y78.027 E22.14622
G1 X57.109 Y78.116 E22.16886
G1 X56.745 Y78.131 E22.1828
G1 X50.75 Y78.131 E22.41223
G1 X50.16 Y78.091 E22.43486
G1 X49.581 Y77.972 E22.45748
G1 X49.023 Y77.776 E22.48012
G1 X48.497 Y77.506 E22.50274
G1 X48.012 Y77.168 E22.52537
G1 X47.577 Y76.768 E22.54798
G1 X47.2 Y76.312 E22.57063
G1 X47.109 Y76.166 E22.57721
G1 X40.476 Y76.166 E22.83106
G1 X39.886 Y76.126 E22.85369
G1 X39.307 Y76.007 E22.87631
G1 X38.749 Y75.811 E22.89894
G1 X38.223 Y75.541 E22.92157
G1 X37.738 Y75.203 E22.94419
G1 X37.303 Y74.803 E22.96681
G1 X36.926 Y74.347 E22.98945
G1 X36.613 Y73.845 E23.01209
G1 X36.372 Y73.306 E23.03469
G1 X36.205 Y72.738 E23.05734
G1 X36.116 Y72.154 E23.07995
G1 X36.101 Y71.792 E23.09382
G1 X36.101 Y70.664 E23.13699
G1 X23.597 Y70.663 E23.61551
G1 X23.007 Y70.623 E23.63814
G1 X22.428 Y70.504 E23.66077
G1 X21.87 Y70.308 E23.6834
G1 X21.344 Y70.038 E23.70603
G1 X20.859 Y69.7 E23.72865
G1 X20.424 Y69.3 E23.75127
G1 X20.046 Y68.844 E23.77393
G1 X19.734 Y68.342 E23.79655
G1 X19.492 Y67.802 E23.8192
G1 X19.326 Y67.235 E23.84181
G1 X19.237 Y66.651 E23.86442
G1 X19.222 Y66.288 E23.87832
G1 X19.222 Y53.712 E24.3596
G1 X19.262 Y53.122 E24.38223
G1 X19.381 Y52.543 E24.40486
G1 X19.577 Y51.985 E24.42749
G1 X19.847 Y51.459 E24.45012
G1 X20.185 Y50.974 E24.47274
G1 X20.585 Y50.539 E24.49536
G1 X20.962 Y50.227 E24.51408
G0 F972 X21.041 Y50.162
G0 X21.543 Y49.849
G0 F4320 X21.873 Y50.075
G1 F2400 E24.54064
G1 F1080 X22.401 Y49.869 E24.56233
G1 X22.953 Y49.739 E24.58404
G1 X23.597 Y49.687 E24.60876
G1 X36.45 Y49.687 E25.10065
G1 X36.45 Y48.209 E25.15721
G1 X36.49 Y47.643 E25.17892
G1 X36.609 Y47.089 E25.20061
G1 X36.805 Y46.557 E25.22231
G1 X37.073 Y46.057 E25.24402
G1 X37.41 Y45.601 E25.26572
G1 X37.807 Y45.196 E25.28742
G1 X38.257 Y44.85 E25.30914
G1 X38.751 Y44.572 E25.33084
G1 X39.279 Y44.366 E25.35253
G1 X39.831 Y44.236 E25.37423
G1 X40.475 Y44.184 E25.39896
G1 X47.298 Y44.184 E25.66007
G1 X47.347 Y44.092 E25.66406
G1 X47.684 Y43.636 E25.68576
G1 X48.081 Y43.231 E25.70746
G1 X48.531 Y42.885 E25.72919
G1 X49.025 Y42.607 E25.75088
G1 X49.553 Y42.401 E25.77257
G1 X50.105 Y42.271 E25.79427
G1 X50.749 Y42.219 E25.819
G1 X56.744 Y42.219 E26.04843
G1 X57.31 Y42.259 E26.07014
G1 X57.864 Y42.378 E26.09183
G1 X58.396 Y42.574 E26.11353
G1 X58.896 Y42.842 E26.13524
G1 X59.024 Y42.937 E26.14134
G1 X59.264 Y42.806 E26.1518
G1 X59.78 Y42.57 E26.17351
G1 X60.554 Y42.365 E26.20416
G1 X61.146 Y42.27 E26.2271
G1 X61.786 Y42.219 E26.25167
G1 X72.753 Y42.224 E26.67138
G1 X73.459 Y42.287 E26.69851
G1 X73.996 Y42.383 E26.71938
G1 X74.546 Y42.522 E26.74109
G1 X75.229 Y42.819 E26.7696
G1 X75.436 Y42.933 E26.77864
G1 X75.498 Y42.886 E26.78162
G1 X75.992 Y42.607 E26.80333
G1 X76.52 Y42.401 E26.82502
G1 X77.072 Y42.271 E26.84672
G1 X77.717 Y42.219 E26.87149
G1 X83.509 Y42.219 E27.09315
G1 X84.075 Y42.259 E27.11486
G1 X84.629 Y42.378 E27.13655
G1 X85.161 Y42.574 E27.15824
G1 X85.452 Y42.719 E27.17068
G1 X98.291 Y49.794 E27.7317
G1 X98.767 Y50.102 E27.75339
G1 X99.195 Y50.474 E27.7751
G1 X99.567 Y50.902 E27.7968
G1 X99.874 Y51.378 E27.81847
G1 X100.112 Y51.893 E27.84019
G1 X100.275 Y52.436 E27.86188
G1 X100.36 Y52.997 E27.8836
G1 X100.373 Y53.319 E27.89593
G1 X100.373 Y66.683 E28.40737
G1 X100.333 Y67.249 E28.42908
G1 X100.214 Y67.803 E28.45077
G1 X100.018 Y68.335 E28.47247
G1 X99.75 Y68.835 E28.49418
G1 X99.413 Y69.291 E28.51588
G1 X99.016 Y69.696 E28.53758
G1 X98.566 Y70.042 E28.5593
G1 X98.29 Y70.208 E28.57163
G1 X85.452 Y77.281 E29.13257
G1 X84.938 Y77.519 E29.15425
G1 X84.394 Y77.683 E29.17599
G1 X83.834 Y77.768 E29.19767
G1 X83.51 Y77.781 E29.21008
G1 X77.718 Y77.781 E29.43174
G1 X77.152 Y77.741 E29.45345
G1 X76.598 Y77.622 E29.47514
G1 X76.066 Y77.426 E29.49683
G1 X75.566 Y77.158 E29.51855
G1 X75.433 Y77.06 E29.52487
G1 X75.174 Y77.201 E29.53615
G1 X74.658 Y77.436 E29.55785
G1 X73.877 Y77.642 E29.58876
G1 X73.307 Y77.732 E29.61085
G1 X72.67 Y77.781 E29.6353
G1 X61.473 Y77.757 E30.06381
G1 X60.908 Y77.716 E30.08549
G1 X60.211 Y77.551 E30.1129
G1 X59.652 Y77.365 E30.13544
G1 X59.128 Y77.149 E30.15713
G1 X59.01 Y77.079 E30.16238
G1 X58.964 Y77.114 E30.1646
G1 X58.47 Y77.393 E30.18631
G1 X57.942 Y77.599 E30.208
G1 X57.39 Y77.729 E30.2297
G1 X56.745 Y77.781 E30.25447
G1 X50.75 Y77.781 E30.48389
G1 X50.184 Y77.741 E30.50561
