;FLAVOR:Marlin
;TIME:4314
;Filament used: 3.69521m
;Layer height: 0.2625
;Generated with Cura_SteamEngine 3.6.0
M140 S60
M105
M190 S60
M104 S210
M105
M109 S210
M82 ;absolute extrusion mode
G21;(metric values)
G90;(absolute positioning)
M82;(set extruder to absolute mode)
M107;(start with the fan off)
G28;(Home the printer)
G92 E0;(Reset the extruder to 0)
G0 Z5 E5 F500;(Move up and prime the nozzle)
G0 X-1 Z0;(Move outside the printable area)
G1 Y60 E8 F500;(Draw a priming/wiping line to the rear)
G1 X-1;(Move a little closer to the print area)
G1 Y10 E16 F500;(draw more priming/wiping)
G1 E15 F250;(Small retract)
G92 E0;(Zero the extruder)
G92 E0
G1 F2400 E-2.5
;LAYER_COUNT:28
;LAYER:0
M107
G0 F4320 X28.513 Y19.239 Z0.263
;TYPE:SKIRT
G1 F2400 E0
G1 F1620 X29.987 Y17.121 E0.09875
G1 X30.44 Y16.561 E0.12632
G1 X31.543 Y15.377 E0.18825
G1 X31.938 Y14.996 E0.20925
G1 X33.165 Y13.936 E0.2713
G1 X33.607 Y13.595 E0.29267
G1 X34.943 Y12.676 E0.35472
G1 X35.405 Y12.393 E0.37546
G1 X36.827 Y11.624 E0.43732
G1 X37.35 Y11.379 E0.45943
G1 X38.996 Y10.718 E0.52731
G1 X39.677 Y10.498 E0.5547
G1 X42.036 Y9.919 E0.64765
G1 X42.71 Y9.801 E0.67384
G1 X44.32 Y9.63 E0.7358
G1 X44.881 Y9.602 E0.7573
G1 X46.498 Y9.61 E0.81918
G1 X47.177 Y9.659 E0.84523
G1 X49.583 Y9.996 E0.93821
G1 X50.279 Y10.144 E0.96544
G1 X51.983 Y10.633 E1.03329
G1 X52.529 Y10.824 E1.05542
G1 X54.025 Y11.445 E1.11741
G1 X54.522 Y11.684 E1.13852
G1 X55.942 Y12.464 E1.20052
G1 X56.416 Y12.759 E1.22189
G1 X57.74 Y13.689 E1.28381
G1 X58.268 Y14.115 E1.30977
G1 X60.052 Y15.764 E1.40274
G1 X60.542 Y16.287 E1.43017
G1 X61.66 Y17.66 E1.49793
G1 X61.998 Y18.126 E1.51996
G1 X62.872 Y19.49 E1.58196
G1 X63.142 Y19.966 E1.6029
G1 X63.864 Y21.416 E1.66489
G1 X64.13 Y22.056 E1.69141
G1 X64.906 Y24.356 E1.78431
G1 X65.109 Y25.182 E1.81686
G1 X65.434 Y27.227 E1.89611
G1 X65.778 Y27.165 E1.90948
G1 X69.273 Y26.694 E2.04445
G1 X69.782 Y26.652 E2.06399
G1 X72.002 Y26.578 E2.149
G1 X72.404 Y26.58 E2.16438
G1 X74.621 Y26.682 E2.24932
G1 X75.125 Y26.731 E2.2687
G1 X78.618 Y27.244 E2.40381
G1 X79.222 Y27.37 E2.42742
G1 X82.431 Y28.249 E2.55475
G1 X83.007 Y28.445 E2.57804
G1 X86.275 Y29.778 E2.71311
G1 X86.739 Y29.995 E2.73271
G1 X88.7 Y31.037 E2.81769
G1 X89.046 Y31.239 E2.83303
G1 X90.917 Y32.431 E2.91793
G1 X91.251 Y32.663 E2.93349
G1 X93.18 Y34.122 E3.02605
G1 X93.502 Y34.387 E3.04201
G1 X95.158 Y35.868 E3.12703
G1 X95.446 Y36.147 E3.14238
G1 X96.979 Y37.753 E3.22734
G1 X97.239 Y38.048 E3.24239
G1 X98.644 Y39.769 E3.32742
G1 X98.89 Y40.096 E3.34308
G1 X100.263 Y42.086 E3.4356
G1 X100.487 Y42.441 E3.45167
G1 X101.593 Y44.367 E3.53666
G1 X101.777 Y44.718 E3.55183
G1 X102.728 Y46.722 E3.63672
G1 X102.888 Y47.097 E3.65232
G1 X103.747 Y49.36 E3.74496
G1 X103.88 Y49.76 E3.76109
G1 X104.493 Y51.894 E3.84606
G1 X104.587 Y52.276 E3.86111
G1 X105.033 Y54.451 E3.94608
G1 X105.099 Y54.858 E3.96186
G1 X105.391 Y57.26 E4.05446
G1 X105.424 Y57.671 E4.07024
G1 X105.512 Y59.891 E4.15527
G1 X105.512 Y60.296 E4.17077
G1 X105.423 Y62.513 E4.25568
G1 X105.392 Y62.903 E4.27065
G1 X105.132 Y65.108 E4.35562
G1 X105.047 Y65.611 E4.37515
G1 X104.284 Y69.057 E4.51022
G1 X104.115 Y69.647 E4.53371
G1 X103.008 Y72.787 E4.66112
G1 X102.772 Y73.349 E4.68445
G1 X101.208 Y76.513 E4.81952
G1 X100.953 Y76.967 E4.83945
G1 X99.771 Y78.845 E4.92437
G1 X99.543 Y79.177 E4.93978
G1 X98.096 Y81.116 E5.03237
G1 X97.831 Y81.442 E5.04845
G1 X96.36 Y83.106 E5.13345
G1 X96.012 Y83.463 E5.15253
G1 X93.572 Y85.73 E5.27999
G1 X93.185 Y86.056 E5.29935
G1 X91.26 Y87.516 E5.39182
G1 X90.918 Y87.753 E5.40774
G1 X89.042 Y88.947 E5.49284
G1 X88.7 Y89.147 E5.508
G1 X86.743 Y90.188 E5.59284
G1 X86.279 Y90.405 E5.61244
G1 X83.01 Y91.74 E5.74757
G1 X82.429 Y91.938 E5.77106
G1 X79.219 Y92.815 E5.89841
G1 X78.814 Y92.908 E5.91432
G1 X77.525 Y93.149 E5.9645
G1 X77.216 Y93.196 E5.97646
G1 X75.013 Y93.469 E6.06142
G1 X74.618 Y93.503 E6.07659
G1 X72.401 Y93.603 E6.16152
G1 X72.003 Y93.605 E6.17675
G1 X69.783 Y93.531 E6.26176
G1 X69.375 Y93.501 E6.27741
G1 X66.971 Y93.226 E6.37001
G1 X66.558 Y93.162 E6.38601
G1 X65.436 Y92.939 E6.42979
G1 X65.11 Y94.999 E6.5096
G1 X64.906 Y95.827 E6.54224
G1 X64.13 Y98.128 E6.63517
G1 X63.863 Y98.771 E6.66182
G1 X63.141 Y100.219 E6.72374
G1 X62.873 Y100.691 E6.74451
G1 X61.999 Y102.056 E6.80654
G1 X61.574 Y102.627 E6.83378
G1 X59.893 Y104.583 E6.93248
G1 X59.282 Y105.182 E6.96523
G1 X57.413 Y106.731 E7.05812
G1 X56.856 Y107.133 E7.08441
G1 X55.48 Y107.989 E7.14643
G1 X54.998 Y108.254 E7.16748
G1 X53.54 Y108.955 E7.22939
G1 X52.878 Y109.218 E7.25665
G1 X50.417 Y110 E7.35548
G1 X49.584 Y110.189 E7.38817
G1 X47.178 Y110.526 E7.48114
G1 X46.496 Y110.575 E7.50731
G1 X44.878 Y110.582 E7.56923
G1 X44.183 Y110.537 E7.59588
G1 X41.776 Y110.215 E7.68882
G1 X40.951 Y110.034 E7.72114
G1 X38.485 Y109.272 E7.81992
G1 X37.818 Y109.013 E7.8473
G1 X36.353 Y108.322 E7.90929
G1 X35.867 Y108.06 E7.93042
G1 X34.486 Y107.214 E7.9924
G1 X34.03 Y106.899 E8.01361
G1 X32.749 Y105.907 E8.07562
G1 X32.337 Y105.551 E8.09645
G1 X31.17 Y104.428 E8.15843
G1 X30.791 Y104.021 E8.17972
G1 X29.754 Y102.777 E8.2417
G1 X29.413 Y102.318 E8.26358
G1 X28.438 Y100.837 E8.33144
G1 X28.148 Y100.336 E8.35359
G1 X27.418 Y98.892 E8.41551
G1 X27.15 Y98.259 E8.44182
G1 X26.357 Y95.963 E8.53478
G1 X26.152 Y95.162 E8.56642
G1 X25.743 Y92.771 E8.65926
G1 X25.672 Y92.064 E8.68645
G1 X25.62 Y90.292 E8.75429
G1 X25.636 Y89.714 E8.77642
G1 X25.773 Y88.099 E8.83845
G1 X25.877 Y87.42 E8.86474
G1 X26.407 Y85.051 E8.95764
G1 X26.655 Y84.256 E8.98951
G1 X27.566 Y82.004 E9.08248
G1 X27.864 Y81.391 E9.10856
G1 X28.666 Y79.986 E9.17048
G1 X28.98 Y79.502 E9.19256
G1 X30.028 Y78.072 E9.2604
G1 X30.491 Y77.525 E9.28783
G1 X32.188 Y75.788 E9.38076
G1 X32.699 Y75.332 E9.40697
G1 X33.976 Y74.337 E9.46893
G1 X34.43 Y74.021 E9.4901
G1 X35.399 Y73.423 E9.53367
G1 X35.339 Y73.407 E9.53605
G1 X34.155 Y72.967 E9.58439
G1 X33.502 Y72.671 E9.61183
G1 X32.389 Y72.067 E9.66029
G1 X31.78 Y71.677 E9.68797
G1 X30.767 Y70.923 E9.73629
G1 X30.225 Y70.457 E9.76365
G1 X29.326 Y69.566 E9.81209
G1 X28.854 Y69.028 E9.83948
G1 X28.091 Y68.022 E9.8878
G1 X27.693 Y67.409 E9.91577
G1 X27.082 Y66.303 E9.96412
G1 X26.722 Y65.492 E9.99808
G1 X26.109 Y63.7 E10.07056
G1 X25.941 Y63.085 E10.09496
G1 X25.869 Y62.639 E10.11225
G1 X25.652 Y60.758 E10.18471
G1 X25.629 Y59.863 E10.21898
G1 X25.707 Y58.601 E10.26737
G1 X25.802 Y57.889 E10.29486
G1 X26.057 Y56.652 E10.34319
G1 X26.28 Y55.882 E10.37387
G1 X26.826 Y54.438 E10.43295
G1 X27.212 Y53.638 E10.46694
G1 X28.038 Y52.25 E10.52876
G1 X28.397 Y51.724 E10.55313
G1 X28.638 Y51.438 E10.56744
G1 X29.91 Y50.034 E10.63994
G1 X30.493 Y49.485 E10.67059
G1 X31.205 Y48.913 E10.70554
G1 X31.707 Y48.557 E10.7291
G1 X32.78 Y47.891 E10.77743
G1 X33.416 Y47.556 E10.80494
G1 X34.573 Y47.048 E10.85329
G1 X35.251 Y46.806 E10.88084
G1 X35.401 Y46.764 E10.88681
G1 X34.426 Y46.161 E10.93068
G1 X33.868 Y45.761 E10.95695
G1 X31.994 Y44.217 E11.04988
G1 X31.494 Y43.745 E11.07619
G1 X30.395 Y42.556 E11.13815
G1 X30.033 Y42.117 E11.15993
G1 X28.983 Y40.689 E11.22776
G1 X28.598 Y40.079 E11.25537
G1 X27.452 Y37.939 E11.34827
G1 X27.123 Y37.182 E11.37986
G1 X26.339 Y34.884 E11.47278
G1 X26.133 Y34.061 E11.50525
G1 X25.718 Y31.515 E11.60397
G1 X25.653 Y30.802 E11.63137
G1 X25.62 Y29.182 E11.69338
G1 X25.652 Y28.498 E11.71958
G1 X25.93 Y26.085 E11.81254
G1 X26.094 Y25.265 E11.84454
G1 X26.764 Y22.933 E11.9374
G1 X27.053 Y22.167 E11.96873
G1 X28.09 Y19.971 E12.06167
G1 X28.166 Y19.84 E12.06747
G0 F1458 X28.513 Y19.239
G0 F4320 X28.801 Y19.439
G1 F2400 E12.09403
G1 F1620 X30.275 Y17.321 E12.19278
G1 X30.696 Y16.799 E12.21844
G1 X31.799 Y15.615 E12.28037
G1 X32.167 Y15.26 E12.29994
G1 X33.394 Y14.2 E12.36199
G1 X33.805 Y13.883 E12.38186
G1 X35.141 Y12.964 E12.44391
G1 X35.571 Y12.701 E12.4632
G1 X36.993 Y11.932 E12.52507
G1 X37.48 Y11.703 E12.54567
G1 X39.126 Y11.042 E12.61355
G1 X39.761 Y10.838 E12.63907
G1 X42.12 Y10.259 E12.73203
G1 X42.747 Y10.149 E12.75639
G1 X44.357 Y9.978 E12.81835
G1 X44.879 Y9.952 E12.83835
G1 X46.496 Y9.96 E12.90024
G1 X47.128 Y10.006 E12.92449
G1 X49.534 Y10.343 E13.01746
G1 X50.182 Y10.48 E13.04281
G1 X51.886 Y10.969 E13.11066
G1 X52.395 Y11.147 E13.13129
G1 X53.891 Y11.768 E13.19328
G1 X54.354 Y11.991 E13.21295
G1 X55.774 Y12.771 E13.27495
G1 X56.215 Y13.046 E13.29484
G1 X57.539 Y13.976 E13.35676
G1 X58.03 Y14.372 E13.3809
G1 X59.814 Y16.021 E13.47387
G1 X60.271 Y16.508 E13.49943
G1 X61.389 Y17.881 E13.56719
G1 X61.703 Y18.315 E13.58769
G1 X62.577 Y19.679 E13.64969
G1 X62.829 Y20.122 E13.66919
G1 X63.551 Y21.572 E13.73118
G1 X63.798 Y22.167 E13.75584
G1 X64.574 Y24.467 E13.84873
G1 X64.764 Y25.237 E13.87909
G1 X65.147 Y27.645 E13.9724
G1 X65.445 Y27.58 E13.98407
G1 X65.825 Y27.512 E13.99884
G1 X69.32 Y27.041 E14.13381
G1 X69.794 Y27.002 E14.15201
G1 X72.014 Y26.928 E14.23701
G1 X72.388 Y26.93 E14.25133
G1 X74.605 Y27.032 E14.33626
G1 X75.075 Y27.077 E14.35433
G1 X78.568 Y27.59 E14.48944
G1 X79.129 Y27.708 E14.51138
G1 X82.338 Y28.587 E14.63871
G1 X82.875 Y28.769 E14.66041
G1 X86.143 Y30.102 E14.79548
G1 X86.575 Y30.304 E14.81373
G1 X88.536 Y31.346 E14.89872
G1 X88.858 Y31.534 E14.91299
G1 X90.729 Y32.726 E14.99789
G1 X91.04 Y32.943 E15.0124
G1 X92.969 Y34.402 E15.10496
G1 X93.269 Y34.648 E15.11981
G1 X94.925 Y36.129 E15.20483
G1 X95.193 Y36.389 E15.21912
G1 X96.726 Y37.995 E15.30409
G1 X96.968 Y38.269 E15.31808
G1 X98.373 Y39.99 E15.4031
G1 X98.602 Y40.295 E15.4177
G1 X99.975 Y42.285 E15.51022
G1 X100.183 Y42.615 E15.52515
G1 X101.289 Y44.541 E15.61015
G1 X101.461 Y44.868 E15.62429
G1 X102.412 Y46.872 E15.70918
G1 X102.56 Y47.221 E15.72368
G1 X103.419 Y49.484 E15.81632
G1 X103.543 Y49.856 E15.83132
G1 X104.156 Y51.99 E15.9163
G1 X104.244 Y52.346 E15.93033
G1 X104.69 Y54.521 E16.0153
G1 X104.751 Y54.9 E16.02999
G1 X105.043 Y57.302 E16.12259
G1 X105.074 Y57.685 E16.1373
G1 X105.162 Y59.905 E16.22232
G1 X105.162 Y60.282 E16.23675
G1 X105.073 Y62.499 E16.32166
G1 X105.044 Y62.862 E16.3356
G1 X104.784 Y65.067 E16.42057
G1 X104.705 Y65.535 E16.43873
G1 X103.942 Y68.981 E16.5738
G1 X103.785 Y69.531 E16.59569
G1 X102.678 Y72.671 E16.72311
G1 X102.458 Y73.194 E16.74482
G1 X100.894 Y76.358 E16.8799
G1 X100.657 Y76.781 E16.89845
G1 X99.475 Y78.659 E16.98337
G1 X99.263 Y78.968 E16.99771
G1 X97.816 Y80.907 E17.09031
G1 X97.569 Y81.21 E17.10527
G1 X96.098 Y82.874 E17.19026
G1 X95.774 Y83.207 E17.20804
G1 X93.334 Y85.474 E17.33551
G1 X92.973 Y85.777 E17.35354
G1 X91.048 Y87.237 E17.446
G1 X90.73 Y87.458 E17.46082
G1 X88.854 Y88.652 E17.54593
G1 X88.536 Y88.838 E17.56002
G1 X86.579 Y89.879 E17.64486
G1 X86.146 Y90.081 E17.66314
G1 X82.877 Y91.416 E17.79828
G1 X82.336 Y91.6 E17.82014
G1 X79.126 Y92.477 E17.94749
G1 X78.749 Y92.564 E17.9623
G1 X77.46 Y92.805 E18.01248
G1 X77.173 Y92.849 E18.0236
G1 X74.97 Y93.122 E18.10855
G1 X74.602 Y93.153 E18.12268
G1 X72.385 Y93.253 E18.20761
G1 X72.015 Y93.255 E18.22177
G1 X69.795 Y93.181 E18.30678
G1 X69.415 Y93.153 E18.32136
G1 X67.011 Y92.878 E18.41396
G1 X66.627 Y92.818 E18.42884
G1 X65.147 Y92.524 E18.48658
G1 X64.764 Y94.944 E18.58035
G1 X64.574 Y95.715 E18.61074
G1 X63.798 Y98.016 E18.70367
G1 X63.55 Y98.614 E18.72845
G1 X62.828 Y100.062 E18.79037
G1 X62.578 Y100.502 E18.80973
G1 X61.704 Y101.867 E18.87176
G1 X61.308 Y102.399 E18.89714
G1 X59.627 Y104.355 E18.99585
G1 X59.059 Y104.913 E19.02632
G1 X57.19 Y106.462 E19.11922
G1 X56.671 Y106.836 E19.1437
G1 X55.295 Y107.692 E19.20572
G1 X54.846 Y107.938 E19.22531
G1 X53.388 Y108.639 E19.28722
G1 X52.772 Y108.884 E19.31259
G1 X50.311 Y109.666 E19.41141
G1 X49.535 Y109.842 E19.44187
G1 X47.129 Y110.179 E19.53484
G1 X46.494 Y110.225 E19.55921
G1 X44.876 Y110.232 E19.62113
G1 X44.229 Y110.19 E19.64594
G1 X41.822 Y109.868 E19.73888
G1 X41.054 Y109.699 E19.76897
G1 X38.588 Y108.937 E19.86775
G1 X37.967 Y108.696 E19.89324
G1 X36.502 Y108.005 E19.95523
G1 X36.05 Y107.761 E19.97489
G1 X34.669 Y106.915 E20.03687
G1 X34.244 Y106.622 E20.05662
G1 X32.963 Y105.63 E20.11863
G1 X32.58 Y105.299 E20.138
G1 X31.413 Y104.176 E20.19998
G1 X31.06 Y103.796 E20.21983
G1 X30.023 Y102.552 E20.28181
G1 X29.705 Y102.125 E20.30219
G1 X28.73 Y100.644 E20.37004
G1 X28.46 Y100.178 E20.39065
G1 X27.73 Y98.734 E20.45258
G1 X27.481 Y98.145 E20.47705
G1 X26.688 Y95.849 E20.57001
G1 X26.497 Y95.103 E20.59948
G1 X26.088 Y92.712 E20.69231
G1 X26.022 Y92.054 E20.71762
G1 X25.97 Y90.282 E20.78546
G1 X25.985 Y89.744 E20.80606
G1 X26.122 Y88.129 E20.86809
G1 X26.219 Y87.496 E20.8926
G1 X26.749 Y85.127 E20.9855
G1 X26.98 Y84.387 E21.01517
G1 X27.891 Y82.135 E21.10814
G1 X28.167 Y81.565 E21.13237
G1 X28.969 Y80.16 E21.19428
G1 X29.262 Y79.709 E21.21487
G1 X30.31 Y78.279 E21.28272
G1 X30.741 Y77.77 E21.30824
G1 X32.438 Y76.033 E21.40117
G1 X32.914 Y75.608 E21.42559
G1 X34.191 Y74.613 E21.48755
G1 X34.614 Y74.319 E21.50726
G1 X35.993 Y73.468 E21.56928
G1 X36.292 Y73.305 E21.58231
G1 X36.272 Y73.301 E21.58309
G1 X35.461 Y73.079 E21.61527
G1 X34.277 Y72.639 E21.66361
G1 X33.669 Y72.363 E21.68916
G1 X32.556 Y71.759 E21.73762
G1 X31.989 Y71.396 E21.76339
G1 X30.976 Y70.642 E21.81172
G1 X30.471 Y70.208 E21.8372
G1 X29.572 Y69.317 E21.88564
G1 X29.133 Y68.816 E21.91113
G1 X28.37 Y67.81 E21.95945
G1 X27.999 Y67.24 E21.98548
G1 X27.388 Y66.134 E22.03384
G1 X27.053 Y65.378 E22.06548
G1 X26.44 Y63.586 E22.13796
G1 X26.28 Y62.993 E22.16147
G1 X26.217 Y62.599 E22.17674
G1 X26 Y60.718 E22.2492
G1 X25.978 Y59.885 E22.28109
G1 X26.056 Y58.623 E22.32948
G1 X26.144 Y57.96 E22.35508
G1 X26.399 Y56.723 E22.40341
G1 X26.607 Y56.006 E22.43198
G1 X27.153 Y54.562 E22.49106
G1 X27.513 Y53.817 E22.52273
G1 X28.339 Y52.429 E22.58454
G1 X28.687 Y51.922 E22.60807
G1 X28.897 Y51.673 E22.62054
G1 X30.169 Y50.269 E22.69304
G1 X30.712 Y49.757 E22.7216
G1 X31.424 Y49.185 E22.75656
G1 X31.891 Y48.854 E22.77846
G1 X32.964 Y48.188 E22.82679
G1 X33.556 Y47.877 E22.85238
G1 X34.713 Y47.369 E22.90074
G1 X35.345 Y47.143 E22.92643
G1 X36.29 Y46.88 E22.96397
G1 X35.988 Y46.715 E22.97714
G1 X34.61 Y45.863 E23.03914
G1 X34.09 Y45.491 E23.06361
G1 X32.216 Y43.947 E23.15653
G1 X31.751 Y43.507 E23.18103
G1 X30.652 Y42.318 E23.243
G1 X30.315 Y41.91 E23.26325
G1 X29.265 Y40.482 E23.33108
G1 X28.907 Y39.914 E23.35678
G1 X27.761 Y37.774 E23.44968
G1 X27.454 Y37.069 E23.4791
G1 X26.67 Y34.771 E23.57203
G1 X26.479 Y34.005 E23.60224
G1 X26.064 Y31.459 E23.70096
G1 X26.003 Y30.795 E23.72648
G1 X25.97 Y29.175 E23.78849
G1 X26 Y28.538 E23.81289
G1 X26.278 Y26.125 E23.90585
G1 X26.431 Y25.361 E23.93567
G1 X27.101 Y23.029 E24.02852
G1 X27.369 Y22.316 E24.05767
G1 X28.406 Y20.12 E24.15061
G1 X28.453 Y20.039 E24.1542
G0 F1458 X28.801 Y19.439
G0 F4320 X29.088 Y19.639
G1 F2400 E24.18076
G1 F1620 X30.562 Y17.521 E24.27951
G1 X30.952 Y17.038 E24.30327
G1 X32.055 Y15.854 E24.3652
G1 X32.396 Y15.525 E24.38333
G1 X33.623 Y14.465 E24.44538
G1 X34.004 Y14.171 E24.4638
G1 X35.34 Y13.252 E24.52586
G1 X35.738 Y13.009 E24.5437
G1 X37.16 Y12.24 E24.60557
G1 X37.611 Y12.028 E24.62464
G1 X39.257 Y11.367 E24.69252
G1 X39.844 Y11.178 E24.71612
G1 X42.203 Y10.599 E24.80908
G1 X42.784 Y10.497 E24.83166
G1 X44.394 Y10.326 E24.89362
G1 X44.878 Y10.302 E24.91216
G1 X46.495 Y10.31 E24.97405
G1 X47.08 Y10.352 E24.99649
G1 X49.486 Y10.689 E25.08947
G1 X50.086 Y10.817 E25.11295
G1 X51.79 Y11.306 E25.18079
G1 X52.26 Y11.47 E25.19984
G1 X53.756 Y12.091 E25.26183
G1 X54.185 Y12.297 E25.28004
G1 X55.605 Y13.077 E25.34205
G1 X56.014 Y13.332 E25.36049
G1 X57.338 Y14.262 E25.42241
G1 X57.793 Y14.629 E25.44478
G1 X59.577 Y16.278 E25.53775
G1 X60 Y16.729 E25.56142
G1 X61.118 Y18.102 E25.62918
G1 X61.409 Y18.504 E25.64817
G1 X62.283 Y19.868 E25.71017
G1 X62.515 Y20.278 E25.7282
G1 X63.237 Y21.728 E25.79019
G1 X63.466 Y22.279 E25.81302
G1 X64.242 Y24.579 E25.90592
G1 X64.418 Y25.292 E25.93402
G1 X64.823 Y27.842 E26.03283
G1 X64.843 Y28.069 E26.04156
G1 X65.519 Y27.921 E26.06804
G1 X65.872 Y27.859 E26.08175
G1 X69.367 Y27.388 E26.21672
G1 X69.805 Y27.351 E26.23354
G1 X72.025 Y27.277 E26.31855
G1 X72.372 Y27.28 E26.33183
G1 X74.589 Y27.382 E26.41676
G1 X75.024 Y27.423 E26.43348
G1 X78.517 Y27.936 E26.56859
