;FLAVOR:Marlin
;TIME:19817
;Filament used: 26.9706m
;Layer height: 0.2625
;Generated with Cura_SteamEngine 3.6.0
M140 S60
M105
M190 S60
M104 S210
M105
M109 S210
M82 ;absolute extrusion mode
G21;(metric values)
G90;(absolute positioning)
M82;(set extruder to absolute mode)
M107;(start with the fan off)
G28;(Home the printer)
G92 E0;(Reset the extruder to 0)
G0 Z5 E5 F500;(Move up and prime the nozzle)
G0 X-1 Z0;(Move outside the printable area)
G1 Y60 E8 F500;(Draw a priming/wiping line to the rear)
G1 X-1;(Move a little closer to the print area)
G1 Y10 E16 F500;(draw more priming/wiping)
G1 E15 F250;(Small retract)
G92 E0;(Zero the extruder)
G92 E0
G1 F2400 E-2.5
;LAYER_COUNT:445
;LAYER:0
M107
G0 F4320 X15.52 Y48.222 Z0.263
;TYPE:SKIRT
G1 F2400 E0
G1 F1620 X16.147 Y48.108 E0.02439
G1 X16.783 Y48.073 E0.04877
G1 X17.418 Y48.118 E0.07313
G1 X18.043 Y48.243 E0.09752
G1 X18.647 Y48.444 E0.12188
G1 X19.221 Y48.72 E0.14626
G1 X19.756 Y49.065 E0.17062
G1 X20.424 Y49.655 E0.20473
G1 X20.572 Y49.811 E0.21296
G1 X29.319 Y49.811 E0.5477
G1 X29.531 Y49.591 E0.5594
G1 X32.241 Y46.151 E0.72699
G1 X34.177 Y43.347 E0.85739
G1 X34.571 Y42.847 E0.88175
G1 X35.025 Y42.4 E0.90613
G1 X35.531 Y42.013 E0.93051
G1 X36.081 Y41.693 E0.95487
G1 X36.667 Y41.444 E0.97923
G1 X37.28 Y41.271 E1.00361
G1 X37.91 Y41.175 E1.028
G1 X38.353 Y41.156 E1.04497
G1 X46.516 Y41.156 E1.35736
G1 X47.152 Y41.196 E1.38175
G1 X47.777 Y41.315 E1.4061
G1 X48.383 Y41.512 E1.43049
G1 X48.955 Y41.781 E1.45468
G1 X49.215 Y41.638 E1.46603
G1 X49.808 Y41.404 E1.49043
G1 X50.424 Y41.246 E1.51477
G1 X51.374 Y41.156 E1.55129
G1 X69.536 Y41.156 E2.24634
G1 X70.172 Y41.196 E2.27073
G1 X70.797 Y41.315 E2.29508
G1 X71.403 Y41.512 E2.31947
G1 X71.976 Y41.782 E2.34371
G1 X72.235 Y41.639 E2.35503
G1 X72.828 Y41.405 E2.37943
G1 X73.444 Y41.247 E2.40376
G1 X74.394 Y41.157 E2.44028
G1 X92.136 Y41.156 E3.11927
G1 X92.771 Y41.196 E3.14362
G1 X93.397 Y41.315 E3.168
G1 X94.003 Y41.512 E3.19239
G1 X94.579 Y41.783 E3.21675
G1 X95.085 Y42.1 E3.2396
G1 X108.862 Y51.935 E3.88741
G1 X109.356 Y52.337 E3.91178
G1 X109.796 Y52.798 E3.93617
G1 X110.174 Y53.31 E3.96053
G1 X110.486 Y53.865 E3.98489
G1 X110.726 Y54.455 E4.00927
G1 X110.889 Y55.071 E4.03365
G1 X110.975 Y55.702 E4.05803
G1 X110.988 Y56.066 E4.07197
G1 X110.988 Y63.934 E4.37307
G1 X110.948 Y64.57 E4.39746
G1 X110.829 Y65.195 E4.42181
G1 X110.632 Y65.801 E4.4462
G1 X110.361 Y66.377 E4.47056
G1 X110.02 Y66.915 E4.49493
G1 X109.614 Y67.406 E4.51932
G1 X109.15 Y67.842 E4.54368
G1 X108.862 Y68.064 E4.5576
G1 X95.085 Y77.9 E5.20543
G1 X94.544 Y78.237 E5.22982
G1 X93.966 Y78.504 E5.25419
G1 X93.359 Y78.696 E5.27855
G1 X92.732 Y78.81 E5.30294
G1 X92.136 Y78.845 E5.32579
G1 X74.395 Y78.845 E6.00473
G1 X73.759 Y78.805 E6.02912
G1 X73.134 Y78.686 E6.05347
G1 X72.528 Y78.489 E6.07786
G1 X71.954 Y78.219 E6.10213
G1 X71.704 Y78.357 E6.11306
G1 X71.113 Y78.592 E6.1374
G1 X70.496 Y78.752 E6.16179
G1 X69.864 Y78.832 E6.18617
G1 X69.538 Y78.843 E6.19866
G1 X51.375 Y78.845 E6.89375
G1 X50.739 Y78.805 E6.91814
G1 X50.113 Y78.686 E6.94253
G1 X49.508 Y78.489 E6.96688
G1 X48.934 Y78.219 E6.99115
G1 X48.682 Y78.358 E7.00217
G1 X48.09 Y78.593 E7.02654
G1 X47.473 Y78.752 E7.05093
G1 X46.841 Y78.833 E7.07531
G1 X46.518 Y78.843 E7.08768
G1 X38.355 Y78.845 E7.40008
G1 X37.72 Y78.805 E7.42443
G1 X37.094 Y78.686 E7.44881
G1 X36.488 Y78.49 E7.47319
G1 X35.912 Y78.219 E7.49755
G1 X35.374 Y77.878 E7.52192
G1 X34.883 Y77.472 E7.54631
G1 X34.446 Y77.008 E7.5707
G1 X34.179 Y76.655 E7.58764
G1 X32.244 Y73.854 E7.71792
G1 X29.529 Y70.407 E7.88585
G1 X29.32 Y70.189 E7.8974
G1 X20.573 Y70.19 E8.23215
G1 X20.425 Y70.346 E8.24038
G1 X19.958 Y70.78 E8.26478
G1 X19.441 Y71.152 E8.28915
G1 X18.882 Y71.456 E8.3135
G1 X18.289 Y71.688 E8.33787
G1 X17.671 Y71.843 E8.36226
G1 X17.039 Y71.92 E8.38662
G1 X16.402 Y71.918 E8.411
G1 X15.77 Y71.835 E8.43539
G1 X15.154 Y71.674 E8.45976
G1 X14.563 Y71.437 E8.48413
G1 X13.793 Y70.984 E8.51832
G1 X9.703 Y68.064 E8.71064
G1 X9.209 Y67.663 E8.73499
G1 X8.769 Y67.202 E8.75938
G1 X8.39 Y66.69 E8.78376
G1 X8.079 Y66.135 E8.8081
G1 X7.839 Y65.544 E8.83251
G1 X7.675 Y64.929 E8.85687
G1 X7.59 Y64.298 E8.88124
G1 X7.577 Y63.933 E8.89522
G1 X7.578 Y56.065 E9.19633
G1 X7.618 Y55.43 E9.22067
G1 X7.737 Y54.804 E9.24506
G1 X7.934 Y54.198 E9.26945
G1 X8.205 Y53.622 E9.29381
G1 X8.546 Y53.084 E9.31818
G1 X8.952 Y52.593 E9.34257
G1 X9.416 Y52.157 E9.36693
G1 X9.705 Y51.935 E9.38088
G1 X13.794 Y49.017 E9.57313
G1 X14.335 Y48.68 E9.59752
G1 X14.861 Y48.438 E9.61968
G0 F1458 X14.913 Y48.414
G0 X15.52 Y48.222
G0 F4320 X15.668 Y48.547
G1 F2400 E9.64624
G1 F1620 X16.274 Y48.446 E9.66975
G1 X16.888 Y48.425 E9.69326
G1 X17.5 Y48.484 E9.71679
G1 X18.099 Y48.622 E9.74031
G1 X18.674 Y48.836 E9.76379
G1 X19.218 Y49.123 E9.78733
G1 X19.719 Y49.479 E9.81085
G1 X20.17 Y49.896 E9.83436
G1 X20.421 Y50.161 E9.84833
G1 X29.468 Y50.161 E10.19456
G1 X29.793 Y49.824 E10.21247
G1 X32.526 Y46.354 E10.38151
G1 X34.465 Y43.546 E10.51211
G1 X34.846 Y43.064 E10.53562
G1 X35.287 Y42.636 E10.55914
G1 X35.779 Y42.268 E10.58265
G1 X36.315 Y41.968 E10.60616
G1 X36.886 Y41.74 E10.62969
G1 X37.481 Y41.587 E10.6532
G1 X38.353 Y41.506 E10.68671
G1 X46.516 Y41.506 E10.99911
G1 X47.129 Y41.546 E11.02262
G1 X47.732 Y41.665 E11.04614
G1 X48.314 Y41.862 E11.06966
G1 X48.866 Y42.132 E11.09317
G1 X48.943 Y42.183 E11.09671
G1 X48.992 Y42.15 E11.09897
G1 X49.542 Y41.876 E11.12248
G1 X50.122 Y41.675 E11.14598
G1 X50.724 Y41.551 E11.1695
G1 X51.374 Y41.506 E11.19443
G1 X69.536 Y41.506 E11.88949
G1 X70.149 Y41.546 E11.913
G1 X70.752 Y41.665 E11.93652
G1 X71.334 Y41.862 E11.96004
G1 X71.886 Y42.132 E11.98355
G1 X71.964 Y42.184 E11.98714
G1 X72.012 Y42.151 E11.98937
G1 X72.562 Y41.877 E12.01289
G1 X73.142 Y41.676 E12.03638
G1 X73.744 Y41.552 E12.0599
G1 X74.394 Y41.507 E12.08484
G1 X92.136 Y41.506 E12.76382
G1 X92.749 Y41.546 E12.78733
G1 X93.352 Y41.665 E12.81085
G1 X93.934 Y41.861 E12.83435
G1 X94.486 Y42.132 E12.85789
G1 X94.881 Y42.385 E12.87584
G1 X108.658 Y52.22 E13.52365
G1 X109.134 Y52.609 E13.54717
G1 X109.556 Y53.056 E13.5707
G1 X109.915 Y53.555 E13.59422
G1 X110.207 Y54.095 E13.61772
G1 X110.427 Y54.669 E13.64124
G1 X110.57 Y55.267 E13.66477
G1 X110.638 Y56.066 E13.69546
G1 X110.638 Y63.934 E13.99657
G1 X110.598 Y64.547 E14.02008
G1 X110.479 Y65.15 E14.0436
G1 X110.282 Y65.732 E14.06711
G1 X110.012 Y66.284 E14.09063
G1 X109.672 Y66.796 E14.11415
G1 X109.269 Y67.26 E14.13767
G1 X108.658 Y67.78 E14.16838
G1 X94.881 Y77.616 E14.81621
G1 X94.359 Y77.939 E14.8397
G1 X93.799 Y78.193 E14.86323
G1 X93.211 Y78.371 E14.88674
G1 X92.605 Y78.472 E14.91025
G1 X92.136 Y78.495 E14.92822
G1 X74.395 Y78.495 E15.60717
G1 X73.782 Y78.455 E15.63068
G1 X73.179 Y78.336 E15.6542
G1 X72.597 Y78.139 E15.67772
G1 X72.045 Y77.869 E15.70123
G1 X71.967 Y77.817 E15.70482
G1 X71.927 Y77.844 E15.70667
G1 X71.378 Y78.12 E15.73018
G1 X70.797 Y78.322 E15.75372
G1 X70.196 Y78.447 E15.77722
G1 X69.538 Y78.493 E15.80246
G1 X51.375 Y78.495 E16.49756
G1 X50.761 Y78.455 E16.5211
G1 X50.158 Y78.336 E16.54462
G1 X49.576 Y78.14 E16.56813
G1 X49.024 Y77.869 E16.59166
G1 X48.946 Y77.817 E16.59525
G1 X48.904 Y77.846 E16.5972
G1 X48.355 Y78.121 E16.6207
G1 X47.774 Y78.323 E16.64424
G1 X47.173 Y78.447 E16.66773
G1 X46.518 Y78.493 E16.69285
G1 X38.355 Y78.495 E17.00525
G1 X37.742 Y78.455 E17.02876
G1 X37.139 Y78.336 E17.05228
G1 X36.557 Y78.14 E17.07578
G1 X36.005 Y77.87 E17.0993
G1 X35.493 Y77.53 E17.12282
G1 X35.029 Y77.127 E17.14634
G1 X34.467 Y76.456 E17.17984
G1 X32.529 Y73.651 E17.31032
G1 X29.791 Y70.174 E17.47968
G1 X29.469 Y69.839 E17.49747
G1 X20.422 Y69.84 E17.84369
G1 X20.171 Y70.105 E17.85766
G1 X19.72 Y70.523 E17.8812
G1 X19.218 Y70.878 E17.90473
G1 X18.675 Y71.165 E17.92823
G1 X18.099 Y71.38 E17.95176
G1 X17.501 Y71.518 E17.97525
G1 X16.889 Y71.577 E17.99878
G1 X16.275 Y71.556 E18.02229
G1 X15.669 Y71.455 E18.0458
G1 X15.08 Y71.277 E18.06935
G1 X14.52 Y71.024 E18.09286
G1 X13.997 Y70.7 E18.11641
G1 X9.907 Y67.78 E18.30873
G1 X9.431 Y67.391 E18.33226
G1 X9.009 Y66.943 E18.35581
G1 X8.65 Y66.445 E18.3793
G1 X8.358 Y65.905 E18.4028
G1 X8.138 Y65.331 E18.42632
G1 X7.995 Y64.733 E18.44985
G1 X7.927 Y63.933 E18.48058
G1 X7.928 Y56.065 E18.78169
G1 X7.968 Y55.452 E18.8052
G1 X8.087 Y54.849 E18.82872
G1 X8.284 Y54.267 E18.85223
G1 X8.554 Y53.715 E18.87575
G1 X8.894 Y53.203 E18.89927
G1 X9.297 Y52.74 E18.92276
G1 X9.908 Y52.22 E18.95347
G1 X13.997 Y49.302 E19.14571
G1 X14.52 Y48.978 E19.16926
G1 X15.008 Y48.757 E19.18976
G0 F1458 X15.08 Y48.725
G0 X15.668 Y48.547
G0 F4320 X15.813 Y48.873
G1 F2400 E19.21632
G1 F1620 X16.398 Y48.787 E19.23895
G1 X16.989 Y48.78 E19.26157
G1 X17.576 Y48.853 E19.2842
G1 X18.147 Y49.005 E19.30682
G1 X18.693 Y49.232 E19.32945
G1 X19.203 Y49.531 E19.35207
G1 X19.668 Y49.896 E19.37469
G1 X19.916 Y50.137 E19.38793
G1 X20.271 Y50.511 E19.40766
G1 X29.618 Y50.511 E19.76537
G1 X30.059 Y50.052 E19.78973
G1 X32.806 Y46.565 E19.95961
G1 X34.753 Y43.745 E20.09076
G1 X35.121 Y43.282 E20.11339
G1 X35.548 Y42.873 E20.13602
G1 X36.026 Y42.526 E20.15862
G1 X36.547 Y42.246 E20.18126
G1 X37.101 Y42.039 E20.20389
G1 X37.678 Y41.908 E20.22654
G1 X38.353 Y41.856 E20.25245
G1 X46.516 Y41.856 E20.56484
G1 X47.106 Y41.896 E20.58747
G1 X47.685 Y42.015 E20.6101
G1 X48.243 Y42.211 E20.63273
G1 X48.769 Y42.481 E20.65536
G1 X48.943 Y42.602 E20.66347
G1 X49.325 Y42.366 E20.68065
G1 X49.864 Y42.125 E20.70325
G1 X50.432 Y41.959 E20.72589
G1 X51.017 Y41.871 E20.74853
G1 X51.374 Y41.856 E20.76221
G1 X69.536 Y41.856 E21.45727
G1 X70.126 Y41.896 E21.4799
G1 X70.705 Y42.015 E21.50252
G1 X71.263 Y42.211 E21.52515
G1 X71.789 Y42.481 E21.54778
G1 X71.964 Y42.603 E21.55594
G1 X72.345 Y42.367 E21.5731
G1 X72.884 Y42.126 E21.59569
G1 X73.452 Y41.96 E21.61834
G1 X74.037 Y41.872 E21.64098
G1 X74.394 Y41.857 E21.65465
G1 X92.136 Y41.856 E22.33364
G1 X92.726 Y41.896 E22.35627
G1 X93.305 Y42.015 E22.37889
G1 X93.863 Y42.211 E22.40152
G1 X94.389 Y42.481 E22.42415
G1 X94.678 Y42.67 E22.43737
G1 X108.455 Y52.505 E23.08517
G1 X108.912 Y52.88 E23.1078
G1 X109.314 Y53.314 E23.13044
G1 X109.654 Y53.798 E23.15307
G1 X109.926 Y54.323 E23.1757
G1 X110.124 Y54.88 E23.19832
G1 X110.246 Y55.458 E23.22093
G1 X110.288 Y56.066 E23.24425
G1 X110.288 Y63.934 E23.54536
G1 X110.248 Y64.524 E23.56799
G1 X110.129 Y65.103 E23.59061
G1 X109.933 Y65.661 E23.61325
G1 X109.663 Y66.187 E23.63587
G1 X109.325 Y66.672 E23.6585
G1 X108.925 Y67.107 E23.68111
G1 X108.455 Y67.495 E23.70444
G1 X94.678 Y77.331 E24.35227
G1 X94.175 Y77.641 E24.37488
G1 X93.634 Y77.88 E24.39751
G1 X93.066 Y78.045 E24.42015
G1 X92.481 Y78.131 E24.44278
G1 X92.136 Y78.145 E24.45599
G1 X74.395 Y78.145 E25.13494
G1 X73.805 Y78.105 E25.15757
G1 X73.226 Y77.986 E25.18019
G1 X72.668 Y77.79 E25.20282
G1 X72.142 Y77.52 E25.22545
G1 X71.966 Y77.398 E25.23365
G1 X71.594 Y77.629 E25.25041
G1 X71.054 Y77.871 E25.27305
G1 X70.487 Y78.039 E25.29568
G1 X69.903 Y78.128 E25.31829
G1 X69.537 Y78.143 E25.33231
G1 X51.374 Y78.145 E26.02741
G1 X50.785 Y78.105 E26.05
G1 X50.205 Y77.986 E26.07266
G1 X49.648 Y77.79 E26.09526
G1 X49.121 Y77.52 E26.11792
G1 X48.945 Y77.398 E26.12611
G1 X48.571 Y77.631 E26.14298
G1 X48.032 Y77.872 E26.16557
G1 X47.464 Y78.039 E26.18823
G1 X46.88 Y78.128 E26.21084
G1 X46.518 Y78.143 E26.2247
G1 X38.355 Y78.145 E26.5371
G1 X37.765 Y78.105 E26.55973
G1 X37.186 Y77.986 E26.58235
G1 X36.628 Y77.79 E26.60499
G1 X36.102 Y77.521 E26.6276
G1 X35.617 Y77.183 E26.65022
G1 X35.181 Y76.783 E26.67286
G1 X34.754 Y76.257 E26.69879
G1 X32.8 Y73.429 E26.83034
G1 X30.056 Y69.945 E27.00006
G1 X29.618 Y69.489 E27.02426
G1 X20.272 Y69.49 E27.38193
G1 X19.917 Y69.864 E27.40166
G1 X19.482 Y70.265 E27.4243
G1 X18.997 Y70.603 E27.44693
G1 X18.471 Y70.873 E27.46956
G1 X17.913 Y71.069 E27.49219
G1 X17.334 Y71.189 E27.51482
G1 X16.744 Y71.229 E27.53745
G1 X16.154 Y71.189 E27.56008
G1 X15.575 Y71.07 E27.5827
G1 X15.017 Y70.875 E27.60532
G1 X14.491 Y70.605 E27.62795
G1 X14.2 Y70.415 E27.64125
G1 X10.11 Y67.495 E27.83357
G1 X9.653 Y67.119 E27.85622
G1 X9.251 Y66.686 E27.87883
G1 X8.911 Y66.202 E27.90147
G1 X8.639 Y65.677 E27.9241
G1 X8.441 Y65.12 E27.94672
G1 X8.319 Y64.541 E27.96936
G1 X8.277 Y63.933 E27.99269
G1 X8.278 Y56.065 E28.29379
G1 X8.318 Y55.476 E28.31639
G1 X8.437 Y54.896 E28.33905
G1 X8.633 Y54.339 E28.36164
G1 X8.903 Y53.812 E28.38431
G1 X9.241 Y53.327 E28.40693
G1 X9.642 Y52.892 E28.42957
G1 X10.112 Y52.505 E28.45287
G1 X14.201 Y49.587 E28.64512
G1 X14.704 Y49.277 E28.66773
G1 X15.151 Y49.078 E28.68645
G0 F1458 X15.245 Y49.037
G0 X15.813 Y48.873
G0 F4320 X15.955 Y49.201
G1 F2400 E28.71301
G1 F1620 X16.518 Y49.129 E28.73473
G1 X17.085 Y49.138 E28.75644
G1 X17.645 Y49.226 E28.77813
G1 X18.187 Y49.391 E28.79981
G1 X18.701 Y49.632 E28.82154
G1 X19.176 Y49.942 E28.84324
G1 X19.662 Y50.378 E28.86823
G1 X20.12 Y50.861 E28.8937
G1 X29.767 Y50.861 E29.26289
G1 X30.32 Y50.285 E29.29345
G1 X33.091 Y46.768 E29.46481
G1 X35.041 Y43.944 E29.59614
G1 X35.395 Y43.501 E29.61784
G1 X35.808 Y43.113 E29.63953
G1 X36.272 Y42.786 E29.66125
G1 X36.777 Y42.528 E29.68296
G1 X37.313 Y42.343 E29.70466
G1 X37.87 Y42.235 E29.72637
G1 X38.353 Y42.206 E29.74489
G1 X46.516 Y42.206 E30.05728
G1 X47.082 Y42.246 E30.079
G1 X47.636 Y42.365 E30.10068
G1 X48.168 Y42.561 E30.12238
G1 X48.668 Y42.829 E30.14409
G1 X48.945 Y43.034 E30.15728
G1 X49.16 Y42.87 E30.16763
G1 X49.654 Y42.592 E30.18932
G1 X50.183 Y42.386 E30.21105
G1 X50.735 Y42.257 E30.23274
G1 X51.374 Y42.206 E30.25727
G1 X69.536 Y42.206 E30.95233
G1 X70.102 Y42.246 E30.97405
G1 X70.656 Y42.365 E30.99573
G1 X71.188 Y42.561 E31.01743
G1 X71.688 Y42.829 E31.03914
G1 X71.966 Y43.035 E31.05238
G1 X72.18 Y42.871 E31.0627
G1 X72.674 Y42.593 E31.08439
G1 X73.203 Y42.387 E31.10612
G1 X73.755 Y42.258 E31.12781
G1 X74.394 Y42.207 E31.15235
G1 X92.136 Y42.206 E31.83133
G1 X92.701 Y42.246 E31.85301
G1 X93.256 Y42.365 E31.87473
G1 X93.788 Y42.561 E31.89643
G1 X94.475 Y42.955 E31.92674
G1 X108.252 Y52.79 E32.57454
G1 X108.689 Y53.151 E32.59623
G1 X109.071 Y53.57 E32.61793
G1 X109.39 Y54.039 E32.63964
G1 X109.641 Y54.548 E32.66136
G1 X109.817 Y55.087 E32.68306
G1 X109.916 Y55.645 E32.70475
G1 X109.938 Y56.066 E32.72088
G1 X109.938 Y63.934 E33.02199
G1 X109.898 Y64.5 E33.0437
G1 X109.779 Y65.054 E33.06539
G1 X109.583 Y65.586 E33.08709
G1 X109.315 Y66.086 E33.1088
G1 X108.978 Y66.542 E33.1305
G1 X108.581 Y66.947 E33.1522
G1 X108.252 Y67.21 E33.16832
G1 X94.475 Y77.046 E33.81615
G1 X93.991 Y77.342 E33.83786
G1 X93.471 Y77.567 E33.85954
G1 X92.924 Y77.717 E33.88125
G1 X92.136 Y77.795 E33.91155
G1 X74.395 Y77.795 E34.5905
G1 X73.829 Y77.755 E34.61222
G1 X73.275 Y77.636 E34.6339
G1 X72.743 Y77.44 E34.6556
G1 X72.243 Y77.172 E34.67731
G1 X71.964 Y76.966 E34.69058
G1 X71.757 Y77.125 E34.70057
G1 X71.264 Y77.404 E34.72225
G1 X70.735 Y77.61 E34.74397
G1 X70.184 Y77.741 E34.76565
G1 X69.537 Y77.793 E34.79049
G1 X51.374 Y77.795 E35.48559
G1 X50.809 Y77.755 E35.50726
G1 X50.254 Y77.636 E35.52899
G1 X49.722 Y77.44 E35.55068
G1 X49.223 Y77.172 E35.57236
G1 X48.944 Y76.967 E35.58561
G1 X48.735 Y77.127 E35.59568
G1 X48.241 Y77.405 E35.61738
G1 X47.713 Y77.611 E35.63907
G1 X47.161 Y77.741 E35.66077
G1 X46.518 Y77.793 E35.68546
G1 X38.355 Y77.795 E35.99785
G1 X37.789 Y77.755 E36.01957
G1 X37.235 Y77.636 E36.04125
G1 X36.703 Y77.441 E36.06294
G1 X36.203 Y77.172 E36.08467
G1 X35.746 Y76.836 E36.10637
G1 X35.341 Y76.439 E36.12808
G1 X35.042 Y76.058 E36.14661
G1 X33.08 Y73.218 E36.27871
G1 X30.322 Y69.717 E36.44928
G1 X29.767 Y69.139 E36.47994
G1 X20.122 Y69.14 E36.84906
G1 X19.663 Y69.624 E36.87459
G1 X19.244 Y70.007 E36.89631
G1 X18.777 Y70.327 E36.91798
G1 X18.268 Y70.578 E36.93969
G1 X17.73 Y70.756 E36.96138
G1 X17.171 Y70.856 E36.98311
G1 X16.605 Y70.877 E37.00479
G1 X16.041 Y70.817 E37.0265
G1 X15.491 Y70.68 E37.04819
G1 X14.965 Y70.466 E37.06992
G1 X14.403 Y70.13 E37.09498
G1 X10.313 Y67.21 E37.2873
G1 X9.876 Y66.849 E37.30899
G1 X9.494 Y66.43 E37.33069
G1 X9.175 Y65.961 E37.3524
G1 X8.924 Y65.452 E37.37412
G1 X8.748 Y64.913 E37.39582
G1 X8.649 Y64.355 E37.4175
G1 X8.627 Y63.933 E37.43368
