;FLAVOR:Marlin
;TIME:19770
;Filament used: 26.3204m
;Layer height: 0.2625
;Generated with Cura_SteamEngine 3.6.0
M140 S60
M105
M190 S60
M104 S210
M105
M109 S210
M82 ;absolute extrusion mode
G21;(metric values)
G90;(absolute positioning)
M82;(set extruder to absolute mode)
M107;(start with the fan off)
G28;(Home the printer)
G92 E0;(Reset the extruder to 0)
G0 Z5 E5 F500;(Move up and prime the nozzle)
G0 X-1 Z0;(Move outside the printable area)
G1 Y60 E8 F500;(Draw a priming/wiping line to the rear)
G1 X-1;(Move a little closer to the print area)
G1 Y10 E16 F500;(draw more priming/wiping)
G1 E15 F250;(Small retract)
G92 E0;(Zero the extruder)
G92 E0
G1 F2400 E-2.5
;LAYER_COUNT:445
;LAYER:0
M107
G0 F4320 X14.573 Y48.463 Z0.263
;TYPE:SKIRT
G1 F2400 E0
G1 F1620 X15.186 Y48.291 E0.02437
G1 X15.816 Y48.197 E0.04874
G1 X16.453 Y48.182 E0.07313
G1 X17.086 Y48.247 E0.09748
G1 X17.707 Y48.392 E0.12188
G1 X18.304 Y48.612 E0.14623
G1 X18.869 Y48.906 E0.17061
G1 X19.393 Y49.268 E0.19498
G1 X19.972 Y49.811 E0.22536
G1 X29.892 Y49.811 E0.605
G1 X31.938 Y47.195 E0.73209
G1 X34.573 Y43.358 E0.91023
G1 X34.966 Y42.857 E0.9346
G1 X35.418 Y42.409 E0.95895
G1 X35.923 Y42.021 E0.98332
G1 X36.473 Y41.699 E1.00771
G1 X37.059 Y41.449 E1.0321
G1 X37.671 Y41.274 E1.05646
G1 X38.301 Y41.177 E1.08085
G1 X38.757 Y41.156 E1.09832
G1 X46.524 Y41.156 E1.39556
G1 X47.16 Y41.196 E1.41995
G1 X47.785 Y41.315 E1.4443
G1 X48.391 Y41.512 E1.46868
G1 X48.855 Y41.731 E1.48832
G1 X49.026 Y41.637 E1.49579
G1 X49.619 Y41.403 E1.52019
G1 X50.236 Y41.245 E1.54456
G1 X51.182 Y41.156 E1.58092
G1 X68.493 Y41.156 E2.24341
G1 X69.129 Y41.196 E2.2678
G1 X69.754 Y41.315 E2.29215
G1 X70.36 Y41.512 E2.31654
G1 X70.825 Y41.731 E2.33621
G1 X70.989 Y41.641 E2.34337
G1 X71.581 Y41.407 E2.36773
G1 X72.198 Y41.248 E2.39211
G1 X72.83 Y41.168 E2.41649
G1 X73.151 Y41.158 E2.42878
G1 X94.283 Y41.156 E3.2375
G1 X94.918 Y41.196 E3.26185
G1 X95.544 Y41.315 E3.28624
G1 X96.15 Y41.512 E3.31062
G1 X96.726 Y41.783 E3.33499
G1 X97.264 Y42.124 E3.35936
G1 X97.618 Y42.405 E3.37666
G1 X108.902 Y52.24 E3.9495
G1 X109.354 Y52.688 E3.97386
G1 X109.748 Y53.189 E3.99825
G1 X110.075 Y53.735 E4.02261
G1 X110.332 Y54.318 E4.04699
G1 X110.513 Y54.929 E4.07138
G1 X110.616 Y55.557 E4.09573
G1 X110.642 Y56.066 E4.11524
G1 X110.642 Y63.934 E4.41634
G1 X110.602 Y64.57 E4.44073
G1 X110.483 Y65.195 E4.46508
G1 X110.286 Y65.801 E4.48947
G1 X110.015 Y66.377 E4.51383
G1 X109.674 Y66.915 E4.5382
G1 X109.268 Y67.406 E4.56259
G1 X108.902 Y67.76 E4.58207
G1 X97.617 Y77.596 E5.15497
G1 X97.111 Y77.983 E5.17935
G1 X96.561 Y78.304 E5.20372
G1 X95.975 Y78.554 E5.2281
G1 X95.363 Y78.729 E5.25246
G1 X94.733 Y78.825 E5.27685
G1 X94.282 Y78.845 E5.29413
G1 X73.15 Y78.845 E6.10285
G1 X72.514 Y78.805 E6.12724
G1 X71.889 Y78.686 E6.15158
G1 X71.283 Y78.489 E6.17597
G1 X70.819 Y78.271 E6.19559
G1 X70.661 Y78.358 E6.20249
G1 X70.07 Y78.593 E6.22683
G1 X69.453 Y78.753 E6.25123
G1 X68.821 Y78.833 E6.27561
G1 X68.494 Y78.844 E6.28813
G1 X51.182 Y78.845 E6.95066
G1 X50.547 Y78.805 E6.97501
G1 X49.921 Y78.686 E6.99939
G1 X49.315 Y78.489 E7.02378
G1 X48.851 Y78.271 E7.0434
G1 X48.687 Y78.361 E7.05056
G1 X48.095 Y78.595 E7.07492
G1 X47.478 Y78.754 E7.0993
G1 X46.846 Y78.834 E7.12368
G1 X46.526 Y78.844 E7.13593
G1 X38.758 Y78.845 E7.43321
G1 X38.122 Y78.805 E7.4576
G1 X37.496 Y78.686 E7.48199
G1 X36.891 Y78.489 E7.50634
G1 X36.314 Y78.218 E7.53073
G1 X35.776 Y77.877 E7.55511
G1 X35.285 Y77.472 E7.57947
G1 X34.849 Y77.008 E7.60384
G1 X34.573 Y76.643 E7.62135
G1 X31.931 Y72.795 E7.79998
G1 X29.893 Y70.19 E7.92656
G1 X19.975 Y70.19 E8.30612
G1 X19.568 Y70.589 E8.32793
G1 X19.061 Y70.974 E8.35229
G1 X18.509 Y71.293 E8.37669
G1 X17.922 Y71.54 E8.40106
G1 X17.309 Y71.711 E8.42542
G1 X16.679 Y71.805 E8.4498
G1 X16.042 Y71.819 E8.47418
G1 X15.409 Y71.753 E8.49854
G1 X14.789 Y71.608 E8.5229
G1 X14.192 Y71.386 E8.54728
G1 X13.627 Y71.092 E8.57166
G1 X12.93 Y70.586 E8.60462
G1 X9.678 Y67.772 E8.7692
G1 X9.224 Y67.326 E8.79355
G1 X8.829 Y66.826 E8.81794
G1 X8.499 Y66.281 E8.84232
G1 X8.241 Y65.699 E8.86668
G1 X8.057 Y65.089 E8.89107
G1 X7.951 Y64.461 E8.91544
G1 X7.924 Y63.933 E8.93567
G1 X7.925 Y56.065 E9.23678
G1 X7.965 Y55.43 E9.26113
G1 X8.084 Y54.804 E9.28552
G1 X8.281 Y54.198 E9.3099
G1 X8.552 Y53.622 E9.33426
G1 X8.893 Y53.084 E9.35864
G1 X9.299 Y52.593 E9.38302
G1 X9.679 Y52.229 E9.40316
G1 X12.929 Y49.416 E9.56766
G1 X13.435 Y49.03 E9.59201
G1 X13.937 Y48.74 E9.6142
G0 F1458 X13.987 Y48.711
G0 X14.573 Y48.463
G0 F4320 X14.75 Y48.772
G1 F2400 E9.64076
G1 F1620 X15.344 Y48.616 E9.66426
G1 X15.954 Y48.537 E9.6878
G1 X16.568 Y48.539 E9.7113
G1 X17.177 Y48.62 E9.73481
G1 X17.771 Y48.779 E9.75834
G1 X18.339 Y49.015 E9.78188
G1 X18.871 Y49.322 E9.80539
G1 X19.359 Y49.695 E9.8289
G1 X19.762 Y50.092 E9.85055
G1 X19.824 Y50.161 E9.8541
G1 X30.064 Y50.161 E10.24598
G1 X32.219 Y47.405 E10.37987
G1 X34.862 Y43.556 E10.55855
G1 X35.242 Y43.074 E10.58204
G1 X35.681 Y42.644 E10.60556
G1 X36.173 Y42.275 E10.6291
G1 X36.708 Y41.973 E10.65261
G1 X37.278 Y41.743 E10.67613
G1 X37.873 Y41.589 E10.69965
G1 X38.757 Y41.506 E10.73363
G1 X46.524 Y41.506 E11.03087
G1 X47.137 Y41.546 E11.05438
G1 X47.74 Y41.665 E11.0779
G1 X48.322 Y41.862 E11.10142
G1 X48.855 Y42.123 E11.12413
G1 X49.352 Y41.875 E11.14539
G1 X49.933 Y41.674 E11.16891
G1 X50.535 Y41.55 E11.19244
G1 X51.182 Y41.506 E11.21725
G1 X68.493 Y41.506 E11.87975
G1 X69.106 Y41.546 E11.90326
G1 X69.709 Y41.665 E11.92678
G1 X70.291 Y41.862 E11.95029
G1 X70.826 Y42.124 E11.97309
G1 X71.316 Y41.879 E11.99406
G1 X71.896 Y41.678 E12.01755
G1 X72.498 Y41.553 E12.04108
G1 X73.151 Y41.508 E12.06613
G1 X94.283 Y41.506 E12.87485
G1 X94.896 Y41.546 E12.89836
G1 X95.499 Y41.665 E12.92188
G1 X96.081 Y41.861 E12.94538
G1 X96.633 Y42.132 E12.96891
G1 X97.145 Y42.471 E12.99241
G1 X97.388 Y42.669 E13.00441
G1 X108.672 Y52.504 E13.57725
G1 X109.108 Y52.937 E13.60077
G1 X109.484 Y53.423 E13.62428
G1 X109.794 Y53.954 E13.64782
G1 X110.032 Y54.52 E13.67131
G1 X110.195 Y55.113 E13.69485
G1 X110.279 Y55.721 E13.71834
G1 X110.292 Y56.066 E13.73155
G1 X110.292 Y63.934 E14.03266
G1 X110.252 Y64.547 E14.05617
G1 X110.133 Y65.15 E14.07969
G1 X109.936 Y65.732 E14.1032
G1 X109.666 Y66.284 E14.12672
G1 X109.326 Y66.796 E14.15024
G1 X108.923 Y67.26 E14.17376
G1 X108.672 Y67.496 E14.18695
G1 X97.387 Y77.332 E14.75984
G1 X96.898 Y77.705 E14.78338
G1 X96.365 Y78.011 E14.8069
G1 X95.797 Y78.245 E14.83041
G1 X95.204 Y78.404 E14.85391
G1 X94.595 Y78.485 E14.87742
G1 X94.282 Y78.495 E14.8894
G1 X73.15 Y78.495 E15.69812
G1 X72.537 Y78.455 E15.72163
G1 X71.934 Y78.336 E15.74515
G1 X71.352 Y78.139 E15.76867
G1 X70.818 Y77.878 E15.79142
G1 X70.335 Y78.121 E15.81211
G1 X69.754 Y78.323 E15.83565
G1 X69.153 Y78.448 E15.85914
G1 X68.494 Y78.494 E15.88442
G1 X51.182 Y78.495 E16.54695
G1 X50.569 Y78.455 E16.57046
G1 X49.966 Y78.336 E16.59398
G1 X49.384 Y78.14 E16.61748
G1 X48.85 Y77.878 E16.64025
G1 X48.36 Y78.123 E16.66121
G1 X47.78 Y78.324 E16.68471
G1 X47.178 Y78.449 E16.70824
G1 X46.526 Y78.494 E16.73325
G1 X38.758 Y78.495 E17.03053
G1 X38.144 Y78.455 E17.05408
G1 X37.542 Y78.336 E17.07756
G1 X36.959 Y78.14 E17.1011
G1 X36.407 Y77.869 E17.12463
G1 X35.895 Y77.53 E17.14813
G1 X35.432 Y77.127 E17.17162
G1 X34.862 Y76.445 E17.20564
G1 X32.219 Y72.596 E17.38432
G1 X30.063 Y69.84 E17.51823
G1 X19.825 Y69.84 E17.91004
G1 X19.763 Y69.909 E17.91359
G1 X19.323 Y70.338 E17.93711
G1 X18.831 Y70.707 E17.96065
G1 X18.295 Y71.008 E17.98417
G1 X17.725 Y71.237 E18.00768
G1 X17.13 Y71.39 E18.03119
G1 X16.52 Y71.465 E18.05471
G1 X15.906 Y71.46 E18.07821
G1 X15.297 Y71.376 E18.10174
G1 X14.705 Y71.213 E18.12524
G1 X14.138 Y70.974 E18.14878
G1 X13.608 Y70.664 E18.17228
G1 X13.159 Y70.321 E18.19391
G1 X9.907 Y67.507 E18.35848
G1 X9.47 Y67.076 E18.38197
G1 X9.092 Y66.591 E18.40551
G1 X8.78 Y66.061 E18.42904
G1 X8.54 Y65.496 E18.45254
G1 X8.375 Y64.904 E18.47606
G1 X8.288 Y64.296 E18.49956
G1 X8.274 Y63.933 E18.51346
G1 X8.275 Y56.065 E18.81457
G1 X8.315 Y55.452 E18.83808
G1 X8.434 Y54.849 E18.8616
G1 X8.631 Y54.267 E18.88512
G1 X8.901 Y53.715 E18.90863
G1 X9.241 Y53.203 E18.93215
G1 X9.644 Y52.74 E18.95564
G1 X9.908 Y52.493 E18.96948
G1 X13.158 Y49.68 E19.13398
G1 X13.648 Y49.309 E19.1575
G1 X14.112 Y49.044 E19.17795
G0 F1458 X14.181 Y49.005
G0 X14.75 Y48.772
G0 F4320 X14.925 Y49.083
G1 F2400 E19.20451
G1 F1620 X15.499 Y48.943 E19.22712
G1 X16.087 Y48.881 E19.24974
G1 X16.678 Y48.899 E19.27237
G1 X17.261 Y48.997 E19.295
G1 X17.826 Y49.172 E19.31763
G1 X18.362 Y49.422 E19.34027
G1 X18.859 Y49.741 E19.36287
G1 X19.502 Y50.326 E19.39614
G1 X19.669 Y50.511 E19.40567
G1 X30.235 Y50.511 E19.81003
G1 X32.498 Y47.617 E19.95063
G1 X35.15 Y43.755 E20.12992
G1 X35.517 Y43.291 E20.15256
G1 X35.943 Y42.881 E20.17519
G1 X36.421 Y42.532 E20.19784
G1 X36.941 Y42.251 E20.22046
G1 X37.494 Y42.042 E20.24308
G1 X38.07 Y41.91 E20.2657
G1 X38.757 Y41.856 E20.29207
G1 X46.524 Y41.856 E20.58931
G1 X47.114 Y41.896 E20.61194
G1 X47.693 Y42.015 E20.63456
G1 X48.251 Y42.211 E20.6572
G1 X48.777 Y42.481 E20.67982
G1 X48.857 Y42.537 E20.68356
G1 X49.135 Y42.364 E20.69609
G1 X49.675 Y42.124 E20.71871
G1 X50.243 Y41.958 E20.74135
G1 X50.827 Y41.87 E20.76396
G1 X51.182 Y41.856 E20.77755
G1 X68.493 Y41.856 E21.44004
G1 X69.083 Y41.896 E21.46267
G1 X69.662 Y42.015 E21.4853
G1 X70.22 Y42.211 E21.50793
G1 X70.746 Y42.481 E21.53056
G1 X70.827 Y42.538 E21.53435
G1 X71.099 Y42.369 E21.5466
G1 X71.639 Y42.128 E21.56923
G1 X72.206 Y41.961 E21.59185
G1 X72.791 Y41.873 E21.61449
G1 X73.151 Y41.858 E21.62828
G1 X94.283 Y41.856 E22.437
G1 X94.873 Y41.896 E22.45963
G1 X95.452 Y42.015 E22.48225
G1 X96.009 Y42.211 E22.50485
G1 X96.536 Y42.481 E22.52751
G1 X97.158 Y42.933 E22.55694
G1 X108.442 Y52.768 E23.12978
G1 X108.86 Y53.186 E23.1524
G1 X109.218 Y53.656 E23.17502
G1 X109.51 Y54.17 E23.19764
G1 X109.73 Y54.719 E23.22027
G1 X109.873 Y55.293 E23.24291
G1 X109.942 Y56.066 E23.27261
G1 X109.942 Y63.934 E23.57372
G1 X109.902 Y64.524 E23.59635
G1 X109.783 Y65.103 E23.61897
G1 X109.587 Y65.661 E23.64161
G1 X109.317 Y66.187 E23.66423
G1 X108.979 Y66.672 E23.68686
G1 X108.442 Y67.232 E23.71655
G1 X97.157 Y77.068 E24.28945
G1 X96.686 Y77.426 E24.31209
G1 X96.171 Y77.716 E24.33471
G1 X95.621 Y77.935 E24.35736
G1 X95.048 Y78.077 E24.37995
G1 X94.282 Y78.145 E24.40938
G1 X73.15 Y78.145 E25.2181
G1 X72.56 Y78.105 E25.24074
G1 X71.981 Y77.986 E25.26336
G1 X71.423 Y77.79 E25.28599
G1 X70.897 Y77.52 E25.30862
G1 X70.817 Y77.464 E25.31236
G1 X70.551 Y77.63 E25.32435
G1 X70.011 Y77.872 E25.347
G1 X69.444 Y78.04 E25.36963
G1 X68.86 Y78.129 E25.39224
G1 X68.494 Y78.144 E25.40626
G1 X51.182 Y78.145 E26.06879
G1 X50.592 Y78.105 E26.09142
G1 X50.013 Y77.986 E26.11404
G1 X49.455 Y77.79 E26.13667
G1 X48.929 Y77.52 E26.1593
G1 X48.849 Y77.464 E26.16304
G1 X48.577 Y77.633 E26.17529
G1 X48.037 Y77.874 E26.19792
G1 X47.47 Y78.041 E26.22054
G1 X46.885 Y78.129 E26.24318
G1 X46.526 Y78.144 E26.25694
G1 X38.758 Y78.145 E26.55422
G1 X38.168 Y78.105 E26.57685
G1 X37.588 Y77.986 E26.59951
G1 X37.031 Y77.79 E26.6221
G1 X36.504 Y77.521 E26.64475
G1 X36.019 Y77.183 E26.66737
G1 X35.584 Y76.782 E26.69001
G1 X35.15 Y76.246 E26.71641
G1 X32.504 Y72.392 E26.89531
G1 X30.234 Y69.49 E27.03631
G1 X19.67 Y69.49 E27.4406
G1 X19.503 Y69.675 E27.45014
G1 X19.078 Y70.087 E27.47279
G1 X18.602 Y70.437 E27.4954
G1 X18.083 Y70.721 E27.51804
G1 X17.531 Y70.932 E27.54066
G1 X16.955 Y71.066 E27.56329
G1 X16.366 Y71.121 E27.58593
G1 X15.776 Y71.097 E27.60853
G1 X15.194 Y70.993 E27.63115
G1 X14.631 Y70.812 E27.65378
G1 X14.098 Y70.556 E27.67641
G1 X13.388 Y70.056 E27.70965
G1 X10.136 Y67.242 E27.87422
G1 X9.716 Y66.826 E27.89685
G1 X9.356 Y66.357 E27.91947
G1 X9.063 Y65.844 E27.94208
G1 X8.841 Y65.296 E27.96471
G1 X8.696 Y64.723 E27.98733
G1 X8.624 Y63.933 E28.01769
G1 X8.625 Y56.065 E28.3188
G1 X8.665 Y55.476 E28.34139
G1 X8.784 Y54.896 E28.36405
G1 X8.98 Y54.339 E28.38665
G1 X9.25 Y53.812 E28.40931
G1 X9.588 Y53.327 E28.43193
G1 X10.137 Y52.758 E28.46219
G1 X13.387 Y49.945 E28.62669
G1 X13.859 Y49.589 E28.64931
G1 X14.286 Y49.35 E28.66804
G0 F1458 X14.375 Y49.3
G0 X14.925 Y49.083
G0 F4320 X15.097 Y49.397
G1 F2400 E28.6946
G1 F1620 X15.651 Y49.273 E28.71632
G1 X16.216 Y49.228 E28.73802
G1 X16.782 Y49.263 E28.75972
G1 X17.338 Y49.378 E28.78145
G1 X17.872 Y49.569 E28.80315
G1 X18.373 Y49.834 E28.82484
G1 X18.833 Y50.166 E28.84655
G1 X19.241 Y50.56 E28.86826
G1 X19.512 Y50.861 E28.88376
G1 X30.405 Y50.861 E29.30063
G1 X32.785 Y47.818 E29.44848
G1 X35.439 Y43.953 E29.6279
G1 X35.792 Y43.509 E29.64961
G1 X36.204 Y43.119 E29.67132
G1 X36.667 Y42.791 E29.69304
G1 X37.171 Y42.532 E29.71472
G1 X37.707 Y42.345 E29.73645
G1 X38.263 Y42.236 E29.75813
G1 X38.757 Y42.206 E29.77707
G1 X46.524 Y42.206 E30.07431
G1 X47.09 Y42.246 E30.09603
G1 X47.644 Y42.365 E30.11771
G1 X48.176 Y42.561 E30.13941
G1 X48.676 Y42.829 E30.16112
G1 X48.851 Y42.959 E30.16946
G1 X48.97 Y42.868 E30.1752
G1 X49.465 Y42.591 E30.19691
G1 X49.993 Y42.386 E30.21858
G1 X50.546 Y42.257 E30.24031
G1 X51.182 Y42.206 E30.26473
G1 X68.493 Y42.206 E30.92722
G1 X69.059 Y42.246 E30.94894
G1 X69.613 Y42.365 E30.97062
G1 X70.145 Y42.561 E30.99232
G1 X70.645 Y42.829 E31.01403
G1 X70.822 Y42.96 E31.02246
G1 X70.935 Y42.873 E31.02791
G1 X71.429 Y42.595 E31.04961
G1 X71.957 Y42.389 E31.0713
G1 X72.51 Y42.259 E31.09304
G1 X73.151 Y42.208 E31.11765
G1 X94.283 Y42.206 E31.92637
G1 X94.848 Y42.246 E31.94804
G1 X95.403 Y42.365 E31.96977
G1 X95.935 Y42.561 E31.99146
G1 X96.434 Y42.829 E32.01314
G1 X96.928 Y43.197 E32.03672
G1 X108.212 Y53.032 E32.60956
G1 X108.612 Y53.434 E32.63126
G1 X108.952 Y53.888 E32.65297
G1 X109.224 Y54.385 E32.67465
G1 X109.424 Y54.916 E32.69637
G1 X109.547 Y55.469 E32.71805
G1 X109.592 Y56.066 E32.74096
G1 X109.592 Y63.934 E33.04207
G1 X109.552 Y64.5 E33.06378
G1 X109.433 Y65.054 E33.08547
G1 X109.237 Y65.586 E33.10716
G1 X108.969 Y66.086 E33.12887
G1 X108.632 Y66.542 E33.15057
G1 X108.212 Y66.968 E33.17347
G1 X96.927 Y76.804 E33.74636
G1 X96.474 Y77.146 E33.76809
G1 X95.978 Y77.42 E33.78977
G1 X95.448 Y77.622 E33.81148
G1 X94.895 Y77.748 E33.83318
G1 X94.282 Y77.795 E33.85671
G1 X73.15 Y77.795 E34.66543
G1 X72.584 Y77.755 E34.68715
G1 X72.03 Y77.636 E34.70883
G1 X71.498 Y77.44 E34.73053
G1 X70.998 Y77.172 E34.75224
G1 X70.823 Y77.043 E34.76056
G1 X70.714 Y77.126 E34.7658
G1 X70.221 Y77.405 E34.78748
G1 X69.692 Y77.611 E34.80921
G1 X69.141 Y77.742 E34.83088
G1 X68.494 Y77.794 E34.85572
G1 X51.182 Y77.795 E35.51825
G1 X50.617 Y77.755 E35.53993
G1 X50.062 Y77.636 E35.56165
G1 X49.53 Y77.44 E35.58335
G1 X49.03 Y77.172 E35.60506
G1 X48.854 Y77.042 E35.61343
G1 X48.741 Y77.129 E35.61889
G1 X48.247 Y77.407 E35.64058
G1 X47.719 Y77.613 E35.66227
G1 X47.166 Y77.743 E35.68402
G1 X46.526 Y77.794 E35.70859
G1 X38.758 Y77.795 E36.00587
G1 X38.192 Y77.755 E36.02758
G1 X37.637 Y77.636 E36.0493
G1 X37.105 Y77.44 E36.071
G1 X36.606 Y77.172 E36.09268
G1 X36.149 Y76.836 E36.11439
G1 X35.744 Y76.439 E36.13609
G1 X35.439 Y76.048 E36.15507
G1 X32.785 Y72.183 E36.3345
G1 X30.405 Y69.14 E36.48234
G1 X19.513 Y69.14 E36.89918
G1 X19.242 Y69.441 E36.91468
G1 X18.834 Y69.835 E36.93638
G1 X18.375 Y70.167 E36.95806
G1 X17.873 Y70.432 E36.97979
G1 X17.339 Y70.623 E37.00149
G1 X16.784 Y70.738 E37.02318
G1 X16.218 Y70.773 E37.04488
G1 X15.653 Y70.728 E37.06657
G1 X15.099 Y70.605 E37.08829
G1 X14.569 Y70.405 E37.10997
G1 X14.071 Y70.132 E37.1317
G1 X13.617 Y69.792 E37.15341
G1 X10.365 Y66.978 E37.31799
G1 X9.964 Y66.577 E37.33969
G1 X9.622 Y66.124 E37.36142
G1 X9.348 Y65.628 E37.3831
G1 X9.146 Y65.098 E37.40481
G1 X9.021 Y64.545 E37.4265
G1 X8.974 Y63.933 E37.44999
G1 X8.975 Y56.065 E37.7511
G1 X9.015 Y55.5 E37.77278
G1 X9.134 Y54.945 E37.7945
G1 X9.33 Y54.413 E37.8162
G1 X9.599 Y53.914 E37.83789
G1 X9.935 Y53.457 E37.8596
G1 X10.366 Y53.023 E37.88301
G1 X13.616 Y50.21 E38.04751
G1 X14.07 Y49.87 E38.06921
G1 X14.455 Y49.658 E38.08603
G0 F1458 X14.567 Y49.597
G0 X15.097 Y49.397
G0 F4320 X15.267 Y49.712
G1 F2400 E38.11259
G1 F1620 X15.799 Y49.606 E38.13335
G1 X16.34 Y49.579 E38.15408
G1 X16.879 Y49.632 E38.17481
