;FLAVOR:Marlin
;TIME:3711
;Filament used: 1.2835m
;Layer height: 0.13125
;Generated with Cura_SteamEngine 3.6.0
M140 S60
M105
M190 S60
M104 S210
M105
M109 S210
M82 ;absolute extrusion mode
G21;(metric values)
G90;(absolute positioning)
M82;(set extruder to absolute mode)
M107;(start with the fan off)
G28;(Home the printer)
G92 E0;(Reset the extruder to 0)
G0 Z5 E5 F500;(Move up and prime the nozzle)
G0 X-1 Z0;(Move outside the printable area)
G1 Y60 E8 F500;(Draw a priming/wiping line to the rear)
G1 X-1;(Move a little closer to the print area)
G1 Y10 E16 F500;(draw more priming/wiping)
G1 E15 F250;(Small retract)
G92 E0;(Zero the extruder)
G92 E0
G1 F2400 E-2.5
;LAYER_COUNT:189
;LAYER:0
M107
G0 F4320 X65.097 Y55.955 Z0.263
;TYPE:SUPPORT
G1 F2400 E0
G1 F1260 X66.243 Y55.064 E0.05555
G1 X66.579 Y55.064 E0.06841
G1 X69.546 Y52.76 E0.21217
G1 X69.527 Y52.232 E0.23239
G1 X69.446 Y52.178 E0.23612
G1 X69.672 Y51.656 E0.25789
G1 X69.756 Y51.519 E0.26404
G1 X69.829 Y51.458 E0.26768
G1 X70.011 Y51.355 E0.27568
G1 X70.148 Y51.31 E0.2812
G1 X70.285 Y51.291 E0.28649
G1 X70.379 Y51.297 E0.2901
G1 X70.684 Y51.411 E0.30256
G1 X70.749 Y51.446 E0.30538
G1 X70.831 Y51.508 E0.30932
G1 X71.561 Y52.843 E0.36755
G1 X71.877 Y53.027 E0.38154
G1 X72.289 Y53.473 E0.40478
G1 X72.289 Y53.796 E0.41714
G1 X72.519 Y54.178 E0.4342
G1 X74.019 Y54.974 E0.49919
G1 X74.197 Y55.016 E0.50619
G1 X74.622 Y55.169 E0.52348
G1 X74.892 Y55.354 E0.536
G1 X75.616 Y55.946 E0.57179
G1 X75.411 Y56.575 E0.59711
G1 X75.375 Y57.216 E0.62168
G1 X74.952 Y57.054 E0.63902
G1 X74.31 Y56.841 E0.6649
G1 X73.652 Y56.66 E0.69102
G1 X72.992 Y56.511 E0.71691
G1 X72.318 Y56.395 E0.74309
G1 X71.651 Y56.313 E0.76881
G1 X70.974 Y56.263 E0.79478
G1 X70.291 Y56.247 E0.82093
G1 X69.607 Y56.263 E0.84711
G1 X68.93 Y56.313 E0.87309
G1 X68.262 Y56.395 E0.89885
G1 X67.588 Y56.512 E0.92503
G1 X66.929 Y56.661 E0.95089
G1 X66.271 Y56.842 E0.977
G1 X65.629 Y57.055 E1.00289
G1 X65.445 Y57.126 E1.01044
G1 X65.415 Y56.895 E1.01935
G1 X65.304 Y56.682 E1.02854
G1 X65.297 Y56.619 E1.03097
G0 F1134 X65.293 Y56.579
G0 X65.097 Y55.955
G0 F4320 X65.275 Y55.992
G1 F2400 E1.05753
G1 F1260 X75.453 Y55.992 E1.44704
G0 F4320 X74.656 Y55.363
G1 F1260 X74.656 Y56.807 E1.5023
G0 F4320 X72.323 Y56.254
G1 F1260 X72.323 Y54.125 E1.58378
G0 F4320 X72.149 Y53.659
G1 F1260 X68.615 Y53.659 E1.71902
G0 F4320 X67.657 Y54.403
G1 F1260 X67.657 Y56.358 E1.79384
G0 F4320 X65.324 Y56.211
G1 F1260 X65.324 Y55.954 E1.80368
G0 F4320 X69.99 Y56.114
G1 F1260 X69.99 Y51.527 E1.97922
G1 F2400 E-0.52078
G0 F4320 X60.182 Y60.942
G0 X58.952 Y62.517
G0 X57.96 Y64.27
G0 X57.239 Y66.145
G0 X56.801 Y68.103
G0 X56.653 Y70.103
G0 X56.801 Y72.095
G0 X57.24 Y74.053
G0 X57.962 Y75.926
G0 X58.955 Y77.681
G0 X60.185 Y79.254
G0 X61.637 Y80.638
G0 X63.287 Y81.8
G0 X65.071 Y82.697
G0 X66.622 Y83.208
G0 X69.217 Y83.901
G1 F2400 E1.97922
G1 F1260 X69.609 Y83.93 E1.99426
G1 X70.295 Y83.947 E2.02053
G1 X70.981 Y83.93 E2.04679
G1 X71.431 Y83.897 E2.06405
G1 X71.476 Y84.207 E2.07604
G1 X71.412 Y84.412 E2.08426
G1 X71.344 Y84.493 E2.08831
G1 X71.15 Y84.602 E2.09682
G1 X69.523 Y84.679 E2.15916
G1 X69.489 Y84.65 E2.16087
G1 X69.354 Y84.414 E2.17127
G1 X69.315 Y84.268 E2.17706
G0 F1134 X69.217 Y83.901
G0 F4320 X69.99 Y84.08
G1 F2400 E2.1916
G1 F1260 X69.99 Y84.517 E2.20832
G1 F2400 E-0.29168
;MESH:Corginpc.stl.stl
G0 F4320 X70.293 Y82.702
G0 X72.066 Y82.091
;TYPE:WALL-INNER
G1 F2400 E2.20832
G1 F1260 X71.482 Y82.163 E2.23084
G1 X70.9 Y82.206 E2.25318
G1 X70.293 Y82.222 E2.27642
G1 X69.686 Y82.206 E2.29965
G1 X69.103 Y82.163 E2.32203
G1 X68.519 Y82.091 E2.34454
G1 X67.93 Y81.988 E2.36743
G1 X67.334 Y81.855 E2.3908
G1 X66.78 Y81.703 E2.41278
G1 X66.228 Y81.519 E2.43505
G1 X65.644 Y81.294 E2.459
G1 X65.099 Y81.052 E2.48182
G1 X64.588 Y80.794 E2.50373
G1 X64.067 Y80.501 E2.5266
G1 X63.546 Y80.171 E2.55021
G1 X63.06 Y79.828 E2.57297
G1 X62.596 Y79.466 E2.59549
G1 X62.141 Y79.073 E2.6185
G1 X61.71 Y78.661 E2.64132
G1 X61.312 Y78.243 E2.66341
G1 X60.919 Y77.788 E2.68642
G1 X60.559 Y77.325 E2.70886
G1 X60.213 Y76.835 E2.73182
G1 X59.887 Y76.32 E2.75514
G1 X59.595 Y75.802 E2.7779
G1 X59.33 Y75.274 E2.80051
G1 X59.086 Y74.725 E2.8235
G1 X58.876 Y74.177 E2.84596
G1 X58.688 Y73.606 E2.86897
G1 X58.529 Y73.034 E2.89169
G1 X58.397 Y72.442 E2.9149
G1 X58.299 Y71.871 E2.93707
G1 X58.226 Y71.278 E2.95994
G1 X58.184 Y70.705 E2.98192
G1 X58.168 Y70.118 E3.0044
G1 X58.184 Y69.48 E3.02882
G1 X58.226 Y68.912 E3.05062
G1 X58.299 Y68.322 E3.07337
G1 X58.397 Y67.751 E3.09554
G1 X58.53 Y67.154 E3.11895
G1 X58.689 Y66.582 E3.14167
G1 X58.876 Y66.017 E3.16444
G1 X59.094 Y65.451 E3.18766
G1 X59.33 Y64.917 E3.21
G1 X59.595 Y64.39 E3.23257
G1 X59.891 Y63.866 E3.2556
G1 X60.218 Y63.35 E3.27898
G1 X60.561 Y62.864 E3.30175
G1 X60.922 Y62.401 E3.32422
G1 X61.316 Y61.945 E3.34728
G1 X61.716 Y61.524 E3.3695
G1 X62.141 Y61.12 E3.39194
G1 X62.584 Y60.737 E3.41436
G1 X63.066 Y60.36 E3.43777
G1 X63.546 Y60.022 E3.46024
G1 X64.055 Y59.7 E3.48329
G1 X64.588 Y59.398 E3.50674
G1 X65.108 Y59.136 E3.52902
G1 X65.66 Y58.892 E3.55212
G1 X66.197 Y58.684 E3.57415
G1 X66.785 Y58.49 E3.59785
G1 X67.346 Y58.334 E3.62013
G1 X67.922 Y58.205 E3.64272
G1 X68.519 Y58.102 E3.66591
G1 X69.103 Y58.03 E3.68843
G1 X69.687 Y57.987 E3.71084
G1 X70.293 Y57.972 E3.73404
G1 X70.899 Y57.987 E3.75724
G1 X71.482 Y58.03 E3.77961
G1 X72.066 Y58.102 E3.80213
G1 X72.646 Y58.202 E3.82465
G1 X73.243 Y58.336 E3.84807
G1 X73.8 Y58.49 E3.87018
G1 X74.372 Y58.679 E3.89324
G1 X74.942 Y58.899 E3.91662
G1 X75.478 Y59.136 E3.93905
G1 X76.014 Y59.406 E3.96202
G1 X76.516 Y59.691 E3.98411
G1 X77.039 Y60.022 E4.00779
G1 X77.519 Y60.36 E4.03026
G1 X78.001 Y60.737 E4.05368
G1 X78.444 Y61.12 E4.07609
G1 X78.868 Y61.525 E4.09853
G1 X79.269 Y61.945 E4.12075
G1 X79.652 Y62.388 E4.14316
G1 X80.029 Y62.87 E4.16658
G1 X80.367 Y63.35 E4.18905
G1 X80.698 Y63.873 E4.21274
G1 X80.983 Y64.375 E4.23483
G1 X81.263 Y64.931 E4.25865
G1 X81.493 Y65.451 E4.28041
G1 X81.702 Y65.992 E4.30261
G1 X81.894 Y66.572 E4.32599
G1 X82.054 Y67.146 E4.34879
G1 X82.184 Y67.724 E4.37147
G1 X82.287 Y68.322 E4.39469
G1 X82.359 Y68.903 E4.41709
G1 X82.402 Y69.48 E4.43924
G1 X82.418 Y70.074 E4.46198
G1 X82.402 Y70.705 E4.48613
G1 X82.36 Y71.278 E4.50812
G1 X82.287 Y71.871 E4.53099
G1 X82.186 Y72.458 E4.55378
G1 X82.057 Y73.034 E4.57637
G1 X81.898 Y73.606 E4.59909
G1 X81.71 Y74.176 E4.62206
G1 X81.493 Y74.739 E4.64515
G1 X81.256 Y75.274 E4.66754
G1 X80.996 Y75.793 E4.68976
G1 X80.698 Y76.32 E4.71293
G1 X80.37 Y76.838 E4.73639
G1 X80.036 Y77.314 E4.75865
G1 X79.666 Y77.788 E4.78166
G1 X79.273 Y78.243 E4.80467
G1 X78.875 Y78.661 E4.82676
G1 X78.444 Y79.073 E4.84957
G1 X77.989 Y79.466 E4.87258
G1 X77.525 Y79.828 E4.8951
G1 X77.039 Y80.171 E4.91787
G1 X76.517 Y80.501 E4.9415
G1 X75.998 Y80.794 E4.96431
G1 X75.487 Y81.052 E4.98622
G1 X74.942 Y81.294 E5.00904
G1 X74.357 Y81.519 E5.03303
G1 X73.815 Y81.699 E5.05488
G1 X73.244 Y81.857 E5.07756
G1 X72.749 Y81.967 E5.09696
G0 F1134 X72.655 Y81.988
G0 X72.066 Y82.091
G0 F4320 X70.914 Y82.556
G1 F2400 E5.12352
G1 F1260 X70.293 Y82.572 E5.1473
G1 X69.672 Y82.556 E5.17107
G1 X69.075 Y82.512 E5.19398
G1 X68.459 Y82.436 E5.21773
G1 X67.858 Y82.331 E5.24108
G1 X67.258 Y82.197 E5.26461
G1 X66.67 Y82.035 E5.28795
G1 X66.102 Y81.846 E5.31086
G1 X65.518 Y81.621 E5.33481
G1 X64.957 Y81.372 E5.3583
G1 X64.416 Y81.099 E5.38149
G1 X63.888 Y80.802 E5.40467
G1 X63.351 Y80.462 E5.429
G1 X62.858 Y80.114 E5.45209
G1 X62.368 Y79.732 E5.47587
G1 X61.912 Y79.338 E5.49893
G1 X61.468 Y78.914 E5.52243
G1 X61.047 Y78.472 E5.54579
G1 X60.654 Y78.017 E5.56879
G1 X60.274 Y77.529 E5.59246
G1 X59.922 Y77.03 E5.61583
G1 X59.586 Y76.499 E5.63988
G1 X59.29 Y75.974 E5.66295
G1 X59.017 Y75.431 E5.68621
G1 X58.766 Y74.867 E5.70983
G1 X58.549 Y74.302 E5.73299
G1 X58.352 Y73.705 E5.75705
G1 X58.188 Y73.114 E5.78053
G1 X58.055 Y72.518 E5.8039
G1 X57.954 Y71.93 E5.82673
G1 X57.877 Y71.307 E5.85075
G1 X57.834 Y70.718 E5.87335
G1 X57.818 Y70.109 E5.89667
G1 X57.834 Y69.471 E5.92109
G1 X57.877 Y68.886 E5.94354
G1 X57.954 Y68.263 E5.96756
G1 X58.055 Y67.675 E5.9904
G1 X58.188 Y67.078 E6.0138
G1 X58.352 Y66.488 E6.03724
G1 X58.549 Y65.891 E6.0613
G1 X58.767 Y65.325 E6.08451
G1 X59.017 Y64.76 E6.10815
G1 X59.29 Y64.218 E6.13138
G1 X59.586 Y63.694 E6.15441
G1 X59.927 Y63.155 E6.17882
G1 X60.275 Y62.662 E6.20191
G1 X60.657 Y62.172 E6.22569
G1 X61.051 Y61.716 E6.24875
G1 X61.469 Y61.277 E6.27195
G1 X61.912 Y60.855 E6.29537
G1 X62.368 Y60.461 E6.31843
G1 X62.85 Y60.084 E6.34185
G1 X63.359 Y59.726 E6.36566
G1 X63.882 Y59.395 E6.38935
G1 X64.415 Y59.093 E6.41279
G1 X64.957 Y58.82 E6.43602
G1 X65.518 Y58.572 E6.45949
G1 X66.087 Y58.352 E6.48284
G1 X66.68 Y58.156 E6.50674
G1 X67.261 Y57.995 E6.52981
G1 X67.862 Y57.86 E6.55339
G1 X68.459 Y57.757 E6.57657
G1 X69.075 Y57.681 E6.60032
G1 X69.672 Y57.637 E6.62323
G1 X70.293 Y57.622 E6.64701
G1 X70.914 Y57.637 E6.67078
G1 X71.51 Y57.681 E6.69365
G1 X72.126 Y57.757 E6.7174
G1 X72.723 Y57.86 E6.74059
G1 X73.32 Y57.994 E6.764
G1 X73.905 Y58.156 E6.78723
G1 X74.498 Y58.352 E6.81113
G1 X75.068 Y58.572 E6.83452
G1 X75.629 Y58.82 E6.85799
G1 X76.171 Y59.093 E6.88122
G1 X76.703 Y59.395 E6.90463
G1 X77.226 Y59.726 E6.92831
G1 X77.735 Y60.084 E6.95213
G1 X78.217 Y60.461 E6.97555
G1 X78.673 Y60.855 E6.99861
G1 X79.11 Y61.272 E7.02173
G1 X79.534 Y61.716 E7.04522
G1 X79.928 Y62.172 E7.06828
G1 X80.305 Y62.654 E7.0917
G1 X80.663 Y63.163 E7.11552
G1 X80.994 Y63.686 E7.13921
G1 X81.296 Y64.218 E7.16262
G1 X81.576 Y64.774 E7.18644
G1 X81.813 Y65.311 E7.2089
G1 X82.034 Y65.882 E7.23234
G1 X82.231 Y66.478 E7.25636
G1 X82.391 Y67.052 E7.27916
G1 X82.529 Y67.665 E7.30321
G1 X82.632 Y68.263 E7.32643
G1 X82.708 Y68.877 E7.35011
G1 X82.752 Y69.471 E7.3729
G1 X82.768 Y70.083 E7.39633
G1 X82.752 Y70.718 E7.42064
G1 X82.709 Y71.307 E7.44324
G1 X82.632 Y71.93 E7.46727
G1 X82.531 Y72.518 E7.4901
G1 X82.394 Y73.128 E7.51402
G1 X82.234 Y73.705 E7.53694
G1 X82.037 Y74.302 E7.561
G1 X81.819 Y74.867 E7.58417
G1 X81.569 Y75.431 E7.60778
G1 X81.301 Y75.965 E7.63065
G1 X80.999 Y76.499 E7.65413
G1 X80.666 Y77.025 E7.67795
G1 X80.312 Y77.529 E7.70152
G1 X79.931 Y78.017 E7.72522
G1 X79.538 Y78.472 E7.74823
G1 X79.117 Y78.914 E7.77159
G1 X78.673 Y79.338 E7.79508
G1 X78.217 Y79.732 E7.81814
G1 X77.727 Y80.114 E7.84192
G1 X77.234 Y80.462 E7.86502
G1 X76.696 Y80.802 E7.88937
G1 X76.17 Y81.099 E7.91249
G1 X75.629 Y81.372 E7.93568
G1 X75.068 Y81.621 E7.95917
G1 X74.483 Y81.846 E7.98316
G1 X73.92 Y82.033 E8.00586
G1 X73.32 Y82.199 E8.02968
G1 X72.727 Y82.331 E8.05293
G1 X72.126 Y82.436 E8.07628
G1 X71.606 Y82.501 E8.09634
G0 F1134 X71.51 Y82.512
G0 X70.914 Y82.556
G0 F4320 X76.205 Y81.138
G0 X76.331 Y81.382
;TYPE:WALL-OUTER
G1 F2400 E8.1229
G1 F1260 X75.761 Y81.669 E8.14732
G1 X75.196 Y81.92 E8.17098
G1 X74.6 Y82.149 E8.19541
G1 X74.007 Y82.346 E8.21933
G1 X73.399 Y82.514 E8.24347
G1 X72.79 Y82.65 E8.26735
G1 X72.166 Y82.759 E8.29159
G1 X71.55 Y82.835 E8.31534
G1 X70.926 Y82.881 E8.33929
G1 X70.293 Y82.897 E8.36352
G1 X69.66 Y82.881 E8.38775
G1 X69.035 Y82.835 E8.41174
G1 X68.419 Y82.759 E8.43549
G1 X67.795 Y82.65 E8.45973
G1 X67.187 Y82.514 E8.48358
G1 X66.578 Y82.346 E8.50775
G1 X65.985 Y82.149 E8.53167
G1 X65.39 Y81.92 E8.55606
G1 X64.825 Y81.669 E8.57972
G1 X64.255 Y81.382 E8.60415
G1 X63.716 Y81.078 E8.62783
G1 X63.177 Y80.737 E8.65224
G1 X62.671 Y80.38 E8.67594
G1 X62.168 Y79.988 E8.70034
G1 X61.7 Y79.584 E8.724
G1 X61.238 Y79.144 E8.74842
G1 X60.805 Y78.689 E8.77246
G1 X60.401 Y78.221 E8.79612
G1 X60.009 Y77.718 E8.82052
G1 X59.652 Y77.212 E8.84422
G1 X59.311 Y76.673 E8.86863
G1 X59.007 Y76.134 E8.89231
G1 X58.72 Y75.564 E8.91674
G1 X58.469 Y74.999 E8.9404
G1 X58.24 Y74.404 E8.9648
G1 X58.043 Y73.807 E8.98885
G1 X57.875 Y73.201 E9.01292
G1 X57.738 Y72.589 E9.03692
G1 X57.631 Y71.97 E9.06096
G1 X57.554 Y71.347 E9.08499
G1 X57.509 Y70.729 E9.1087
G1 X57.493 Y70.101 E9.13274
G1 X57.509 Y69.463 E9.15716
G1 X57.554 Y68.846 E9.18084
G1 X57.631 Y68.223 E9.20486
G1 X57.738 Y67.604 E9.2289
G1 X57.875 Y66.991 E9.25294
G1 X58.043 Y66.386 E9.27697
G1 X58.24 Y65.789 E9.30103
G1 X58.469 Y65.194 E9.32543
G1 X58.72 Y64.628 E9.34912
G1 X59.007 Y64.058 E9.37355
G1 X59.311 Y63.52 E9.3972
G1 X59.652 Y62.981 E9.4216
G1 X60.009 Y62.475 E9.4453
G1 X60.401 Y61.972 E9.46971
G1 X60.805 Y61.504 E9.49337
G1 X61.238 Y61.049 E9.51741
G1 X61.7 Y60.609 E9.54182
G1 X62.168 Y60.205 E9.56548
G1 X62.663 Y59.818 E9.58953
G1 X63.185 Y59.451 E9.61395
G1 X63.708 Y59.12 E9.63764
G1 X64.255 Y58.81 E9.6617
G1 X64.825 Y58.523 E9.68612
G1 X65.39 Y58.273 E9.70977
G1 X65.985 Y58.043 E9.73418
G1 X66.578 Y57.847 E9.75808
G1 X67.187 Y57.679 E9.78226
G1 X67.795 Y57.542 E9.80611
G1 X68.419 Y57.434 E9.83034
G1 X69.035 Y57.358 E9.8541
G1 X69.66 Y57.312 E9.87808
G1 X70.293 Y57.297 E9.90231
G1 X70.926 Y57.312 E9.92654
G1 X71.55 Y57.358 E9.95049
G1 X72.166 Y57.434 E9.97424
G1 X72.79 Y57.542 E9.99848
G1 X73.399 Y57.679 E10.02237
G1 X74.007 Y57.847 E10.04651
G1 X74.6 Y58.043 E10.07041
G1 X75.196 Y58.273 E10.09486
G1 X75.761 Y58.523 E10.1185
G1 X76.331 Y58.81 E10.14292
G1 X76.877 Y59.12 E10.16695
G1 X77.4 Y59.451 E10.19064
G1 X77.922 Y59.818 E10.21506
G1 X78.417 Y60.205 E10.23911
G1 X78.885 Y60.609 E10.26277
G1 X79.34 Y61.042 E10.2868
G1 X79.78 Y61.504 E10.31122
G1 X80.184 Y61.972 E10.33488
G1 X80.571 Y62.467 E10.35893
G1 X80.938 Y62.989 E10.38335
G1 X81.269 Y63.512 E10.40703
G1 X81.579 Y64.058 E10.43106
G1 X81.866 Y64.628 E10.45549
G1 X82.116 Y65.194 E10.47916
G1 X82.343 Y65.78 E10.50321
G1 X82.54 Y66.376 E10.52724
G1 X82.708 Y66.981 E10.55127
G1 X82.846 Y67.594 E10.57531
G1 X82.955 Y68.223 E10.59974
G1 X83.031 Y68.837 E10.62342
G1 X83.077 Y69.463 E10.64744
G1 X83.093 Y70.091 E10.67148
G1 X83.077 Y70.729 E10.69591
G1 X83.032 Y71.347 E10.71962
G1 X82.955 Y71.97 E10.74364
G1 X82.848 Y72.589 E10.76769
G1 X82.71 Y73.202 E10.79173
G1 X82.543 Y73.807 E10.81575
G1 X82.346 Y74.404 E10.83981
G1 X82.116 Y74.999 E10.86422
G1 X81.866 Y75.564 E10.88787
G1 X81.584 Y76.125 E10.9119
G1 X81.274 Y76.673 E10.93599
G1 X80.938 Y77.204 E10.96004
G1 X80.577 Y77.718 E10.98408
G1 X80.184 Y78.221 E11.00851
G1 X79.78 Y78.689 E11.03217
G1 X79.347 Y79.144 E11.0562
G1 X78.885 Y79.584 E11.08062
G1 X78.417 Y79.988 E11.10428
G1 X77.914 Y80.38 E11.12869
G1 X77.408 Y80.737 E11.15238
G1 X76.934 Y81.037 E11.17385
G0 F1134 X76.869 Y81.078
G0 X76.331 Y81.382
G0 F4320 X76.153 Y81.471
G0 X76.032 Y81.226
G0 X75.962 Y80.716
G0 X75.838 Y80.494
;TYPE:SKIN
G1 F2400 E11.20041
G1 F1260 X75.349 Y80.741 E11.22138
G1 X74.804 Y80.983 E11.2442
G1 X74.25 Y81.196 E11.26691
G1 X73.716 Y81.373 E11.28844
G1 X73.157 Y81.528 E11.31064
G1 X72.589 Y81.654 E11.33291
G1 X72.017 Y81.754 E11.35513
G1 X71.457 Y81.823 E11.37672
G1 X70.875 Y81.866 E11.39906
G1 X70.293 Y81.882 E11.42134
G1 X69.711 Y81.866 E11.44362
G1 X69.128 Y81.823 E11.46599
G1 X68.568 Y81.754 E11.48759
G1 X67.996 Y81.654 E11.50981
G1 X67.416 Y81.525 E11.53255
G1 X66.878 Y81.377 E11.5539
G1 X66.335 Y81.196 E11.57581
G1 X65.782 Y80.983 E11.59849
G1 X65.237 Y80.741 E11.62131
G1 X64.756 Y80.497 E11.64195
G1 X64.234 Y80.204 E11.66486
G1 X63.735 Y79.888 E11.68746
G1 X63.262 Y79.554 E11.70962
G1 X62.812 Y79.203 E11.73146
G1 X62.392 Y78.842 E11.75265
G1 X61.951 Y78.42 E11.77601
G1 X61.545 Y77.994 E11.79854
G1 X61.182 Y77.572 E11.81984
G1 X60.837 Y77.129 E11.84133
G1 X60.493 Y76.642 E11.86414
G1 X60.179 Y76.145 E11.88664
G1 X59.891 Y75.635 E11.90906
G1 X59.638 Y75.129 E11.93071
G1 X59.397 Y74.587 E11.95341
G1 X59.193 Y74.055 E11.97521
G1 X59.014 Y73.508 E11.99724
G1 X58.857 Y72.943 E12.01968
G1 X58.731 Y72.376 E12.04191
G1 X58.636 Y71.822 E12.06342
G1 X58.564 Y71.237 E12.08598
G1 X58.524 Y70.68 E12.10735
G1 X58.508 Y70.126 E12.12856
G1 X58.524 Y69.505 E12.15233
G1 X58.564 Y68.953 E12.17351
G1 X58.636 Y68.371 E12.19596
G1 X58.731 Y67.817 E12.21747
G1 X58.858 Y67.245 E12.23989
G1 X59.015 Y66.681 E12.2623
G1 X59.196 Y66.132 E12.28442
G1 X59.405 Y65.589 E12.30668
G1 X59.637 Y65.063 E12.32869
G1 X59.891 Y64.557 E12.35035
G1 X60.183 Y64.041 E12.37304
G1 X60.501 Y63.539 E12.39578
G1 X60.834 Y63.067 E12.41789
G1 X61.185 Y62.617 E12.43973
