;FLAVOR:Marlin
;TIME:23654
;Filament used: 34.2957m
;Layer height: 0.35
;Generated with Cura_SteamEngine 3.6.0
M140 S60
M105
M190 S60
M104 S210
M105
M109 S210
M82 ;absolute extrusion mode
G21;(metric values)
G90;(absolute positioning)
M82;(set extruder to absolute mode)
M107;(start with the fan off)
G28;(Home the printer)
G92 E0;(Reset the extruder to 0)
G0 Z5 E5 F500;(Move up and prime the nozzle)
G0 X-1 Z0;(Move outside the printable area)
G1 Y60 E8 F500;(Draw a priming/wiping line to the rear)
G1 X-1;(Move a little closer to the print area)
G1 Y10 E16 F500;(draw more priming/wiping)
G1 E15 F250;(Small retract)
G92 E0;(Zero the extruder)
G92 E0
G1 F2400 E-2.5
;LAYER_COUNT:286
;LAYER:0
M107
G0 F4320 X78.865 Y45.898 Z0.35
;TYPE:SUPPORT
G1 F2400 E0
G1 F1260 X81.019 Y43.53 E0.16303
G1 X81.101 Y43.584 E0.16803
G1 X80.504 Y44.896 E0.24144
G1 X80.516 Y45.324 E0.26325
G1 X80.861 Y45.981 E0.30104
G1 X80.783 Y45.935 E0.30566
G1 X79.186 Y45.941 E0.38699
G0 F1134 X78.884 Y45.941
G0 X78.865 Y45.898
G0 F4320 X79.322 Y45.8
G1 F2400 E0.40477
G1 F1260 X79.322 Y45.602 E0.41485
G0 F4320 X80.482 Y44.327
G1 F1260 X80.608 Y44.327 E0.42127
G1 F2400 E-2.07873
;MESH:lowpolyskulllisa.stl
G0 F4320 X77.986 Y41.94
G0 X77.235 Y41.258
G0 X84.435 Y32.343
G0 X70.923 Y34.857
G0 X65.319 Y25.615
G0 X60.004 Y20.569
G0 X55.669 Y27.786
G0 X49.662 Y40.932
;TYPE:WALL-INNER
G1 F2400 E0.42127
G1 F1260 X55.541 Y27.716 E1.15794
G1 X59.858 Y20.501 E1.58615
G1 X59.969 Y20.314 E1.59723
G1 X60.126 Y20.464 E1.60396
G1 X65.432 Y25.522 E1.9773
G1 X70.999 Y34.688 E2.52347
G1 X84.397 Y32.174 E3.21774
G1 X84.909 Y32.078 E3.24427
G1 X84.559 Y32.463 E3.25819
G1 X67.308 Y51.428 E4.56389
G1 X67.772 Y52.472 E4.62207
G1 X83.037 Y52.429 E5.39952
G1 X83.862 Y53.998 E5.4898
G1 X84.807 Y58.88 E5.74305
G1 X84.809 Y58.965 E5.74738
G1 X84.183 Y65.414 E6.07737
G1 X79.585 Y75.231 E6.62947
G1 X80.179 Y77.936 E6.77052
G1 X77.708 Y81.939 E7.0101
G1 X66.272 Y87.81 E7.6648
G1 X49.611 Y86.45 E8.51616
G1 X40.863 Y80.272 E9.06159
G1 X35.889 Y69.423 E9.66943
G1 X35.656 Y63.036 E9.99494
G1 X38.655 Y59.7 E10.2234
G1 X38.763 Y56.028 E10.41049
G1 X41.099 Y46.557 E10.9073
G1 X42.894 Y46.557 E10.99872
G1 X43.398 Y45.674 E11.0505
G1 X37.938 Y36.456 E11.59615
G1 X37.672 Y36.007 E11.62272
G1 X38.154 Y36.205 E11.63668
G1 X49.662 Y40.932 E12.2703
G0 F4320 X49.48 Y40.479
G1 F1260 X55.229 Y27.556 E12.99065
G1 X59.783 Y19.945 E13.44236
G1 X59.894 Y19.758 E13.45344
G1 X60.051 Y19.908 E13.46017
G1 X65.707 Y25.3 E13.85815
G1 X71.172 Y34.299 E14.39436
G1 X85.359 Y31.637 E15.1295
G1 X85.563 Y31.599 E15.14007
G1 X85.639 Y31.795 E15.15078
G1 X85.5 Y31.948 E15.1593
G1 X67.721 Y51.495 E16.50502
G1 X67.999 Y52.121 E16.5399
G1 X83.249 Y52.078 E17.31658
G1 X84.196 Y53.882 E17.42035
G1 X85.156 Y58.839 E17.6775
G1 X85.16 Y58.973 E17.68433
G1 X84.525 Y65.508 E18.01872
G1 X79.952 Y75.272 E18.56783
G1 X80.551 Y78 E18.71008
G1 X77.955 Y82.205 E18.96176
G1 X66.342 Y88.167 E19.6266
G1 X49.487 Y86.791 E20.48787
G1 X40.584 Y80.504 E21.04296
G1 X35.541 Y69.505 E21.6592
G1 X35.301 Y62.908 E21.99541
G1 X38.309 Y59.561 E22.22459
G1 X38.414 Y55.98 E22.40705
G1 X40.825 Y46.207 E22.91971
G1 X42.691 Y46.207 E23.01474
G1 X42.993 Y45.677 E23.04581
G1 X37.104 Y35.735 E23.63431
G1 X36.838 Y35.286 E23.66089
G1 X37.32 Y35.484 E23.67485
G1 X49.48 Y40.479 E24.34437
G0 F4320 X49.311 Y40.058
;TYPE:WALL-OUTER
G1 F1260 X54.941 Y27.405 E25.04969
G1 X59.712 Y19.429 E25.52303
G1 X59.824 Y19.242 E25.53413
G1 X59.981 Y19.392 E25.54087
G1 X59.982 Y19.393 E25.54095
G1 X65.964 Y25.097 E25.96191
G1 X71.333 Y33.938 E26.4887
G1 X85.769 Y31.23 E27.23675
G1 X85.995 Y31.816 E27.26873
G1 X85.931 Y31.957 E27.27662
G1 X68.172 Y51.482 E28.62082
G1 X68.104 Y51.557 E28.62598
G1 X68.21 Y51.795 E28.63925
G1 X68.312 Y51.795 E28.64444
G1 X83.445 Y51.752 E29.41516
G1 X84.506 Y53.773 E29.53141
G1 X85.48 Y58.804 E29.7924
G1 X85.486 Y58.978 E29.80126
G1 X84.842 Y65.596 E30.13991
G1 X80.293 Y75.31 E30.6862
G1 X80.897 Y78.06 E30.82959
G1 X78.211 Y82.409 E31.08992
G1 X78.174 Y82.457 E31.09301
G1 X66.407 Y88.498 E31.76666
G1 X49.373 Y87.108 E32.63708
G1 X40.325 Y80.718 E33.20122
G1 X35.228 Y69.601 E33.82408
G1 X35.217 Y69.547 E33.82688
G1 X34.971 Y62.789 E34.17129
G1 X37.988 Y59.432 E34.40117
G1 X38.09 Y55.934 E34.57939
G1 X40.57 Y45.882 E35.10669
G1 X42.399 Y45.882 E35.19984
G1 X42.502 Y45.882 E35.20508
G1 X42.617 Y45.68 E35.21692
G1 X42.565 Y45.592 E35.22213
G1 X36.328 Y35.064 E35.84534
G1 X36.062 Y34.615 E35.87192
G1 X36.544 Y34.813 E35.88588
G1 X49.311 Y40.058 E36.58883
G0 F4320 X49.392 Y39.876
G0 X49.642 Y39.988
G0 X49.721 Y41.079
G0 X49.839 Y41.372
;TYPE:SKIN
G1 F1260 X55.843 Y27.875 E37.34117
G1 X60.042 Y20.854 E37.75782
G1 X65.163 Y25.736 E38.11815
G1 X70.83 Y35.065 E38.67407
G1 X83.976 Y32.599 E39.35527
G1 X66.908 Y51.364 E40.64715
G1 X67.551 Y52.812 E40.72784
G1 X82.832 Y52.769 E41.5061
G1 X83.538 Y54.112 E41.58338
G1 X84.467 Y58.917 E41.83262
G1 X84.469 Y58.957 E41.83466
G1 X83.851 Y65.324 E42.16046
G1 X79.228 Y75.192 E42.71545
G1 X79.818 Y77.874 E42.85531
G1 X77.469 Y81.679 E43.08305
G1 X66.201 Y87.464 E43.72813
G1 X49.733 Y86.12 E44.56963
G1 X41.134 Y80.047 E45.10578
G1 X36.227 Y69.343 E45.70549
G1 X36.001 Y63.161 E46.02054
G1 X38.991 Y59.834 E46.24836
G1 X39.102 Y56.074 E46.43994
G1 X41.365 Y46.897 E46.92132
G1 X43.092 Y46.897 E47.00927
G1 X43.791 Y45.67 E47.08119
G1 X38.482 Y36.707 E47.61174
G1 X49.358 Y41.175 E48.21057
G0 F1134 X49.839 Y41.372
G0 F4320 X49.721 Y41.079
G0 X55.669 Y27.786
G0 X60.004 Y20.569
G0 X65.319 Y25.615
G0 X70.923 Y34.857
G0 X84.435 Y32.343
G0 X83.744 Y33.231
G0 X83.401 Y32.914
G1 F2400 E48.23706
G1 F1260 X83.075 Y33.082 E48.26501
G1 X82.771 Y33.239 E48.29109
G0 F1134 X82.748 Y33.251
G0 F4320 X82.734 Y33.731
G1 F2400 E48.29315
G1 F1260 X82.111 Y33.108 E48.33802
G0 F4320 X81.694 Y33.187
G1 F1260 X82.498 Y33.99 E48.39589
G0 F4320 X82.262 Y34.25
G1 F1260 X81.277 Y33.265 E48.46684
G0 F4320 X80.861 Y33.343
G1 F1260 X82.026 Y34.508 E48.55075
G0 F4320 X81.791 Y34.768
G1 F1260 X80.444 Y33.421 E48.64777
G0 F4320 X80.027 Y33.499
G1 F1260 X81.554 Y35.027 E48.75779
G0 F4320 X81.319 Y35.286
G1 F1260 X79.61 Y33.577 E48.88088
G0 F4320 X79.193 Y33.656
G1 F1260 X81.083 Y35.546 E49.017
G0 F4320 X80.847 Y35.805
G1 F1260 X78.777 Y33.734 E49.16613
G0 F4320 X78.36 Y33.812
G1 F1260 X80.612 Y36.064 E49.32833
G0 F4320 X80.376 Y36.323
G1 F1260 X77.943 Y33.89 E49.50357
G0 F4320 X77.526 Y33.968
G1 F1260 X80.14 Y36.582 E49.69185
G0 F4320 X79.905 Y36.842
G1 F1260 X77.109 Y34.047 E49.89319
G0 F4320 X76.692 Y34.124
G1 F1260 X79.669 Y37.101 E50.10761
G0 F4320 X79.433 Y37.36
G1 F1260 X76.276 Y34.203 E50.335
G0 F4320 X75.859 Y34.281
G1 F1260 X79.197 Y37.619 E50.57542
G0 F4320 X78.961 Y37.879
G1 F1260 X75.442 Y34.359 E50.82891
G0 F4320 X75.026 Y34.438
G1 F1260 X78.725 Y38.137 E51.09533
G0 F4320 X78.49 Y38.397
G1 F1260 X74.608 Y34.516 E51.3749
G0 F4320 X74.192 Y34.594
G1 F1260 X78.254 Y38.656 E51.66746
G0 F4320 X78.018 Y38.915
G1 F1260 X73.775 Y34.672 E51.97307
G0 F4320 X73.358 Y34.75
G1 F1260 X77.783 Y39.175 E52.29178
G0 F4320 X77.546 Y39.433
G1 F1260 X72.941 Y34.828 E52.62346
G0 F4320 X72.525 Y34.907
G1 F1260 X77.311 Y39.693 E52.96817
G0 F4320 X77.075 Y39.952
G1 F1260 X72.107 Y34.984 E53.32599
G0 F4320 X71.691 Y35.063
G1 F1260 X76.839 Y40.211 E53.69678
G0 F4320 X76.604 Y40.471
G1 F1260 X71.274 Y35.141 E54.08067
G0 F4320 X70.857 Y35.219
G1 F1260 X76.368 Y40.73 E54.4776
G0 F4320 X76.132 Y40.989
G1 F1260 X58.642 Y23.499 E55.73733
G0 F4320 X58.457 Y23.808
G1 F1260 X75.896 Y41.248 E56.99341
G0 F4320 X75.661 Y41.507
G1 F1260 X58.271 Y24.118 E58.2459
G0 F4320 X58.086 Y24.428
G1 F1260 X75.425 Y41.767 E59.49474
G0 F4320 X75.189 Y42.026
G1 F1260 X57.901 Y24.738 E60.73992
G0 F4320 X57.716 Y25.047
G1 F1260 X74.954 Y42.285 E61.98149
G0 F4320 X74.717 Y42.544
G1 F1260 X57.53 Y25.357 E63.21939
G0 F4320 X57.345 Y25.667
G1 F1260 X74.482 Y42.804 E64.45368
G0 F4320 X74.246 Y43.062
G1 F1260 X57.16 Y25.976 E65.68431
G0 F4320 X56.975 Y26.286
G1 F1260 X74.01 Y43.322 E66.9113
G0 F4320 X73.775 Y43.581
G1 F1260 X56.789 Y26.596 E68.13468
G0 F4320 X56.604 Y26.906
G1 F1260 X73.539 Y43.84 E69.35439
G0 F4320 X73.303 Y44.1
G1 F1260 X56.419 Y27.215 E70.57051
G0 F4320 X56.234 Y27.525
G1 F1260 X73.067 Y44.358 E71.78291
G0 F4320 X72.831 Y44.618
G1 F1260 X56.048 Y27.835 E72.99171
G0 F4320 X55.884 Y28.166
G1 F1260 X72.595 Y44.877 E74.19532
G0 F4320 X72.36 Y45.136
G1 F1260 X55.732 Y28.508 E75.39296
G0 F4320 X55.58 Y28.851
G1 F1260 X72.124 Y45.396 E76.58458
G0 F4320 X71.888 Y45.655
G1 F1260 X55.427 Y29.193 E77.77023
G0 F4320 X55.275 Y29.536
G1 F1260 X71.653 Y45.914 E78.94986
G0 F4320 X71.417 Y46.173
G1 F1260 X55.122 Y29.878 E80.12351
G0 F4320 X54.97 Y30.221
G1 F1260 X71.181 Y46.432 E81.29111
G0 F4320 X70.946 Y46.692
G1 F1260 X54.817 Y30.563 E82.45281
G0 F4320 X54.665 Y30.906
G1 F1260 X70.709 Y46.951 E83.60842
G0 F4320 X70.474 Y47.21
G1 F1260 X54.512 Y31.249 E84.75805
G0 F4320 X54.36 Y31.591
G1 F1260 X70.238 Y47.469 E85.90167
G0 F4320 X70.002 Y47.729
G1 F1260 X54.208 Y31.934 E87.03927
G0 F4320 X54.055 Y32.276
G1 F1260 X69.766 Y47.987 E88.17086
G0 F4320 X69.531 Y48.247
G1 F1260 X53.903 Y32.619 E89.29647
G0 F4320 X53.75 Y32.961
G1 F1260 X69.295 Y48.506 E90.41611
G0 F4320 X69.059 Y48.765
G1 F1260 X53.598 Y33.304 E91.52969
G0 F4320 X53.445 Y33.646
G1 F1260 X68.824 Y49.025 E92.63737
G0 F4320 X68.587 Y49.283
G1 F1260 X53.293 Y33.989 E93.73892
G0 F4320 X53.141 Y34.332
G1 F1260 X68.352 Y49.543 E94.8345
G0 F4320 X68.116 Y49.802
G1 F1260 X52.989 Y34.675 E95.92403
G0 F4320 X52.836 Y35.017
G1 F1260 X67.88 Y50.061 E97.00757
G0 F4320 X67.645 Y50.321
G1 F1260 X52.684 Y35.36 E98.08514
G0 F4320 X52.531 Y35.702
G1 F1260 X67.409 Y50.58 E99.15674
G0 F4320 X67.173 Y50.839
G1 F1260 X52.379 Y36.045 E100.22228
G0 F4320 X52.226 Y36.387
G1 F1260 X66.937 Y51.098 E101.28184
G0 F4320 X66.755 Y51.411
G1 F1260 X52.074 Y36.73 E102.33925
G0 F4320 X51.922 Y37.072
G1 F1260 X67.151 Y52.302 E103.43616
G1 X67.213 Y52.364
G0 F4320 X67.562 Y52.21
G0 X67.817 Y52.556
G0 X67.817 Y52.967
G1 F1260 X82.56 Y67.711 E104.49806
G0 F4320 X82.718 Y67.373
G1 F1260 X68.31 Y52.966 E105.53577
G0 F4320 X68.804 Y52.965
G1 F1260 X82.875 Y67.036 E106.54923
G0 F4320 X83.034 Y66.699
G1 F1260 X69.297 Y52.963 E107.53861
G0 F4320 X69.791 Y52.962
G1 F1260 X83.191 Y66.362 E108.50375
G0 F4320 X83.349 Y66.025
G1 F1260 X70.284 Y52.96 E109.44476
G0 F4320 X70.778 Y52.959
G1 F1260 X83.507 Y65.688 E110.36157
G0 F4320 X83.665 Y65.351
G1 F1260 X71.272 Y52.958 E111.25418
G0 F4320 X71.765 Y52.956
G1 F1260 X83.732 Y64.923 E112.11611
G0 F4320 X83.776 Y64.472
G1 F1260 X72.259 Y52.955 E112.94562
G0 F4320 X72.752 Y52.953
G1 F1260 X83.819 Y64.02 E113.74273
G0 F4320 X83.863 Y63.569
G1 F1260 X73.246 Y52.952 E114.50742
G0 F4320 X73.739 Y52.95
G1 F1260 X83.907 Y63.118 E115.23977
G0 F4320 X83.951 Y62.667
G1 F1260 X74.233 Y52.949 E115.93971
G0 F4320 X74.727 Y52.948
G1 F1260 X83.994 Y62.215 E116.60717
G0 F4320 X84.038 Y61.764
G1 F1260 X75.22 Y52.946 E117.24229
G0 F4320 X75.714 Y52.946
G1 F1260 X84.082 Y61.313 E117.84496
G0 F4320 X84.125 Y60.862
G1 F1260 X76.208 Y52.944 E118.41522
G0 F4320 X76.701 Y52.943
G1 F1260 X84.169 Y60.41 E118.95307
G0 F4320 X84.212 Y59.959
G1 F1260 X77.195 Y52.941 E119.45851
G0 F4320 X77.689 Y52.94
G1 F1260 X84.256 Y59.507 E119.9315
G0 F4320 X84.3 Y59.056
G1 F1260 X78.182 Y52.938 E120.37215
G0 F4320 X78.676 Y52.937
G1 F1260 X84.223 Y58.484 E120.77167
G0 F4320 X84.104 Y57.871
G1 F1260 X79.169 Y52.936 E121.12712
G0 F4320 X79.663 Y52.934
G1 F1260 X83.985 Y57.257 E121.43845
G0 F4320 X83.867 Y56.643
G1 F1260 X80.156 Y52.933 E121.7057
G0 F4320 X80.65 Y52.931
G1 F1260 X83.748 Y56.029 E121.92883
G0 F4320 X83.629 Y55.415
G1 F1260 X81.144 Y52.93 E122.10782
G0 F4320 X81.637 Y52.929
G1 F1260 X83.51 Y54.802 E122.24272
G0 F4320 X83.391 Y54.188
G1 F1260 X82.131 Y52.927 E122.33351
G0 F4320 X82.624 Y52.926
G1 F1260 X82.862 Y53.163 E122.35061
G0 F4320 X83.226 Y52.972
G0 X83.722 Y54.047
G0 X84.663 Y58.961
G0 X84.04 Y65.373
G0 X82.772 Y68.222
G0 X82.401 Y68.047
G1 F1260 X51.77 Y37.415 E124.55686
G0 F4320 X51.617 Y37.758
G1 F1260 X82.244 Y68.385 E126.76278
G0 F4320 X82.085 Y68.721
G1 F1260 X51.465 Y38.101 E128.96819
G0 F4320 X51.312 Y38.443
G1 F1260 X81.928 Y69.058 E131.17328
G0 F4320 X81.77 Y69.396
G1 F1260 X51.16 Y38.786 E133.37798
G0 F4320 X51.007 Y39.128
G1 F1260 X81.612 Y69.732 E135.58227
G0 F4320 X81.454 Y70.07
G1 F1260 X50.855 Y39.471 E137.78618
G0 F4320 X50.703 Y39.813
G1 F1260 X81.296 Y70.407 E139.98968
G0 F4320 X81.138 Y70.743
G1 F1260 X50.551 Y40.156 E142.19272
G0 F4320 X50.398 Y40.498
G1 F1260 X80.98 Y71.081 E144.39543
G0 F4320 X80.822 Y71.417
G1 F1260 X50.246 Y40.841 E146.59768
G0 F4320 X50.093 Y41.184
G1 F1260 X80.664 Y71.755 E148.79957
G0 F4320 X80.506 Y72.092
G1 F1260 X49.941 Y41.526 E151.00106
G1 X49.879 Y41.464
G0 F4320 X49.721 Y41.079
G0 X49.354 Y40.898
G0 X49.198 Y41.278
G1 F1260 X80.348 Y72.428 E153.24464
G0 F4320 X80.19 Y72.766
G1 F1260 X48.358 Y40.933 E155.53739
G1 X48.296 Y40.871
G0 F4320 X48.439 Y40.523
G0 X47.672 Y40.208
G0 X47.517 Y40.587
G1 F1260 X80.033 Y73.103 E157.87936
G0 F4320 X79.874 Y73.44
G1 F1260 X46.677 Y40.242 E160.27042
G1 X46.615 Y40.18
G0 F4320 X46.757 Y39.832
G0 X45.992 Y39.518
G0 X45.837 Y39.897
G1 F1260 X79.717 Y73.777 E162.71064
G0 F4320 X79.559 Y74.114
G1 F1260 X44.997 Y39.552 E165.19998
G1 X44.935 Y39.49
G0 F4320 X45.078 Y39.142
G0 X44.312 Y38.828
G0 X44.157 Y39.207
G1 F1260 X79.401 Y74.451 E167.73844
G0 F4320 X79.243 Y74.788
G1 F1260 X43.317 Y38.862 E170.32602
G1 X43.255 Y38.8
G0 F4320 X43.398 Y38.452
G0 X42.633 Y38.138
G0 X42.477 Y38.517
G1 F1260 X79.084 Y75.125 E172.96269
G0 F4320 X79.182 Y75.717
G1 F1260 X41.637 Y38.172 E175.66688
G1 X41.575 Y38.11
G0 F4320 X41.717 Y37.762
G0 X38.082 Y36.362
G0 X39.715 Y39.289
G0 X40.07 Y39.08
G1 F1260 X79.339 Y78.349 E178.49524
G0 F4320 X79.528 Y78.043
G1 F1260 X39.351 Y37.866 E181.389
G1 X39.289 Y37.804
G0 F4320 X38.952 Y38.002
G0 X38.082 Y36.362
G0 X40.111 Y37.102
G0 X39.956 Y37.481
G1 F1260 X79.461 Y76.986 E184.23436
G0 F4320 X79.322 Y76.352
G1 F1260 X40.796 Y37.826 E187.00921
G1 X40.734 Y37.764
G0 F4320 X40.876 Y37.416
G0 X39.271 Y36.757
G0 X39.116 Y37.136
G1 F1260 X79.601 Y77.621 E189.92515
G1 X79.663 Y77.683
G0 F4320 X80.019 Y77.606
G0 X80.019 Y77.851
G0 X79.502 Y78.871
G0 X79.15 Y78.655
G1 F1260 X40.79 Y40.295 E192.68804
G1 X40.728 Y40.233
G0 F4320 X40.391 Y40.431
G0 X41.154 Y41.718
G0 X41.509 Y41.509
G1 F1260 X78.961 Y78.961 E195.38553
G0 F4320 X78.773 Y79.268
G1 F1260 X42.229 Y42.724 E198.01763
G1 X42.167 Y42.662
G0 F4320 X41.831 Y42.861
G0 X42.593 Y44.148
G0 X42.948 Y43.938
G1 F1260 X78.583 Y79.573 E200.58425
G0 F4320 X78.394 Y79.879
G1 F1260 X43.667 Y45.152 E203.08547
G1 X43.605 Y45.09
G0 F4320 X43.269 Y45.289
G0 X43.514 Y45.644
G0 X43.868 Y45.848
G1 F1260 X78.206 Y80.185 E205.55864
G0 F4320 X78.017 Y80.492
G1 F1260 X43.688 Y46.163 E208.0312
G0 F4320 X43.508 Y46.478
G1 F1260 X77.828 Y80.798 E210.50311
G0 F4320 X77.639 Y81.104
G1 F1260 X43.33 Y46.794 E212.97426
G0 F4320 X43.093 Y47.053
G1 F1260 X77.45 Y81.409 E215.44879
G0 F4320 X77.189 Y81.643
G1 F1260 X42.598 Y47.053 E217.94019
G0 F4320 X42.103 Y47.053
G1 F1260 X76.862 Y81.812 E220.44371
G0 F4320 X76.535 Y81.979
G1 F1260 X41.608 Y47.053 E222.95931
G0 F4320 X41.413 Y47.353
G1 F1260 X76.208 Y82.148 E225.46543
G0 F4320 X75.881 Y82.315
G1 F1260 X41.315 Y47.75 E227.95502
G0 F4320 X41.217 Y48.147
G1 F1260 X75.554 Y82.484 E230.42815
G0 F4320 X75.226 Y82.651
G1 F1260 X41.119 Y48.544 E232.88472
G0 F4320 X41.022 Y48.941
G1 F1260 X74.9 Y82.819 E235.32479
G0 F4320 X74.572 Y82.987
G1 F1260 X40.923 Y49.338 E237.74837
G0 F4320 X40.826 Y49.735
G1 F1260 X74.246 Y83.155 E240.15546
G0 F4320 X73.918 Y83.323
G1 F1260 X40.727 Y50.132 E242.54605
G0 F4320 X40.63 Y50.529
G1 F1260 X73.592 Y83.491 E244.92015
G0 F4320 X73.264 Y83.659
G1 F1260 X40.532 Y50.926 E247.27771
G0 F4320 X40.434 Y51.323
G1 F1260 X72.938 Y83.827 E249.61882
G0 F4320 X72.61 Y83.995
G1 F1260 X40.336 Y51.72 E251.9434
G0 F4320 X40.238 Y52.118
G1 F1260 X72.283 Y84.163 E254.25146
G0 F4320 X71.956 Y84.33
G1 F1260 X40.14 Y52.514 E256.54301
G0 F4320 X40.042 Y52.912
