;FLAVOR:Marlin
;TIME:1689
;Filament used: 1.6651m
;Layer height: 0.3
;Generated with Cura_SteamEngine 4.0.0
M140 S60
M105
M190 S60
M104 S200
M105
M109 S200
M82 ;absolute extrusion mode
; Ender 3 Custom Start G-code
G28 ; Home all axes
G92 E0 ; Reset Extruder
G1 Z2.0 F3000 ; Move Z Axis up little to prevent scratching of Heat Bed
G1 X0.1 Y20 Z0.3 F5000.0 ; Move to start position
G1 X0.1 Y200.0 Z0.3 F1500.0 E15 ; Draw the first line
G1 X0.4 Y200.0 Z0.3 F5000.0 ; Move to side a little
G1 X0.4 Y20 Z0.3 F1500.0 E30 ; Draw the second line
G92 E0 ; Reset Extruder
G1 Z2.0 F3000 ; Move Z Axis up little to prevent scratching of Heat Bed
; End of custom start GCode
G92 E0
G1 F2400 E-5
;LAYER_COUNT:36
;LAYER:0
M107
M204 S5000
M205 X30 Y30
G0 F3600 X83.003 Y102.517 Z0.2
M204 S500
M205 X20 Y20
;TYPE:SKIRT
G1 F2400 E0
G1 F1350 X83.585 Y102.102 E0.02377
G1 X84.21 Y101.753 E0.04758
G1 X84.87 Y101.477 E0.07138
G1 X85.556 Y101.276 E0.09515
G1 X86.261 Y101.153 E0.11896
G1 X87.009 Y101.109 E0.14388
G1 X147.991 Y101.11 E2.17215
G1 X148.705 Y101.15 E2.19593
G1 X149.41 Y101.269 E2.21971
G1 X150.098 Y101.467 E2.24352
G1 X150.759 Y101.74 E2.26731
G1 X151.386 Y102.085 E2.29111
G1 X151.97 Y102.497 E2.31488
G1 X152.504 Y102.973 E2.33868
G1 X152.983 Y103.504 E2.36246
G1 X153.398 Y104.086 E2.38624
G1 X153.747 Y104.711 E2.41004
G1 X154.023 Y105.371 E2.43384
G1 X154.224 Y106.057 E2.45761
G1 X154.347 Y106.762 E2.48142
G1 X154.391 Y107.51 E2.50634
G1 X154.391 Y127.491 E3.17091
G1 X154.351 Y128.205 E3.19469
G1 X154.232 Y128.91 E3.21847
G1 X154.034 Y129.598 E3.24229
G1 X153.761 Y130.259 E3.26607
G1 X153.417 Y130.886 E3.28986
G1 X153.004 Y131.47 E3.31365
G1 X152.529 Y132.004 E3.33742
G1 X151.997 Y132.483 E3.36123
G1 X151.415 Y132.898 E3.385
G1 X150.79 Y133.247 E3.40881
G1 X150.13 Y133.523 E3.43261
G1 X149.444 Y133.724 E3.45638
G1 X148.739 Y133.847 E3.48019
G1 X147.991 Y133.891 E3.50511
G1 X87.009 Y133.891 E5.53338
G1 X86.295 Y133.851 E5.55716
G1 X85.59 Y133.732 E5.58094
G1 X84.902 Y133.534 E5.60475
G1 X84.241 Y133.261 E5.62854
G1 X83.614 Y132.917 E5.65233
G1 X83.03 Y132.504 E5.67612
G1 X82.496 Y132.029 E5.69989
G1 X82.017 Y131.497 E5.7237
G1 X81.602 Y130.915 E5.74747
G1 X81.253 Y130.29 E5.77128
G1 X80.977 Y129.63 E5.79507
G1 X80.776 Y128.944 E5.81885
G1 X80.653 Y128.239 E5.84265
G1 X80.609 Y127.491 E5.86757
G1 X80.609 Y107.509 E6.53218
G1 X80.649 Y106.795 E6.55596
G1 X80.768 Y106.09 E6.57974
G1 X80.966 Y105.402 E6.60355
G1 X81.239 Y104.741 E6.62734
G1 X81.583 Y104.114 E6.65113
G1 X81.996 Y103.53 E6.67492
G1 X82.471 Y102.996 E6.69869
G1 X83.003 Y102.517 E6.7225
M204 S5000
M205 X30 Y30
G0 F3600 X83.393 Y102.721
M204 S500
M205 X20 Y20
G1 F1350 X83.968 Y102.336 E6.74551
G1 X84.585 Y102.021 E6.76856
G1 X85.233 Y101.778 E6.79157
G1 X85.906 Y101.611 E6.81464
G1 X86.592 Y101.523 E6.83764
G1 X87.009 Y101.509 E6.85152
G1 X147.991 Y101.51 E8.87979
G1 X148.682 Y101.55 E8.90281
G1 X149.365 Y101.669 E8.92587
G1 X150.029 Y101.867 E8.94891
G1 X150.665 Y102.139 E8.97192
G1 X151.266 Y102.483 E8.99495
G1 X151.824 Y102.894 E9.018
G1 X152.33 Y103.366 E9.04102
G1 X152.779 Y103.894 E9.06407
G1 X153.164 Y104.47 E9.08711
G1 X153.479 Y105.086 E9.11012
G1 X153.722 Y105.734 E9.13314
G1 X153.889 Y106.407 E9.15621
G1 X153.977 Y107.094 E9.17924
G1 X153.991 Y107.51 E9.19309
G1 X153.991 Y127.491 E9.85766
G1 X153.951 Y128.182 E9.88068
G1 X153.832 Y128.865 E9.90374
G1 X153.634 Y129.528 E9.92675
G1 X153.362 Y130.165 E9.94979
G1 X153.018 Y130.766 E9.97282
G1 X152.607 Y131.324 E9.99587
G1 X152.135 Y131.83 E10.01888
G1 X151.607 Y132.279 E10.04194
G1 X151.032 Y132.664 E10.06495
G1 X150.415 Y132.979 E10.08799
G1 X149.767 Y133.222 E10.11101
G1 X149.094 Y133.389 E10.13408
G1 X148.408 Y133.477 E10.15708
G1 X147.991 Y133.491 E10.17096
G1 X87.009 Y133.491 E12.19923
G1 X86.318 Y133.451 E12.22225
G1 X85.635 Y133.332 E12.24531
G1 X84.972 Y133.134 E12.26832
G1 X84.335 Y132.862 E12.29136
G1 X83.734 Y132.518 E12.31439
G1 X83.176 Y132.107 E12.33744
G1 X82.67 Y131.635 E12.36045
G1 X82.221 Y131.107 E12.38351
G1 X81.836 Y130.532 E12.40652
G1 X81.521 Y129.915 E12.42956
G1 X81.278 Y129.267 E12.45258
G1 X81.111 Y128.594 E12.47564
G1 X81.023 Y127.908 E12.49865
G1 X81.009 Y127.491 E12.51253
G1 X81.009 Y107.509 E13.17713
G1 X81.049 Y106.818 E13.20015
G1 X81.168 Y106.135 E13.22321
G1 X81.366 Y105.472 E13.24622
G1 X81.638 Y104.835 E13.26926
G1 X81.982 Y104.234 E13.29229
G1 X82.393 Y103.676 E13.31534
G1 X82.865 Y103.17 E13.33836
G1 X83.393 Y102.721 E13.36141
M204 S5000
M205 X30 Y30
G0 F3600 X83.258 Y103.351
M204 S500
M205 X20 Y20
G1 F1350 X83.78 Y102.933 E13.38365
G1 X84.349 Y102.581 E13.40591
G1 X84.956 Y102.299 E13.42817
G1 X85.592 Y102.091 E13.45042
G1 X86.248 Y101.961 E13.47267
G1 X87.009 Y101.909 E13.49804
G1 X147.991 Y101.91 E15.52631
G1 X148.659 Y101.95 E15.54856
G1 X149.317 Y102.069 E15.5708
G1 X149.957 Y102.266 E15.59308
G1 X150.568 Y102.538 E15.61532
G1 X151.142 Y102.881 E15.63756
G1 X151.672 Y103.29 E15.65983
G1 X152.149 Y103.759 E15.68208
G1 X152.567 Y104.282 E15.70434
G1 X152.919 Y104.85 E15.72657
G1 X153.201 Y105.457 E15.74883
G1 X153.409 Y106.093 E15.77109
G1 X153.539 Y106.749 E15.79333
G1 X153.591 Y107.51 E15.8187
G1 X153.591 Y127.491 E16.48327
G1 X153.551 Y128.159 E16.50553
G1 X153.432 Y128.817 E16.52777
G1 X153.235 Y129.457 E16.55004
G1 X152.963 Y130.068 E16.57229
G1 X152.62 Y130.642 E16.59453
G1 X152.211 Y131.172 E16.61679
G1 X151.742 Y131.649 E16.63904
G1 X151.22 Y132.067 E16.66128
G1 X150.651 Y132.419 E16.68354
G1 X150.044 Y132.701 E16.7058
G1 X149.408 Y132.909 E16.72805
G1 X148.752 Y133.039 E16.7503
G1 X147.991 Y133.091 E16.77567
G1 X87.009 Y133.091 E18.80394
G1 X86.341 Y133.051 E18.82619
G1 X85.683 Y132.932 E18.84843
G1 X85.043 Y132.735 E18.87071
G1 X84.432 Y132.463 E18.89295
G1 X83.858 Y132.12 E18.91519
G1 X83.328 Y131.711 E18.93746
G1 X82.851 Y131.242 E18.95971
G1 X82.433 Y130.72 E18.98195
G1 X82.081 Y130.151 E19.0042
G1 X81.799 Y129.544 E19.02646
G1 X81.591 Y128.908 E19.04872
G1 X81.461 Y128.252 E19.07096
G1 X81.409 Y127.491 E19.09633
G1 X81.409 Y107.509 E19.76094
G1 X81.449 Y106.841 E19.7832
G1 X81.568 Y106.183 E19.80544
G1 X81.765 Y105.543 E19.82771
G1 X82.037 Y104.932 E19.84995
G1 X82.38 Y104.358 E19.87219
G1 X82.789 Y103.828 E19.89446
G1 X83.258 Y103.351 E19.91671
M204 S5000
M205 X30 Y30
G0 F3600 X83.649 Y103.54
M204 S500
M205 X20 Y20
G1 F1350 X84.166 Y103.155 E19.93815
G1 X84.727 Y102.836 E19.95961
G1 X85.323 Y102.59 E19.98106
G1 X85.944 Y102.419 E20.00248
G1 X86.582 Y102.327 E20.02392
G1 X87.009 Y102.309 E20.03813
G1 X147.991 Y102.31 E22.0664
G1 X148.635 Y102.35 E22.08787
G1 X149.268 Y102.469 E22.10929
G1 X149.882 Y102.666 E22.13073
G1 X150.467 Y102.937 E22.15218
G1 X151.014 Y103.279 E22.17364
G1 X151.514 Y103.685 E22.19506
G1 X151.96 Y104.151 E22.21651
G1 X152.345 Y104.667 E22.23792
G1 X152.664 Y105.228 E22.25939
G1 X152.91 Y105.824 E22.28083
G1 X153.081 Y106.445 E22.30226
G1 X153.173 Y107.083 E22.3237
G1 X153.191 Y107.51 E22.33791
G1 X153.191 Y127.491 E23.00248
G1 X153.151 Y128.134 E23.02391
G1 X153.032 Y128.768 E23.04536
G1 X152.835 Y129.382 E23.06681
G1 X152.564 Y129.967 E23.08826
G1 X152.222 Y130.514 E23.10971
G1 X151.816 Y131.014 E23.13113
G1 X151.351 Y131.46 E23.15256
G1 X150.834 Y131.845 E23.174
G1 X150.273 Y132.164 E23.19547
G1 X149.677 Y132.41 E23.21691
G1 X149.056 Y132.581 E23.23834
G1 X148.418 Y132.673 E23.25978
G1 X147.991 Y132.691 E23.27399
G1 X87.009 Y132.691 E25.30226
G1 X86.366 Y132.651 E25.32369
G1 X85.732 Y132.532 E25.34514
G1 X85.118 Y132.335 E25.36659
G1 X84.533 Y132.064 E25.38803
G1 X83.986 Y131.722 E25.40949
G1 X83.486 Y131.316 E25.43091
G1 X83.04 Y130.851 E25.45234
G1 X82.655 Y130.334 E25.47378
G1 X82.336 Y129.773 E25.49525
G1 X82.09 Y129.177 E25.51669
G1 X81.919 Y128.556 E25.53812
G1 X81.827 Y127.918 E25.55955
G1 X81.809 Y127.491 E25.57377
G1 X81.809 Y107.509 E26.23837
G1 X81.849 Y106.866 E26.2598
G1 X81.968 Y106.232 E26.28126
G1 X82.165 Y105.618 E26.3027
G1 X82.436 Y105.033 E26.32415
G1 X82.778 Y104.486 E26.3456
G1 X83.184 Y103.986 E26.36703
G1 X83.649 Y103.54 E26.38846
M204 S5000
M205 X30 Y30
G1 F2400 E21.38846
;MESH:Mighty Turing.stl
G0 F3600 X91.086 Y106.872
G0 X91.126 Y106.89
G0 X97.182 Y109.604
G0 X97.255 Y109.637
G0 X98.854 Y110.354
G0 X98.927 Y110.386
G0 X107.319 Y114.147
G0 X107.359 Y114.049
G0 X107.363 Y114.186
G0 X107.465 Y114.213
G0 X108.805 Y114.249
G0 X110.011 Y113.828
G0 X110.033 Y113.731
M204 S500
M205 X20 Y20
;TYPE:WALL-INNER
G1 F2400 E26.38846
G1 F1350 X110.136 Y113.769 E26.39211
G1 X110.199 Y113.821 E26.39482
G1 X110.253 Y113.908 E26.39823
G1 X110.305 Y114.092 E26.40459
G1 X110.326 Y114.356 E26.4134
G1 X110.318 Y114.567 E26.42042
G1 X110.294 Y114.718 E26.42551
G1 X110.248 Y114.874 E26.43092
G1 X110.207 Y114.965 E26.43424
G1 X110.15 Y115.051 E26.43767
G1 X110.079 Y115.127 E26.44113
G1 X109.982 Y115.199 E26.44514
G1 X109.862 Y115.261 E26.44964
G1 X109.68 Y115.327 E26.45608
G1 X109.47 Y115.374 E26.46323
G1 X109.184 Y115.414 E26.47284
G1 X108.944 Y115.433 E26.48085
G1 X108.859 Y115.439 E26.48368
G1 X108.617 Y115.45 E26.49174
G1 X108.617 Y115.439
G1 X108.617 Y115.354 E26.49416
G1 X108.618 Y114.966 E26.50706
G1 X108.628 Y114.774 E26.51346
G1 X108.663 Y114.569 E26.52037
G1 X108.706 Y114.425 E26.52537
G1 X108.788 Y114.24 E26.5321
G1 X108.845 Y114.145 E26.53579
G1 X108.94 Y114.03 E26.54075
G1 X109.047 Y113.934 E26.54553
G1 X109.147 Y113.867 E26.54953
G1 X109.307 Y113.791 E26.55542
G1 X109.443 Y113.749 E26.56016
G1 X109.61 Y113.721 E26.56579
G1 X109.824 Y113.71 E26.57292
G1 X110.033 Y113.731 E26.5799
M204 S5000
M205 X30 Y30
G0 F3600 X110.011 Y113.828
G0 X108.686 Y115.378
G0 X108.425 Y115.86
M204 S500
M205 X20 Y20
;TYPE:WALL-OUTER
G1 F1350 X108.424 Y115.861 E26.57995
G1 X108.216 Y115.869 E26.58687
G1 X108.216 Y115.661 E26.59131
G1 X108.216 Y115.66 E26.59134
G1 X108.218 Y114.965 E26.61446
G1 X108.231 Y114.722 E26.62255
G1 X108.271 Y114.483 E26.63061
G1 X108.331 Y114.283 E26.63755
G1 X108.43 Y114.06 E26.64567
G1 X108.521 Y113.908 E26.65156
G1 X108.649 Y113.754 E26.65822
G1 X108.797 Y113.621 E26.66484
G1 X108.954 Y113.516 E26.67112
G1 X109.156 Y113.419 E26.67857
G1 X109.352 Y113.359 E26.68539
G1 X109.565 Y113.323 E26.69258
G1 X109.837 Y113.309 E26.70164
G1 X110.124 Y113.338 E26.71123
G1 X110.338 Y113.417 E26.71882
G1 X110.505 Y113.556 E26.72604
G1 X110.623 Y113.746 E26.73348
G1 X110.701 Y114.023 E26.74305
G1 X110.727 Y114.356 E26.75416
G1 X110.717 Y114.6 E26.76229
G1 X110.685 Y114.806 E26.76922
G1 X110.623 Y115.014 E26.77644
G1 X110.557 Y115.16 E26.78177
G1 X110.466 Y115.298 E26.78727
G1 X110.346 Y115.428 E26.79315
G1 X110.194 Y115.539 E26.79941
G1 X110.02 Y115.629 E26.80593
G1 X109.797 Y115.71 E26.81382
G1 X109.537 Y115.768 E26.82268
G1 X109.223 Y115.812 E26.83322
G1 X108.877 Y115.839 E26.84477
G1 X108.425 Y115.86 E26.85982
M204 S5000
M205 X30 Y30
G0 F3600 X108.424 Y115.861
G0 X108.225 Y115.868
G0 X108.686 Y115.378
G0 X109.008 Y115.037
M204 S500
M205 X20 Y20
;TYPE:SKIN
G1 F1350 X109.018 Y114.808 E26.86744
G1 X109.043 Y114.662 E26.87237
G1 X109.073 Y114.562 E26.87584
G1 X109.165 Y114.369 E26.88295
G1 X109.218 Y114.305 E26.88571
G1 X109.291 Y114.239 E26.88899
G1 X109.331 Y114.213 E26.89057
G1 X109.453 Y114.155 E26.89507
G1 X109.54 Y114.128 E26.8981
G1 X109.642 Y114.111 E26.90154
G1 X109.82 Y114.102 E26.90746
G1 X109.905 Y114.11 E26.9103
G1 X109.919 Y114.159 E26.912
G1 X109.936 Y114.356 E26.91857
G1 X109.93 Y114.524 E26.92417
G1 X109.911 Y114.639 E26.92804
G1 X109.867 Y114.772 E26.9327
G1 X109.815 Y114.837 E26.93547
G1 X109.776 Y114.866 E26.93709
G1 X109.704 Y114.903 E26.93978
G1 X109.564 Y114.954 E26.94474
G1 X109.405 Y114.99 E26.95016
G1 X109.132 Y115.028 E26.95932
G1 X109.008 Y115.037 E26.96346
M204 S5000
M205 X30 Y30
G0 F3600 X109.343 Y114.434
M204 S500
M205 X20 Y20
G1 F1350 X109.64 Y114.731 E26.97743
M204 S5000
M205 X30 Y30
G1 F2400 E21.97743
G0 F3600 X110.307 Y114.356
G0 X111.585 Y114.258
G0 X111.643 Y114.26
G0 X122.253 Y114.781
G0 X122.333 Y114.784
G0 X122.297 Y114.784
G0 X123.621 Y114.493
G0 X124.893 Y113.664
G0 X124.906 Y113.565
M204 S500
M205 X20 Y20
;TYPE:WALL-INNER
G1 F2400 E26.97743
G1 F1350 X125.092 Y113.606 E26.98376
G1 X125.257 Y113.676 E26.98973
G1 X125.374 Y113.759 E26.9945
G1 X125.494 Y113.883 E27.00024
G1 X125.597 Y114.033 E27.00629
G1 X125.692 Y114.237 E27.01377
G1 X125.779 Y114.512 E27.02337
G1 X125.845 Y114.819 E27.03381
G1 X125.899 Y115.189 E27.04625
G1 X125.932 Y115.598 E27.05989
G1 X125.944 Y116.061 E27.0753
G1 X125.933 Y116.511 E27.09027
G1 X125.901 Y116.919 E27.10388
G1 X125.845 Y117.31 E27.11702
G1 X125.781 Y117.603 E27.127
G1 X125.702 Y117.852 E27.13568
G1 X125.602 Y118.064 E27.14348
G1 X125.5 Y118.218 E27.14962
G1 X125.388 Y118.333 E27.15496
G1 X125.274 Y118.409 E27.15952
G1 X125.134 Y118.47 E27.1646
G1 X124.938 Y118.517 E27.1713
G1 X124.697 Y118.535 E27.17934
G1 X124.451 Y118.518 E27.18754
G1 X124.277 Y118.478 E27.19348
G1 X124.12 Y118.41 E27.19917
G1 X123.992 Y118.327 E27.20425
G1 X123.89 Y118.225 E27.20904
G1 X123.783 Y118.064 E27.21547
G1 X123.685 Y117.855 E27.22315
G1 X123.608 Y117.621 E27.23134
G1 X123.538 Y117.294 E27.24247
G1 X123.485 Y116.932 E27.25463
G1 X123.451 Y116.511 E27.26868
G1 X123.44 Y116.061 E27.28365
G1 X123.452 Y115.579 E27.29969
G1 X123.482 Y115.17 E27.31333
G1 X123.529 Y114.825 E27.32491
G1 X123.602 Y114.488 E27.33638
G1 X123.679 Y114.246 E27.34483
G1 X123.779 Y114.031 E27.35271
G1 X123.88 Y113.884 E27.35865
G1 X124.003 Y113.757 E27.36453
G1 X124.125 Y113.669 E27.36953
G1 X124.262 Y113.609 E27.3745
G1 X124.445 Y113.567 E27.38075
G1 X124.672 Y113.552 E27.38831
G1 X124.906 Y113.565 E27.39611
M204 S5000
M205 X30 Y30
G0 F3600 X124.965 Y113.168
M204 S500
M205 X20 Y20
;TYPE:WALL-OUTER
G1 F1350 X125.215 Y113.223 E27.40462
G1 X125.452 Y113.323 E27.41318
G1 X125.637 Y113.455 E27.42074
G1 X125.804 Y113.628 E27.42874
G1 X125.945 Y113.834 E27.43704
G1 X126.065 Y114.09 E27.44644
G1 X126.166 Y114.409 E27.45757
G1 X126.241 Y114.761 E27.46954
G1 X126.297 Y115.145 E27.48245
G1 X126.331 Y115.571 E27.49666
G1 X126.344 Y116.061 E27.51297
G1 X126.332 Y116.543 E27.529
G1 X126.298 Y116.97 E27.54325
G1 X126.239 Y117.378 E27.55696
G1 X126.168 Y117.708 E27.56819
G1 X126.074 Y118.001 E27.57842
G1 X125.951 Y118.262 E27.58802
G1 X125.814 Y118.469 E27.59627
G1 X125.646 Y118.642 E27.60429
G1 X125.468 Y118.761 E27.61142
G1 X125.261 Y118.851 E27.61892
G1 X125.001 Y118.914 E27.62782
G1 X124.699 Y118.936 E27.63789
G1 X124.392 Y118.915 E27.64813
G1 X124.152 Y118.86 E27.65632
G1 X123.928 Y118.763 E27.66444
G1 X123.738 Y118.639 E27.67198
G1 X123.579 Y118.48 E27.67946
G1 X123.434 Y118.262 E27.68817
G1 X123.313 Y118.004 E27.69765
G1 X123.221 Y117.723 E27.70748
G1 X123.144 Y117.363 E27.71973
G1 X123.087 Y116.977 E27.7327
G1 X123.052 Y116.543 E27.74719
G1 X123.04 Y116.071 E27.76289
G1 X123.052 Y115.569 E27.77959
G1 X123.083 Y115.141 E27.79386
G1 X123.136 Y114.753 E27.80689
G1 X123.215 Y114.384 E27.81944
G1 X123.307 Y114.097 E27.82946
G1 X123.429 Y113.835 E27.83908
G1 X123.57 Y113.629 E27.84738
G1 X123.739 Y113.454 E27.85547
G1 X123.926 Y113.32 E27.86312
G1 X124.137 Y113.227 E27.87079
G1 X124.384 Y113.17 E27.87922
G1 X124.669 Y113.152 E27.88872
G1 X124.965 Y113.168 E27.89858
M204 S5000
M205 X30 Y30
G0 F3600 X125.161 Y113.211
G0 X124.97 Y113.978
M204 S500
M205 X20 Y20
;TYPE:SKIN
G1 F1350 X125.065 Y114.018 E27.90201
G1 X125.118 Y114.055 E27.90416
G1 X125.192 Y114.133 E27.90773
G1 X125.259 Y114.231 E27.91168
G1 X125.324 Y114.369 E27.91676
G1 X125.398 Y114.601 E27.92486
G1 X125.463 Y114.901 E27.93506
G1 X125.513 Y115.245 E27.94663
G1 X125.542 Y115.608 E27.95874
G1 X125.554 Y116.051 E27.97348
G1 X125.543 Y116.501 E27.98845
G1 X125.515 Y116.864 E28.00056
G1 X125.462 Y117.237 E28.01309
G1 X125.404 Y117.501 E28.02208
G1 X125.339 Y117.708 E28.0293
G1 X125.26 Y117.875 E28.03544
G1 X125.198 Y117.968 E28.03916
G1 X125.135 Y118.034 E28.04219
G1 X125.088 Y118.065 E28.04407
G1 X125.011 Y118.099 E28.04686
G1 X124.874 Y118.131 E28.05154
G1 X124.709 Y118.144 E28.05705
G1 X124.503 Y118.13 E28.06392
G1 X124.397 Y118.105 E28.06754
G1 X124.308 Y118.067 E28.07076
G1 X124.233 Y118.018 E28.07374
G1 X124.197 Y117.982 E28.07543
