;FLAVOR:Marlin
;TIME:4048
;Filament used: 4.70983m
;Layer height: 0.3
;Generated with Cura_SteamEngine 4.0.0
M140 S60
M105
M190 S60
M104 S200
M105
M109 S200
M82 ;absolute extrusion mode
; Ender 3 Custom Start G-code
G28 ; Home all axes
G92 E0 ; Reset Extruder
G1 Z2.0 F3000 ; Move Z Axis up little to prevent scratching of Heat Bed
G1 X0.1 Y20 Z0.3 F5000.0 ; Move to start position
G1 X0.1 Y200.0 Z0.3 F1500.0 E15 ; Draw the first line
G1 X0.4 Y200.0 Z0.3 F5000.0 ; Move to side a little
G1 X0.4 Y20 Z0.3 F1500.0 E30 ; Draw the second line
G92 E0 ; Reset Extruder
G1 Z2.0 F3000 ; Move Z Axis up little to prevent scratching of Heat Bed
; End of custom start GCode
G92 E0
G1 F2400 E-5
;LAYER_COUNT:89
;LAYER:0
M107
M204 S5000
M205 X30 Y30
G0 F3600 X78.058 Y87.531 Z0.2
M204 S500
M205 X20 Y20
;TYPE:SKIRT
G1 F2400 E0
G1 F1350 X78.64 Y87.115 E0.02379
G1 X79.265 Y86.767 E0.04759
G1 X79.925 Y86.491 E0.07138
G1 X80.611 Y86.29 E0.09516
G1 X81.316 Y86.168 E0.11895
G1 X82.06 Y86.124 E0.14374
G1 X152.938 Y86.11 E2.50115
G1 X153.652 Y86.15 E2.52494
G1 X154.357 Y86.269 E2.54872
G1 X155.045 Y86.466 E2.57252
G1 X155.706 Y86.739 E2.59631
G1 X156.333 Y87.084 E2.62011
G1 X156.917 Y87.496 E2.64388
G1 X157.451 Y87.972 E2.66767
G1 X157.93 Y88.503 E2.69146
G1 X158.346 Y89.085 E2.71525
G1 X158.694 Y89.71 E2.73905
G1 X158.971 Y90.37 E2.76285
G1 X159.172 Y91.056 E2.78663
G1 X159.295 Y91.761 E2.81043
G1 X159.339 Y92.504 E2.83519
G1 X159.359 Y113.433 E3.53129
G1 X159.35 Y113.786 E3.54303
G1 X159.054 Y119.236 E3.72457
G1 X159.046 Y119.355 E3.72853
G1 X157.788 Y136.58 E4.30297
G1 X157.77 Y136.787 E4.30988
G1 X157.096 Y143.163 E4.52313
G1 X156.981 Y143.869 E4.54692
G1 X156.788 Y144.558 E4.57071
G1 X156.519 Y145.22 E4.59448
G1 X156.178 Y145.849 E4.61828
G1 X155.77 Y146.436 E4.64205
G1 X155.298 Y146.974 E4.66586
G1 X154.769 Y147.455 E4.68964
G1 X154.19 Y147.875 E4.71343
G1 X153.567 Y148.227 E4.73723
G1 X152.909 Y148.508 E4.76103
G1 X152.224 Y148.713 E4.78481
G1 X151.52 Y148.841 E4.80861
G1 X150.731 Y148.89 E4.8349
G1 X84.265 Y148.89 E7.04557
G1 X83.551 Y148.85 E7.06935
G1 X82.846 Y148.731 E7.09313
G1 X82.158 Y148.533 E7.11695
G1 X81.497 Y148.26 E7.14073
G1 X80.87 Y147.916 E7.16452
G1 X80.286 Y147.503 E7.18831
G1 X79.752 Y147.028 E7.21208
G1 X79.273 Y146.496 E7.23589
G1 X78.858 Y145.914 E7.25966
G1 X78.509 Y145.289 E7.28347
G1 X78.233 Y144.629 E7.30727
G1 X78.032 Y143.943 E7.33104
G1 X77.9 Y143.156 E7.35758
G1 X77.187 Y136.337 E7.58562
G1 X77.171 Y136.164 E7.5914
G1 X76.733 Y130.495 E7.78051
G1 X76.73 Y130.451 E7.78198
G1 X75.948 Y119.338 E8.15251
G1 X75.941 Y119.235 E8.15595
G1 X75.66 Y114.044 E8.32885
G1 X75.651 Y113.695 E8.34047
G1 X75.661 Y92.521 E9.04472
G1 X75.701 Y91.807 E9.0685
G1 X75.821 Y91.102 E9.09229
G1 X76.019 Y90.414 E9.1161
G1 X76.292 Y89.753 E9.13988
G1 X76.637 Y89.127 E9.16366
G1 X77.05 Y88.543 E9.18745
G1 X77.526 Y88.008 E9.21127
G1 X78.058 Y87.531 E9.23503
M204 S5000
M205 X30 Y30
G0 F3600 X78.447 Y87.735
M204 S500
M205 X20 Y20
G1 F1350 X79.023 Y87.35 E9.25807
G1 X79.639 Y87.034 E9.2811
G1 X80.288 Y86.792 E9.30414
G1 X80.96 Y86.626 E9.32716
G1 X81.647 Y86.538 E9.3502
G1 X82.06 Y86.524 E9.36394
G1 X152.938 Y86.51 E11.72135
G1 X153.629 Y86.55 E11.74438
G1 X154.311 Y86.669 E11.7674
G1 X154.975 Y86.866 E11.79044
G1 X155.612 Y87.138 E11.81347
G1 X156.213 Y87.482 E11.83651
G1 X156.771 Y87.893 E11.85956
G1 X157.277 Y88.365 E11.88257
G1 X157.726 Y88.893 E11.90562
G1 X158.111 Y89.468 E11.92864
G1 X158.427 Y90.085 E11.9517
G1 X158.67 Y90.733 E11.97471
G1 X158.836 Y91.405 E11.99774
G1 X158.924 Y92.092 E12.02077
G1 X158.939 Y92.504 E12.03449
G1 X158.959 Y113.433 E12.73059
G1 X158.95 Y113.764 E12.7416
G1 X158.654 Y119.214 E12.92314
G1 X158.647 Y119.326 E12.92687
G1 X157.389 Y136.551 E13.5013
G1 X157.372 Y136.745 E13.50778
G1 X156.698 Y143.121 E13.72103
G1 X156.585 Y143.804 E13.74405
G1 X156.395 Y144.47 E13.76709
G1 X156.129 Y145.109 E13.79011
G1 X155.791 Y145.714 E13.81316
G1 X155.386 Y146.276 E13.8362
G1 X154.919 Y146.787 E13.85922
G1 X154.396 Y147.241 E13.88226
G1 X153.824 Y147.631 E13.90528
G1 X153.211 Y147.953 E13.92831
G1 X152.565 Y148.203 E13.95135
G1 X151.894 Y148.376 E13.9744
G1 X151.208 Y148.471 E13.99743
G1 X150.731 Y148.49 E14.01331
G1 X84.265 Y148.49 E16.22398
G1 X83.574 Y148.45 E16.247
G1 X82.891 Y148.331 E16.27006
G1 X82.228 Y148.133 E16.29307
G1 X81.591 Y147.861 E16.31611
G1 X80.99 Y147.517 E16.33914
G1 X80.432 Y147.106 E16.36219
G1 X79.926 Y146.634 E16.38521
G1 X79.477 Y146.106 E16.40826
G1 X79.092 Y145.531 E16.43128
G1 X78.777 Y144.914 E16.45432
G1 X78.534 Y144.266 E16.47733
G1 X78.367 Y143.593 E16.5004
G1 X78.298 Y143.114 E16.51649
G1 X77.585 Y136.295 E16.74453
G1 X77.57 Y136.133 E16.74994
G1 X77.132 Y130.464 E16.93906
G1 X77.129 Y130.423 E16.94042
G1 X76.347 Y119.31 E17.31096
G1 X76.341 Y119.213 E17.31419
G1 X76.06 Y114.022 E17.4871
G1 X76.051 Y113.695 E17.49798
G1 X76.061 Y92.521 E18.20223
G1 X76.101 Y91.83 E18.22525
G1 X76.221 Y91.148 E18.24828
G1 X76.418 Y90.484 E18.27132
G1 X76.691 Y89.847 E18.29437
G1 X77.035 Y89.246 E18.3174
G1 X77.446 Y88.689 E18.34042
G1 X77.919 Y88.183 E18.36346
G1 X78.447 Y87.735 E18.38649
M204 S5000
M205 X30 Y30
G0 F3600 X78.312 Y88.364
M204 S500
M205 X20 Y20
G1 F1350 X78.835 Y87.947 E18.40874
G1 X79.403 Y87.595 E18.43096
G1 X80.01 Y87.313 E18.45322
G1 X80.646 Y87.106 E18.47547
G1 X81.303 Y86.976 E18.49775
G1 X82.06 Y86.924 E18.52298
G1 X152.938 Y86.91 E20.88039
G1 X153.606 Y86.95 E20.90265
G1 X154.264 Y87.069 E20.92489
G1 X154.903 Y87.266 E20.94713
G1 X155.515 Y87.538 E20.96941
G1 X156.089 Y87.88 E20.99163
G1 X156.619 Y88.289 E21.0139
G1 X157.096 Y88.758 E21.03615
G1 X157.514 Y89.281 E21.05841
G1 X157.866 Y89.849 E21.08064
G1 X158.149 Y90.456 E21.10292
G1 X158.356 Y91.092 E21.12516
G1 X158.487 Y91.748 E21.14741
G1 X158.539 Y92.505 E21.17265
G1 X158.559 Y113.434 E21.86875
G1 X158.551 Y113.743 E21.87903
G1 X158.255 Y119.193 E22.06056
G1 X158.248 Y119.297 E22.06403
G1 X156.99 Y136.522 E22.63846
G1 X156.974 Y136.703 E22.64451
G1 X156.3 Y143.079 E22.85776
G1 X156.19 Y143.739 E22.88001
G1 X156.002 Y144.381 E22.90226
G1 X155.739 Y144.996 E22.92451
G1 X155.404 Y145.575 E22.94676
G1 X155.003 Y146.111 E22.96902
G1 X154.541 Y146.594 E22.99125
G1 X154.024 Y147.019 E23.01351
G1 X153.461 Y147.38 E23.03575
G1 X152.858 Y147.67 E23.05801
G1 X152.225 Y147.887 E23.08027
G1 X151.571 Y148.027 E23.10251
G1 X150.731 Y148.09 E23.13053
G1 X84.265 Y148.09 E25.3412
G1 X83.597 Y148.05 E25.36345
G1 X82.939 Y147.931 E25.38569
G1 X82.299 Y147.734 E25.40796
G1 X81.688 Y147.462 E25.43021
G1 X81.114 Y147.119 E25.45245
G1 X80.584 Y146.71 E25.47472
G1 X80.107 Y146.241 E25.49697
G1 X79.689 Y145.719 E25.51921
G1 X79.337 Y145.15 E25.54146
G1 X79.055 Y144.543 E25.56372
G1 X78.847 Y143.907 E25.58598
G1 X78.695 Y143.072 E25.61421
G1 X77.982 Y136.253 E25.84224
G1 X77.969 Y136.102 E25.84729
G1 X77.531 Y130.433 E26.0364
G1 X77.528 Y130.395 E26.03767
G1 X76.746 Y119.282 E26.4082
G1 X76.74 Y119.192 E26.4112
G1 X76.459 Y114.001 E26.58411
G1 X76.451 Y113.695 E26.59429
G1 X76.461 Y92.521 E27.29854
G1 X76.501 Y91.854 E27.32076
G1 X76.621 Y91.195 E27.34304
G1 X76.818 Y90.556 E27.36528
G1 X77.09 Y89.945 E27.38753
G1 X77.433 Y89.37 E27.4098
G1 X77.842 Y88.841 E27.43204
G1 X78.312 Y88.364 E27.45431
M204 S5000
M205 X30 Y30
G0 F3600 X78.703 Y88.553
M204 S500
M205 X20 Y20
G1 F1350 X79.22 Y88.168 E27.47575
G1 X79.781 Y87.85 E27.4972
G1 X80.377 Y87.604 E27.51864
G1 X80.999 Y87.434 E27.54009
G1 X81.637 Y87.341 E27.56153
G1 X82.06 Y87.324 E27.57561
G1 X152.938 Y87.31 E29.93302
G1 X153.581 Y87.35 E29.95445
G1 X154.215 Y87.469 E29.97591
G1 X154.829 Y87.666 E29.99735
G1 X155.414 Y87.937 E30.0188
G1 X155.961 Y88.278 E30.04024
G1 X156.461 Y88.684 E30.06166
G1 X156.907 Y89.15 E30.08311
G1 X157.293 Y89.667 E30.10457
G1 X157.611 Y90.227 E30.12599
G1 X157.858 Y90.823 E30.14745
G1 X158.029 Y91.444 E30.16887
G1 X158.121 Y92.082 E30.19031
G1 X158.139 Y92.505 E30.20439
G1 X158.159 Y113.434 E30.9005
G1 X158.151 Y113.721 E30.91004
G1 X157.855 Y119.171 E31.09158
G1 X157.849 Y119.268 E31.09481
G1 X156.591 Y136.493 E31.66924
G1 X156.576 Y136.661 E31.67485
G1 X155.902 Y143.037 E31.8881
G1 X155.795 Y143.672 E31.90952
G1 X155.61 Y144.29 E31.93098
G1 X155.349 Y144.88 E31.95243
G1 X155.018 Y145.433 E31.97387
G1 X154.621 Y145.941 E31.99531
G1 X154.164 Y146.395 E32.01674
G1 X153.655 Y146.79 E32.03817
G1 X153.1 Y147.119 E32.05963
G1 X152.509 Y147.377 E32.08107
G1 X151.891 Y147.559 E32.1025
G1 X151.255 Y147.664 E32.12394
G1 X150.731 Y147.69 E32.14139
G1 X84.265 Y147.69 E34.35206
G1 X83.622 Y147.65 E34.37349
G1 X82.988 Y147.531 E34.39494
G1 X82.374 Y147.334 E34.41639
G1 X81.789 Y147.063 E34.43783
G1 X81.242 Y146.721 E34.45929
G1 X80.742 Y146.315 E34.48071
G1 X80.296 Y145.85 E34.50214
G1 X79.911 Y145.333 E34.52358
G1 X79.592 Y144.772 E34.54505
G1 X79.346 Y144.176 E34.56649
G1 X79.175 Y143.555 E34.58791
G1 X79.093 Y143.031 E34.60556
G1 X78.38 Y136.212 E34.83359
G1 X78.367 Y136.072 E34.83827
G1 X77.929 Y130.403 E35.02738
G1 X77.927 Y130.367 E35.02858
G1 X77.145 Y119.254 E35.39912
G1 X77.14 Y119.17 E35.40191
G1 X76.859 Y113.979 E35.57482
G1 X76.851 Y113.696 E35.58424
G1 X76.861 Y92.522 E36.28849
G1 X76.901 Y91.878 E36.30995
G1 X77.021 Y91.245 E36.33138
G1 X77.218 Y90.631 E36.35282
G1 X77.489 Y90.046 E36.37427
G1 X77.831 Y89.499 E36.39572
G1 X78.238 Y88.999 E36.41717
G1 X78.703 Y88.553 E36.4386
M204 S5000
M205 X30 Y30
G1 F2400 E31.4386
;MESH:X_Changer-Filler-Piece_032119.stl
G0 F3600 X81.387 Y97.834
G0 X82.667 Y97.834
G0 X108.309 Y100.112
G0 X108.379 Y100.042
M204 S500
M205 X20 Y20
;TYPE:WALL-INNER
G1 F2400 E36.4386
G1 F1350 X126.621 Y100.042 E37.04533
G1 X126.621 Y97.82 E37.11923
G1 X152.347 Y97.82 E37.97488
G1 X152.347 Y101.62 E38.10127
G1 X82.852 Y101.62 E40.41268
G1 X82.652 Y101.62 E40.41934
G1 X82.652 Y101.42 E40.42364
G1 X82.653 Y97.82 E40.54338
G1 X108.379 Y97.82 E41.39903
G1 X108.379 Y100.042 E41.47293
M204 S5000
M205 X30 Y30
G0 F3600 X108.779 Y99.642
M204 S500
M205 X20 Y20
;TYPE:WALL-OUTER
G1 F1350 X126.221 Y99.642 E42.05306
G1 X126.221 Y97.42 E42.12696
G1 X152.747 Y97.42 E43.00922
G1 X152.747 Y102.02 E43.16222
G1 X82.452 Y102.02 E45.50024
G1 X82.252 Y102.02 E45.50689
G1 X82.252 Y101.82 E45.5112
G1 X82.253 Y97.42 E45.65754
G1 X108.779 Y97.42 E46.5398
G1 X108.779 Y99.642 E46.6137
M204 S5000
M205 X30 Y30
G0 F3600 X108.979 Y99.642
G0 X108.979 Y100.142
G0 X107.989 Y100.432
M204 S500
M205 X20 Y20
;TYPE:SKIN
G1 F1350 X127.011 Y100.432 E47.24638
G1 X127.011 Y98.21 E47.32028
G1 X151.957 Y98.21 E48.14999
G1 X151.957 Y101.23 E48.25044
G1 X83.042 Y101.23 E50.54256
G1 X83.043 Y98.21 E50.643
G1 X107.989 Y98.21 E51.47271
G1 X107.989 Y100.432 E51.54661
M204 S5000
M205 X30 Y30
G0 F3600 X83.512 Y101.049
M204 S500
M205 X20 Y20
G1 F1350 X83.221 Y100.757 E51.56033
M204 S5000
M205 X30 Y30
G0 F3600 X83.221 Y100.192
M204 S500
M205 X20 Y20
G1 F1350 X84.078 Y101.049 E51.60064
M204 S5000
M205 X30 Y30
G0 F3600 X84.644 Y101.049
M204 S500
M205 X20 Y20
G1 F1350 X83.222 Y99.627 E51.66752
M204 S5000
M205 X30 Y30
G0 F3600 X83.222 Y99.061
M204 S500
M205 X20 Y20
G1 F1350 X85.209 Y101.049 E51.76101
M204 S5000
M205 X30 Y30
G0 F3600 X85.775 Y101.049
M204 S500
M205 X20 Y20
G1 F1350 X83.222 Y98.495 E51.88112
M204 S5000
M205 X30 Y30
G0 F3600 X83.681 Y98.389
M204 S500
M205 X20 Y20
G1 F1350 X86.341 Y101.049 E52.00624
M204 S5000
M205 X30 Y30
G0 F3600 X86.906 Y101.049
M204 S500
M205 X20 Y20
G1 F1350 X84.247 Y98.389 E52.13133
M204 S5000
M205 X30 Y30
G0 F3600 X84.813 Y98.389
M204 S500
M205 X20 Y20
G1 F1350 X87.472 Y101.049 E52.25643
M204 S5000
M205 X30 Y30
G0 F3600 X88.038 Y101.049
M204 S500
M205 X20 Y20
G1 F1350 X85.378 Y98.389 E52.38154
M204 S5000
M205 X30 Y30
G0 F3600 X85.944 Y98.389
M204 S500
M205 X20 Y20
G1 F1350 X88.604 Y101.049 E52.50666
M204 S5000
M205 X30 Y30
G0 F3600 X89.169 Y101.049
M204 S500
M205 X20 Y20
G1 F1350 X86.51 Y98.389 E52.63176
M204 S5000
M205 X30 Y30
G0 F3600 X87.075 Y98.389
M204 S500
M205 X20 Y20
G1 F1350 X89.735 Y101.049 E52.75687
M204 S5000
M205 X30 Y30
G0 F3600 X90.301 Y101.049
M204 S500
M205 X20 Y20
G1 F1350 X87.641 Y98.389 E52.88199
M204 S5000
M205 X30 Y30
G0 F3600 X88.207 Y98.389
M204 S500
M205 X20 Y20
G1 F1350 X90.866 Y101.049 E53.00709
M204 S5000
M205 X30 Y30
G0 F3600 X91.432 Y101.049
M204 S500
M205 X20 Y20
G1 F1350 X88.773 Y98.389 E53.13218
M204 S5000
M205 X30 Y30
G0 F3600 X89.338 Y98.389
M204 S500
M205 X20 Y20
G1 F1350 X91.998 Y101.049 E53.2573
M204 S5000
M205 X30 Y30
G0 F3600 X92.563 Y101.049
M204 S500
M205 X20 Y20
G1 F1350 X89.904 Y98.389 E53.3824
M204 S5000
M205 X30 Y30
G0 F3600 X90.47 Y98.389
M204 S500
M205 X20 Y20
G1 F1350 X93.129 Y101.049 E53.50749
M204 S5000
M205 X30 Y30
G0 F3600 X93.695 Y101.049
M204 S500
M205 X20 Y20
G1 F1350 X91.035 Y98.389 E53.63261
M204 S5000
M205 X30 Y30
G0 F3600 X91.601 Y98.389
M204 S500
M205 X20 Y20
G1 F1350 X94.26 Y101.049 E53.7577
M204 S5000
M205 X30 Y30
G0 F3600 X94.826 Y101.049
M204 S500
M205 X20 Y20
G1 F1350 X92.167 Y98.389 E53.8828
M204 S5000
M205 X30 Y30
G0 F3600 X92.732 Y98.389
M204 S500
M205 X20 Y20
G1 F1350 X95.392 Y101.049 E54.00792
M204 S5000
M205 X30 Y30
G0 F3600 X95.957 Y101.049
M204 S500
M205 X20 Y20
G1 F1350 X93.298 Y98.389 E54.13301
M204 S5000
M205 X30 Y30
G0 F3600 X93.864 Y98.389
M204 S500
M205 X20 Y20
G1 F1350 X96.523 Y101.049 E54.25811
M204 S5000
M205 X30 Y30
G0 F3600 X97.089 Y101.049
M204 S500
M205 X20 Y20
G1 F1350 X94.429 Y98.389 E54.38322
M204 S5000
M205 X30 Y30
G0 F3600 X94.995 Y98.389
M204 S500
M205 X20 Y20
G1 F1350 X97.654 Y101.049 E54.50832
M204 S5000
M205 X30 Y30
G0 F3600 X98.22 Y101.049
M204 S500
M205 X20 Y20
G1 F1350 X95.561 Y98.389 E54.63341
M204 S5000
M205 X30 Y30
G0 F3600 X96.126 Y98.389
M204 S500
M205 X20 Y20
G1 F1350 X98.786 Y101.049 E54.75853
M204 S5000
M205 X30 Y30
G0 F3600 X99.352 Y101.049
M204 S500
M205 X20 Y20
G1 F1350 X96.692 Y98.389 E54.88365
M204 S5000
M205 X30 Y30
G0 F3600 X97.258 Y98.389
M204 S500
M205 X20 Y20
G1 F1350 X99.917 Y101.049 E55.00874
M204 S5000
M205 X30 Y30
G0 F3600 X100.483 Y101.049
M204 S500
M205 X20 Y20
G1 F1350 X97.823 Y98.389 E55.13386
M204 S5000
M205 X30 Y30
G0 F3600 X98.389 Y98.389
M204 S500
M205 X20 Y20
G1 F1350 X101.049 Y101.049 E55.25898
M204 S5000
M205 X30 Y30
G0 F3600 X101.614 Y101.049
M204 S500
M205 X20 Y20
G1 F1350 X98.955 Y98.389 E55.38408
M204 S5000
M205 X30 Y30
G0 F3600 X99.521 Y98.389
M204 S500
M205 X20 Y20
G1 F1350 X102.18 Y101.049 E55.50917
M204 S5000
M205 X30 Y30
G0 F3600 X102.746 Y101.049
M204 S500
M205 X20 Y20
G1 F1350 X100.086 Y98.389 E55.63429
M204 S5000
M205 X30 Y30
G0 F3600 X100.652 Y98.389
M204 S500
M205 X20 Y20
G1 F1350 X103.311 Y101.049 E55.75938
M204 S5000
M205 X30 Y30
G0 F3600 X103.877 Y101.049
M204 S500
M205 X20 Y20
G1 F1350 X101.218 Y98.389 E55.88448
M204 S5000
M205 X30 Y30
G0 F3600 X101.783 Y98.389
M204 S500
M205 X20 Y20
G1 F1350 X104.443 Y101.049 E56.0096
M204 S5000
M205 X30 Y30
G0 F3600 X105.008 Y101.049
M204 S500
M205 X20 Y20
G1 F1350 X102.349 Y98.389 E56.13469
M204 S5000
M205 X30 Y30
G0 F3600 X102.915 Y98.389
M204 S500
M205 X20 Y20
G1 F1350 X105.574 Y101.049 E56.25979
M204 S5000
M205 X30 Y30
G0 F3600 X106.14 Y101.049
M204 S500
M205 X20 Y20
G1 F1350 X103.48 Y98.389 E56.3849
M204 S5000
M205 X30 Y30
G0 F3600 X104.046 Y98.389
M204 S500
M205 X20 Y20
G1 F1350 X106.705 Y101.049 E56.51
M204 S5000
M205 X30 Y30
G0 F3600 X107.271 Y101.049
M204 S500
M205 X20 Y20
G1 F1350 X104.612 Y98.389 E56.63509
M204 S5000
M205 X30 Y30
G0 F3600 X105.177 Y98.389
M204 S500
M205 X20 Y20
G1 F1350 X107.837 Y101.049 E56.76021
M204 S5000
M205 X30 Y30
G0 F3600 X107.966 Y100.612
M204 S500
M205 X20 Y20
G1 F1350 X108.403 Y101.049 E56.78077
M204 S5000
M205 X30 Y30
G0 F3600 X108.531 Y100.612
M204 S500
M205 X20 Y20
G1 F1350 X108.968 Y101.049 E56.80132
M204 S5000
M205 X30 Y30
G0 F3600 X109.097 Y100.612
M204 S500
M205 X20 Y20
G1 F1350 X109.534 Y101.049 E56.82188
M204 S5000
M205 X30 Y30
G0 F3600 X109.663 Y100.612
M204 S500
M205 X20 Y20
G1 F1350 X110.1 Y101.049 E56.84243
M204 S5000
M205 X30 Y30
G0 F3600 X110.228 Y100.612
M204 S500
M205 X20 Y20
G1 F1350 X110.665 Y101.049 E56.86299
M204 S5000
M205 X30 Y30
G0 F3600 X110.794 Y100.612
M204 S500
M205 X20 Y20
G1 F1350 X111.231 Y101.049 E56.88354
