;FLAVOR:Marlin
;TIME:5064
;Filament used: 4.01704m
;Layer height: 0.2
;Generated with Cura_SteamEngine 3.5.1
M82 ;absolute extrusion mode
; Ender 3 Custom Start G-code
M104 S200 ; Set Extruder temperature
M140 S60 ; Set Heat Bed temperature
M190 S60 ; Wait for Heat Bed temperature
M109 S200 ; Wait for Extruder temperature
G28 ; Home all axes
G92 E0 ; Reset Extruder
G1 Z5.0 F3000 ; Move Z Axis up little to prevent scratching of Heat Bed
G1 X0.1 Y20 Z0.3 F5000.0 ; Move to start position
G1 X0.1 Y200.0 Z0.3 F1500.0 E15 ; Draw the first line
G1 X0.4 Y200.0 Z0.3 F5000.0 ; Move to side a little
G1 X0.4 Y20 Z0.3 F1500.0 E30 ; Draw the second line
G92 E0 ; Reset Extruder
G1 Z5.0 F3000 ; Move Z Axis up little to prevent scratching of Heat Bed
G92 E0
G1 F2400 E-5
;LAYER_COUNT:88
;LAYER:0
M107
M204 S5000
M205 X30 Y30
G0 F3600 X84.433 Y78.55 Z0.2
M204 S500
M205 X20 Y20
;TYPE:SKIRT
G1 F2400 E0
G1 F1800 X84.946 Y78.051 E0.0238
G1 X85.512 Y77.613 E0.04761
G1 X86.122 Y77.241 E0.07137
G1 X86.771 Y76.939 E0.09518
G1 X87.449 Y76.712 E0.11896
G1 X88.148 Y76.562 E0.14274
G1 X89.17 Y76.484 E0.17683
G1 X104.425 Y76.551 E0.68422
G1 X107.281 Y76.477 E0.77924
G1 X107.446 Y76.475 E0.78473
G1 X116.427 Y76.475 E1.08344
G1 X116.577 Y76.477 E1.08843
G1 X119.719 Y76.551 E1.19296
G1 X135.098 Y76.485 E1.70447
G1 X135.812 Y76.522 E1.72825
G1 X136.518 Y76.638 E1.75205
G1 X137.206 Y76.833 E1.77583
G1 X137.868 Y77.103 E1.79961
G1 X138.496 Y77.445 E1.82339
G1 X139.082 Y77.855 E1.84718
G1 X139.619 Y78.328 E1.87098
G1 X140.313 Y79.137 E1.90643
G1 X143.36 Y83.356 E2.07953
G1 X146.695 Y87.477 E2.25585
G1 X150.275 Y91.426 E2.43314
G1 X152.05 Y93.223 E2.51715
G1 X157.435 Y98.148 E2.75986
G1 X157.935 Y98.66 E2.78367
G1 X158.375 Y99.224 E2.80746
G1 X158.749 Y99.833 E2.83123
G1 X159.053 Y100.481 E2.85503
G1 X159.283 Y101.158 E2.87882
G1 X159.435 Y101.857 E2.90261
G1 X159.516 Y102.866 E2.93627
G1 X159.524 Y113.365 E3.28547
G1 X159.485 Y114.079 E3.30926
G1 X159.366 Y114.785 E3.33307
G1 X159.169 Y115.472 E3.35684
G1 X158.897 Y116.134 E3.38064
G1 X158.552 Y116.761 E3.40445
G1 X158.14 Y117.345 E3.42822
G1 X157.609 Y117.936 E3.45464
G1 X152.305 Y123.146 E3.70193
G1 X148.503 Y127.003 E3.88206
G1 X144.965 Y131.023 E4.06017
G1 X143.357 Y133.016 E4.14535
G1 X140.264 Y137.183 E4.31795
G1 X139.651 Y137.894 E4.34917
G1 X135.906 Y141.64 E4.52535
G1 X135.373 Y142.117 E4.54914
G1 X134.79 Y142.531 E4.57292
G1 X134.164 Y142.878 E4.59673
G1 X133.504 Y143.152 E4.62049
G1 X132.817 Y143.352 E4.64429
G1 X132.112 Y143.473 E4.66808
G1 X131.38 Y143.515 E4.69247
G1 X126.518 Y143.515 E4.85418
G1 X126.177 Y143.506 E4.86553
G1 X123.947 Y143.387 E4.9398
G1 X118.604 Y143.314 E5.11753
G1 X113.302 Y143.52 E5.29401
G1 X113.04 Y143.525 E5.30272
G1 X108.504 Y143.515 E5.45359
G1 X108.177 Y143.506 E5.46447
G1 X105.947 Y143.387 E5.53875
G1 X100.604 Y143.314 E5.71647
G1 X95.302 Y143.52 E5.89295
G1 X95.04 Y143.525 E5.90167
G1 X90.508 Y143.515 E6.0524
G1 X89.794 Y143.473 E6.07619
G1 X89.089 Y143.352 E6.09998
G1 X88.402 Y143.154 E6.12376
G1 X87.741 Y142.879 E6.14757
G1 X87.115 Y142.533 E6.17136
G1 X86.532 Y142.119 E6.19514
G1 X85.999 Y141.643 E6.21891
G1 X85.332 Y140.86 E6.25312
G1 X82.29 Y136.645 E6.42601
G1 X78.955 Y132.523 E6.60236
G1 X75.375 Y128.574 E6.77965
G1 X73.6 Y126.777 E6.86366
G1 X68.216 Y121.852 E7.10635
G1 X67.716 Y121.34 E7.13015
G1 X67.276 Y120.776 E7.15394
G1 X66.902 Y120.166 E7.17774
G1 X66.533 Y119.35 E7.20753
G1 X65.141 Y115.589 E7.34091
G1 X64.931 Y114.906 E7.36468
G1 X64.798 Y114.203 E7.38847
G1 X64.743 Y113.367 E7.41634
G1 X64.744 Y102.879 E7.76517
G1 X64.784 Y102.165 E7.78896
G1 X64.904 Y101.46 E7.81274
G1 X65.101 Y100.773 E7.83651
G1 X65.374 Y100.111 E7.86033
G1 X65.719 Y99.485 E7.8841
G1 X66.132 Y98.901 E7.90789
G1 X66.607 Y98.366 E7.93169
G1 X66.923 Y98.07 E7.94609
G1 X69.314 Y95.972 E8.05189
G1 X73.17 Y92.271 E8.22966
G1 X76.812 Y88.357 E8.40748
G1 X78.494 Y86.389 E8.49358
G1 X80.123 Y84.367 E8.57994
G1 X83.979 Y79.102 E8.797
G1 X84.433 Y78.55 E8.82077
M204 S5000
M205 X30 Y30
G0 F3600 X84.742 Y78.804
M204 S500
M205 X20 Y20
G1 F1800 X85.242 Y78.325 E8.8438
G1 X85.793 Y77.906 E8.86682
G1 X86.389 Y77.553 E8.88986
G1 X87.022 Y77.271 E8.91291
G1 X87.683 Y77.064 E8.93595
G1 X88.363 Y76.935 E8.95897
G1 X89.168 Y76.884 E8.9858
G1 X104.434 Y76.951 E9.49355
G1 X107.291 Y76.877 E9.58861
G1 X107.446 Y76.875 E9.59376
G1 X116.427 Y76.875 E9.89247
G1 X116.568 Y76.877 E9.89716
G1 X119.711 Y76.951 E10.00173
G1 X135.099 Y76.885 E10.51354
G1 X135.791 Y76.922 E10.53659
G1 X136.474 Y77.039 E10.55964
G1 X137.138 Y77.233 E10.58265
G1 X137.776 Y77.503 E10.60569
G1 X138.379 Y77.844 E10.62873
G1 X138.938 Y78.252 E10.65175
G1 X139.446 Y78.723 E10.67479
G1 X139.989 Y79.372 E10.70293
G1 X143.036 Y83.59 E10.876
G1 X146.395 Y87.743 E11.05365
G1 X149.988 Y91.704 E11.23152
G1 X151.768 Y93.507 E11.31579
G1 X157.165 Y98.443 E11.55905
G1 X157.648 Y98.939 E11.58208
G1 X158.071 Y99.488 E11.60513
G1 X158.428 Y100.081 E11.62815
G1 X158.714 Y100.712 E11.65119
G1 X158.926 Y101.371 E11.67422
G1 X159.06 Y102.051 E11.69727
G1 X159.116 Y102.866 E11.72444
G1 X159.124 Y113.365 E12.07364
G1 X159.085 Y114.057 E12.09669
G1 X158.966 Y114.739 E12.11972
G1 X158.769 Y115.403 E12.14275
G1 X158.497 Y116.04 E12.16579
G1 X158.154 Y116.641 E12.1888
G1 X157.743 Y117.199 E12.21185
G1 X157.328 Y117.651 E12.23226
G1 X152.022 Y122.863 E12.47964
G1 X148.208 Y126.731 E12.66031
G1 X144.657 Y130.766 E12.83909
G1 X143.053 Y132.755 E12.92407
G1 X139.943 Y136.945 E13.09763
G1 X139.368 Y137.611 E13.12689
G1 X135.623 Y141.357 E13.30307
G1 X135.106 Y141.818 E13.32611
G1 X134.539 Y142.216 E13.34915
G1 X133.931 Y142.546 E13.37216
G1 X133.288 Y142.804 E13.3952
G1 X132.62 Y142.986 E13.41823
G1 X131.935 Y143.089 E13.44127
G1 X131.38 Y143.115 E13.45975
G1 X126.518 Y143.115 E13.62146
G1 X126.198 Y143.106 E13.63211
G1 X123.974 Y142.987 E13.70618
G1 X118.594 Y142.914 E13.88514
G1 X113.287 Y143.12 E14.06178
G1 X113.041 Y143.125 E14.06997
G1 X108.505 Y143.115 E14.22083
G1 X108.198 Y143.106 E14.23105
G1 X105.974 Y142.987 E14.30513
G1 X100.594 Y142.914 E14.48408
G1 X95.287 Y143.12 E14.66073
G1 X95.041 Y143.125 E14.66891
G1 X90.509 Y143.115 E14.81965
G1 X89.817 Y143.073 E14.8427
G1 X89.136 Y142.953 E14.8657
G1 X88.472 Y142.754 E14.88876
G1 X87.836 Y142.48 E14.91179
G1 X87.236 Y142.135 E14.93481
G1 X86.679 Y141.723 E14.95785
G1 X86.174 Y141.249 E14.98089
G1 X85.657 Y140.626 E15.00782
G1 X82.617 Y136.414 E15.18059
G1 X79.255 Y132.257 E15.35841
G1 X75.662 Y128.296 E15.53628
G1 X73.881 Y126.492 E15.62059
G1 X68.485 Y121.556 E15.86382
G1 X68.002 Y121.06 E15.88685
G1 X67.58 Y120.512 E15.90986
G1 X67.223 Y119.918 E15.93291
G1 X66.908 Y119.212 E15.95862
G1 X65.516 Y115.451 E16.092
G1 X65.314 Y114.788 E16.11506
G1 X65.189 Y114.107 E16.13808
G1 X65.143 Y113.367 E16.16274
G1 X65.144 Y102.879 E16.51158
G1 X65.184 Y102.188 E16.5346
G1 X65.303 Y101.506 E16.55762
G1 X65.501 Y100.842 E16.58067
G1 X65.773 Y100.205 E16.60371
G1 X66.117 Y99.604 E16.62674
G1 X66.528 Y99.047 E16.64976
G1 X67.186 Y98.37 E16.68116
G1 X69.595 Y96.256 E16.78776
G1 X73.457 Y92.549 E16.96581
G1 X77.115 Y88.618 E17.14441
G1 X78.811 Y86.634 E17.23122
G1 X80.443 Y84.608 E17.31775
G1 X84.302 Y79.339 E17.53497
G1 X84.742 Y78.804 E17.55801
M204 S5000
M205 X30 Y30
G0 F3600 X85.051 Y79.06
M204 S500
M205 X20 Y20
G1 F1800 X85.536 Y78.599 E17.58027
G1 X86.073 Y78.2 E17.60252
G1 X86.654 Y77.867 E17.62479
G1 X87.27 Y77.606 E17.64704
G1 X87.912 Y77.421 E17.66926
G1 X88.573 Y77.313 E17.69154
G1 X89.166 Y77.284 E17.71129
G1 X104.443 Y77.351 E18.21941
G1 X107.302 Y77.277 E18.31453
G1 X107.446 Y77.275 E18.31932
G1 X116.427 Y77.275 E18.61803
G1 X116.558 Y77.277 E18.62239
G1 X119.703 Y77.351 E18.72702
G1 X135.101 Y77.285 E19.23916
G1 X135.769 Y77.322 E19.26142
G1 X136.428 Y77.439 E19.28368
G1 X137.068 Y77.633 E19.30592
G1 X137.681 Y77.902 E19.32818
G1 X138.257 Y78.242 E19.35043
G1 X138.788 Y78.649 E19.37268
G1 X139.267 Y79.116 E19.39493
G1 X139.665 Y79.606 E19.41593
G1 X142.725 Y83.842 E19.58973
G1 X146.088 Y87.999 E19.76758
G1 X149.69 Y91.971 E19.94592
G1 X151.496 Y93.8 E20.03141
G1 X156.895 Y98.738 E20.27476
G1 X157.361 Y99.219 E20.29704
G1 X157.766 Y99.751 E20.31927
G1 X158.105 Y100.328 E20.34153
G1 X158.373 Y100.941 E20.36378
G1 X158.566 Y101.582 E20.38605
G1 X158.68 Y102.241 E20.40829
G1 X158.716 Y102.867 E20.42915
G1 X158.724 Y113.366 E20.77835
G1 X158.685 Y114.034 E20.8006
G1 X158.566 Y114.692 E20.82284
G1 X158.369 Y115.332 E20.84512
G1 X158.098 Y115.943 E20.86735
G1 X157.756 Y116.518 E20.8896
G1 X157.347 Y117.048 E20.91186
G1 X157.048 Y117.365 E20.92636
G1 X151.74 Y122.579 E21.17383
G1 X147.914 Y126.459 E21.35507
G1 X144.361 Y130.497 E21.53396
G1 X142.728 Y132.52 E21.62043
G1 X139.622 Y136.706 E21.7938
G1 X139.085 Y137.328 E21.82113
G1 X135.34 Y141.074 E21.99731
G1 X134.84 Y141.518 E22.01955
G1 X134.29 Y141.899 E22.0418
G1 X133.699 Y142.212 E22.06404
G1 X133.074 Y142.453 E22.08632
G1 X132.426 Y142.617 E22.10856
G1 X131.762 Y142.702 E22.13082
G1 X131.38 Y142.715 E22.14353
G1 X126.518 Y142.715 E22.30524
G1 X126.22 Y142.707 E22.31516
G1 X123.976 Y142.587 E22.3899
G1 X118.603 Y142.514 E22.56862
G1 X113.271 Y142.721 E22.7461
G1 X113.042 Y142.725 E22.75372
G1 X108.506 Y142.715 E22.90459
G1 X108.22 Y142.707 E22.9141
G1 X105.976 Y142.587 E22.98885
G1 X100.603 Y142.514 E23.16757
G1 X95.271 Y142.721 E23.34505
G1 X95.042 Y142.725 E23.35266
G1 X90.51 Y142.715 E23.5034
G1 X89.842 Y142.674 E23.52566
G1 X89.184 Y142.553 E23.54791
G1 X88.545 Y142.354 E23.57017
G1 X87.934 Y142.081 E23.59243
G1 X87.36 Y141.737 E23.61469
G1 X86.832 Y141.327 E23.63692
G1 X86.356 Y140.857 E23.65917
G1 X85.981 Y140.392 E23.67904
G1 X82.929 Y136.162 E23.85253
G1 X79.562 Y132.001 E24.03055
G1 X75.96 Y128.029 E24.2089
G1 X74.153 Y126.199 E24.29443
G1 X68.755 Y121.261 E24.53776
G1 X68.29 Y120.781 E24.55999
G1 X67.884 Y120.249 E24.58225
G1 X67.546 Y119.672 E24.60449
G1 X67.283 Y119.073 E24.62625
G1 X65.891 Y115.312 E24.75963
G1 X65.697 Y114.672 E24.78187
G1 X65.58 Y114.013 E24.80414
G1 X65.543 Y113.367 E24.82566
G1 X65.544 Y102.879 E25.17449
G1 X65.584 Y102.212 E25.19671
G1 X65.703 Y101.553 E25.21899
G1 X65.9 Y100.914 E25.24123
G1 X66.172 Y100.303 E25.26347
G1 X66.515 Y99.728 E25.28574
G1 X66.924 Y99.199 E25.30798
G1 X67.45 Y98.671 E25.33277
G1 X69.865 Y96.552 E25.43963
G1 X73.736 Y92.837 E25.61808
G1 X77.417 Y88.88 E25.79783
G1 X79.111 Y86.899 E25.88452
G1 X80.754 Y84.858 E25.97167
G1 X84.624 Y79.575 E26.18948
G1 X85.051 Y79.06 E26.21173
M204 S5000
M205 X30 Y30
G0 F3600 X85.359 Y79.316
M204 S500
M205 X20 Y20
G1 F1800 X85.83 Y78.875 E26.23319
G1 X86.351 Y78.496 E26.25462
G1 X86.916 Y78.185 E26.27607
G1 X87.514 Y77.945 E26.29751
G1 X88.138 Y77.782 E26.31896
G1 X88.777 Y77.697 E26.3404
G1 X89.165 Y77.684 E26.35331
G1 X104.451 Y77.751 E26.86173
G1 X107.312 Y77.677 E26.95692
G1 X107.446 Y77.675 E26.96137
G1 X116.427 Y77.675 E27.26008
G1 X116.549 Y77.676 E27.26414
G1 X119.732 Y77.751 E27.37004
G1 X135.103 Y77.685 E27.88128
G1 X135.746 Y77.722 E27.90271
G1 X136.38 Y77.839 E27.92415
G1 X136.995 Y78.033 E27.9456
G1 X137.581 Y78.302 E27.96704
G1 X138.129 Y78.641 E27.98848
G1 X138.632 Y79.045 E28.00993
G1 X139.08 Y79.509 E28.03139
G1 X139.34 Y79.84 E28.04538
G1 X142.404 Y84.082 E28.21943
G1 X145.78 Y88.255 E28.39796
G1 X149.404 Y92.251 E28.57738
G1 X151.224 Y94.095 E28.66356
G1 X156.625 Y99.034 E28.90698
G1 X157.073 Y99.497 E28.92841
G1 X157.46 Y100.013 E28.94986
G1 X157.78 Y100.572 E28.97128
G1 X158.029 Y101.167 E28.99274
G1 X158.202 Y101.788 E29.01418
G1 X158.297 Y102.426 E29.03563
G1 X158.316 Y102.867 E29.05031
G1 X158.324 Y113.366 E29.39951
G1 X158.285 Y114.009 E29.42094
G1 X158.166 Y114.643 E29.44239
G1 X157.969 Y115.257 E29.46384
G1 X157.699 Y115.842 E29.48527
G1 X157.358 Y116.389 E29.50671
G1 X156.768 Y117.08 E29.53693
G1 X151.457 Y122.296 E29.78452
G1 X147.621 Y126.188 E29.96627
G1 X144.055 Y130.24 E30.1458
G1 X142.413 Y132.275 E30.23277
G1 X139.301 Y136.468 E30.40644
G1 X138.802 Y137.045 E30.43182
G1 X135.057 Y140.791 E30.60799
G1 X134.574 Y141.218 E30.62943
G1 X134.042 Y141.582 E30.65087
G1 X133.469 Y141.877 E30.67231
G1 X132.864 Y142.099 E30.69374
G1 X132.235 Y142.244 E30.71521
G1 X131.38 Y142.315 E30.74375
G1 X126.518 Y142.315 E30.90546
G1 X126.241 Y142.308 E30.91468
G1 X124.003 Y142.189 E30.98922
G1 X118.574 Y142.115 E31.1698
G1 X113.256 Y142.321 E31.34681
G1 X113.043 Y142.325 E31.3539
G1 X108.507 Y142.315 E31.50477
G1 X108.241 Y142.308 E31.51362
G1 X106.003 Y142.189 E31.58816
G1 X100.574 Y142.115 E31.76874
G1 X95.256 Y142.321 E31.94575
G1 X95.043 Y142.325 E31.95284
G1 X90.511 Y142.315 E32.10358
G1 X89.867 Y142.274 E32.12504
G1 X89.234 Y142.153 E32.14647
G1 X88.62 Y141.955 E32.16793
G1 X88.036 Y141.682 E32.18937
G1 X87.49 Y141.34 E32.2108
G1 X86.991 Y140.932 E32.23224
G1 X86.546 Y140.466 E32.25367
G1 X86.305 Y140.158 E32.26668
G1 X83.24 Y135.91 E32.4409
G1 X79.87 Y131.745 E32.6191
G1 X76.246 Y127.749 E32.79852
G1 X74.435 Y125.915 E32.88425
G1 X69.025 Y120.966 E33.12812
G1 X68.578 Y120.502 E33.14955
G1 X68.191 Y119.987 E33.17097
G1 X67.87 Y119.427 E33.19244
G1 X67.658 Y118.934 E33.21029
G1 X66.266 Y115.173 E33.34368
G1 X66.08 Y114.556 E33.36511
G1 X65.972 Y113.92 E33.38657
G1 X65.943 Y113.368 E33.40495
G1 X65.944 Y102.88 E33.75378
G1 X65.984 Y102.236 E33.77524
G1 X66.103 Y101.603 E33.79667
G1 X66.3 Y100.989 E33.81811
G1 X66.571 Y100.404 E33.83956
G1 X66.913 Y99.857 E33.86101
G1 X67.32 Y99.357 E33.88246
G1 X67.714 Y98.972 E33.90078
G1 X70.122 Y96.859 E34.00733
G1 X74.032 Y93.106 E34.18759
G1 X77.709 Y89.155 E34.36711
G1 X79.428 Y87.144 E34.4551
G1 X81.066 Y85.109 E34.54199
G1 X84.947 Y79.811 E34.76042
G1 X85.359 Y79.316 E34.78184
M204 S5000
M205 X30 Y30
G1 F2400 E29.78184
G0 F3600 X88.469 Y83.489
G0 X89.748 Y83.489
G0 X92.464 Y86.705
G0 X92.534 Y86.775
M204 S500
M205 X20 Y20
;TYPE:WALL-INNER
G1 F2400 E34.78184
G1 F1800 X89.734 Y86.775 E34.87497
G1 X89.734 Y83.475 E34.98473
G1 X92.534 Y83.475 E35.07785
G1 X92.534 Y86.775 E35.18761
M204 S5000
M205 X30 Y30
G0 F3600 X92.934 Y87.175
M204 S500
M205 X20 Y20
;TYPE:WALL-OUTER
G1 F1800 X89.334 Y87.175 E35.30735
G1 X89.334 Y83.075 E35.44372
G1 X92.934 Y83.075 E35.56345
G1 X92.934 Y87.175 E35.69982
M204 S5000
M205 X30 Y30
G0 F3600 X92.734 Y87.175
G0 X92.464 Y86.705
G0 X92.144 Y86.385
M204 S500
M205 X20 Y20
;TYPE:SKIN
G1 F1800 X90.124 Y86.385 E35.767
G1 X90.124 Y83.865 E35.85082
G1 X92.144 Y83.865 E35.918
G1 X92.144 Y86.385 E36.00182
M204 S5000
M205 X30 Y30
G0 F3600 X90.73 Y86.204
M204 S500
M205 X20 Y20
G1 F1800 X90.303 Y85.777 E36.02191
M204 S5000
M205 X30 Y30
G0 F3600 X90.303 Y85.212
M204 S500
M205 X20 Y20
G1 F1800 X91.295 Y86.204 E36.06857
M204 S5000
M205 X30 Y30
G0 F3600 X91.861 Y86.204
M204 S500
M205 X20 Y20
G1 F1800 X90.303 Y84.646 E36.14185
M204 S5000
M205 X30 Y30
G0 F3600 X90.303 Y84.08
M204 S500
M205 X20 Y20
G1 F1800 X91.963 Y85.74 E36.21993
M204 S5000
M205 X30 Y30
G0 F3600 X91.963 Y85.175
M204 S500
M205 X20 Y20
G1 F1800 X90.833 Y84.045 E36.27308
M204 S5000
M205 X30 Y30
G0 F3600 X91.399 Y84.045
M204 S500
M205 X20 Y20
G1 F1800 X91.963 Y84.609 E36.29961
M204 S5000
M205 X30 Y30
G1 F2400 E31.29961
G0 F3600 X92.514 Y86.705
G0 X93.799 Y86.705
G0 X94.469 Y86.705
G0 X95.754 Y86.705
G0 X98.464 Y86.705
G0 X98.534 Y86.775
M204 S500
M205 X20 Y20
;TYPE:WALL-INNER
G1 F2400 E36.29961
G1 F1800 X95.734 Y86.775 E36.39274
G1 X95.734 Y83.475 E36.5025
G1 X98.534 Y83.475 E36.59563
G1 X98.534 Y86.775 E36.70538
M204 S5000
M205 X30 Y30
G0 F3600 X98.934 Y87.175
M204 S500
M205 X20 Y20
;TYPE:WALL-OUTER
G1 F1800 X95.334 Y87.175 E36.82512
G1 X95.334 Y83.075 E36.96149
