;FLAVOR:Marlin
;TIME:4687
;Filament used: 5.45155m
;Layer height: 0.3
;Generated with Cura_SteamEngine 4.0.0
M140 S60
M105
M190 S60
M104 S200
M105
M109 S200
M82 ;absolute extrusion mode
; Ender 3 Custom Start G-code
G28 ; Home all axes
G92 E0 ; Reset Extruder
G1 Z2.0 F3000 ; Move Z Axis up little to prevent scratching of Heat Bed
G1 X0.1 Y20 Z0.3 F5000.0 ; Move to start position
G1 X0.1 Y200.0 Z0.3 F1500.0 E15 ; Draw the first line
G1 X0.4 Y200.0 Z0.3 F5000.0 ; Move to side a little
G1 X0.4 Y20 Z0.3 F1500.0 E30 ; Draw the second line
G92 E0 ; Reset Extruder
G1 Z2.0 F3000 ; Move Z Axis up little to prevent scratching of Heat Bed
; End of custom start GCode
G92 E0
G1 F2400 E-5
;LAYER_COUNT:89
;LAYER:0
M107
M204 S5000
M205 X30 Y30
G0 F3600 X78.058 Y95.031 Z0.2
M204 S500
M205 X20 Y20
;TYPE:SKIRT
G1 F2400 E0
G1 F1350 X78.64 Y94.615 E0.02379
G1 X79.265 Y94.267 E0.04759
G1 X79.925 Y93.991 E0.07138
G1 X80.611 Y93.79 E0.09516
G1 X81.316 Y93.668 E0.11895
G1 X82.06 Y93.624 E0.14374
G1 X152.938 Y93.61 E2.50115
G1 X153.652 Y93.65 E2.52494
G1 X154.357 Y93.769 E2.54872
G1 X155.045 Y93.966 E2.57252
G1 X155.706 Y94.239 E2.59631
G1 X156.333 Y94.584 E2.62011
G1 X156.917 Y94.996 E2.64388
G1 X157.451 Y95.472 E2.66767
G1 X157.93 Y96.003 E2.69146
G1 X158.346 Y96.585 E2.71525
G1 X158.694 Y97.21 E2.73905
G1 X158.971 Y97.87 E2.76285
G1 X159.172 Y98.556 E2.78663
G1 X159.295 Y99.261 E2.81043
G1 X159.339 Y100.004 E2.83519
G1 X159.359 Y120.933 E3.53129
G1 X159.35 Y121.286 E3.54303
G1 X159.054 Y126.736 E3.72457
G1 X159.046 Y126.855 E3.72853
G1 X157.788 Y144.08 E4.30297
G1 X157.77 Y144.284 E4.30978
G1 X157.099 Y150.661 E4.52305
G1 X156.984 Y151.367 E4.54684
G1 X156.792 Y152.056 E4.57063
G1 X156.524 Y152.719 E4.59441
G1 X156.183 Y153.348 E4.61821
G1 X155.775 Y153.935 E4.64199
G1 X155.303 Y154.473 E4.66579
G1 X154.774 Y154.954 E4.68957
G1 X154.195 Y155.374 E4.71336
G1 X153.573 Y155.727 E4.73715
G1 X152.915 Y156.008 E4.76095
G1 X152.23 Y156.214 E4.78474
G1 X151.526 Y156.342 E4.80854
G1 X150.734 Y156.391 E4.83493
G1 X84.265 Y156.39 E7.0457
G1 X83.551 Y156.35 E7.06948
G1 X82.846 Y156.231 E7.09326
G1 X82.158 Y156.033 E7.11707
G1 X81.497 Y155.76 E7.14086
G1 X80.87 Y155.415 E7.16466
G1 X80.286 Y155.003 E7.18843
G1 X79.752 Y154.527 E7.21223
G1 X79.273 Y153.996 E7.23601
G1 X78.858 Y153.414 E7.25979
G1 X78.509 Y152.789 E7.2836
G1 X78.233 Y152.129 E7.30739
G1 X78.032 Y151.443 E7.33117
G1 X77.899 Y150.648 E7.35797
G1 X77.144 Y143.345 E7.60217
G1 X77.127 Y143.156 E7.60848
G1 X76.337 Y132.415 E7.96669
G1 X76.332 Y132.344 E7.96906
G1 X75.663 Y121.596 E8.32723
G1 X75.651 Y121.195 E8.34057
G1 X75.661 Y100.021 E9.04482
G1 X75.701 Y99.307 E9.06861
G1 X75.821 Y98.602 E9.09239
G1 X76.019 Y97.914 E9.11621
G1 X76.292 Y97.253 E9.13999
G1 X76.637 Y96.627 E9.16377
G1 X77.05 Y96.043 E9.18756
G1 X77.526 Y95.508 E9.21137
G1 X78.058 Y95.031 E9.23514
M204 S5000
M205 X30 Y30
G0 F3600 X78.447 Y95.235
M204 S500
M205 X20 Y20
G1 F1350 X79.023 Y94.85 E9.25818
G1 X79.639 Y94.534 E9.28121
G1 X80.288 Y94.292 E9.30425
G1 X80.96 Y94.126 E9.32727
G1 X81.647 Y94.038 E9.35031
G1 X82.06 Y94.024 E9.36405
G1 X152.938 Y94.01 E11.72146
G1 X153.629 Y94.05 E11.74448
G1 X154.311 Y94.169 E11.76751
G1 X154.975 Y94.366 E11.79055
G1 X155.612 Y94.638 E11.81358
G1 X156.213 Y94.982 E11.83662
G1 X156.771 Y95.393 E11.85967
G1 X157.277 Y95.865 E11.88268
G1 X157.726 Y96.393 E11.90573
G1 X158.111 Y96.968 E11.92875
G1 X158.427 Y97.585 E11.95181
G1 X158.67 Y98.233 E11.97482
G1 X158.836 Y98.905 E11.99785
G1 X158.924 Y99.592 E12.02088
G1 X158.939 Y100.004 E12.03459
G1 X158.959 Y120.933 E12.7307
G1 X158.95 Y121.264 E12.74171
G1 X158.654 Y126.714 E12.92324
G1 X158.647 Y126.826 E12.92698
G1 X157.389 Y144.051 E13.50141
G1 X157.372 Y144.242 E13.50779
G1 X156.701 Y150.619 E13.72106
G1 X156.589 Y151.302 E13.74408
G1 X156.399 Y151.968 E13.76711
G1 X156.133 Y152.608 E13.79016
G1 X155.796 Y153.213 E13.8132
G1 X155.391 Y153.774 E13.83621
G1 X154.924 Y154.286 E13.85926
G1 X154.401 Y154.74 E13.88229
G1 X153.829 Y155.131 E13.90534
G1 X153.217 Y155.453 E13.92834
G1 X152.571 Y155.703 E13.95138
G1 X151.9 Y155.877 E13.97443
G1 X151.214 Y155.972 E13.99747
G1 X150.734 Y155.991 E14.01345
G1 X84.265 Y155.99 E16.22421
G1 X83.574 Y155.95 E16.24724
G1 X82.891 Y155.831 E16.27029
G1 X82.228 Y155.633 E16.29331
G1 X81.591 Y155.361 E16.31635
G1 X80.99 Y155.017 E16.33938
G1 X80.432 Y154.606 E16.36243
G1 X79.926 Y154.134 E16.38544
G1 X79.477 Y153.606 E16.4085
G1 X79.092 Y153.03 E16.43154
G1 X78.777 Y152.414 E16.45455
G1 X78.534 Y151.766 E16.47757
G1 X78.367 Y151.093 E16.50063
G1 X78.297 Y150.607 E16.51696
G1 X77.542 Y143.304 E16.76116
G1 X77.526 Y143.127 E16.76707
G1 X76.736 Y132.386 E17.12528
G1 X76.732 Y132.319 E17.12751
G1 X76.063 Y121.571 E17.48568
G1 X76.051 Y121.195 E17.4982
G1 X76.061 Y100.021 E18.20245
G1 X76.101 Y99.33 E18.22547
G1 X76.221 Y98.648 E18.2485
G1 X76.418 Y97.984 E18.27154
G1 X76.691 Y97.347 E18.29459
G1 X77.035 Y96.746 E18.31762
G1 X77.446 Y96.189 E18.34064
G1 X77.919 Y95.683 E18.36368
G1 X78.447 Y95.235 E18.38671
M204 S5000
M205 X30 Y30
G0 F3600 X78.312 Y95.864
M204 S500
M205 X20 Y20
G1 F1350 X78.835 Y95.447 E18.40896
G1 X79.403 Y95.095 E18.43118
G1 X80.01 Y94.813 E18.45344
G1 X80.646 Y94.606 E18.47569
G1 X81.303 Y94.476 E18.49797
G1 X82.06 Y94.424 E18.5232
G1 X152.938 Y94.41 E20.88061
G1 X153.606 Y94.45 E20.90287
G1 X154.264 Y94.569 E20.92511
G1 X154.903 Y94.766 E20.94735
G1 X155.515 Y95.038 E20.96963
G1 X156.089 Y95.38 E20.99185
G1 X156.619 Y95.789 E21.01412
G1 X157.096 Y96.258 E21.03637
G1 X157.514 Y96.781 E21.05863
G1 X157.866 Y97.349 E21.08086
G1 X158.149 Y97.956 E21.10314
G1 X158.356 Y98.592 E21.12538
G1 X158.487 Y99.248 E21.14763
G1 X158.539 Y100.005 E21.17287
G1 X158.559 Y120.934 E21.86897
G1 X158.551 Y121.243 E21.87925
G1 X158.255 Y126.693 E22.06078
G1 X158.248 Y126.797 E22.06425
G1 X156.99 Y144.022 E22.63868
G1 X156.974 Y144.2 E22.64463
G1 X156.303 Y150.577 E22.8579
G1 X156.194 Y151.237 E22.88015
G1 X156.006 Y151.879 E22.9024
G1 X155.743 Y152.494 E22.92464
G1 X155.409 Y153.074 E22.9469
G1 X155.008 Y153.609 E22.96914
G1 X154.546 Y154.093 E22.9914
G1 X154.029 Y154.519 E23.01368
G1 X153.466 Y154.879 E23.0359
G1 X152.864 Y155.17 E23.05814
G1 X152.231 Y155.387 E23.0804
G1 X151.576 Y155.527 E23.10268
G1 X150.734 Y155.591 E23.13076
G1 X84.265 Y155.59 E25.34153
G1 X83.597 Y155.55 E25.36379
G1 X82.939 Y155.431 E25.38603
G1 X82.299 Y155.234 E25.4083
G1 X81.688 Y154.962 E25.43055
G1 X81.114 Y154.619 E25.45279
G1 X80.584 Y154.21 E25.47505
G1 X80.107 Y153.741 E25.4973
G1 X79.689 Y153.218 E25.51957
G1 X79.337 Y152.65 E25.5418
G1 X79.055 Y152.043 E25.56406
G1 X78.847 Y151.407 E25.58631
G1 X78.695 Y150.566 E25.61474
G1 X77.94 Y143.263 E25.85893
G1 X77.925 Y143.098 E25.86444
G1 X77.135 Y132.357 E26.22265
G1 X77.131 Y132.294 E26.22475
G1 X76.462 Y121.546 E26.58292
G1 X76.451 Y121.195 E26.5946
G1 X76.461 Y100.021 E27.29885
G1 X76.501 Y99.354 E27.32108
G1 X76.621 Y98.695 E27.34336
G1 X76.818 Y98.056 E27.3656
G1 X77.09 Y97.445 E27.38784
G1 X77.433 Y96.87 E27.41011
G1 X77.842 Y96.341 E27.43235
G1 X78.312 Y95.864 E27.45462
M204 S5000
M205 X30 Y30
G0 F3600 X78.703 Y96.053
M204 S500
M205 X20 Y20
G1 F1350 X79.22 Y95.668 E27.47606
G1 X79.781 Y95.35 E27.49751
G1 X80.377 Y95.104 E27.51896
G1 X80.999 Y94.934 E27.5404
G1 X81.637 Y94.841 E27.56185
G1 X82.06 Y94.824 E27.57593
G1 X152.938 Y94.81 E29.93334
G1 X153.581 Y94.85 E29.95477
G1 X154.215 Y94.969 E29.97622
G1 X154.829 Y95.166 E29.99767
G1 X155.414 Y95.437 E30.01911
G1 X155.961 Y95.778 E30.04055
G1 X156.461 Y96.184 E30.06198
G1 X156.907 Y96.65 E30.08343
G1 X157.293 Y97.167 E30.10489
G1 X157.611 Y97.727 E30.12631
G1 X157.858 Y98.323 E30.14777
G1 X158.029 Y98.944 E30.16919
G1 X158.121 Y99.582 E30.19063
G1 X158.139 Y100.005 E30.20471
G1 X158.159 Y120.934 E30.90081
G1 X158.151 Y121.221 E30.91036
G1 X157.855 Y126.671 E31.0919
G1 X157.849 Y126.768 E31.09513
G1 X156.591 Y143.993 E31.66956
G1 X156.576 Y144.158 E31.67507
G1 X155.905 Y150.535 E31.88834
G1 X155.798 Y151.171 E31.90979
G1 X155.613 Y151.788 E31.93122
G1 X155.354 Y152.378 E31.95265
G1 X155.023 Y152.932 E31.97411
G1 X154.626 Y153.44 E31.99556
G1 X154.169 Y153.895 E32.017
G1 X153.66 Y154.29 E32.03843
G1 X153.105 Y154.619 E32.05989
G1 X152.514 Y154.877 E32.08134
G1 X151.896 Y155.059 E32.10277
G1 X151.26 Y155.164 E32.12421
G1 X150.734 Y155.191 E32.14173
G1 X84.265 Y155.19 E34.35249
G1 X83.621 Y155.15 E34.37395
G1 X82.988 Y155.031 E34.39538
G1 X82.374 Y154.834 E34.41682
G1 X81.789 Y154.563 E34.43827
G1 X81.242 Y154.221 E34.45972
G1 X80.742 Y153.815 E34.48115
G1 X80.296 Y153.349 E34.5026
G1 X79.911 Y152.833 E34.52401
G1 X79.592 Y152.272 E34.54548
G1 X79.346 Y151.676 E34.56692
G1 X79.175 Y151.055 E34.58835
G1 X79.093 Y150.525 E34.60618
G1 X78.338 Y143.222 E34.85038
G1 X78.324 Y143.068 E34.85552
G1 X77.534 Y132.327 E35.21373
G1 X77.53 Y132.269 E35.21567
G1 X76.861 Y121.521 E35.57384
G1 X76.851 Y121.196 E35.58465
G1 X76.861 Y100.022 E36.2889
G1 X76.901 Y99.378 E36.31036
G1 X77.021 Y98.745 E36.33179
G1 X77.218 Y98.131 E36.35324
G1 X77.489 Y97.546 E36.37468
G1 X77.831 Y96.999 E36.39614
G1 X78.238 Y96.499 E36.41758
G1 X78.703 Y96.053 E36.43901
M204 S5000
M205 X30 Y30
G1 F2400 E31.43901
;MESH:CORRECTED_X_Changer_Filler_Piece.stl
G0 F3600 X81.388 Y105.334
G0 X82.667 Y105.334
G0 X108.309 Y107.612
G0 X108.379 Y107.542
M204 S500
M205 X20 Y20
;TYPE:WALL-INNER
G1 F2400 E36.43901
G1 F1350 X126.621 Y107.542 E37.04574
G1 X126.621 Y105.32 E37.11965
G1 X152.347 Y105.32 E37.9753
G1 X152.347 Y109.12 E38.10169
G1 X82.653 Y109.12 E40.41972
G1 X82.653 Y105.32 E40.54611
G1 X108.379 Y105.32 E41.40176
G1 X108.379 Y107.542 E41.47566
M204 S5000
M205 X30 Y30
G0 F3600 X108.779 Y107.142
M204 S500
M205 X20 Y20
;TYPE:WALL-OUTER
G1 F1350 X126.221 Y107.142 E42.05578
G1 X126.221 Y104.92 E42.12969
G1 X152.747 Y104.92 E43.01195
G1 X152.747 Y109.52 E43.16494
G1 X82.253 Y109.52 E45.50958
G1 X82.253 Y104.92 E45.66258
G1 X108.779 Y104.92 E46.54484
G1 X108.779 Y107.142 E46.61874
M204 S5000
M205 X30 Y30
G0 F3600 X108.979 Y107.142
G0 X108.979 Y107.642
G0 X107.989 Y107.932
M204 S500
M205 X20 Y20
;TYPE:SKIN
G1 F1350 X127.011 Y107.932 E47.25142
G1 X127.011 Y105.71 E47.32532
G1 X151.957 Y105.71 E48.15503
G1 X151.957 Y108.73 E48.25547
G1 X83.043 Y108.73 E50.54756
G1 X83.043 Y105.71 E50.64801
G1 X107.989 Y105.71 E51.47772
G1 X107.989 Y107.932 E51.55162
M204 S5000
M205 X30 Y30
G0 F3600 X83.658 Y108.548
M204 S500
M205 X20 Y20
G1 F1350 X83.222 Y108.113 E51.5721
M204 S5000
M205 X30 Y30
G0 F3600 X83.222 Y107.547
M204 S500
M205 X20 Y20
G1 F1350 X84.224 Y108.548 E51.61921
M204 S5000
M205 X30 Y30
G0 F3600 X84.789 Y108.548
M204 S500
M205 X20 Y20
G1 F1350 X83.222 Y106.981 E51.69292
M204 S5000
M205 X30 Y30
G0 F3600 X83.222 Y106.416
M204 S500
M205 X20 Y20
G1 F1350 X85.355 Y108.548 E51.79323
M204 S5000
M205 X30 Y30
G0 F3600 X85.921 Y108.548
M204 S500
M205 X20 Y20
G1 F1350 X83.262 Y105.889 E51.9183
M204 S5000
M205 X30 Y30
G0 F3600 X83.828 Y105.889
M204 S500
M205 X20 Y20
G1 F1350 X86.486 Y108.548 E52.04334
M204 S5000
M205 X30 Y30
G0 F3600 X87.052 Y108.548
M204 S500
M205 X20 Y20
G1 F1350 X84.393 Y105.889 E52.16842
M204 S5000
M205 X30 Y30
G0 F3600 X84.959 Y105.889
M204 S500
M205 X20 Y20
G1 F1350 X87.618 Y108.548 E52.29349
M204 S5000
M205 X30 Y30
G0 F3600 X88.183 Y108.548
M204 S500
M205 X20 Y20
G1 F1350 X85.525 Y105.889 E52.41853
M204 S5000
M205 X30 Y30
G0 F3600 X86.09 Y105.889
M204 S500
M205 X20 Y20
G1 F1350 X88.749 Y108.548 E52.54361
M204 S5000
M205 X30 Y30
G0 F3600 X89.315 Y108.548
M204 S500
M205 X20 Y20
G1 F1350 X86.656 Y105.889 E52.66868
M204 S5000
M205 X30 Y30
G0 F3600 X87.222 Y105.889
M204 S500
M205 X20 Y20
G1 F1350 X89.881 Y108.548 E52.79375
M204 S5000
M205 X30 Y30
G0 F3600 X90.446 Y108.548
M204 S500
M205 X20 Y20
G1 F1350 X87.788 Y105.889 E52.9188
M204 S5000
M205 X30 Y30
G0 F3600 X88.353 Y105.889
M204 S500
M205 X20 Y20
G1 F1350 X91.012 Y108.548 E53.04387
M204 S5000
M205 X30 Y30
G0 F3600 X91.578 Y108.548
M204 S500
M205 X20 Y20
G1 F1350 X88.919 Y105.889 E53.16894
M204 S5000
M205 X30 Y30
G0 F3600 X89.485 Y105.889
M204 S500
M205 X20 Y20
G1 F1350 X92.143 Y108.548 E53.29399
M204 S5000
M205 X30 Y30
G0 F3600 X92.709 Y108.548
M204 S500
M205 X20 Y20
G1 F1350 X90.05 Y105.889 E53.41906
M204 S5000
M205 X30 Y30
G0 F3600 X90.616 Y105.889
M204 S500
M205 X20 Y20
G1 F1350 X93.275 Y108.548 E53.54413
M204 S5000
M205 X30 Y30
G0 F3600 X93.84 Y108.548
M204 S500
M205 X20 Y20
G1 F1350 X91.182 Y105.889 E53.66918
M204 S5000
M205 X30 Y30
G0 F3600 X91.747 Y105.889
M204 S500
M205 X20 Y20
G1 F1350 X94.406 Y108.548 E53.79425
M204 S5000
M205 X30 Y30
G0 F3600 X94.972 Y108.548
M204 S500
M205 X20 Y20
G1 F1350 X92.313 Y105.889 E53.91932
M204 S5000
M205 X30 Y30
G0 F3600 X92.879 Y105.889
M204 S500
M205 X20 Y20
G1 F1350 X95.537 Y108.548 E54.04437
M204 S5000
M205 X30 Y30
G0 F3600 X96.103 Y108.548
M204 S500
M205 X20 Y20
G1 F1350 X93.444 Y105.889 E54.16944
M204 S5000
M205 X30 Y30
G0 F3600 X94.01 Y105.889
M204 S500
M205 X20 Y20
G1 F1350 X96.669 Y108.548 E54.29451
M204 S5000
M205 X30 Y30
G0 F3600 X97.234 Y108.548
M204 S500
M205 X20 Y20
G1 F1350 X94.576 Y105.889 E54.41956
M204 S5000
M205 X30 Y30
G0 F3600 X95.141 Y105.889
M204 S500
M205 X20 Y20
G1 F1350 X97.8 Y108.548 E54.54463
M204 S5000
M205 X30 Y30
G0 F3600 X98.366 Y108.548
M204 S500
M205 X20 Y20
G1 F1350 X95.708 Y105.89 E54.66965
M204 S5000
M205 X30 Y30
G0 F3600 X96.274 Y105.89
M204 S500
M205 X20 Y20
G1 F1350 X98.932 Y108.548 E54.79468
M204 S5000
M205 X30 Y30
G0 F3600 X99.497 Y108.548
M204 S500
M205 X20 Y20
G1 F1350 X96.839 Y105.89 E54.9197
M204 S5000
M205 X30 Y30
G0 F3600 X97.405 Y105.89
M204 S500
M205 X20 Y20
G1 F1350 X100.063 Y108.548 E55.04472
M204 S5000
M205 X30 Y30
G0 F3600 X100.629 Y108.548
M204 S500
M205 X20 Y20
G1 F1350 X97.971 Y105.89 E55.16975
M204 S5000
M205 X30 Y30
G0 F3600 X98.536 Y105.89
M204 S500
M205 X20 Y20
G1 F1350 X101.194 Y108.548 E55.29477
M204 S5000
M205 X30 Y30
G0 F3600 X101.76 Y108.548
M204 S500
M205 X20 Y20
G1 F1350 X99.102 Y105.89 E55.4198
M204 S5000
M205 X30 Y30
G0 F3600 X99.668 Y105.89
M204 S500
M205 X20 Y20
G1 F1350 X102.326 Y108.548 E55.54482
M204 S5000
M205 X30 Y30
G0 F3600 X102.891 Y108.548
M204 S500
M205 X20 Y20
G1 F1350 X100.233 Y105.89 E55.66984
M204 S5000
M205 X30 Y30
G0 F3600 X100.799 Y105.89
M204 S500
M205 X20 Y20
G1 F1350 X103.457 Y108.548 E55.79487
M204 S5000
M205 X30 Y30
G0 F3600 X104.023 Y108.548
M204 S500
M205 X20 Y20
G1 F1350 X101.365 Y105.89 E55.91989
M204 S5000
M205 X30 Y30
G0 F3600 X101.93 Y105.89
M204 S500
M205 X20 Y20
G1 F1350 X104.588 Y108.548 E56.04492
M204 S5000
M205 X30 Y30
G0 F3600 X105.154 Y108.548
M204 S500
M205 X20 Y20
G1 F1350 X102.496 Y105.89 E56.16994
M204 S5000
M205 X30 Y30
G0 F3600 X103.062 Y105.89
M204 S500
M205 X20 Y20
G1 F1350 X105.72 Y108.548 E56.29497
M204 S5000
M205 X30 Y30
G0 F3600 X106.285 Y108.548
M204 S500
M205 X20 Y20
G1 F1350 X103.627 Y105.89 E56.41999
M204 S5000
M205 X30 Y30
G0 F3600 X104.193 Y105.89
M204 S500
M205 X20 Y20
G1 F1350 X106.851 Y108.548 E56.54501
M204 S5000
M205 X30 Y30
G0 F3600 X107.417 Y108.548
M204 S500
M205 X20 Y20
G1 F1350 X104.759 Y105.89 E56.67004
M204 S5000
M205 X30 Y30
G0 F3600 X105.324 Y105.89
M204 S500
M205 X20 Y20
G1 F1350 X107.982 Y108.548 E56.79506
M204 S5000
M205 X30 Y30
G0 F3600 X108.112 Y108.112
M204 S500
M205 X20 Y20
G1 F1350 X108.548 Y108.548 E56.81557
M204 S5000
M205 X30 Y30
G0 F3600 X108.678 Y108.112
M204 S500
M205 X20 Y20
G1 F1350 X109.114 Y108.548 E56.83608
M204 S5000
M205 X30 Y30
G0 F3600 X109.243 Y108.112
M204 S500
M205 X20 Y20
G1 F1350 X109.68 Y108.548 E56.85661
M204 S5000
M205 X30 Y30
G0 F3600 X109.809 Y108.112
M204 S500
M205 X20 Y20
G1 F1350 X110.245 Y108.548 E56.87712
M204 S5000
M205 X30 Y30
G0 F3600 X110.375 Y108.112
M204 S500
M205 X20 Y20
G1 F1350 X110.811 Y108.548 E56.89763
M204 S5000
M205 X30 Y30
G0 F3600 X110.94 Y108.112
M204 S500
M205 X20 Y20
G1 F1350 X111.377 Y108.548 E56.91816
M204 S5000
M205 X30 Y30
G0 F3600 X111.506 Y108.112
M204 S500
M205 X20 Y20
G1 F1350 X111.942 Y108.548 E56.93867
M204 S5000
M205 X30 Y30
G0 F3600 X112.072 Y108.112
M204 S500
M205 X20 Y20
G1 F1350 X112.508 Y108.548 E56.95917
M204 S5000
M205 X30 Y30
G0 F3600 X112.637 Y108.112
