;FLAVOR:Marlin
;TIME:1087
;Filament used: 0.692666m
;Layer height: 0.15
;Generated with Cura_SteamEngine 3.6.0
M140 S60
M105
M190 S60
M104 S200
M105
M109 S200
M82 ;absolute extrusion mode
; Ender 3 Custom Start G-code
G28 ; Home all axes
G92 E0 ; Reset Extruder
G1 Z2.0 F3000 ; Move Z Axis up little to prevent scratching of Heat Bed
G1 X0.1 Y20 Z0.3 F5000.0 ; Move to start position
G1 X0.1 Y200.0 Z0.3 F1500.0 E15 ; Draw the first line
G1 X0.4 Y200.0 Z0.3 F5000.0 ; Move to side a little
G1 X0.4 Y20 Z0.3 F1500.0 E30 ; Draw the second line
G92 E0 ; Reset Extruder
G1 Z2.0 F3000 ; Move Z Axis up little to prevent scratching of Heat Bed
; End of custom start GCode
G92 E0
G1 F2400 E-5
;LAYER_COUNT:50
;LAYER:0
M107
M204 S5000
M205 X30 Y30
G0 F3600 X97.629 Y108.848 Z0.2
M204 S500
M205 X20 Y20
;TYPE:SKIRT
G1 F2400 E0
G1 F1800 X98.435 Y108.297 E0.03247
G1 X104.776 Y104.636 E0.276
G1 X105.414 Y104.314 E0.29977
G1 X106.085 Y104.065 E0.32358
G1 X106.779 Y103.892 E0.34737
G1 X107.488 Y103.798 E0.37115
G1 X108.449 Y103.796 E0.40312
G1 X112.216 Y104.075 E0.52875
G1 X117.557 Y104.224 E0.70646
G1 X122.859 Y104.072 E0.88288
G1 X126.543 Y103.796 E1.00575
G1 X127.258 Y103.782 E1.02954
G1 X127.97 Y103.849 E1.05332
G1 X128.671 Y103.994 E1.07713
G1 X129.35 Y104.217 E1.1009
G1 X130.221 Y104.635 E1.13304
G1 X136.564 Y108.295 E1.37661
G1 X137.162 Y108.686 E1.40037
G1 X137.713 Y109.142 E1.42416
G1 X138.21 Y109.657 E1.44796
G1 X138.647 Y110.223 E1.47175
G1 X139.017 Y110.835 E1.49553
G1 X139.317 Y111.485 E1.51934
G1 X139.542 Y112.163 E1.5431
G1 X139.69 Y112.863 E1.5669
G1 X139.765 Y113.838 E1.59943
G1 X139.765 Y121.157 E1.84286
G1 X139.725 Y121.871 E1.86664
G1 X139.606 Y122.576 E1.89042
G1 X139.408 Y123.264 E1.91423
G1 X139.135 Y123.925 E1.93802
G1 X138.791 Y124.552 E1.96181
G1 X138.378 Y125.136 E1.9856
G1 X137.903 Y125.67 E2.00937
G1 X137.371 Y126.149 E2.03318
G1 X136.568 Y126.698 E2.06553
G1 X130.237 Y130.358 E2.30875
G1 X129.599 Y130.681 E2.33254
G1 X128.929 Y130.93 E2.35631
G1 X128.235 Y131.103 E2.3801
G1 X127.526 Y131.198 E2.40389
G1 X126.651 Y131.206 E2.433
G1 X120.085 Y130.812 E2.65178
G1 X114.823 Y130.814 E2.82679
G1 X108.365 Y131.208 E3.04198
G1 X107.65 Y131.212 E3.06577
G1 X106.938 Y131.135 E3.08959
G1 X106.24 Y130.98 E3.11337
G1 X105.564 Y130.748 E3.13714
G1 X104.773 Y130.361 E3.16643
G1 X98.433 Y126.697 E3.40998
G1 X97.834 Y126.305 E3.43379
G1 X97.283 Y125.849 E3.45758
G1 X96.787 Y125.334 E3.48136
G1 X96.351 Y124.767 E3.50515
G1 X95.981 Y124.155 E3.52893
G1 X95.682 Y123.505 E3.55273
G1 X95.457 Y122.826 E3.57652
G1 X95.309 Y122.127 E3.60028
G1 X95.235 Y121.156 E3.63267
G1 X95.235 Y113.84 E3.876
G1 X95.275 Y113.126 E3.89979
G1 X95.394 Y112.421 E3.92357
G1 X95.592 Y111.733 E3.94738
G1 X95.865 Y111.072 E3.97117
G1 X96.209 Y110.445 E3.99495
G1 X96.622 Y109.861 E4.01874
G1 X97.097 Y109.327 E4.04252
G1 X97.629 Y108.848 E4.06632
M204 S5000
M205 X30 Y30
G0 F3600 X98.019 Y109.052
M204 S500
M205 X20 Y20
G1 F1800 X98.635 Y108.644 E4.0909
G1 X104.976 Y104.983 E4.33443
G1 X105.595 Y104.672 E4.35747
G1 X106.245 Y104.434 E4.38049
G1 X106.919 Y104.273 E4.40354
G1 X107.606 Y104.19 E4.42656
G1 X108.419 Y104.195 E4.4536
G1 X112.196 Y104.475 E4.57957
G1 X117.54 Y104.624 E4.75738
G1 X122.901 Y104.471 E4.93576
G1 X126.573 Y104.195 E5.05823
G1 X127.265 Y104.183 E5.08125
G1 X127.955 Y104.251 E5.10431
G1 X128.631 Y104.398 E5.12732
G1 X129.287 Y104.622 E5.15038
G1 X130.021 Y104.981 E5.17755
G1 X136.364 Y108.641 E5.42112
G1 X136.943 Y109.021 E5.44416
G1 X137.474 Y109.466 E5.4672
G1 X137.95 Y109.968 E5.49021
G1 X138.366 Y110.522 E5.51325
G1 X138.714 Y111.121 E5.5363
G1 X138.992 Y111.755 E5.55932
G1 X139.194 Y112.417 E5.58234
G1 X139.319 Y113.099 E5.6054
G1 X139.365 Y113.838 E5.63003
G1 X139.365 Y121.157 E5.87346
G1 X139.325 Y121.848 E5.89648
G1 X139.206 Y122.531 E5.91954
G1 X139.008 Y123.194 E5.94255
G1 X138.736 Y123.831 E5.96559
G1 X138.392 Y124.432 E5.98862
G1 X137.981 Y124.99 E6.01167
G1 X137.509 Y125.496 E6.03469
G1 X136.981 Y125.945 E6.05774
G1 X136.368 Y126.351 E6.0822
G1 X130.037 Y130.011 E6.32542
G1 X129.418 Y130.323 E6.34848
G1 X128.768 Y130.561 E6.3715
G1 X128.095 Y130.723 E6.39452
G1 X127.407 Y130.805 E6.41757
G1 X126.675 Y130.806 E6.44191
G1 X120.108 Y130.412 E6.66073
G1 X114.815 Y130.414 E6.83677
G1 X108.34 Y130.809 E7.05253
G1 X107.648 Y130.811 E7.07555
G1 X106.96 Y130.733 E7.09858
G1 X106.285 Y130.577 E7.12162
G1 X105.633 Y130.344 E7.14465
G1 X104.973 Y130.015 E7.16918
G1 X98.633 Y126.351 E7.41273
G1 X98.054 Y125.97 E7.43578
G1 X97.523 Y125.526 E7.4588
G1 X97.047 Y125.023 E7.48183
G1 X96.632 Y124.468 E7.50488
G1 X96.284 Y123.87 E7.5279
G1 X96.007 Y123.235 E7.55094
G1 X95.805 Y122.573 E7.57396
G1 X95.68 Y121.891 E7.59702
G1 X95.635 Y121.156 E7.62151
G1 X95.635 Y113.84 E7.86484
G1 X95.675 Y113.149 E7.88786
G1 X95.794 Y112.466 E7.91092
G1 X95.992 Y111.803 E7.93394
G1 X96.264 Y111.166 E7.95697
G1 X96.608 Y110.565 E7.98001
G1 X97.019 Y110.007 E8.00306
G1 X97.491 Y109.501 E8.02607
G1 X98.019 Y109.052 E8.04912
M204 S5000
M205 X30 Y30
G0 F3600 X97.884 Y109.682
M204 S500
M205 X20 Y20
G1 F1800 X98.406 Y109.264 E8.07137
G1 X98.835 Y108.99 E8.0883
G1 X105.176 Y105.329 E8.33183
G1 X105.774 Y105.03 E8.35406
G1 X106.404 Y104.804 E8.37633
G1 X107.056 Y104.655 E8.39857
G1 X107.722 Y104.585 E8.42084
G1 X108.39 Y104.594 E8.44306
G1 X112.179 Y104.875 E8.56943
G1 X117.54 Y105.025 E8.74781
G1 X122.921 Y104.87 E8.92686
G1 X126.603 Y104.594 E9.04966
G1 X127.272 Y104.584 E9.07192
G1 X127.937 Y104.653 E9.09415
G1 X128.59 Y104.802 E9.11643
G1 X129.219 Y105.027 E9.13865
G1 X129.821 Y105.328 E9.16104
G1 X136.164 Y108.988 E9.40461
G1 X136.722 Y109.356 E9.42684
G1 X137.233 Y109.788 E9.44909
G1 X137.688 Y110.278 E9.47133
G1 X138.082 Y110.819 E9.49359
G1 X138.408 Y111.403 E9.51584
G1 X138.662 Y112.022 E9.53809
G1 X138.841 Y112.667 E9.56036
G1 X138.942 Y113.328 E9.5826
G1 X138.965 Y113.838 E9.59958
G1 X138.965 Y121.157 E9.84301
G1 X138.925 Y121.825 E9.86527
G1 X138.806 Y122.483 E9.88751
G1 X138.609 Y123.123 E9.90978
G1 X138.337 Y123.734 E9.93202
G1 X137.994 Y124.308 E9.95426
G1 X137.585 Y124.838 E9.97653
G1 X137.116 Y125.315 E9.99878
G1 X136.594 Y125.733 E10.02102
G1 X136.168 Y126.005 E10.03783
G1 X129.837 Y129.665 E10.28106
G1 X129.239 Y129.965 E10.30331
G1 X128.609 Y130.191 E10.32557
G1 X127.957 Y130.34 E10.34781
G1 X127.292 Y130.411 E10.37006
G1 X126.699 Y130.407 E10.38978
G1 X120.116 Y130.012 E10.60913
G1 X114.807 Y130.014 E10.7857
G1 X108.316 Y130.41 E11.002
G1 X107.647 Y130.41 E11.02425
G1 X106.983 Y130.331 E11.04649
G1 X106.332 Y130.174 E11.06876
G1 X105.706 Y129.94 E11.09099
G1 X105.173 Y129.669 E11.11088
G1 X98.833 Y126.005 E11.35443
G1 X98.275 Y125.636 E11.37668
G1 X97.764 Y125.203 E11.39896
G1 X97.309 Y124.713 E11.4212
G1 X96.916 Y124.171 E11.44346
G1 X96.59 Y123.587 E11.46571
G1 X96.336 Y122.968 E11.48796
G1 X96.158 Y122.323 E11.51022
G1 X96.058 Y121.662 E11.53245
G1 X96.035 Y121.156 E11.5493
G1 X96.035 Y113.84 E11.79263
G1 X96.075 Y113.172 E11.81489
G1 X96.194 Y112.514 E11.83713
G1 X96.391 Y111.874 E11.8594
G1 X96.663 Y111.263 E11.88164
G1 X97.006 Y110.689 E11.90389
G1 X97.415 Y110.159 E11.92615
G1 X97.884 Y109.682 E11.9484
M204 S5000
M205 X30 Y30
G0 F3600 X98.275 Y109.871
M204 S500
M205 X20 Y20
G1 F1800 X99.035 Y109.337 E11.97929
G1 X105.376 Y105.676 E12.22282
G1 X105.953 Y105.389 E12.24426
G1 X106.561 Y105.175 E12.2657
G1 X107.192 Y105.039 E12.28717
G1 X107.834 Y104.981 E12.30861
G1 X108.36 Y104.993 E12.3261
G1 X112.159 Y105.274 E12.45281
G1 X117.54 Y105.425 E12.63185
G1 X122.941 Y105.27 E12.81156
G1 X126.633 Y104.993 E12.9347
G1 X127.277 Y104.984 E12.95612
G1 X127.918 Y105.056 E12.97758
G1 X128.545 Y105.206 E12.99902
G1 X129.149 Y105.433 E13.02048
G1 X129.621 Y105.674 E13.03811
G1 X135.964 Y109.334 E13.28168
G1 X136.501 Y109.69 E13.30311
G1 X136.99 Y110.11 E13.32455
G1 X137.424 Y110.587 E13.346
G1 X137.795 Y111.115 E13.36746
G1 X138.098 Y111.684 E13.3889
G1 X138.328 Y112.286 E13.41033
G1 X138.482 Y112.912 E13.43178
G1 X138.565 Y113.838 E13.4627
G1 X138.565 Y121.157 E13.70613
G1 X138.525 Y121.8 E13.72756
G1 X138.406 Y122.434 E13.74901
G1 X138.209 Y123.048 E13.77046
G1 X137.938 Y123.633 E13.7919
G1 X137.596 Y124.18 E13.81336
G1 X137.19 Y124.68 E13.83478
G1 X136.725 Y125.126 E13.85621
G1 X135.968 Y125.659 E13.887
G1 X129.637 Y129.319 E14.13023
G1 X129.06 Y129.606 E14.15166
G1 X128.451 Y129.82 E14.17313
G1 X127.821 Y129.957 E14.19458
G1 X127.179 Y130.015 E14.21602
G1 X126.723 Y130.008 E14.23119
G1 X120.123 Y129.612 E14.4511
G1 X114.783 Y129.614 E14.62871
G1 X108.292 Y130.01 E14.845
G1 X107.647 Y130.01 E14.86645
G1 X107.007 Y129.929 E14.88791
G1 X106.383 Y129.77 E14.90933
G1 X105.782 Y129.535 E14.93079
G1 X105.373 Y129.322 E14.94613
G1 X99.033 Y125.658 E15.18968
G1 X98.496 Y125.302 E15.21111
G1 X98.007 Y124.881 E15.23257
G1 X97.574 Y124.404 E15.25399
G1 X97.203 Y123.876 E15.27546
G1 X96.901 Y123.307 E15.29688
G1 X96.671 Y122.705 E15.31832
G1 X96.518 Y122.079 E15.33975
G1 X96.435 Y121.156 E15.37057
G1 X96.435 Y113.84 E15.6139
G1 X96.475 Y113.197 E15.63533
G1 X96.594 Y112.563 E15.65679
G1 X96.791 Y111.949 E15.67823
G1 X97.062 Y111.364 E15.69968
G1 X97.404 Y110.817 E15.72113
G1 X97.81 Y110.317 E15.74256
G1 X98.275 Y109.871 E15.76399
M204 S5000
M205 X30 Y30
G1 F2400 E10.76399
;MESH:shelf03.stl
G0 F3600 X101.6 Y113.081
G0 X102.242 Y114.19
G0 X107.071 Y112.913
G0 X107.972 Y112.825
G0 X108.729 Y112.893
G0 X113.639 Y114.23
G0 X113.725 Y114.18
M204 S500
M205 X20 Y20
;TYPE:WALL-INNER
G1 F2400 E15.76399
G1 F1800 X113.725 Y120.82 E15.98483
G1 X107.975 Y124.14 E16.20567
G1 X102.225 Y120.82 E16.42651
G1 X102.225 Y114.18 E16.64735
G1 X107.975 Y110.86 E16.86819
G1 X113.725 Y114.18 E17.08902
M204 S5000
M205 X30 Y30
G0 F3600 X113.639 Y114.23
G0 X112.979 Y116.803
G0 X112.196 Y119.649
G0 X112.107 Y119.604
M204 S500
M205 X20 Y20
G1 F1800 X112.293 Y119.184 E17.1043
G1 X112.436 Y118.76 E17.11918
G1 X112.535 Y118.332 E17.1338
G1 X112.594 Y117.886 E17.14876
G1 X112.609 Y117.498 E17.16167
G1 X112.589 Y117.05 E17.17659
G1 X112.525 Y116.613 E17.19128
G1 X112.417 Y116.174 E17.20631
G1 X112.263 Y115.739 E17.22166
G1 X112.063 Y115.313 E17.23732
G1 X111.821 Y114.912 E17.25289
G1 X111.539 Y114.537 E17.2685
G1 X111.219 Y114.188 E17.28425
G1 X110.865 Y113.874 E17.29999
G1 X110.482 Y113.601 E17.31563
G1 X110.079 Y113.368 E17.33111
G1 X109.659 Y113.182 E17.34639
G1 X109.235 Y113.039 E17.36127
G1 X108.807 Y112.94 E17.37588
G1 X108.362 Y112.881 E17.39081
G1 X107.972 Y112.865 E17.4038
G1 X107.509 Y112.889 E17.41922
G1 X107.078 Y112.952 E17.4337
G1 X106.643 Y113.059 E17.4486
G1 X106.211 Y113.213 E17.46386
G1 X105.792 Y113.412 E17.47929
G1 X105.397 Y113.649 E17.49461
G1 X104.984 Y113.96 E17.5118
G1 X104.639 Y114.283 E17.52752
G1 X104.338 Y114.625 E17.54267
G1 X104.075 Y114.994 E17.55775
G1 X103.851 Y115.386 E17.57276
G1 X103.641 Y115.862 E17.59007
G1 X103.514 Y116.24 E17.60333
G1 X103.417 Y116.656 E17.61754
G1 X103.353 Y117.143 E17.63387
G1 X103.341 Y117.52 E17.64642
G1 X103.361 Y117.951 E17.66077
G1 X103.423 Y118.372 E17.67492
G1 X103.544 Y118.858 E17.69158
G1 X103.694 Y119.278 E17.70641
G1 X103.887 Y119.686 E17.72143
G1 X104.12 Y120.074 E17.73648
G1 X104.435 Y120.49 E17.75383
G1 X104.744 Y120.823 E17.76894
G1 X105.085 Y121.126 E17.78412
G1 X105.454 Y121.39 E17.79921
G1 X105.871 Y121.631 E17.81523
G1 X106.29 Y121.818 E17.83049
G1 X106.715 Y121.961 E17.8454
G1 X107.143 Y122.06 E17.86001
G1 X107.588 Y122.119 E17.87494
G1 X107.977 Y122.135 E17.88789
G1 X108.426 Y122.114 E17.90284
G1 X108.862 Y122.05 E17.9175
G1 X109.301 Y121.942 E17.93254
G1 X109.736 Y121.788 E17.94788
G1 X110.162 Y121.588 E17.96354
G1 X110.563 Y121.346 E17.97911
G1 X110.938 Y121.064 E17.99472
G1 X111.287 Y120.744 E18.01047
G1 X111.601 Y120.39 E18.02621
G1 X111.874 Y120.007 E18.04185
G1 X112.107 Y119.604 E18.05733
M204 S5000
M205 X30 Y30
G0 F3600 X112.196 Y119.649
G0 X111.694 Y120.431
G0 X111.288 Y120.14
M204 S500
M205 X20 Y20
;TYPE:WALL-OUTER
G1 F1800 X111.537 Y119.79 E18.07162
G1 X111.75 Y119.422 E18.08576
G1 X111.92 Y119.039 E18.0997
G1 X112.051 Y118.651 E18.11332
G1 X112.141 Y118.261 E18.12663
G1 X112.195 Y117.852 E18.14035
G1 X112.209 Y117.499 E18.1521
G1 X112.19 Y117.088 E18.16579
G1 X112.132 Y116.69 E18.17916
G1 X112.033 Y116.289 E18.1929
G1 X111.892 Y115.891 E18.20695
G1 X111.71 Y115.502 E18.22123
G1 X111.489 Y115.136 E18.23545
G1 X111.231 Y114.793 E18.24973
G1 X110.938 Y114.474 E18.26413
G1 X110.615 Y114.187 E18.2785
G1 X110.265 Y113.938 E18.29279
G1 X109.897 Y113.725 E18.30693
G1 X109.514 Y113.555 E18.32087
G1 X109.126 Y113.424 E18.33449
G1 X108.736 Y113.334 E18.3478
G1 X108.327 Y113.28 E18.36152
G1 X107.974 Y113.265 E18.37328
G1 X107.549 Y113.287 E18.38743
G1 X107.155 Y113.345 E18.40068
G1 X106.758 Y113.443 E18.41428
G1 X106.364 Y113.583 E18.42818
G1 X105.981 Y113.765 E18.44229
G1 X105.621 Y113.981 E18.45625
G1 X105.242 Y114.267 E18.47204
G1 X104.926 Y114.562 E18.48642
G1 X104.652 Y114.874 E18.50023
G1 X104.412 Y115.21 E18.51397
G1 X104.209 Y115.566 E18.5276
G1 X104.014 Y116.007 E18.54363
G1 X103.899 Y116.349 E18.55563
G1 X103.811 Y116.728 E18.56857
G1 X103.752 Y117.176 E18.5836
G1 X103.741 Y117.517 E18.59495
G1 X103.76 Y117.912 E18.6081
G1 X103.816 Y118.295 E18.62098
G1 X103.927 Y118.742 E18.6363
G1 X104.064 Y119.125 E18.64983
G1 X104.24 Y119.497 E18.66351
G1 X104.452 Y119.85 E18.67721
G1 X104.742 Y120.233 E18.69319
G1 X105.024 Y120.537 E18.70698
G1 X105.335 Y120.813 E18.72081
G1 X105.671 Y121.053 E18.73454
G1 X106.053 Y121.274 E18.74922
G1 X106.436 Y121.445 E18.76317
G1 X106.824 Y121.576 E18.77679
G1 X107.214 Y121.666 E18.7901
G1 X107.623 Y121.72 E18.80383
G1 X107.976 Y121.735 E18.81558
G1 X108.387 Y121.715 E18.82926
G1 X108.785 Y121.657 E18.84264
G1 X109.186 Y121.558 E18.85638
G1 X109.584 Y121.417 E18.87042
G1 X109.973 Y121.235 E18.88471
G1 X110.339 Y121.014 E18.89893
G1 X110.682 Y120.756 E18.9132
G1 X111.001 Y120.463 E18.92761
G1 X111.288 Y120.14 E18.94198
M204 S5000
M205 X30 Y30
G0 F3600 X111.404 Y119.977
G0 X111.81 Y120.268
G0 X112.33 Y119.198
G0 X113.639 Y114.23
G0 X114.125 Y113.949
M204 S500
M205 X20 Y20
G1 F1800 X114.125 Y121.051 E19.17819
G1 X107.975 Y124.601 E19.41438
G1 X101.825 Y121.051 E19.65056
G1 X101.825 Y113.949 E19.88677
G1 X107.975 Y110.399 E20.12295
G1 X114.125 Y113.949 E20.35914
M204 S5000
M205 X30 Y30
G0 F3600 X114.125 Y114.149
G0 X113.639 Y114.23
G0 X113.335 Y114.405
M204 S500
M205 X20 Y20
;TYPE:SKIN
G1 F1800 X113.335 Y120.595 E20.56502
G1 X107.975 Y123.689 E20.77086
G1 X102.615 Y120.595 E20.9767
G1 X102.615 Y114.405 E21.18258
G1 X107.975 Y111.311 E21.38843
G1 X113.335 Y114.405 E21.59427
M204 S5000
M205 X30 Y30
G0 F3600 X112.408 Y115.129
M204 S500
M205 X20 Y20
G1 F1800 X112.145 Y114.694 E21.61118
G1 X111.839 Y114.287 E21.62811
G1 X111.492 Y113.909 E21.64518
G1 X111.108 Y113.568 E21.66226
G1 X110.693 Y113.273 E21.6792
G1 X110.256 Y113.019 E21.69601
G1 X109.801 Y112.818 E21.71255
G1 X109.342 Y112.663 E21.72866
G1 X108.877 Y112.556 E21.74453
G1 X108.395 Y112.493 E21.7607
G1 X107.97 Y112.475 E21.77485
G1 X107.47 Y112.501 E21.7915
G1 X107.004 Y112.568 E21.80716
G1 X106.53 Y112.685 E21.8234
G1 X106.061 Y112.852 E21.83996
G1 X105.607 Y113.068 E21.85668
G1 X105.179 Y113.325 E21.87328
G1 X104.733 Y113.661 E21.89186
G1 X104.358 Y114.012 E21.90894
G1 X104.032 Y114.383 E21.92537
G1 X103.746 Y114.783 E21.94172
G1 X103.502 Y115.21 E21.95808
G1 X103.277 Y115.721 E21.97665
G1 X103.138 Y116.133 E21.99111
G1 X103.033 Y116.586 E22.00658
G1 X102.963 Y117.112 E22.02423
G1 X102.951 Y117.523 E22.0379
G1 X102.973 Y117.988 E22.05339
G1 X103.04 Y118.448 E22.06885
G1 X103.17 Y118.971 E22.08677
G1 X103.333 Y119.428 E22.10291
G1 X103.542 Y119.87 E22.11917
G1 X103.796 Y120.293 E22.13558
G1 X104.136 Y120.741 E22.15429
G1 X104.471 Y121.102 E22.17067
G1 X104.841 Y121.432 E22.18716
G1 X105.243 Y121.718 E22.20357
G1 X105.693 Y121.978 E22.22085
G1 X106.148 Y122.182 E22.23744
G1 X106.608 Y122.337 E22.25358
G1 X107.073 Y122.444 E22.26945
G1 X107.555 Y122.507 E22.28562
G1 X107.979 Y122.525 E22.29974
G1 X108.463 Y122.502 E22.31585
G1 X108.938 Y122.433 E22.33182
G1 X109.413 Y122.316 E22.34809
G1 X109.884 Y122.149 E22.36471
