;FLAVOR:Marlin
;TIME:838
;Filament used: 0.846224m
;Layer height: 0.2625
;Generated with Cura_SteamEngine 3.6.0
M140 S60
M105
M190 S60
M104 S200
M105
M109 S200
M82 ;absolute extrusion mode
G21;(metric values)
G90;(absolute positioning)
M82;(set extruder to absolute mode)
M107;(start with the fan off)
G28;(Home the printer)
G92 E0;(Reset the extruder to 0)
G0 Z5 E5 F500;(Move up and prime the nozzle)
G0 X-1 Z0;(Move outside the printable area)
G1 Y60 E8 F500;(Draw a priming/wiping line to the rear)
G1 X-1;(Move a little closer to the print area)
G1 Y10 E16 F500;(draw more priming/wiping)
G1 E15 F250;(Small retract)
G92 E0;(Zero the extruder)
G92 E0
G1 F2400 E-2.5
;LAYER_COUNT:2
;LAYER:0
M107
G0 F4320 X2.115 Y2.632 Z0.263
;TYPE:SKIRT
G1 F2400 E0
G1 F1800 X2.63 Y2.257 E0.02438
G1 X3.187 Y1.95 E0.04872
G1 X3.779 Y1.715 E0.0731
G1 X4.396 Y1.556 E0.09748
G1 X5.028 Y1.475 E0.12186
G1 X5.352 Y1.465 E0.13427
G1 X29.112 Y1.465 E1.04356
G1 X29.748 Y1.505 E1.06795
G1 X30.373 Y1.624 E1.0923
G1 X30.979 Y1.821 E1.11669
G1 X31.555 Y2.092 E1.14105
G1 X32.093 Y2.433 E1.16542
G1 X32.584 Y2.839 E1.18981
G1 X33.02 Y3.303 E1.21417
G1 X33.395 Y3.818 E1.23855
G1 X33.702 Y4.375 E1.26289
G1 X33.937 Y4.967 E1.28727
G1 X34.096 Y5.584 E1.31165
G1 X34.177 Y6.216 E1.33604
G1 X34.187 Y6.54 E1.34844
G1 X34.187 Y10.969 E1.51794
G1 X85.813 Y10.969 E3.49366
G1 X85.813 Y5.352 E3.70863
G1 X85.853 Y4.716 E3.73301
G1 X85.972 Y4.091 E3.75736
G1 X86.169 Y3.485 E3.78175
G1 X86.44 Y2.909 E3.80611
G1 X86.781 Y2.371 E3.83049
G1 X87.187 Y1.88 E3.85487
G1 X87.651 Y1.444 E3.87924
G1 X88.166 Y1.069 E3.90362
G1 X88.723 Y0.762 E3.92796
G1 X89.315 Y0.527 E3.95233
G1 X89.932 Y0.368 E3.97672
G1 X90.564 Y0.287 E4.0011
G1 X90.888 Y0.277 E4.01351
G1 X114.648 Y0.277 E4.9228
G1 X115.284 Y0.317 E4.94719
G1 X115.909 Y0.436 E4.97154
G1 X116.515 Y0.633 E4.99592
G1 X117.091 Y0.904 E5.02028
G1 X117.629 Y1.245 E5.04466
G1 X118.12 Y1.651 E5.06904
G1 X118.556 Y2.115 E5.09341
G1 X118.931 Y2.63 E5.11779
G1 X119.238 Y3.187 E5.14213
G1 X119.473 Y3.779 E5.1665
G1 X119.632 Y4.396 E5.19089
G1 X119.713 Y5.028 E5.21527
G1 X119.723 Y5.352 E5.22768
G1 X119.723 Y29.112 E6.13697
G1 X119.683 Y29.748 E6.16136
G1 X119.564 Y30.373 E6.18571
G1 X119.367 Y30.979 E6.21009
G1 X119.096 Y31.555 E6.23446
G1 X118.755 Y32.093 E6.25883
G1 X118.349 Y32.584 E6.28321
G1 X117.885 Y33.02 E6.30758
G1 X117.37 Y33.395 E6.33196
G1 X116.813 Y33.702 E6.3563
G1 X116.221 Y33.937 E6.38068
G1 X115.604 Y34.096 E6.40506
G1 X114.972 Y34.177 E6.42945
G1 X114.648 Y34.187 E6.44185
G1 X110.219 Y34.187 E6.61135
G1 X110.219 Y85.813 E8.58707
G1 X114.648 Y85.813 E8.75657
G1 X115.284 Y85.853 E8.78096
G1 X115.909 Y85.972 E8.80531
G1 X116.515 Y86.169 E8.82969
G1 X117.091 Y86.44 E8.85405
G1 X117.629 Y86.781 E8.87843
G1 X118.12 Y87.187 E8.90281
G1 X118.556 Y87.651 E8.92718
G1 X118.931 Y88.166 E8.95156
G1 X119.238 Y88.723 E8.9759
G1 X119.473 Y89.315 E9.00027
G1 X119.632 Y89.932 E9.02466
G1 X119.713 Y90.564 E9.04904
G1 X119.723 Y90.888 E9.06145
G1 X119.723 Y114.648 E9.97074
G1 X119.683 Y115.284 E9.99513
G1 X119.564 Y115.909 E10.01948
G1 X119.367 Y116.515 E10.04387
G1 X119.096 Y117.091 E10.06823
G1 X118.755 Y117.629 E10.0926
G1 X118.349 Y118.12 E10.11699
G1 X117.885 Y118.556 E10.14135
G1 X117.37 Y118.931 E10.16573
G1 X116.813 Y119.238 E10.19007
G1 X116.221 Y119.473 E10.21445
G1 X115.604 Y119.632 E10.23883
G1 X114.972 Y119.713 E10.26322
G1 X114.648 Y119.723 E10.27562
G1 X90.888 Y119.723 E11.18492
G1 X90.252 Y119.683 E11.2093
G1 X89.627 Y119.564 E11.23365
G1 X89.021 Y119.367 E11.25804
G1 X88.445 Y119.096 E11.2824
G1 X87.907 Y118.755 E11.30678
G1 X87.416 Y118.349 E11.33116
G1 X86.98 Y117.885 E11.35552
G1 X86.605 Y117.37 E11.37991
G1 X86.298 Y116.813 E11.40424
G1 X86.063 Y116.221 E11.42862
G1 X85.904 Y115.604 E11.453
G1 X85.823 Y114.972 E11.47739
G1 X85.813 Y114.648 E11.48979
G1 X85.813 Y111.407 E11.61383
G1 X34.187 Y111.407 E13.58955
G1 X34.187 Y114.648 E13.71358
G1 X34.147 Y115.284 E13.73797
G1 X34.028 Y115.909 E13.76232
G1 X33.831 Y116.515 E13.78671
G1 X33.56 Y117.091 E13.81107
G1 X33.219 Y117.629 E13.83544
G1 X32.813 Y118.12 E13.85983
G1 X32.349 Y118.556 E13.88419
G1 X31.834 Y118.931 E13.90857
G1 X31.277 Y119.238 E13.93291
G1 X30.685 Y119.473 E13.95729
G1 X30.068 Y119.632 E13.98167
G1 X29.436 Y119.713 E14.00606
G1 X29.112 Y119.723 E14.01846
G1 X5.352 Y119.723 E14.92776
G1 X4.716 Y119.683 E14.95214
G1 X4.091 Y119.564 E14.97649
G1 X3.485 Y119.367 E15.00088
G1 X2.909 Y119.096 E15.02524
G1 X2.371 Y118.755 E15.04962
G1 X1.88 Y118.349 E15.074
G1 X1.444 Y117.885 E15.09837
G1 X1.069 Y117.37 E15.12275
G1 X0.762 Y116.813 E15.14709
G1 X0.527 Y116.221 E15.17146
G1 X0.368 Y115.604 E15.19585
G1 X0.287 Y114.972 E15.22023
G1 X0.277 Y114.648 E15.23264
G1 X0.277 Y90.888 E16.14193
G1 X0.317 Y90.252 E16.16632
G1 X0.436 Y89.627 E16.19067
G1 X0.633 Y89.021 E16.21505
G1 X0.904 Y88.445 E16.23941
G1 X1.245 Y87.907 E16.26379
G1 X1.651 Y87.416 E16.28817
G1 X2.115 Y86.98 E16.31254
G1 X2.63 Y86.605 E16.33692
G1 X3.187 Y86.298 E16.36126
G1 X3.779 Y86.063 E16.38563
G1 X4.396 Y85.904 E16.41002
G1 X5.028 Y85.823 E16.4344
G1 X5.352 Y85.813 E16.44681
G1 X9.781 Y85.813 E16.61631
G1 X9.781 Y35.375 E18.54657
G1 X5.352 Y35.375 E18.71606
G1 X4.716 Y35.335 E18.74045
G1 X4.091 Y35.216 E18.7648
G1 X3.485 Y35.019 E18.78919
G1 X2.909 Y34.748 E18.81355
G1 X2.371 Y34.407 E18.83792
G1 X1.88 Y34.001 E18.86231
G1 X1.444 Y33.537 E18.88667
G1 X1.069 Y33.022 E18.91105
G1 X0.762 Y32.465 E18.93539
G1 X0.527 Y31.873 E18.95977
G1 X0.368 Y31.256 E18.98415
G1 X0.287 Y30.624 E19.00854
G1 X0.277 Y30.3 E19.02094
G1 X0.277 Y6.54 E19.93024
G1 X0.317 Y5.904 E19.95462
G1 X0.436 Y5.279 E19.97897
G1 X0.633 Y4.673 E20.00336
G1 X0.904 Y4.097 E20.02772
G1 X1.245 Y3.559 E20.0521
G1 X1.615 Y3.112 E20.0743
G0 F1620 X1.651 Y3.068
G0 X2.115 Y2.632
G0 F4320 X2.456 Y2.807
G1 F2400 E20.10086
G1 F1800 X2.965 Y2.462 E20.12439
G1 X3.514 Y2.187 E20.14789
G1 X4.095 Y1.985 E20.17143
G1 X4.696 Y1.861 E20.19492
G1 X5.352 Y1.815 E20.22009
G1 X29.112 Y1.815 E21.12938
G1 X29.725 Y1.855 E21.15289
G1 X30.328 Y1.974 E21.17641
G1 X30.91 Y2.171 E21.19992
G1 X31.462 Y2.441 E21.22344
G1 X31.974 Y2.781 E21.24696
G1 X32.438 Y3.184 E21.27048
G1 X32.845 Y3.644 E21.29399
G1 X33.19 Y4.153 E21.31752
G1 X33.465 Y4.702 E21.34102
G1 X33.667 Y5.283 E21.36456
G1 X33.791 Y5.884 E21.38804
G1 X33.837 Y6.54 E21.41321
G1 X33.837 Y11.319 E21.5961
G1 X86.163 Y11.319 E23.59862
G1 X86.163 Y5.352 E23.82697
G1 X86.203 Y4.739 E23.85048
G1 X86.322 Y4.136 E23.874
G1 X86.519 Y3.554 E23.89752
G1 X86.789 Y3.002 E23.92103
G1 X87.129 Y2.49 E23.94456
G1 X87.532 Y2.026 E23.96808
G1 X87.992 Y1.619 E23.99158
G1 X88.501 Y1.274 E24.01511
G1 X89.05 Y0.999 E24.03861
G1 X89.631 Y0.797 E24.06215
G1 X90.232 Y0.673 E24.08564
G1 X90.888 Y0.627 E24.1108
G1 X114.648 Y0.627 E25.0201
G1 X115.261 Y0.667 E25.04361
G1 X115.864 Y0.786 E25.06713
G1 X116.446 Y0.983 E25.09064
G1 X116.998 Y1.253 E25.11416
G1 X117.51 Y1.593 E25.13768
G1 X117.974 Y1.996 E25.1612
G1 X118.381 Y2.456 E25.18471
G1 X118.726 Y2.965 E25.20824
G1 X119.001 Y3.514 E25.23174
G1 X119.203 Y4.095 E25.25528
G1 X119.327 Y4.696 E25.27876
G1 X119.373 Y5.352 E25.30393
G1 X119.373 Y29.112 E26.21322
G1 X119.333 Y29.725 E26.23673
G1 X119.214 Y30.328 E26.26025
G1 X119.017 Y30.91 E26.28377
G1 X118.747 Y31.462 E26.30729
G1 X118.407 Y31.974 E26.33081
G1 X118.004 Y32.438 E26.35433
G1 X117.544 Y32.845 E26.37783
G1 X117.035 Y33.19 E26.40136
G1 X116.486 Y33.465 E26.42486
G1 X115.905 Y33.667 E26.4484
G1 X115.304 Y33.791 E26.47189
G1 X114.648 Y33.837 E26.49706
G1 X109.869 Y33.837 E26.67995
G1 X109.869 Y86.163 E28.68246
G1 X114.648 Y86.163 E28.86535
G1 X115.261 Y86.203 E28.88886
G1 X115.864 Y86.322 E28.91238
G1 X116.446 Y86.519 E28.9359
G1 X116.998 Y86.789 E28.95941
G1 X117.51 Y87.129 E28.98294
G1 X117.974 Y87.532 E29.00646
G1 X118.381 Y87.992 E29.02996
G1 X118.726 Y88.501 E29.05349
G1 X119.001 Y89.05 E29.07699
G1 X119.203 Y89.631 E29.10053
G1 X119.327 Y90.232 E29.12402
G1 X119.373 Y90.888 E29.14918
G1 X119.373 Y114.648 E30.05848
G1 X119.333 Y115.261 E30.08199
G1 X119.214 Y115.864 E30.10551
G1 X119.017 Y116.446 E30.12902
G1 X118.747 Y116.998 E30.15254
G1 X118.407 Y117.51 E30.17606
G1 X118.004 Y117.974 E30.19958
G1 X117.544 Y118.381 E30.22309
G1 X117.035 Y118.726 E30.24662
G1 X116.486 Y119.001 E30.27012
G1 X115.905 Y119.203 E30.29366
G1 X115.304 Y119.327 E30.31714
G1 X114.648 Y119.373 E30.34231
G1 X90.888 Y119.373 E31.2516
G1 X90.275 Y119.333 E31.27511
G1 X89.672 Y119.214 E31.29863
G1 X89.09 Y119.017 E31.32215
G1 X88.538 Y118.747 E31.34567
G1 X88.026 Y118.407 E31.36919
G1 X87.562 Y118.004 E31.39271
G1 X87.155 Y117.544 E31.41621
G1 X86.81 Y117.035 E31.43974
G1 X86.535 Y116.486 E31.46324
G1 X86.333 Y115.905 E31.48678
G1 X86.209 Y115.304 E31.51027
G1 X86.163 Y114.648 E31.53544
G1 X86.163 Y111.057 E31.67286
G1 X33.837 Y111.057 E33.67538
G1 X33.837 Y114.648 E33.8128
G1 X33.797 Y115.261 E33.83631
G1 X33.678 Y115.864 E33.85983
G1 X33.481 Y116.446 E33.88335
G1 X33.211 Y116.998 E33.90687
G1 X32.871 Y117.51 E33.93039
G1 X32.468 Y117.974 E33.95391
G1 X32.008 Y118.381 E33.97741
G1 X31.499 Y118.726 E34.00094
G1 X30.95 Y119.001 E34.02444
G1 X30.369 Y119.203 E34.04798
G1 X29.768 Y119.327 E34.07147
G1 X29.112 Y119.373 E34.09663
G1 X5.352 Y119.373 E35.00593
G1 X4.739 Y119.333 E35.02944
G1 X4.136 Y119.214 E35.05296
G1 X3.554 Y119.017 E35.07647
G1 X3.002 Y118.747 E35.09999
G1 X2.49 Y118.407 E35.12351
G1 X2.026 Y118.004 E35.14703
G1 X1.619 Y117.544 E35.17054
G1 X1.274 Y117.035 E35.19407
G1 X0.999 Y116.486 E35.21757
G1 X0.797 Y115.905 E35.24111
G1 X0.673 Y115.304 E35.26459
G1 X0.627 Y114.648 E35.28976
G1 X0.627 Y90.888 E36.19905
G1 X0.667 Y90.275 E36.22256
G1 X0.786 Y89.672 E36.24609
G1 X0.983 Y89.09 E36.2696
G1 X1.253 Y88.538 E36.29312
G1 X1.593 Y88.026 E36.31664
G1 X1.996 Y87.562 E36.34016
G1 X2.456 Y87.155 E36.36366
G1 X2.965 Y86.81 E36.38719
G1 X3.514 Y86.535 E36.41069
G1 X4.095 Y86.333 E36.43423
G1 X4.696 Y86.209 E36.45772
G1 X5.352 Y86.163 E36.48289
G1 X10.131 Y86.163 E36.66578
G1 X10.131 Y35.025 E38.62283
G1 X5.352 Y35.025 E38.80572
G1 X4.739 Y34.985 E38.82923
G1 X4.136 Y34.866 E38.85275
G1 X3.554 Y34.669 E38.87626
G1 X3.002 Y34.399 E38.89978
G1 X2.49 Y34.059 E38.9233
G1 X2.026 Y33.656 E38.94682
G1 X1.619 Y33.196 E38.97033
G1 X1.274 Y32.687 E38.99386
G1 X0.999 Y32.138 E39.01736
G1 X0.797 Y31.557 E39.0409
G1 X0.673 Y30.956 E39.06438
G1 X0.627 Y30.3 E39.08955
G1 X0.627 Y6.54 E39.99884
G1 X0.667 Y5.927 E40.02235
G1 X0.786 Y5.324 E40.04587
G1 X0.983 Y4.742 E40.06939
G1 X1.253 Y4.19 E40.09291
G1 X1.593 Y3.678 E40.11643
G1 X1.944 Y3.274 E40.13691
G0 F1620 X1.996 Y3.214
G0 X2.456 Y2.807
G0 F4320 X2.34 Y3.367
G1 F2400 E40.16347
G1 F1800 X2.796 Y2.99 E40.18611
G1 X3.298 Y2.677 E40.20875
G1 X3.837 Y2.436 E40.23135
G1 X4.405 Y2.269 E40.254
G1 X4.989 Y2.18 E40.27661
G1 X5.352 Y2.165 E40.29051
G1 X29.112 Y2.165 E41.19981
G1 X29.702 Y2.205 E41.22244
G1 X30.281 Y2.324 E41.24506
G1 X30.839 Y2.52 E41.26769
G1 X31.365 Y2.79 E41.29032
G1 X31.85 Y3.128 E41.31295
G1 X32.285 Y3.528 E41.33556
G1 X32.662 Y3.984 E41.3582
G1 X32.975 Y4.486 E41.38084
G1 X33.216 Y5.025 E41.40344
G1 X33.383 Y5.593 E41.4261
G1 X33.472 Y6.177 E41.4487
G1 X33.487 Y6.54 E41.46261
G1 X33.487 Y11.669 E41.6589
G1 X86.513 Y11.669 E43.6882
G1 X86.513 Y5.352 E43.92995
G1 X86.553 Y4.762 E43.95258
G1 X86.672 Y4.183 E43.9752
G1 X86.868 Y3.625 E43.99783
G1 X87.138 Y3.099 E44.02046
G1 X87.476 Y2.614 E44.04309
G1 X87.876 Y2.179 E44.0657
G1 X88.332 Y1.802 E44.08834
G1 X88.834 Y1.489 E44.11098
G1 X89.373 Y1.248 E44.13358
G1 X89.941 Y1.081 E44.15624
G1 X90.525 Y0.992 E44.17884
G1 X90.888 Y0.977 E44.19275
G1 X114.648 Y0.977 E45.10204
G1 X115.238 Y1.017 E45.12467
G1 X115.817 Y1.136 E45.14729
G1 X116.375 Y1.332 E45.16993
G1 X116.901 Y1.602 E45.19256
G1 X117.386 Y1.94 E45.21518
G1 X117.821 Y2.34 E45.23779
G1 X118.198 Y2.796 E45.26044
G1 X118.511 Y3.298 E45.28308
G1 X118.752 Y3.837 E45.30567
G1 X118.919 Y4.405 E45.32833
G1 X119.008 Y4.989 E45.35094
G1 X119.023 Y5.352 E45.36484
G1 X119.023 Y29.112 E46.27414
G1 X118.983 Y29.702 E46.29677
G1 X118.864 Y30.281 E46.31939
G1 X118.668 Y30.839 E46.34202
G1 X118.398 Y31.365 E46.36465
G1 X118.06 Y31.85 E46.38727
G1 X117.66 Y32.285 E46.40989
G1 X117.204 Y32.662 E46.43253
G1 X116.702 Y32.975 E46.45517
G1 X116.163 Y33.216 E46.47777
G1 X115.595 Y33.383 E46.50042
G1 X115.011 Y33.472 E46.52303
G1 X114.648 Y33.487 E46.53694
G1 X109.519 Y33.487 E46.73322
G1 X109.519 Y86.513 E48.76252
G1 X114.648 Y86.513 E48.95881
G1 X115.238 Y86.553 E48.98144
G1 X115.817 Y86.672 E49.00406
G1 X116.375 Y86.868 E49.0267
G1 X116.901 Y87.138 E49.04932
G1 X117.386 Y87.476 E49.07195
G1 X117.821 Y87.876 E49.09456
G1 X118.198 Y88.332 E49.11721
G1 X118.511 Y88.834 E49.13985
G1 X118.752 Y89.373 E49.16244
G1 X118.919 Y89.941 E49.1851
G1 X119.008 Y90.525 E49.20771
G1 X119.023 Y90.888 E49.22161
G1 X119.023 Y114.648 E50.1309
G1 X118.983 Y115.238 E50.15354
G1 X118.864 Y115.817 E50.17616
G1 X118.668 Y116.375 E50.19879
G1 X118.398 Y116.901 E50.22142
G1 X118.06 Y117.386 E50.24404
G1 X117.66 Y117.821 E50.26666
G1 X117.204 Y118.198 E50.2893
G1 X116.702 Y118.511 E50.31194
G1 X116.163 Y118.752 E50.33454
G1 X115.595 Y118.919 E50.35719
G1 X115.011 Y119.008 E50.3798
G1 X114.648 Y119.023 E50.3937
G1 X90.888 Y119.023 E51.303
G1 X90.298 Y118.983 E51.32563
G1 X89.719 Y118.864 E51.34825
G1 X89.161 Y118.668 E51.37088
G1 X88.635 Y118.398 E51.39351
G1 X88.15 Y118.06 E51.41614
G1 X87.715 Y117.66 E51.43875
G1 X87.338 Y117.204 E51.46139
G1 X87.025 Y116.702 E51.48403
G1 X86.784 Y116.163 E51.50663
G1 X86.617 Y115.595 E51.52929
G1 X86.528 Y115.011 E51.55189
G1 X86.513 Y114.648 E51.5658
G1 X86.513 Y110.707 E51.71662
G1 X33.487 Y110.707 E53.74592
G1 X33.487 Y114.648 E53.89674
G1 X33.447 Y115.238 E53.91938
G1 X33.328 Y115.817 E53.942
G1 X33.132 Y116.375 E53.96463
G1 X32.862 Y116.901 E53.98726
G1 X32.524 Y117.386 E54.00988
G1 X32.124 Y117.821 E54.0325
G1 X31.668 Y118.198 E54.05514
G1 X31.166 Y118.511 E54.07778
G1 X30.627 Y118.752 E54.10038
G1 X30.059 Y118.919 E54.12303
G1 X29.475 Y119.008 E54.14564
G1 X29.112 Y119.023 E54.15954
G1 X5.352 Y119.023 E55.06884
G1 X4.762 Y118.983 E55.09147
G1 X4.183 Y118.864 E55.11409
G1 X3.625 Y118.668 E55.13672
G1 X3.099 Y118.398 E55.15935
G1 X2.614 Y118.06 E55.18198
G1 X2.179 Y117.66 E55.20459
G1 X1.802 Y117.204 E55.22723
G1 X1.489 Y116.702 E55.24987
G1 X1.248 Y116.163 E55.27247
G1 X1.081 Y115.595 E55.29513
G1 X0.992 Y115.011 E55.31773
G1 X0.977 Y114.648 E55.33164
G1 X0.977 Y90.888 E56.24093
G1 X1.017 Y90.298 E56.26356
G1 X1.136 Y89.719 E56.28618
G1 X1.332 Y89.161 E56.30882
G1 X1.602 Y88.635 E56.33145
G1 X1.94 Y88.15 E56.35407
G1 X2.34 Y87.715 E56.37668
G1 X2.796 Y87.338 E56.39933
G1 X3.298 Y87.025 E56.42197
G1 X3.837 Y86.784 E56.44456
G1 X4.405 Y86.617 E56.46722
G1 X4.989 Y86.528 E56.48983
G1 X5.352 Y86.513 E56.50373
G1 X10.481 Y86.513 E56.70002
G1 X10.481 Y34.675 E58.68386
G1 X5.352 Y34.675 E58.88014
G1 X4.762 Y34.635 E58.90277
G1 X4.183 Y34.516 E58.92539
G1 X3.625 Y34.32 E58.94803
G1 X3.099 Y34.05 E58.97066
G1 X2.614 Y33.712 E58.99328
G1 X2.179 Y33.312 E59.01589
G1 X1.802 Y32.856 E59.03854
G1 X1.489 Y32.354 E59.06118
G1 X1.248 Y31.815 E59.08377
G1 X1.081 Y31.247 E59.10643
G1 X0.992 Y30.663 E59.12904
G1 X0.977 Y30.3 E59.14294
G1 X0.977 Y6.54 E60.05224
G1 X1.017 Y5.95 E60.07487
G1 X1.136 Y5.371 E60.09749
G1 X1.332 Y4.813 E60.12012
G1 X1.602 Y4.287 E60.14275
G1 X1.881 Y3.887 E60.16141
G0 F1620 X1.94 Y3.802
G0 X2.34 Y3.367
G0 F4320 X2.684 Y3.527
G1 F2400 E60.18797
G1 F1800 X3.134 Y3.181 E60.2097
G1 X3.628 Y2.903 E60.23139
G1 X4.156 Y2.697 E60.25308
G1 X4.708 Y2.567 E60.27478
G1 X5.352 Y2.515 E60.29951
G1 X29.112 Y2.515 E61.2088
G1 X29.678 Y2.555 E61.23052
G1 X30.232 Y2.674 E61.2522
G1 X30.764 Y2.87 E61.2739
G1 X31.264 Y3.138 E61.29561
G1 X31.72 Y3.475 E61.31731
G1 X32.125 Y3.872 E61.33901
G1 X32.471 Y4.322 E61.36074
G1 X32.749 Y4.816 E61.38243
G1 X32.955 Y5.344 E61.40412
G1 X33.085 Y5.896 E61.42582
G1 X33.137 Y6.54 E61.45055
G1 X33.137 Y12.019 E61.66023
G1 X86.863 Y12.019 E63.71632
G1 X86.863 Y5.352 E63.97147
G1 X86.903 Y4.786 E63.99318
G1 X87.022 Y4.232 E64.01487
G1 X87.218 Y3.7 E64.03656
