;FLAVOR:Marlin
;TIME:7070
;Filament used: 3.0267m
;Layer height: 0.2
;Generated with Cura_SteamEngine 3.6.0
M104 S200
M105
M109 S200
M82 ;absolute extrusion mode
G28 ;Home
G1 Z15.0 F6000 ;Move the platform down 15mm
;Prime the extruder
G92 E0
G1 F200 E3
G92 E0
G92 E0
G1 F1500 E-6.5
;LAYER_COUNT:150
;LAYER:0
M107
G0 F3600 X12.161 Y22.999 Z0.3
;TYPE:SKIRT
G1 F1500 E0
G1 F1800 X12.886 Y22.687 E0.01485
G1 X13.639 Y22.45 E0.0297
G1 X14.413 Y22.291 E0.04456
G1 X15.198 Y22.21 E0.0594
G1 X15.6 Y22.2 E0.06697
G1 X104.4 Y22.2 E1.73735
G1 X105.189 Y22.24 E1.75221
G1 X105.969 Y22.359 E1.76705
G1 X106.734 Y22.557 E1.78191
G1 X107.474 Y22.831 E1.79676
G1 X108.183 Y23.179 E1.81161
G1 X108.854 Y23.597 E1.82648
G1 X109.478 Y24.08 E1.84133
G1 X110.051 Y24.623 E1.85618
G1 X110.566 Y25.222 E1.87104
G1 X111.017 Y25.87 E1.88589
G1 X111.401 Y26.561 E1.90076
G1 X111.713 Y27.286 E1.9156
G1 X111.95 Y28.039 E1.93045
G1 X112.109 Y28.813 E1.94532
G1 X112.19 Y29.598 E1.96016
G1 X112.2 Y30 E1.96773
G1 X112.2 Y90 E3.09636
G1 X112.16 Y90.789 E3.11122
G1 X112.041 Y91.569 E3.12606
G1 X111.843 Y92.334 E3.14093
G1 X111.569 Y93.074 E3.15577
G1 X111.221 Y93.783 E3.17063
G1 X110.803 Y94.454 E3.1855
G1 X110.32 Y95.078 E3.20034
G1 X109.777 Y95.651 E3.21519
G1 X109.178 Y96.166 E3.23005
G1 X108.53 Y96.617 E3.2449
G1 X107.839 Y97.001 E3.25977
G1 X107.114 Y97.313 E3.27462
G1 X106.361 Y97.55 E3.28947
G1 X105.587 Y97.709 E3.30433
G1 X104.802 Y97.79 E3.31917
G1 X104.4 Y97.8 E3.32674
G1 X15.6 Y97.8 E4.99712
G1 X14.811 Y97.76 E5.01198
G1 X14.031 Y97.641 E5.02682
G1 X13.266 Y97.443 E5.04168
G1 X12.526 Y97.169 E5.05653
G1 X11.817 Y96.821 E5.07138
G1 X11.146 Y96.403 E5.08625
G1 X10.522 Y95.92 E5.1011
G1 X9.949 Y95.377 E5.11595
G1 X9.434 Y94.778 E5.1308
G1 X8.983 Y94.13 E5.14566
G1 X8.599 Y93.439 E5.16053
G1 X8.287 Y92.714 E5.17537
G1 X8.05 Y91.961 E5.19022
G1 X7.891 Y91.187 E5.20509
G1 X7.81 Y90.402 E5.21993
G1 X7.8 Y90 E5.22749
G1 X7.8 Y30 E6.35613
G1 X7.84 Y29.211 E6.37099
G1 X7.959 Y28.431 E6.38583
G1 X8.157 Y27.666 E6.40069
G1 X8.431 Y26.926 E6.41554
G1 X8.779 Y26.217 E6.43039
G1 X9.197 Y25.546 E6.44527
G1 X9.68 Y24.922 E6.46011
G1 X10.223 Y24.349 E6.47496
G1 X10.822 Y23.834 E6.48982
G1 X11.47 Y23.383 E6.50467
G1 X12.161 Y22.999 E6.51954
G0 F3600 X12.536 Y23.264
G1 F1800 X13.251 Y22.983 E6.53399
G1 X13.993 Y22.777 E6.54847
G1 X14.751 Y22.649 E6.56293
G1 X15.6 Y22.6 E6.57893
G1 X104.4 Y22.6 E8.24931
G1 X105.168 Y22.64 E8.26378
G1 X105.928 Y22.759 E8.27825
G1 X106.671 Y22.957 E8.29271
G1 X107.39 Y23.231 E8.30718
G1 X108.076 Y23.578 E8.32164
G1 X108.723 Y23.994 E8.33611
G1 X109.323 Y24.475 E8.35058
G1 X109.87 Y25.016 E8.36505
G1 X110.358 Y25.611 E8.37953
G1 X110.781 Y26.253 E8.39399
G1 X111.136 Y26.936 E8.40847
G1 X111.417 Y27.651 E8.42292
G1 X111.623 Y28.393 E8.4374
G1 X111.751 Y29.151 E8.45186
G1 X111.8 Y30 E8.46786
G1 X111.8 Y90 E9.59649
G1 X111.76 Y90.768 E9.61096
G1 X111.641 Y91.528 E9.62543
G1 X111.443 Y92.271 E9.63989
G1 X111.169 Y92.99 E9.65437
G1 X110.822 Y93.676 E9.66883
G1 X110.406 Y94.323 E9.6833
G1 X109.925 Y94.923 E9.69776
G1 X109.384 Y95.47 E9.71223
G1 X108.789 Y95.958 E9.72671
G1 X108.147 Y96.381 E9.74117
G1 X107.464 Y96.736 E9.75565
G1 X106.749 Y97.017 E9.7701
G1 X106.007 Y97.223 E9.78459
G1 X105.249 Y97.351 E9.79905
G1 X104.4 Y97.4 E9.81504
G1 X15.6 Y97.4 E11.48542
G1 X14.832 Y97.36 E11.49989
G1 X14.072 Y97.241 E11.51436
G1 X13.329 Y97.043 E11.52882
G1 X12.61 Y96.769 E11.5433
G1 X11.924 Y96.422 E11.55776
G1 X11.277 Y96.006 E11.57223
G1 X10.677 Y95.525 E11.58669
G1 X10.13 Y94.984 E11.60116
G1 X9.642 Y94.389 E11.61564
G1 X9.219 Y93.747 E11.6301
G1 X8.864 Y93.064 E11.64458
G1 X8.583 Y92.349 E11.65903
G1 X8.377 Y91.607 E11.67352
G1 X8.249 Y90.849 E11.68798
G1 X8.2 Y90 E11.70397
G1 X8.2 Y30 E12.83261
G1 X8.24 Y29.232 E12.84707
G1 X8.359 Y28.472 E12.86154
G1 X8.557 Y27.729 E12.87601
G1 X8.831 Y27.01 E12.89048
G1 X9.178 Y26.324 E12.90494
G1 X9.594 Y25.677 E12.91941
G1 X10.075 Y25.077 E12.93388
G1 X10.616 Y24.53 E12.94835
G1 X11.211 Y24.042 E12.96282
G1 X11.853 Y23.619 E12.97728
G1 X12.536 Y23.264 E12.99176
G0 F3600 X12.234 Y23.862
G1 F1800 X12.908 Y23.538 E13.00583
G1 X13.613 Y23.288 E13.0199
G1 X14.341 Y23.114 E13.03398
G1 X15.083 Y23.019 E13.04805
G1 X15.6 Y23 E13.05778
G1 X104.4 Y23 E14.72816
G1 X105.147 Y23.04 E14.74223
G1 X105.885 Y23.159 E14.75629
G1 X106.607 Y23.357 E14.77038
G1 X107.303 Y23.63 E14.78444
G1 X107.966 Y23.977 E14.79852
G1 X108.589 Y24.392 E14.8126
G1 X109.163 Y24.871 E14.82666
G1 X109.684 Y25.408 E14.84073
G1 X110.143 Y25.998 E14.8548
G1 X110.538 Y26.634 E14.86888
G1 X110.862 Y27.308 E14.88295
G1 X111.112 Y28.013 E14.89702
G1 X111.286 Y28.741 E14.9111
G1 X111.381 Y29.483 E14.92517
G1 X111.4 Y30 E14.9349
G1 X111.4 Y90 E16.06353
G1 X111.36 Y90.747 E16.0776
G1 X111.241 Y91.485 E16.09167
G1 X111.043 Y92.207 E16.10575
G1 X110.77 Y92.903 E16.11981
G1 X110.423 Y93.566 E16.13389
G1 X110.008 Y94.189 E16.14797
G1 X109.529 Y94.763 E16.16203
G1 X108.992 Y95.284 E16.17611
G1 X108.402 Y95.743 E16.19017
G1 X107.766 Y96.138 E16.20425
G1 X107.092 Y96.462 E16.21832
G1 X106.387 Y96.712 E16.23239
G1 X105.659 Y96.886 E16.24647
G1 X104.917 Y96.981 E16.26054
G1 X104.4 Y97 E16.27027
G1 X15.6 Y97 E17.94065
G1 X14.853 Y96.96 E17.95472
G1 X14.115 Y96.841 E17.96878
G1 X13.393 Y96.643 E17.98286
G1 X12.697 Y96.37 E17.99693
G1 X12.034 Y96.023 E18.011
G1 X11.411 Y95.608 E18.02508
G1 X10.837 Y95.129 E18.03915
G1 X10.316 Y94.592 E18.05322
G1 X9.857 Y94.002 E18.06728
G1 X9.462 Y93.366 E18.08137
G1 X9.138 Y92.692 E18.09543
G1 X8.888 Y91.987 E18.1095
G1 X8.714 Y91.259 E18.12358
G1 X8.619 Y90.517 E18.13766
G1 X8.6 Y90 E18.14739
G1 X8.6 Y30 E19.27602
G1 X8.64 Y29.253 E19.29009
G1 X8.759 Y28.515 E19.30415
G1 X8.957 Y27.793 E19.31824
G1 X9.23 Y27.097 E19.3323
G1 X9.577 Y26.434 E19.34638
G1 X9.992 Y25.811 E19.36046
G1 X10.471 Y25.237 E19.37452
G1 X11.008 Y24.716 E19.38859
G1 X11.598 Y24.257 E19.40265
G1 X12.234 Y23.862 E19.41674
G0 F3600 X12.613 Y24.115
G1 F1800 X13.278 Y23.822 E19.43041
G1 X13.971 Y23.604 E19.44407
G1 X14.683 Y23.464 E19.45772
G1 X15.6 Y23.4 E19.47501
G1 X104.4 Y23.4 E21.14539
G1 X105.125 Y23.44 E21.15905
G1 X105.842 Y23.559 E21.17272
G1 X106.541 Y23.757 E21.18639
G1 X107.214 Y24.03 E21.20005
G1 X107.853 Y24.375 E21.21371
G1 X108.45 Y24.789 E21.22737
G1 X108.998 Y25.265 E21.24103
G1 X109.491 Y25.799 E21.2547
G1 X109.921 Y26.384 E21.26836
G1 X110.285 Y27.013 E21.28203
G1 X110.578 Y27.678 E21.2957
G1 X110.796 Y28.371 E21.30936
G1 X110.936 Y29.083 E21.32301
G1 X111 Y30 E21.3403
G1 X111 Y90 E22.46894
G1 X110.96 Y90.725 E22.48259
G1 X110.841 Y91.442 E22.49627
G1 X110.643 Y92.141 E22.50993
G1 X110.37 Y92.814 E22.52359
G1 X110.025 Y93.453 E22.53725
G1 X109.611 Y94.05 E22.55092
G1 X109.135 Y94.598 E22.56457
G1 X108.601 Y95.091 E22.57824
G1 X108.016 Y95.521 E22.5919
G1 X107.387 Y95.885 E22.60557
G1 X106.722 Y96.178 E22.61924
G1 X106.029 Y96.396 E22.63291
G1 X105.317 Y96.536 E22.64656
G1 X104.4 Y96.6 E22.66385
G1 X15.6 Y96.6 E24.33422
G1 X14.875 Y96.56 E24.34788
G1 X14.158 Y96.441 E24.36155
G1 X13.459 Y96.243 E24.37522
G1 X12.786 Y95.97 E24.38888
G1 X12.147 Y95.625 E24.40254
G1 X11.55 Y95.211 E24.41621
G1 X11.002 Y94.735 E24.42986
G1 X10.509 Y94.201 E24.44353
G1 X10.079 Y93.616 E24.45719
G1 X9.715 Y92.987 E24.47086
G1 X9.422 Y92.322 E24.48453
G1 X9.204 Y91.629 E24.49819
G1 X9.064 Y90.917 E24.51184
G1 X9 Y90 E24.52914
G1 X9 Y30 E25.65777
G1 X9.04 Y29.275 E25.67143
G1 X9.159 Y28.558 E25.6851
G1 X9.357 Y27.859 E25.69876
G1 X9.63 Y27.186 E25.71243
G1 X9.975 Y26.547 E25.72609
G1 X10.389 Y25.95 E25.73975
G1 X10.865 Y25.402 E25.75341
G1 X11.399 Y24.909 E25.76708
G1 X11.984 Y24.479 E25.78073
G1 X12.613 Y24.115 E25.7944
G0 F3600 X12.989 Y24.377
G1 F1800 X13.643 Y24.117 E25.80764
G1 X14.323 Y23.933 E25.82089
G1 X15.019 Y23.827 E25.83414
G1 X15.6 Y23.8 E25.84508
G1 X104.4 Y23.8 E27.51546
G1 X105.103 Y23.84 E27.5287
G1 X105.797 Y23.959 E27.54195
G1 X106.472 Y24.157 E27.55518
G1 X107.121 Y24.429 E27.56841
G1 X107.735 Y24.774 E27.58166
G1 X108.306 Y25.185 E27.5949
G1 X108.827 Y25.659 E27.60815
G1 X109.291 Y26.189 E27.6214
G1 X109.691 Y26.768 E27.63463
G1 X110.023 Y27.389 E27.64788
G1 X110.283 Y28.043 E27.66112
G1 X110.467 Y28.723 E27.67437
G1 X110.573 Y29.419 E27.68761
G1 X110.6 Y30 E27.69855
G1 X110.6 Y90 E28.82719
G1 X110.56 Y90.703 E28.84043
G1 X110.441 Y91.397 E28.85368
G1 X110.243 Y92.072 E28.86691
G1 X109.971 Y92.721 E28.88015
G1 X109.626 Y93.335 E28.89339
G1 X109.215 Y93.906 E28.90663
G1 X108.741 Y94.427 E28.91988
G1 X108.211 Y94.891 E28.93313
G1 X107.632 Y95.291 E28.94637
G1 X107.011 Y95.623 E28.95961
G1 X106.357 Y95.883 E28.97285
G1 X105.677 Y96.067 E28.9861
G1 X104.981 Y96.173 E28.99934
G1 X104.4 Y96.2 E29.01028
G1 X15.6 Y96.2 E30.68066
G1 X14.897 Y96.16 E30.69391
G1 X14.203 Y96.041 E30.70715
G1 X13.528 Y95.843 E30.72038
G1 X12.879 Y95.571 E30.73362
G1 X12.265 Y95.226 E30.74687
G1 X11.694 Y94.815 E30.7601
G1 X11.173 Y94.341 E30.77335
G1 X10.709 Y93.811 E30.7866
G1 X10.309 Y93.232 E30.79984
G1 X9.977 Y92.611 E30.81309
G1 X9.717 Y91.957 E30.82633
G1 X9.533 Y91.277 E30.83958
G1 X9.427 Y90.581 E30.85282
G1 X9.4 Y90 E30.86376
G1 X9.4 Y30 E31.99239
G1 X9.44 Y29.297 E32.00564
G1 X9.559 Y28.603 E32.01888
G1 X9.757 Y27.928 E32.03212
G1 X10.029 Y27.279 E32.04535
G1 X10.374 Y26.665 E32.0586
G1 X10.785 Y26.094 E32.07184
G1 X11.259 Y25.573 E32.08508
G1 X11.789 Y25.109 E32.09833
G1 X12.368 Y24.709 E32.11157
G1 X12.989 Y24.377 E32.12482
G0 F3600 X12.75 Y24.948
G1 F1800 X13.362 Y24.649 E32.13763
G1 X14.004 Y24.424 E32.15043
G1 X14.669 Y24.275 E32.16325
G1 X15.6 Y24.2 E32.18082
G1 X104.4 Y24.2 E33.85119
G1 X105.08 Y24.24 E33.86401
G1 X105.75 Y24.359 E33.87681
G1 X106.402 Y24.556 E33.88962
G1 X107.026 Y24.828 E33.90242
G1 X107.614 Y25.172 E33.91524
G1 X108.158 Y25.582 E33.92805
G1 X108.649 Y26.053 E33.94085
G1 X109.083 Y26.578 E33.95366
G1 X109.452 Y27.15 E33.96647
G1 X109.751 Y27.762 E33.97928
G1 X109.976 Y28.404 E33.99208
G1 X110.125 Y29.069 E34.0049
G1 X110.2 Y30 E34.02246
G1 X110.2 Y90 E35.1511
G1 X110.16 Y90.68 E35.16391
G1 X110.041 Y91.35 E35.17671
G1 X109.844 Y92.002 E35.18952
G1 X109.572 Y92.626 E35.20233
G1 X109.228 Y93.214 E35.21514
G1 X108.818 Y93.758 E35.22796
G1 X108.347 Y94.249 E35.24076
G1 X107.822 Y94.683 E35.25357
G1 X107.25 Y95.052 E35.26637
G1 X106.638 Y95.351 E35.27918
G1 X105.996 Y95.576 E35.29198
G1 X105.331 Y95.725 E35.3048
G1 X104.4 Y95.8 E35.32237
G1 X15.6 Y95.8 E36.99275
G1 X14.92 Y95.76 E37.00556
G1 X14.25 Y95.641 E37.01836
G1 X13.598 Y95.444 E37.03117
G1 X12.974 Y95.172 E37.04398
G1 X12.386 Y94.828 E37.05679
G1 X11.842 Y94.418 E37.06961
G1 X11.351 Y93.947 E37.0824
G1 X10.917 Y93.422 E37.09522
G1 X10.548 Y92.85 E37.10802
G1 X10.249 Y92.238 E37.12083
G1 X10.024 Y91.596 E37.13363
G1 X9.875 Y90.931 E37.14645
G1 X9.8 Y90 E37.16402
G1 X9.8 Y30 E38.29265
G1 X9.84 Y29.32 E38.30547
G1 X9.959 Y28.65 E38.31827
G1 X10.156 Y27.998 E38.33108
G1 X10.428 Y27.374 E38.34388
G1 X10.772 Y26.786 E38.3567
G1 X11.182 Y26.242 E38.36951
G1 X11.653 Y25.751 E38.38231
G1 X12.178 Y25.317 E38.39512
G1 X12.75 Y24.948 E38.40793
G0 F3600 X13.129 Y25.198
G1 F1800 X13.731 Y24.934 E38.42029
G1 X14.36 Y24.744 E38.43265
G1 X15.007 Y24.633 E38.445
G1 X15.6 Y24.6 E38.45617
G1 X104.4 Y24.6 E40.12655
G1 X105.056 Y24.64 E40.13891
G1 X105.702 Y24.759 E40.15127
G1 X106.329 Y24.956 E40.16363
G1 X106.927 Y25.228 E40.17599
G1 X107.488 Y25.57 E40.18835
G1 X108.003 Y25.978 E40.20071
G1 X108.465 Y26.445 E40.21306
G1 X108.866 Y26.965 E40.22541
G1 X109.202 Y27.529 E40.23776
G1 X109.466 Y28.131 E40.25013
G1 X109.656 Y28.76 E40.26249
G1 X109.767 Y29.407 E40.27484
G1 X109.8 Y30 E40.28601
G1 X109.8 Y90 E41.41464
G1 X109.76 Y90.656 E41.42701
G1 X109.641 Y91.302 E41.43936
G1 X109.444 Y91.929 E41.45172
G1 X109.172 Y92.527 E41.46408
G1 X108.83 Y93.088 E41.47644
G1 X108.422 Y93.603 E41.4888
G1 X107.955 Y94.065 E41.50116
G1 X107.435 Y94.466 E41.51351
G1 X106.871 Y94.802 E41.52586
G1 X106.269 Y95.066 E41.53822
G1 X105.64 Y95.256 E41.55058
G1 X104.993 Y95.367 E41.56293
G1 X104.4 Y95.4 E41.5741
G1 X15.6 Y95.4 E43.24448
G1 X14.944 Y95.36 E43.25684
G1 X14.298 Y95.241 E43.2692
G1 X13.671 Y95.044 E43.28156
G1 X13.073 Y94.772 E43.29392
G1 X12.512 Y94.43 E43.30628
G1 X11.997 Y94.022 E43.31864
G1 X11.535 Y93.555 E43.33099
G1 X11.134 Y93.035 E43.34335
G1 X10.798 Y92.471 E43.3557
G1 X10.534 Y91.869 E43.36806
G1 X10.344 Y91.24 E43.38042
G1 X10.233 Y90.593 E43.39277
G1 X10.2 Y90 E43.40394
G1 X10.2 Y30 E44.53257
G1 X10.24 Y29.344 E44.54494
G1 X10.359 Y28.698 E44.55729
G1 X10.556 Y28.071 E44.56966
G1 X10.828 Y27.473 E44.58201
G1 X11.17 Y26.912 E44.59437
G1 X11.578 Y26.397 E44.60673
G1 X12.045 Y25.935 E44.61909
G1 X12.565 Y25.534 E44.63144
G1 X13.129 Y25.198 E44.64379
G0 F3600 X13.506 Y25.46
G1 F1800 X14.095 Y25.232 E44.65567
G1 X14.709 Y25.08 E44.66757
G1 X15.6 Y25 E44.6844
G1 X104.4 Y25 E46.35477
G1 X105.031 Y25.04 E46.36667
G1 X105.652 Y25.159 E46.37856
G1 X106.252 Y25.356 E46.39044
G1 X106.824 Y25.627 E46.40235
G1 X107.356 Y25.967 E46.41422
G1 X107.841 Y26.373 E46.42612
G1 X108.271 Y26.836 E46.43801
G1 X108.64 Y27.35 E46.44991
G1 X108.94 Y27.906 E46.46179
G1 X109.168 Y28.495 E46.47367
G1 X109.32 Y29.109 E46.48557
G1 X109.4 Y30 E46.5024
G1 X109.4 Y90 E47.63103
G1 X109.36 Y90.631 E47.64293
G1 X109.241 Y91.252 E47.65482
G1 X109.044 Y91.852 E47.6667
G1 X108.773 Y92.424 E47.6786
G1 X108.433 Y92.956 E47.69048
G1 X108.027 Y93.441 E47.70238
G1 X107.564 Y93.871 E47.71426
G1 X107.05 Y94.24 E47.72617
G1 X106.494 Y94.54 E47.73805
G1 X105.905 Y94.768 E47.74993
G1 X105.291 Y94.92 E47.76183
G1 X104.4 Y95 E47.77866
G1 X15.6 Y95 E49.44903
G1 X14.969 Y94.96 E49.46093
G1 X14.348 Y94.841 E49.47282
G1 X13.748 Y94.644 E49.4847
G1 X13.176 Y94.373 E49.49661
G1 X12.644 Y94.033 E49.50848
G1 X12.159 Y93.627 E49.52038
G1 X11.729 Y93.164 E49.53227
G1 X11.36 Y92.65 E49.54417
G1 X11.06 Y92.094 E49.55605
G1 X10.832 Y91.505 E49.56793
G1 X10.68 Y90.891 E49.57983
G1 X10.6 Y90 E49.59666
G1 X10.6 Y30 E50.72529
G1 X10.64 Y29.369 E50.73719
G1 X10.759 Y28.748 E50.74908
G1 X10.956 Y28.148 E50.76096
G1 X11.227 Y27.576 E50.77287
G1 X11.567 Y27.044 E50.78474
G1 X11.973 Y26.559 E50.79664
G1 X12.436 Y26.129 E50.80853
G1 X12.95 Y25.76 E50.82043
G1 X13.506 Y25.46 E50.83231
G0 F3600 X13.332 Y25.998
G1 F1800 X13.878 Y25.734 E50.84372
G1 X14.454 Y25.545 E50.85512
G1 X15.05 Y25.433 E50.86653
G1 X15.6 Y25.4 E50.87689
G1 X104.4 Y25.4 E52.54727
G1 X105.005 Y25.44 E52.55868
G1 X105.599 Y25.559 E52.57007
G1 X106.173 Y25.755 E52.58148
G1 X106.716 Y26.026 E52.5929
G1 X107.219 Y26.365 E52.60431
G1 X107.672 Y26.767 E52.6157
G1 X108.069 Y27.225 E52.6271
G1 X108.402 Y27.732 E52.63851
G1 X108.666 Y28.278 E52.64992
G1 X108.855 Y28.854 E52.66132
G1 X108.967 Y29.45 E52.67273
G1 X109 Y30 E52.68309
G1 X109 Y90 E53.81173
G1 X108.96 Y90.605 E53.82313
G1 X108.841 Y91.199 E53.83453
G1 X108.645 Y91.773 E53.84594
G1 X108.374 Y92.316 E53.85735
G1 X108.035 Y92.819 E53.86876
G1 X107.633 Y93.272 E53.88016
G1 X107.175 Y93.669 E53.89156
G1 X106.668 Y94.002 E53.90297
G1 X106.122 Y94.266 E53.91438
G1 X105.546 Y94.455 E53.92578
G1 X104.95 Y94.567 E53.93719
G1 X104.4 Y94.6 E53.94755
G1 X15.6 Y94.6 E55.61793
G1 X14.995 Y94.56 E55.62933
G1 X14.401 Y94.441 E55.64073
G1 X13.827 Y94.245 E55.65214
G1 X13.284 Y93.974 E55.66355
G1 X12.781 Y93.635 E55.67496
G1 X12.328 Y93.233 E55.68636
G1 X11.931 Y92.775 E55.69776
G1 X11.598 Y92.268 E55.70917
G1 X11.334 Y91.722 E55.72058
G1 X11.145 Y91.146 E55.73198
G1 X11.033 Y90.55 E55.74339
G1 X11 Y90 E55.75375
G1 X11 Y30 E56.88238
G1 X11.04 Y29.395 E56.89379
G1 X11.159 Y28.801 E56.90519
G1 X11.355 Y28.227 E56.91659
G1 X11.626 Y27.684 E56.92801
G1 X11.965 Y27.181 E56.93942
G1 X12.367 Y26.728 E56.95081
G1 X12.825 Y26.331 E56.96221
G1 X13.332 Y25.998 E56.97362
G0 F3600 X13.711 Y26.249
G1 F1800 X14.245 Y26.024 E56.98452
G1 X14.805 Y25.876 E56.99542
G1 X15.6 Y25.8 E57.01044
G1 X104.4 Y25.8 E58.68082
G1 X104.978 Y25.84 E58.69172
G1 X105.545 Y25.959 E58.70262
G1 X106.09 Y26.155 E58.71351
G1 X106.603 Y26.424 E58.72441
G1 X107.074 Y26.761 E58.7353
G1 X107.494 Y27.16 E58.7462
G1 X107.856 Y27.613 E58.75711
G1 X108.151 Y28.111 E58.76799
G1 X108.376 Y28.645 E58.77889
