;FLAVOR:Marlin
;TIME:11512
;Filament used: 9.0502m
;Layer height: 0.175
;Generated with Cura_SteamEngine 3.6.0
M140 S65
M105
M190 S65
M104 S205
M105
M109 S205
M82 ;absolute extrusion mode
G21;(metric values)
G90;(absolute positioning)
M82;(set extruder to absolute mode)
M107;(start with the fan off)
G28;(Home the printer)
G92 E0;(Reset the extruder to 0)
G0 Z5 E5 F500;(Move up and prime the nozzle)
G0 X-1 Z0;(Move outside the printable area)
G1 Y60 E8 F500;(Draw a priming/wiping line to the rear)
G1 X-1;(Move a little closer to the print area)
G1 Y10 E16 F500;(draw more priming/wiping)
G1 E15 F250;(Small retract)
G92 E0;(Zero the extruder)
G92 E0
G1 F2400 E-2.5
;LAYER_COUNT:403
;LAYER:0
M107
G0 F4320 X16.844 Y15.41 Z0.263
;TYPE:SKIRT
G1 F2400 E0
G1 F1620 X20.398 Y12.148 E0.18462
G1 X20.894 Y11.748 E0.209
G1 X21.435 Y11.413 E0.23335
G1 X22.014 Y11.148 E0.25772
G1 X22.622 Y10.958 E0.2821
G1 X23.249 Y10.845 E0.30648
G1 X23.885 Y10.812 E0.33085
G1 X24.52 Y10.859 E0.35522
G1 X25.145 Y10.985 E0.37962
G1 X25.748 Y11.188 E0.40397
G1 X26.321 Y11.466 E0.42835
G1 X26.856 Y11.813 E0.45275
G1 X27.342 Y12.224 E0.47711
G1 X27.569 Y12.455 E0.4895
G1 X43.394 Y29.698 E1.38518
G1 X43.794 Y30.194 E1.40956
G1 X44.13 Y30.735 E1.43393
G1 X44.394 Y31.315 E1.45832
G1 X44.584 Y31.922 E1.48266
G1 X44.697 Y32.549 E1.50704
G1 X44.73 Y33.185 E1.53142
G1 X44.683 Y33.82 E1.55578
G1 X44.557 Y34.445 E1.58018
G1 X44.353 Y35.048 E1.60455
G1 X44.076 Y35.622 E1.62894
G1 X43.729 Y36.156 E1.65331
G1 X43.195 Y36.766 E1.68433
G1 X39.737 Y40.133 E1.86904
G1 X39.254 Y40.548 E1.89341
G1 X38.723 Y40.899 E1.91777
G1 X38.152 Y41.181 E1.94214
G1 X37.55 Y41.388 E1.96651
G1 X36.926 Y41.519 E1.99091
G1 X36.292 Y41.571 E2.01525
G1 X35.655 Y41.543 E2.03965
G1 X35.028 Y41.435 E2.064
G1 X34.418 Y41.25 E2.0884
G1 X33.837 Y40.99 E2.11276
G1 X33.293 Y40.659 E2.13713
G1 X32.794 Y40.262 E2.16153
G1 X32.458 Y39.928 E2.17966
G1 X30.459 Y37.75 E2.2928
G1 X16.386 Y23.039 E3.07191
G1 X15.975 Y22.552 E3.0963
G1 X15.629 Y22.018 E3.12065
G1 X15.352 Y21.444 E3.14504
G1 X15.15 Y20.84 E3.16941
G1 X15.024 Y20.216 E3.19378
G1 X14.978 Y19.581 E3.21814
G1 X15.012 Y18.945 E3.24252
G1 X15.125 Y18.318 E3.2669
G1 X15.316 Y17.71 E3.29129
G1 X15.67 Y16.972 E3.32261
G1 X15.893 Y16.59 E3.33954
G1 X16.248 Y16.062 E3.36389
G1 X16.376 Y15.922 E3.37115
G0 F1458 X16.844 Y15.41
G0 F4320 X17.081 Y15.668
G1 F2400 E3.39771
G1 F1620 X20.635 Y12.406 E3.58232
G1 X21.114 Y12.021 E3.60584
G1 X21.638 Y11.701 E3.62934
G1 X22.2 Y11.452 E3.65286
G1 X22.79 Y11.278 E3.6764
G1 X23.397 Y11.182 E3.69992
G1 X24.011 Y11.165 E3.72343
G1 X24.622 Y11.229 E3.74694
G1 X25.22 Y11.371 E3.77046
G1 X25.794 Y11.59 E3.79397
G1 X26.335 Y11.881 E3.81748
G1 X26.834 Y12.24 E3.84101
G1 X27.311 Y12.692 E3.86616
G1 X43.136 Y29.935 E4.76183
G1 X43.521 Y30.414 E4.78535
G1 X43.841 Y30.939 E4.80888
G1 X44.09 Y31.5 E4.83237
G1 X44.264 Y32.09 E4.85591
G1 X44.36 Y32.697 E4.87943
G1 X44.377 Y33.311 E4.90293
G1 X44.313 Y33.922 E4.92644
G1 X44.171 Y34.52 E4.94997
G1 X43.952 Y35.094 E4.97348
G1 X43.661 Y35.635 E4.99699
G1 X43.302 Y36.134 E5.02051
G1 X42.951 Y36.515 E5.04034
G1 X39.493 Y39.882 E5.22504
G1 X39.026 Y40.281 E5.24855
G1 X38.511 Y40.617 E5.27208
G1 X37.957 Y40.882 E5.29559
G1 X37.373 Y41.073 E5.3191
G1 X36.769 Y41.187 E5.34262
G1 X36.155 Y41.222 E5.36616
G1 X35.543 Y41.176 E5.38965
G1 X34.941 Y41.052 E5.41317
G1 X34.36 Y40.85 E5.43671
G1 X33.811 Y40.575 E5.46021
G1 X33.302 Y40.231 E5.48372
G1 X32.716 Y39.692 E5.51419
G1 X30.7 Y37.495 E5.6283
G1 X16.639 Y22.797 E6.40674
G1 X16.244 Y22.327 E6.43023
G1 X15.913 Y21.809 E6.45376
G1 X15.653 Y21.252 E6.47728
G1 X15.466 Y20.666 E6.50082
G1 X15.358 Y20.062 E6.52431
G1 X15.329 Y19.448 E6.54783
G1 X15.379 Y18.835 E6.57137
G1 X15.509 Y18.235 E6.59486
G1 X15.716 Y17.656 E6.61839
G1 X15.972 Y17.149 E6.64013
G1 X16.195 Y16.767 E6.65706
G1 X16.539 Y16.257 E6.6806
G1 X16.611 Y16.178 E6.68469
G0 F1458 X17.081 Y15.668
G0 F4320 X17.318 Y15.926
G1 F2400 E6.71125
G1 F1620 X20.872 Y12.664 E6.89587
G1 X21.333 Y12.294 E6.91849
G1 X21.841 Y11.991 E6.94113
G1 X22.384 Y11.758 E6.96374
G1 X22.954 Y11.601 E6.98637
G1 X23.54 Y11.522 E7.00899
G1 X24.131 Y11.522 E7.03161
G1 X24.717 Y11.603 E7.05425
G1 X25.287 Y11.762 E7.0769
G1 X25.83 Y11.996 E7.09953
G1 X26.336 Y12.301 E7.12214
G1 X26.797 Y12.671 E7.14476
G1 X27.053 Y12.929 E7.15867
G1 X42.878 Y30.172 E8.05434
G1 X43.248 Y30.633 E8.07696
G1 X43.552 Y31.141 E8.09962
G1 X43.784 Y31.684 E8.12222
G1 X43.941 Y32.254 E8.14484
G1 X44.02 Y32.84 E8.16747
G1 X44.02 Y33.431 E8.19009
G1 X43.939 Y34.017 E8.21273
G1 X43.78 Y34.587 E8.23538
G1 X43.546 Y35.13 E8.258
G1 X43.241 Y35.636 E8.28061
G1 X42.707 Y36.265 E8.31219
G1 X39.249 Y39.632 E8.4969
G1 X38.799 Y40.014 E8.51949
G1 X38.3 Y40.333 E8.54215
G1 X37.764 Y40.582 E8.56477
G1 X37.199 Y40.756 E8.5874
G1 X36.616 Y40.852 E8.61001
G1 X36.025 Y40.869 E8.63264
G1 X35.437 Y40.805 E8.65527
G1 X34.863 Y40.664 E8.67789
G1 X34.313 Y40.446 E8.70053
G1 X33.798 Y40.155 E8.72317
G1 X33.326 Y39.799 E8.7458
G1 X32.973 Y39.455 E8.76466
G1 X30.935 Y37.234 E8.88002
G1 X16.892 Y22.555 E9.65745
G1 X16.513 Y22.101 E9.68009
G1 X16.198 Y21.601 E9.7027
G1 X15.955 Y21.062 E9.72533
G1 X15.786 Y20.495 E9.74797
G1 X15.695 Y19.911 E9.77059
G1 X15.683 Y19.32 E9.79321
G1 X15.751 Y18.733 E9.81583
G1 X15.898 Y18.16 E9.83847
G1 X16.121 Y17.612 E9.86111
G1 X16.275 Y17.325 E9.87357
G1 X16.498 Y16.943 E9.8905
G1 X16.83 Y16.454 E9.91312
G1 X16.847 Y16.436 E9.91407
G0 F1458 X17.318 Y15.926
G0 F4320 X17.554 Y16.184
G1 F2400 E9.94063
G1 F1620 X21.108 Y12.922 E10.12524
G1 X21.552 Y12.569 E10.14695
G1 X22.041 Y12.281 E10.16867
G1 X22.566 Y12.066 E10.19038
G1 X23.115 Y11.926 E10.21206
G1 X23.679 Y11.865 E10.23377
G1 X24.246 Y11.884 E10.25548
G1 X24.804 Y11.982 E10.27717
G1 X25.343 Y12.157 E10.29885
G1 X25.853 Y12.407 E10.32059
G1 X26.322 Y12.726 E10.3423
G1 X26.795 Y13.165 E10.36699
G1 X42.62 Y30.408 E11.26267
G1 X42.973 Y30.852 E11.28437
G1 X43.261 Y31.341 E11.30609
G1 X43.476 Y31.866 E11.3278
G1 X43.616 Y32.415 E11.34949
G1 X43.677 Y32.979 E11.3712
G1 X43.658 Y33.546 E11.39291
G1 X43.56 Y34.104 E11.41459
G1 X43.385 Y34.644 E11.43631
G1 X43.135 Y35.153 E11.45802
G1 X42.816 Y35.622 E11.47972
G1 X42.463 Y36.014 E11.49991
G1 X39.005 Y39.381 E11.68462
G1 X38.572 Y39.747 E11.70632
G1 X38.091 Y40.048 E11.72803
G1 X37.574 Y40.279 E11.7497
G1 X37.028 Y40.435 E11.77143
G1 X36.467 Y40.513 E11.79311
G1 X35.899 Y40.511 E11.81485
G1 X35.338 Y40.429 E11.83654
G1 X34.794 Y40.27 E11.85823
G1 X34.278 Y40.035 E11.87993
G1 X33.8 Y39.73 E11.90163
G1 X33.231 Y39.218 E11.93093
G1 X31.193 Y36.997 E12.04628
G1 X17.145 Y22.313 E12.82399
G1 X16.782 Y21.877 E12.8457
G1 X16.485 Y21.394 E12.8674
G1 X16.259 Y20.874 E12.8891
G1 X16.108 Y20.328 E12.91078
G1 X16.035 Y19.765 E12.93251
G1 X16.042 Y19.198 E12.95421
G1 X16.128 Y18.638 E12.97589
G1 X16.293 Y18.095 E12.99761
G1 X16.577 Y17.502 E13.02277
G1 X16.8 Y17.12 E13.0397
G1 X17.088 Y16.698 E13.05925
G0 F1458 X17.12 Y16.651
G0 X17.554 Y16.184
G0 F4320 X17.791 Y16.442
G1 F2400 E13.08581
G1 F1620 X21.345 Y13.18 E13.27043
G1 X21.77 Y12.844 E13.29116
G1 X22.24 Y12.574 E13.3119
G1 X22.744 Y12.376 E13.33263
G1 X23.273 Y12.255 E13.35339
G1 X23.813 Y12.212 E13.37413
G1 X24.353 Y12.249 E13.39484
G1 X24.882 Y12.366 E13.41557
G1 X25.389 Y12.559 E13.43633
G1 X25.861 Y12.824 E13.45705
G1 X26.289 Y13.156 E13.47778
G1 X26.538 Y13.402 E13.49118
G1 X42.363 Y30.645 E14.38685
G1 X42.699 Y31.07 E14.40758
G1 X42.968 Y31.54 E14.42831
G1 X43.166 Y32.045 E14.44907
G1 X43.287 Y32.573 E14.4698
G1 X43.33 Y33.113 E14.49053
G1 X43.293 Y33.653 E14.51124
G1 X43.176 Y34.183 E14.53201
G1 X42.983 Y34.689 E14.55274
G1 X42.718 Y35.161 E14.57345
G1 X42.219 Y35.763 E14.60338
G1 X38.761 Y39.13 E14.78809
G1 X38.346 Y39.478 E14.80881
G1 X37.884 Y39.762 E14.82957
G1 X37.386 Y39.974 E14.85028
G1 X36.861 Y40.111 E14.87104
G1 X36.323 Y40.17 E14.89176
G1 X35.781 Y40.148 E14.91252
G1 X35.249 Y40.048 E14.93323
G1 X34.737 Y39.87 E14.95398
G1 X34.257 Y39.618 E14.97472
G1 X33.819 Y39.299 E14.99546
G1 X33.489 Y38.982 E15.01297
G1 X31.465 Y36.777 E15.12752
G1 X17.397 Y22.071 E15.90636
G1 X17.053 Y21.653 E15.92708
G1 X16.773 Y21.189 E15.94782
G1 X16.565 Y20.689 E15.96854
G1 X16.433 Y20.163 E15.9893
G1 X16.379 Y19.624 E16.01003
G1 X16.405 Y19.083 E16.03076
G1 X16.511 Y18.552 E16.05148
G1 X16.693 Y18.041 E16.07224
G1 X16.879 Y17.678 E16.08785
G1 X17.102 Y17.296 E16.10478
G1 X17.332 Y16.962 E16.12029
G0 F1458 X17.409 Y16.85
G0 X17.791 Y16.442
G0 F4320 X18.028 Y16.699
G1 F2400 E16.14685
G1 F1620 X21.582 Y13.437 E16.33147
G1 X21.987 Y13.119 E16.35118
G1 X22.437 Y12.868 E16.3709
G1 X22.92 Y12.689 E16.39061
G1 X23.425 Y12.587 E16.41033
G1 X23.94 Y12.564 E16.43005
G1 X24.453 Y12.621 E16.44981
G1 X24.95 Y12.756 E16.46952
G1 X25.42 Y12.967 E16.48923
G1 X25.852 Y13.248 E16.50896
G1 X26.28 Y13.639 E16.53114
G1 X42.105 Y30.882 E17.42681
G1 X42.423 Y31.287 E17.44652
G1 X42.674 Y31.737 E17.46624
G1 X42.853 Y32.22 E17.48595
G1 X42.955 Y32.726 E17.50571
G1 X42.978 Y33.24 E17.5254
G1 X42.921 Y33.753 E17.54515
G1 X42.786 Y34.25 E17.56486
G1 X42.575 Y34.72 E17.58458
G1 X42.294 Y35.152 E17.6043
G1 X41.975 Y35.512 E17.62271
G1 X38.517 Y38.879 E17.80741
G1 X38.121 Y39.209 E17.82714
G1 X37.678 Y39.474 E17.8469
G1 X37.201 Y39.667 E17.86659
G1 X36.699 Y39.784 E17.88632
G1 X36.185 Y39.822 E17.90604
G1 X35.671 Y39.78 E17.92578
G1 X35.17 Y39.659 E17.9455
G1 X34.694 Y39.463 E17.9652
G1 X34.253 Y39.195 E17.98495
G1 X33.747 Y38.745 E18.01086
G1 X31.729 Y36.545 E18.12511
G1 X17.65 Y21.829 E18.90452
G1 X17.324 Y21.431 E18.92421
G1 X17.063 Y20.986 E18.94396
G1 X16.874 Y20.507 E18.96366
G1 X16.762 Y20.004 E18.98338
G1 X16.728 Y19.489 E19.00314
G1 X16.775 Y18.976 E19.02285
G1 X16.9 Y18.476 E19.04257
G1 X17.181 Y17.855 E19.06866
G1 X17.404 Y17.473 E19.08559
G1 X17.577 Y17.224 E19.09719
G0 F1458 X17.698 Y17.049
G0 X18.028 Y16.699
G0 F4320 X18.264 Y16.957
G1 F2400 E19.12375
G1 F1620 X21.818 Y13.695 E19.30837
G1 X22.203 Y13.396 E19.32702
G1 X22.632 Y13.164 E19.34569
G1 X23.093 Y13.005 E19.36435
G1 X23.573 Y12.923 E19.38299
G1 X24.061 Y12.921 E19.40166
G1 X24.542 Y12.998 E19.4203
G1 X25.004 Y13.153 E19.43895
G1 X25.435 Y13.382 E19.45763
G1 X25.822 Y13.677 E19.47625
G1 X26.022 Y13.875 E19.48702
G1 X41.847 Y31.118 E20.3827
G1 X42.146 Y31.503 E20.40135
G1 X42.378 Y31.932 E20.42002
G1 X42.537 Y32.393 E20.43868
G1 X42.619 Y32.873 E20.45732
G1 X42.621 Y33.361 E20.47599
G1 X42.544 Y33.842 E20.49463
G1 X42.389 Y34.304 E20.51328
G1 X42.16 Y34.735 E20.53196
G1 X41.73 Y35.262 E20.55799
G1 X38.272 Y38.629 E20.7427
G1 X37.896 Y38.939 E20.76135
G1 X37.475 Y39.184 E20.77999
G1 X37.019 Y39.356 E20.79864
G1 X36.541 Y39.452 E20.8173
G1 X36.054 Y39.469 E20.83595
G1 X35.571 Y39.405 E20.85459
G1 X35.104 Y39.264 E20.87326
G1 X34.667 Y39.048 E20.89192
G1 X34.271 Y38.764 E20.91057
G1 X34.005 Y38.508 E20.9247
G1 X32.009 Y36.333 E21.03767
G1 X17.903 Y21.588 E21.8186
G1 X17.596 Y21.209 E21.83726
G1 X17.355 Y20.785 E21.85593
G1 X17.187 Y20.328 E21.87456
G1 X17.095 Y19.849 E21.89323
G1 X17.083 Y19.362 E21.91187
G1 X17.15 Y18.879 E21.93053
G1 X17.296 Y18.414 E21.94918
G1 X17.484 Y18.031 E21.96551
G1 X17.707 Y17.649 E21.98244
G1 X17.819 Y17.488 E21.98995
G0 F1458 X17.986 Y17.25
G0 X18.264 Y16.957
G0 F4320 X18.501 Y17.215
G1 F2400 E22.0165
G1 F1620 X22.055 Y13.953 E22.20112
G1 X22.418 Y13.674 E22.21864
G1 X22.824 Y13.462 E22.23617
G1 X23.26 Y13.325 E22.25366
G1 X23.714 Y13.265 E22.27119
G1 X24.172 Y13.284 E22.28873
G1 X24.619 Y13.383 E22.30625
G1 X25.042 Y13.558 E22.32377
G1 X25.428 Y13.804 E22.34129
G1 X25.764 Y14.112 E22.35873
G1 X41.589 Y31.355 E23.2544
G1 X41.868 Y31.718 E23.27192
G1 X42.08 Y32.124 E23.28945
G1 X42.217 Y32.561 E23.30698
G1 X42.277 Y33.014 E23.32447
G1 X42.258 Y33.472 E23.34201
G1 X42.159 Y33.919 E23.35953
G1 X41.984 Y34.342 E23.37705
G1 X41.738 Y34.728 E23.39457
G1 X41.486 Y35.011 E23.40907
G1 X38.028 Y38.378 E23.59378
G1 X37.674 Y38.667 E23.61127
G1 X37.274 Y38.891 E23.62881
G1 X36.842 Y39.042 E23.64632
G1 X36.39 Y39.115 E23.66385
G1 X35.932 Y39.109 E23.68137
G1 X35.482 Y39.023 E23.69891
G1 X35.054 Y38.86 E23.71643
G1 X34.661 Y38.626 E23.73394
G1 X34.263 Y38.272 E23.75432
G1 X32.262 Y36.091 E23.8676
G1 X18.156 Y21.346 E24.64852
G1 X17.87 Y20.988 E24.66606
G1 X17.65 Y20.587 E24.68356
G1 X17.503 Y20.153 E24.7011
G1 X17.433 Y19.701 E24.7186
G1 X17.444 Y19.243 E24.73614
G1 X17.534 Y18.794 E24.75366
G1 X17.786 Y18.208 E24.77807
G1 X18.009 Y17.826 E24.795
G1 X18.062 Y17.751 E24.79852
G0 F1458 X18.273 Y17.452
G0 X18.501 Y17.215
G0 F4320 X18.738 Y17.473
G1 F2400 E24.82508
G1 F1620 X22.292 Y14.211 E25.00969
G1 X22.631 Y13.953 E25.026
G1 X23.013 Y13.764 E25.04231
G1 X23.423 Y13.649 E25.0586
G1 X23.848 Y13.612 E25.07493
G1 X24.272 Y13.655 E25.09124
G1 X24.68 Y13.777 E25.10754
G1 X25.059 Y13.972 E25.12385
G1 X25.506 Y14.349 E25.14623
G1 X41.331 Y31.592 E26.0419
G1 X41.589 Y31.931 E26.0582
G1 X41.778 Y32.313 E26.07451
G1 X41.893 Y32.723 E26.09081
G1 X41.93 Y33.148 E26.10714
G1 X41.887 Y33.572 E26.12344
G1 X41.765 Y33.98 E26.13974
G1 X41.57 Y34.359 E26.15605
G1 X41.242 Y34.76 E26.17588
G1 X37.784 Y38.127 E26.36059
G1 X37.452 Y38.394 E26.37689
G1 X37.076 Y38.595 E26.39321
G1 X36.67 Y38.722 E26.40949
G1 X36.246 Y38.771 E26.42582
G1 X35.821 Y38.741 E26.44213
G1 X35.409 Y38.631 E26.45845
G1 X35.025 Y38.447 E26.47474
G1 X34.682 Y38.194 E26.49105
G1 X34.521 Y38.035 E26.49971
G1 X32.515 Y35.849 E26.61326
G1 X18.409 Y21.104 E27.39418
G1 X18.145 Y20.769 E27.41051
G1 X17.947 Y20.392 E27.4268
G1 X17.824 Y19.984 E27.44311
G1 X17.778 Y19.56 E27.45943
G1 X17.813 Y19.136 E27.47572
G1 X17.926 Y18.725 E27.49203
G1 X18.088 Y18.384 E27.50648
G1 X18.305 Y18.013 E27.52292
G0 F1458 X18.311 Y18.002
G0 X18.56 Y17.656
G0 X18.738 Y17.473
G0 F4320 X18.974 Y17.731
G1 F2400 E27.54948
G1 F1620 X22.528 Y14.469 E27.7341
G1 X22.843 Y14.235 E27.74912
G1 X23.198 Y14.069 E27.76412
G1 X23.579 Y13.978 E27.77911
G1 X23.971 Y13.967 E27.79411
G1 X24.357 Y14.035 E27.80911
G1 X24.721 Y14.181 E27.82412
G1 X25.048 Y14.396 E27.8391
G1 X25.248 Y14.585 E27.84963
G1 X41.073 Y31.828 E28.7453
G1 X41.307 Y32.143 E28.76032
G1 X41.473 Y32.498 E28.77532
G1 X41.564 Y32.879 E28.79031
G1 X41.575 Y33.271 E28.80532
G1 X41.507 Y33.657 E28.82032
G1 X41.361 Y34.021 E28.83533
G1 X41.146 Y34.348 E28.8503
G1 X40.998 Y34.509 E28.85867
G1 X37.54 Y37.876 E29.04338
G1 X37.233 Y38.12 E29.05839
G1 X36.883 Y38.296 E29.07338
G1 X36.504 Y38.397 E29.08839
G1 X36.113 Y38.42 E29.10338
G1 X35.725 Y38.363 E29.11839
G1 X35.357 Y38.229 E29.13338
G1 X35.024 Y38.023 E29.14836
G1 X34.779 Y37.798 E29.16109
G1 X32.768 Y35.607 E29.27491
G1 X18.662 Y20.862 E30.05583
G1 X18.421 Y20.552 E30.07086
G1 X18.248 Y20.201 E30.08584
G1 X18.15 Y19.821 E30.10085
G1 X18.131 Y19.43 E30.11583
G1 X18.191 Y19.043 E30.13082
G1 X18.391 Y18.561 E30.15079
G1 X18.554 Y18.282 E30.16316
G0 F1458 X18.614 Y18.179
G0 X18.974 Y17.731
G0 F4320 X19.211 Y17.989
G1 F2400 E30.18972
G1 F1620 X22.765 Y14.727 E30.37434
G1 X23.051 Y14.518 E30.38789
G1 X23.377 Y14.378 E30.40147
G1 X23.726 Y14.315 E30.41504
G1 X24.08 Y14.332 E30.4286
G1 X24.421 Y14.427 E30.44215
G1 X24.733 Y14.596 E30.45573
G1 X24.99 Y14.822 E30.46883
G1 X40.815 Y32.065 E31.3645
G1 X41.024 Y32.351 E31.37806
G1 X41.164 Y32.677 E31.39164
G1 X41.227 Y33.026 E31.40521
G1 X41.21 Y33.38 E31.41877
G1 X41.115 Y33.721 E31.43232
G1 X40.946 Y34.033 E31.4459
G1 X40.754 Y34.258 E31.45722
G1 X37.296 Y37.625 E31.64192
G1 X37.016 Y37.843 E31.6555
G1 X36.694 Y37.992 E31.66908
G1 X36.347 Y38.065 E31.68265
G1 X35.993 Y38.059 E31.6962
G1 X35.649 Y37.974 E31.70976
G1 X35.333 Y37.814 E31.72332
G1 X35.037 Y37.562 E31.7382
G1 X33.021 Y35.365 E31.85231
G1 X18.915 Y20.62 E32.63324
G1 X18.7 Y20.338 E32.64681
G1 X18.554 Y20.015 E32.66037
G1 X18.484 Y19.667 E32.67396
G1 X18.493 Y19.313 E32.68751
G1 X18.581 Y18.97 E32.70106
G1 X18.693 Y18.737 E32.71095
G1 X18.803 Y18.548 E32.71932
G0 F1458 X18.916 Y18.355
G0 X19.211 Y17.989
G0 F4320 X19.448 Y18.247
G1 F2400 E32.74588
G1 F1620 X23.002 Y14.985 E32.9305
G1 X23.257 Y14.804 E32.94247
G1 X23.549 Y14.695 E32.95439
G1 X23.86 Y14.662 E32.96636
G1 X24.169 Y14.71 E32.97833
