;FLAVOR:Marlin
;TIME:8776
;Filament used: 6.43087m
;Layer height: 0.175
;Generated with Cura_SteamEngine 3.6.0
M140 S65
M105
M190 S65
M104 S205
M105
M109 S205
M82 ;absolute extrusion mode
G21;(metric values)
G90;(absolute positioning)
M82;(set extruder to absolute mode)
M107;(start with the fan off)
G28;(Home the printer)
G92 E0;(Reset the extruder to 0)
G0 Z5 E5 F500;(Move up and prime the nozzle)
G0 X-1 Z0;(Move outside the printable area)
G1 Y60 E8 F500;(Draw a priming/wiping line to the rear)
G1 X-1;(Move a little closer to the print area)
G1 Y10 E16 F500;(draw more priming/wiping)
G1 E15 F250;(Small retract)
G92 E0;(Zero the extruder)
G92 E0
G1 F2400 E-2.5
;LAYER_COUNT:57
;LAYER:0
M107
G0 F4320 X17.056 Y17.533 Z0.263
;TYPE:SKIRT
G1 F2400 E0
G1 F1800 X17.677 Y16.962 E0.03229
G1 X18.458 Y16.355 E0.07014
G1 X18.984 Y15.996 E0.09451
G1 X19.551 Y15.707 E0.11887
G1 X19.927 Y15.561 E0.1343
G1 X20.864 Y15.24 E0.17221
G1 X21.478 Y15.072 E0.19657
G1 X22.109 Y14.982 E0.22096
G1 X22.509 Y14.966 E0.23628
G1 X97.493 Y14.965 E3.10592
G1 X98.129 Y15.005 E3.1303
G1 X98.754 Y15.124 E3.15465
G1 X99.141 Y15.24 E3.17011
G1 X100.073 Y15.56 E3.20782
G1 X100.661 Y15.804 E3.23219
G1 X101.366 Y16.224 E3.26359
G1 X101.972 Y16.655 E3.29205
G1 X102.467 Y17.056 E3.31643
G1 X103.038 Y17.677 E3.34872
G1 X103.645 Y18.458 E3.38657
G1 X104.004 Y18.984 E3.41094
G1 X104.293 Y19.551 E3.4353
G1 X104.438 Y19.924 E3.45061
G1 X104.759 Y20.859 E3.48845
G1 X104.928 Y21.473 E3.51282
G1 X105.018 Y22.104 E3.53721
G1 X105.034 Y22.507 E3.55264
G1 X105.035 Y97.493 E6.42235
G1 X104.995 Y98.129 E6.44674
G1 X104.876 Y98.754 E6.47109
G1 X104.76 Y99.141 E6.48655
G1 X104.44 Y100.073 E6.52426
G1 X104.196 Y100.661 E6.54863
G1 X103.776 Y101.366 E6.58003
G1 X103.345 Y101.972 E6.60849
G1 X102.944 Y102.467 E6.63287
G1 X102.323 Y103.038 E6.66516
G1 X101.542 Y103.645 E6.70301
G1 X101.016 Y104.004 E6.72738
G1 X100.449 Y104.293 E6.75174
G1 X100.073 Y104.439 E6.76717
G1 X99.136 Y104.76 E6.80508
G1 X98.522 Y104.928 E6.82944
G1 X97.891 Y105.018 E6.85383
G1 X97.491 Y105.034 E6.86915
G1 X22.507 Y105.035 E9.73879
G1 X21.871 Y104.995 E9.76317
G1 X21.246 Y104.876 E9.78752
G1 X20.859 Y104.76 E9.80298
G1 X19.927 Y104.44 E9.8407
G1 X19.339 Y104.196 E9.86506
G1 X18.632 Y103.775 E9.89655
G1 X18.025 Y103.343 E9.92506
G1 X17.531 Y102.942 E9.94941
G1 X16.96 Y102.322 E9.98167
G1 X16.354 Y101.542 E10.01947
G1 X15.996 Y101.015 E10.04385
G1 X15.706 Y100.448 E10.06822
G1 X15.561 Y100.073 E10.08361
G1 X15.24 Y99.136 E10.12151
G1 X15.072 Y98.522 E10.14588
G1 X14.982 Y97.891 E10.17027
G1 X14.966 Y97.491 E10.18559
G1 X14.965 Y22.507 E13.05522
G1 X15.005 Y21.871 E13.07961
G1 X15.124 Y21.246 E13.10396
G1 X15.24 Y20.859 E13.11942
G1 X15.56 Y19.927 E13.15713
G1 X15.804 Y19.339 E13.18149
G1 X16.224 Y18.634 E13.2129
G1 X16.622 Y18.074 E13.23919
G0 F1620 X16.655 Y18.028
G0 X17.056 Y17.533
G0 F4320 X17.328 Y17.754
G1 F2400 E13.26575
G1 F1800 X17.891 Y17.238 E13.29498
G1 X18.672 Y16.631 E13.33283
G1 X19.181 Y16.287 E13.35634
G1 X19.73 Y16.011 E13.37986
G1 X20.041 Y15.892 E13.3926
G1 X20.978 Y15.571 E13.43051
G1 X21.571 Y15.41 E13.45402
G1 X22.18 Y15.327 E13.47755
G1 X22.509 Y15.316 E13.49014
G1 X97.493 Y15.315 E16.35978
G1 X98.106 Y15.355 E16.38329
G1 X98.709 Y15.474 E16.40681
G1 X99.027 Y15.571 E16.41953
G1 X99.959 Y15.891 E16.45724
G1 X100.526 Y16.128 E16.48076
G1 X101.164 Y16.51 E16.50922
G1 X101.77 Y16.941 E16.53768
G1 X102.246 Y17.328 E16.56116
G1 X102.762 Y17.891 E16.59038
G1 X103.369 Y18.672 E16.62824
G1 X103.713 Y19.181 E16.65175
G1 X103.989 Y19.73 E16.67526
G1 X104.107 Y20.038 E16.68789
G1 X104.428 Y20.973 E16.72572
G1 X104.589 Y21.566 E16.74923
G1 X104.672 Y22.175 E16.77276
G1 X104.684 Y22.507 E16.78547
G1 X104.685 Y97.493 E19.65518
G1 X104.645 Y98.106 E19.67869
G1 X104.526 Y98.709 E19.70221
G1 X104.429 Y99.027 E19.71493
G1 X104.109 Y99.959 E19.75265
G1 X103.872 Y100.526 E19.77616
G1 X103.49 Y101.164 E19.80462
G1 X103.059 Y101.77 E19.83308
G1 X102.672 Y102.246 E19.85656
G1 X102.109 Y102.762 E19.88579
G1 X101.328 Y103.369 E19.92364
G1 X100.819 Y103.713 E19.94715
G1 X100.27 Y103.989 E19.97067
G1 X99.959 Y104.108 E19.98341
G1 X99.022 Y104.429 E20.02131
G1 X98.429 Y104.59 E20.04483
G1 X97.82 Y104.673 E20.06835
G1 X97.491 Y104.684 E20.08095
G1 X22.507 Y104.685 E22.95058
G1 X21.894 Y104.645 E22.97409
G1 X21.291 Y104.526 E22.99761
G1 X20.973 Y104.429 E23.01034
G1 X20.041 Y104.109 E23.04805
G1 X19.474 Y103.872 E23.07157
G1 X18.835 Y103.49 E23.10006
G1 X18.228 Y103.058 E23.12857
G1 X17.752 Y102.669 E23.1521
G1 X17.237 Y102.107 E23.18127
G1 X16.631 Y101.327 E23.21907
G1 X16.286 Y100.818 E23.2426
G1 X16.01 Y100.269 E23.26612
G1 X15.892 Y99.959 E23.27881
G1 X15.571 Y99.022 E23.31672
G1 X15.41 Y98.429 E23.34023
G1 X15.327 Y97.82 E23.36375
G1 X15.316 Y97.491 E23.37635
G1 X15.315 Y22.507 E26.24599
G1 X15.355 Y21.894 E26.2695
G1 X15.474 Y21.291 E26.29302
G1 X15.571 Y20.973 E26.30574
G1 X15.891 Y20.041 E26.34345
G1 X16.128 Y19.474 E26.36697
G1 X16.51 Y18.836 E26.39543
G1 X16.895 Y18.296 E26.42081
G0 F1620 X16.941 Y18.23
G0 X17.328 Y17.754
G0 F4320 X17.6 Y17.976
G1 F2400 E26.44737
G1 F1800 X18.106 Y17.515 E26.47356
G1 X18.887 Y16.908 E26.51142
G1 X19.378 Y16.577 E26.53408
G1 X20.154 Y16.223 E26.56672
G1 X21.091 Y15.902 E26.60463
G1 X21.662 Y15.749 E26.62725
G1 X22.509 Y15.666 E26.65982
G1 X97.493 Y15.665 E29.52945
G1 X98.083 Y15.705 E29.55208
G1 X98.914 Y15.902 E29.58477
G1 X99.846 Y16.222 E29.62248
G1 X100.391 Y16.451 E29.6451
G1 X100.961 Y16.795 E29.67058
G1 X101.567 Y17.226 E29.69904
G1 X102.024 Y17.6 E29.72164
G1 X102.485 Y18.106 E29.74784
G1 X103.092 Y18.887 E29.78569
G1 X103.423 Y19.378 E29.80835
G1 X103.776 Y20.151 E29.84087
G1 X104.097 Y21.086 E29.87871
G1 X104.251 Y21.657 E29.90134
G1 X104.334 Y22.507 E29.93402
G1 X104.335 Y97.493 E32.80373
G1 X104.295 Y98.083 E32.82636
G1 X104.098 Y98.914 E32.85905
G1 X103.778 Y99.846 E32.89676
G1 X103.549 Y100.391 E32.91938
G1 X103.205 Y100.961 E32.94486
G1 X102.774 Y101.567 E32.97332
G1 X102.4 Y102.024 E32.99592
G1 X101.894 Y102.485 E33.02212
G1 X101.113 Y103.092 E33.05997
G1 X100.622 Y103.423 E33.08263
G1 X99.846 Y103.777 E33.11527
G1 X98.909 Y104.098 E33.15318
G1 X98.338 Y104.251 E33.1758
G1 X97.491 Y104.334 E33.20837
G1 X22.507 Y104.335 E36.07801
G1 X21.917 Y104.295 E36.10064
G1 X21.086 Y104.098 E36.13332
G1 X20.154 Y103.778 E36.17103
G1 X19.609 Y103.549 E36.19366
G1 X19.038 Y103.204 E36.21919
G1 X18.431 Y102.772 E36.2477
G1 X17.974 Y102.398 E36.2703
G1 X17.513 Y101.892 E36.29649
G1 X16.907 Y101.112 E36.3343
G1 X16.577 Y100.622 E36.3569
G1 X16.223 Y99.846 E36.38955
G1 X15.902 Y98.909 E36.42745
G1 X15.749 Y98.338 E36.45007
G1 X15.666 Y97.491 E36.48264
G1 X15.665 Y22.507 E39.35228
G1 X15.705 Y21.917 E39.37491
G1 X15.902 Y21.086 E39.40759
G1 X16.222 Y20.154 E39.4453
G1 X16.451 Y19.609 E39.46793
G1 X16.795 Y19.039 E39.49341
G1 X17.166 Y18.517 E39.51791
G0 F1620 X17.226 Y18.433
G0 X17.6 Y17.976
G0 F4320 X17.871 Y18.198
G1 F2400 E39.54447
G1 F1800 X18.321 Y17.791 E39.56769
G1 X19.102 Y17.184 E39.60555
G1 X19.573 Y16.868 E39.62725
G1 X20.268 Y16.554 E39.65644
G1 X21.205 Y16.233 E39.69435
G1 X21.753 Y16.088 E39.71604
G1 X22.509 Y16.016 E39.7451
G1 X97.493 Y16.015 E42.61474
G1 X98.059 Y16.055 E42.63645
G1 X98.8 Y16.233 E42.66561
G1 X99.732 Y16.553 E42.70333
G1 X100.254 Y16.775 E42.72503
G1 X100.758 Y17.08 E42.74758
G1 X101.364 Y17.511 E42.77604
G1 X101.802 Y17.871 E42.79774
G1 X102.209 Y18.321 E42.82096
G1 X102.816 Y19.102 E42.85881
G1 X103.132 Y19.573 E42.88052
G1 X103.445 Y20.265 E42.90958
G1 X103.766 Y21.2 E42.94742
G1 X103.912 Y21.748 E42.96912
G1 X103.984 Y22.507 E42.9983
G1 X103.985 Y97.493 E45.86801
G1 X103.945 Y98.059 E45.88972
G1 X103.767 Y98.8 E45.91889
G1 X103.447 Y99.732 E45.9566
G1 X103.225 Y100.254 E45.97831
G1 X102.92 Y100.758 E46.00085
G1 X102.489 Y101.364 E46.02931
G1 X102.129 Y101.802 E46.05101
G1 X101.679 Y102.209 E46.07423
G1 X100.898 Y102.816 E46.11208
G1 X100.427 Y103.132 E46.13379
G1 X99.732 Y103.446 E46.16297
G1 X98.795 Y103.767 E46.20088
G1 X98.247 Y103.912 E46.22257
G1 X97.491 Y103.984 E46.25164
G1 X22.507 Y103.985 E49.12127
G1 X21.941 Y103.945 E49.14298
G1 X21.2 Y103.767 E49.17215
G1 X20.268 Y103.447 E49.20986
G1 X19.746 Y103.225 E49.23157
G1 X19.241 Y102.919 E49.25417
G1 X18.634 Y102.487 E49.28268
G1 X18.196 Y102.127 E49.30438
G1 X17.79 Y101.677 E49.32757
G1 X17.184 Y100.897 E49.36537
G1 X16.868 Y100.426 E49.38708
G1 X16.554 Y99.732 E49.41623
G1 X16.233 Y98.795 E49.45413
G1 X16.088 Y98.247 E49.47583
G1 X16.016 Y97.491 E49.50489
G1 X16.015 Y22.507 E52.37452
G1 X16.055 Y21.941 E52.39624
G1 X16.233 Y21.2 E52.4254
G1 X16.553 Y20.268 E52.46311
G1 X16.775 Y19.746 E52.48482
G1 X17.08 Y19.242 E52.50737
G1 X17.437 Y18.74 E52.53094
G0 F1620 X17.511 Y18.636
G0 X17.871 Y18.198
G0 F4320 X18.142 Y18.422
G1 F2400 E52.5575
G1 F1800 X18.536 Y18.067 E52.5778
G1 X19.317 Y17.46 E52.61565
G1 X19.768 Y17.16 E52.63638
G1 X20.381 Y16.885 E52.66209
G1 X21.318 Y16.564 E52.7
G1 X21.842 Y16.427 E52.72073
G1 X22.509 Y16.366 E52.74636
G1 X97.493 Y16.365 E55.61599
G1 X98.033 Y16.405 E55.63671
G1 X98.686 Y16.564 E55.66243
G1 X99.618 Y16.884 E55.70015
G1 X100.117 Y17.097 E55.72091
G1 X100.555 Y17.365 E55.74056
G1 X101.161 Y17.796 E55.76902
G1 X101.578 Y18.142 E55.78976
G1 X101.933 Y18.536 E55.81005
G1 X102.54 Y19.317 E55.84791
G1 X102.84 Y19.768 E55.86864
G1 X103.114 Y20.379 E55.89426
G1 X103.435 Y21.314 E55.9321
G1 X103.573 Y21.838 E55.95283
G1 X103.634 Y22.507 E55.97854
G1 X103.635 Y97.493 E58.84825
G1 X103.595 Y98.033 E58.86897
G1 X103.436 Y98.686 E58.89469
G1 X103.116 Y99.618 E58.93241
G1 X102.903 Y100.117 E58.95317
G1 X102.635 Y100.555 E58.97282
G1 X102.204 Y101.161 E59.00128
G1 X101.858 Y101.578 E59.02202
G1 X101.464 Y101.933 E59.04231
G1 X100.683 Y102.54 E59.08017
G1 X100.232 Y102.84 E59.1009
G1 X99.619 Y103.115 E59.12661
G1 X98.682 Y103.436 E59.16451
G1 X98.158 Y103.573 E59.18524
G1 X97.491 Y103.634 E59.21087
G1 X22.507 Y103.635 E62.08051
G1 X21.967 Y103.595 E62.10123
G1 X21.314 Y103.436 E62.12695
G1 X20.382 Y103.116 E62.16466
G1 X19.883 Y102.903 E62.18542
G1 X19.444 Y102.634 E62.20513
G1 X18.837 Y102.202 E62.23364
G1 X18.42 Y101.856 E62.25438
G1 X18.066 Y101.463 E62.27462
G1 X17.46 Y100.683 E62.31242
G1 X17.16 Y100.231 E62.33318
G1 X16.885 Y99.619 E62.35886
G1 X16.564 Y98.682 E62.39676
G1 X16.427 Y98.158 E62.41749
G1 X16.366 Y97.491 E62.44312
G1 X16.365 Y22.507 E65.31276
G1 X16.405 Y21.967 E65.33348
G1 X16.564 Y21.314 E65.3592
G1 X16.884 Y20.382 E65.39691
G1 X17.097 Y19.883 E65.41767
G1 X17.365 Y19.445 E65.43733
G1 X17.708 Y18.963 E65.45997
G0 F1620 X17.796 Y18.839
G0 X18.142 Y18.422
G0 F4320 X18.412 Y18.646
G1 F2400 E65.48653
G1 F1800 X18.751 Y18.344 E65.5039
G1 X19.532 Y17.737 E65.54175
G1 X19.962 Y17.453 E65.56148
G1 X20.494 Y17.216 E65.58376
G1 X21.431 Y16.895 E65.62167
G1 X21.93 Y16.767 E65.64138
G1 X22.509 Y16.716 E65.66363
G1 X97.493 Y16.715 E68.53326
G1 X98.007 Y16.755 E68.55299
G1 X98.573 Y16.895 E68.57531
G1 X99.505 Y17.215 E68.61302
G1 X99.978 Y17.42 E68.63275
G1 X100.352 Y17.65 E68.64955
G1 X100.958 Y18.081 E68.67801
G1 X101.354 Y18.412 E68.69776
G1 X101.656 Y18.751 E68.71513
G1 X102.263 Y19.532 E68.75299
G1 X102.547 Y19.962 E68.77271
G1 X102.783 Y20.492 E68.79491
G1 X103.104 Y21.427 E68.83275
G1 X103.233 Y21.926 E68.85247
G1 X103.284 Y22.507 E68.87479
G1 X103.285 Y97.493 E71.7445
G1 X103.245 Y98.007 E71.76423
G1 X103.105 Y98.573 E71.78654
G1 X102.785 Y99.505 E71.82426
G1 X102.58 Y99.978 E71.84398
G1 X102.35 Y100.352 E71.86079
G1 X101.919 Y100.958 E71.88925
G1 X101.588 Y101.354 E71.909
G1 X101.249 Y101.656 E71.92637
G1 X100.468 Y102.263 E71.96423
G1 X100.038 Y102.547 E71.98395
G1 X99.506 Y102.784 E72.00624
G1 X98.569 Y103.105 E72.04414
G1 X98.07 Y103.233 E72.06386
G1 X97.491 Y103.284 E72.0861
G1 X22.507 Y103.285 E74.95573
G1 X21.993 Y103.245 E74.97546
G1 X21.427 Y103.105 E74.99778
G1 X20.495 Y102.785 E75.03549
G1 X20.022 Y102.58 E75.05522
G1 X19.647 Y102.349 E75.07207
G1 X19.04 Y101.917 E75.10059
G1 X18.645 Y101.587 E75.12028
G1 X18.342 Y101.248 E75.13768
G1 X17.736 Y100.468 E75.17549
G1 X17.453 Y100.038 E75.19519
G1 X17.216 Y99.506 E75.21747
G1 X16.895 Y98.569 E75.25538
G1 X16.767 Y98.07 E75.27509
G1 X16.716 Y97.491 E75.29734
G1 X16.715 Y22.507 E78.16697
G1 X16.755 Y21.993 E78.1867
G1 X16.895 Y21.427 E78.20902
G1 X17.215 Y20.495 E78.24673
G1 X17.42 Y20.022 E78.26646
G1 X17.65 Y19.648 E78.28326
G1 X17.978 Y19.187 E78.30491
G0 F1620 X18.081 Y19.042
G0 X18.412 Y18.646
G0 F4320 X18.681 Y18.872
G1 F2400 E78.33147
G1 F1800 X18.965 Y18.62 E78.346
G1 X19.746 Y18.013 E78.38386
G1 X20.154 Y17.746 E78.40252
G1 X20.608 Y17.548 E78.42147
G1 X21.545 Y17.227 E78.45938
G1 X22.017 Y17.107 E78.47801
G1 X22.509 Y17.066 E78.49691
G1 X97.493 Y17.065 E81.36654
G1 X97.979 Y17.105 E81.3852
G1 X98.459 Y17.226 E81.40415
G1 X99.391 Y17.546 E81.44186
G1 X99.838 Y17.742 E81.46054
G1 X100.149 Y17.936 E81.47457
G1 X100.755 Y18.367 E81.50302
G1 X101.128 Y18.681 E81.52168
G1 X101.38 Y18.965 E81.53621
G1 X101.987 Y19.746 E81.57407
G1 X102.254 Y20.154 E81.59273
G1 X102.452 Y20.606 E81.61161
G1 X102.773 Y21.541 E81.64945
G1 X102.893 Y22.013 E81.66808
G1 X102.934 Y22.507 E81.68705
G1 X102.935 Y97.493 E84.55676
G1 X102.895 Y97.979 E84.57543
G1 X102.774 Y98.459 E84.59437
G1 X102.454 Y99.391 E84.63208
G1 X102.258 Y99.838 E84.65076
G1 X102.064 Y100.149 E84.66479
G1 X101.633 Y100.755 E84.69325
G1 X101.319 Y101.128 E84.71191
G1 X101.035 Y101.38 E84.72644
G1 X100.254 Y101.987 E84.76429
G1 X99.846 Y102.254 E84.78295
G1 X99.392 Y102.452 E84.80191
G1 X98.455 Y102.773 E84.83981
G1 X97.983 Y102.893 E84.85845
G1 X97.491 Y102.934 E84.87734
G1 X22.507 Y102.935 E87.74698
G1 X22.021 Y102.895 E87.76564
G1 X21.541 Y102.774 E87.78458
G1 X20.609 Y102.454 E87.8223
G1 X20.162 Y102.258 E87.84097
G1 X19.85 Y102.064 E87.85503
G1 X19.243 Y101.632 E87.88355
G1 X18.87 Y101.318 E87.90221
G1 X18.619 Y101.033 E87.91674
G1 X18.013 Y100.253 E87.95454
G1 X17.746 Y99.845 E87.9732
G1 X17.548 Y99.392 E87.99212
G1 X17.227 Y98.455 E88.03003
G1 X17.107 Y97.983 E88.04866
G1 X17.066 Y97.491 E88.06756
G1 X17.065 Y22.507 E90.93719
G1 X17.105 Y22.021 E90.95585
G1 X17.226 Y21.541 E90.9748
G1 X17.546 Y20.609 E91.01251
G1 X17.742 Y20.162 E91.03119
G1 X17.936 Y19.851 E91.04522
G1 X18.247 Y19.413 E91.06577
G0 F1620 X18.367 Y19.245
G0 X18.681 Y18.872
G0 F4320 X18.949 Y19.099
G1 F2400 E91.09233
G1 F1800 X19.18 Y18.896 E91.1041
G1 X19.961 Y18.289 E91.14196
G1 X20.346 Y18.041 E91.15948
G1 X20.721 Y17.879 E91.17512
G1 X21.658 Y17.558 E91.21302
G1 X22.103 Y17.448 E91.23056
G1 X22.509 Y17.416 E91.24615
G1 X97.493 Y17.415 E94.11578
G1 X97.949 Y17.455 E94.1333
G1 X98.345 Y17.557 E94.14895
G1 X99.277 Y17.877 E94.18666
G1 X99.696 Y18.063 E94.20421
G1 X99.946 Y18.221 E94.21552
G1 X100.552 Y18.652 E94.24398
G1 X100.901 Y18.949 E94.26152
G1 X101.104 Y19.18 E94.27329
G1 X101.711 Y19.961 E94.31114
G1 X101.959 Y20.346 E94.32867
G1 X102.121 Y20.72 E94.34427
G1 X102.442 Y21.655 E94.3821
G1 X102.552 Y22.099 E94.39961
G1 X102.584 Y22.507 E94.41527
G1 X102.585 Y97.493 E97.28498
G1 X102.545 Y97.949 E97.3025
G1 X102.443 Y98.345 E97.31815
G1 X102.123 Y99.277 E97.35586
G1 X101.937 Y99.696 E97.3734
G1 X101.779 Y99.946 E97.38472
G1 X101.348 Y100.552 E97.41318
G1 X101.051 Y100.901 E97.43072
G1 X100.82 Y101.104 E97.44249
G1 X100.039 Y101.711 E97.48034
G1 X99.654 Y101.959 E97.49787
G1 X99.279 Y102.121 E97.5135
G1 X98.342 Y102.442 E97.5514
G1 X97.897 Y102.552 E97.56895
G1 X97.491 Y102.584 E97.58453
G1 X22.507 Y102.585 E100.45417
G1 X22.051 Y102.545 E100.47168
G1 X21.655 Y102.443 E100.48733
G1 X20.723 Y102.123 E100.52505
G1 X20.304 Y101.937 E100.54259
G1 X20.053 Y101.779 E100.55394
G1 X19.446 Y101.347 E100.58245
G1 X19.097 Y101.05 E100.59999
G1 X18.895 Y100.818 E100.61176
G1 X18.289 Y100.038 E100.64956
G1 X18.041 Y99.654 E100.66706
G1 X17.879 Y99.279 E100.68269
G1 X17.558 Y98.342 E100.7206
G1 X17.448 Y97.897 E100.73814
G1 X17.416 Y97.491 E100.75372
G1 X17.415 Y22.507 E103.62336
G1 X17.455 Y22.051 E103.64088
G1 X17.557 Y21.655 E103.65652
G1 X17.877 Y20.723 E103.69424
G1 X18.063 Y20.304 E103.71178
G1 X18.221 Y20.054 E103.7231
G1 X18.516 Y19.64 E103.74255
