;FLAVOR:Marlin
;TIME:5876
;Filament used: 7.67478m
;Layer height: 0.35
;Generated with Cura_SteamEngine 3.6.0
M140 S65
M105
M190 S65
M104 S205
M105
M109 S205
M82 ;absolute extrusion mode
G21;(metric values)
G90;(absolute positioning)
M82;(set extruder to absolute mode)
M107;(start with the fan off)
G28;(Home the printer)
G92 E0;(Reset the extruder to 0)
G0 Z5 E5 F500;(Move up and prime the nozzle)
G0 X-1 Z0;(Move outside the printable area)
G1 Y60 E8 F500;(Draw a priming/wiping line to the rear)
G1 X-1;(Move a little closer to the print area)
G1 Y10 E16 F500;(draw more priming/wiping)
G1 E15 F250;(Small retract)
G92 E0;(Zero the extruder)
G92 E0
G1 F2400 E-2.5
;LAYER_COUNT:63
;LAYER:0
M107
G0 F4320 X8.256 Y10.958 Z0.35
;TYPE:SKIRT
G1 F2400 E0
G1 F1800 X8.679 Y10.713 E0.0249
G1 X9.045 Y10.524 E0.04587
G1 X9.629 Y10.268 E0.07835
G1 X10.187 Y10.099 E0.10804
G1 X10.607 Y9.998 E0.13004
G1 X11.235 Y9.888 E0.16251
G1 X11.794 Y9.857 E0.19103
G1 X108.128 Y9.849 E5.09728
G1 X108.763 Y9.889 E5.12968
G1 X109.332 Y9.994 E5.15915
G1 X109.893 Y10.131 E5.18856
G1 X110.501 Y10.32 E5.22099
G1 X111.171 Y10.634 E5.25867
G1 X111.533 Y10.837 E5.27981
G1 X112.068 Y11.183 E5.31226
G1 X112.555 Y11.593 E5.34468
G1 X112.914 Y11.972 E5.37127
G1 X113.462 Y12.615 E5.4143
G1 X113.843 Y13.125 E5.44672
G1 X114.158 Y13.678 E5.47913
G1 X114.426 Y14.339 E5.51546
G1 X114.594 Y14.856 E5.54314
G1 X114.752 Y15.472 E5.57553
G1 X114.842 Y16.423 E5.62418
G1 X114.865 Y104.266 E10.09799
G1 X114.798 Y105.09 E10.14009
G1 X114.727 Y105.522 E10.16239
G1 X114.584 Y106.143 E10.19484
G1 X114.403 Y106.652 E10.22236
G1 X114.24 Y107.043 E10.24393
G1 X113.959 Y107.614 E10.27634
G1 X113.476 Y108.313 E10.31962
G1 X113.083 Y108.791 E10.35113
G1 X112.649 Y109.257 E10.38356
G1 X112.159 Y109.664 E10.41601
G1 X111.492 Y110.077 E10.45596
G1 X110.764 Y110.453 E10.49769
G1 X110.181 Y110.709 E10.53012
G1 X109.57 Y110.89 E10.56257
G1 X109.096 Y110.976 E10.58711
G1 X108.685 Y111.03 E10.60822
G1 X108.024 Y111.073 E10.64196
G1 X50 Y111.073 E13.59709
G1 X49.364 Y111.033 E13.62955
G1 X48.739 Y110.914 E13.66195
G1 X48.133 Y110.717 E13.6944
G1 X47.557 Y110.446 E13.72682
G1 X47.019 Y110.105 E13.75927
G1 X46.528 Y109.699 E13.79171
G1 X46.092 Y109.235 E13.82414
G1 X45.717 Y108.72 E13.85659
G1 X45.41 Y108.163 E13.88898
G1 X45.175 Y107.571 E13.92142
G1 X45.016 Y106.954 E13.95387
G1 X44.935 Y106.322 E13.98632
G1 X44.925 Y105.998 E14.00283
G1 X44.925 Y99.661 E14.32557
G1 X32.075 Y99.661 E14.98001
G1 X32.075 Y105.998 E15.30275
G1 X32.035 Y106.634 E15.33521
G1 X31.916 Y107.259 E15.36761
G1 X31.719 Y107.865 E15.40006
G1 X31.448 Y108.441 E15.43248
G1 X31.107 Y108.979 E15.46492
G1 X30.701 Y109.47 E15.49737
G1 X30.237 Y109.906 E15.5298
G1 X29.722 Y110.281 E15.56224
G1 X29.165 Y110.588 E15.59464
G1 X28.573 Y110.823 E15.62707
G1 X27.956 Y110.982 E15.65953
G1 X27.324 Y111.063 E15.69198
G1 X26.993 Y111.073 E15.70884
G1 X11.702 Y111.051 E16.48761
G1 X11.066 Y111.01 E16.52006
G1 X10.441 Y110.89 E16.55248
G1 X10.06 Y110.776 E16.57273
G1 X9.507 Y110.586 E16.60251
G1 X8.919 Y110.341 E16.63495
G1 X8.193 Y109.906 E16.67806
G1 X7.819 Y109.637 E16.70152
G1 X7.326 Y109.233 E16.73398
G1 X6.878 Y108.759 E16.7672
G1 X6.584 Y108.405 E16.79064
G1 X6.209 Y107.891 E16.82304
G1 X5.844 Y107.21 E16.86239
G1 X5.632 Y106.729 E16.88916
G1 X5.412 Y106.131 E16.92161
G1 X5.262 Y105.469 E16.95618
G1 X5.197 Y105.055 E16.97753
G1 X5.136 Y104.267 E17.01778
G1 X5.158 Y16.432 E21.49118
G1 X5.198 Y15.796 E21.52363
G1 X5.318 Y15.171 E21.55605
G1 X5.438 Y14.77 E21.57736
G1 X5.645 Y14.173 E21.60954
G1 X5.891 Y13.586 E21.64196
G1 X6.209 Y13.034 E21.6744
G1 X6.715 Y12.39 E21.71612
G1 X7.283 Y11.776 E21.75871
G1 X7.744 Y11.336 E21.79117
G1 X7.838 Y11.267 E21.79711
G0 F1620 X8.256 Y10.958
G0 F4320 X8.482 Y11.229
G1 F2400 E21.82359
G1 F1800 X8.84 Y11.024 E21.8446
G1 X9.206 Y10.835 E21.86558
G1 X9.769 Y10.589 E21.89687
G1 X10.269 Y10.439 E21.92346
G1 X10.689 Y10.338 E21.94546
G1 X11.295 Y10.233 E21.97678
G1 X11.794 Y10.207 E22.00223
G1 X108.128 Y10.199 E26.90848
G1 X108.741 Y10.239 E26.93977
G1 X109.249 Y10.334 E26.96609
G1 X109.81 Y10.471 E26.9955
G1 X110.396 Y10.655 E27.02678
G1 X111 Y10.94 E27.06079
G1 X111.362 Y11.143 E27.08193
G1 X111.877 Y11.478 E27.11322
G1 X112.345 Y11.876 E27.14451
G1 X112.647 Y12.199 E27.16703
G1 X113.195 Y12.842 E27.21006
G1 X113.562 Y13.335 E27.24136
G1 X113.863 Y13.871 E27.27267
G1 X114.093 Y14.447 E27.30426
G1 X114.261 Y14.964 E27.33194
G1 X114.412 Y15.559 E27.36321
G1 X114.492 Y16.423 E27.4074
G1 X114.515 Y104.266 E31.8812
G1 X114.452 Y105.033 E31.9204
G1 X114.381 Y105.465 E31.9427
G1 X114.243 Y106.064 E31.974
G1 X114.08 Y106.517 E31.99852
G1 X113.917 Y106.908 E32.0201
G1 X113.644 Y107.459 E32.05141
G1 X113.206 Y108.091 E32.09057
G1 X112.813 Y108.569 E32.12209
G1 X112.393 Y109.017 E32.15337
G1 X111.918 Y109.407 E32.18467
G1 X111.331 Y109.766 E32.21971
G1 X110.603 Y110.142 E32.26144
G1 X110.04 Y110.388 E32.29273
G1 X109.45 Y110.559 E32.32402
G1 X109.051 Y110.629 E32.34465
G1 X108.64 Y110.683 E32.36576
G1 X108.024 Y110.723 E32.3972
G1 X50 Y110.723 E35.35234
G1 X49.387 Y110.683 E35.38362
G1 X48.784 Y110.564 E35.41493
G1 X48.202 Y110.367 E35.44622
G1 X47.65 Y110.097 E35.47751
G1 X47.138 Y109.757 E35.50882
G1 X46.674 Y109.354 E35.54012
G1 X46.267 Y108.894 E35.5714
G1 X45.922 Y108.385 E35.60271
G1 X45.647 Y107.836 E35.63399
G1 X45.445 Y107.255 E35.66531
G1 X45.321 Y106.654 E35.69657
G1 X45.275 Y105.998 E35.73006
G1 X45.275 Y99.311 E36.07063
G1 X31.725 Y99.311 E36.76072
G1 X31.725 Y105.998 E37.10129
G1 X31.685 Y106.611 E37.13257
G1 X31.566 Y107.214 E37.16388
G1 X31.369 Y107.796 E37.19517
G1 X31.099 Y108.348 E37.22647
G1 X30.759 Y108.86 E37.25777
G1 X30.356 Y109.324 E37.28907
G1 X29.896 Y109.731 E37.32035
G1 X29.387 Y110.076 E37.35167
G1 X28.838 Y110.351 E37.38294
G1 X28.257 Y110.553 E37.41426
G1 X27.656 Y110.677 E37.44552
G1 X26.993 Y110.723 E37.47937
G1 X11.702 Y110.701 E38.25813
G1 X11.089 Y110.66 E38.28942
G1 X10.486 Y110.54 E38.32073
G1 X10.174 Y110.445 E38.33734
G1 X9.621 Y110.255 E38.36712
G1 X9.054 Y110.018 E38.39842
G1 X8.397 Y109.622 E38.43749
G1 X8.023 Y109.353 E38.46095
G1 X7.549 Y108.962 E38.49225
G1 X7.147 Y108.536 E38.52208
G1 X6.853 Y108.182 E38.54551
G1 X6.492 Y107.685 E38.5768
G1 X6.164 Y107.069 E38.61234
G1 X5.952 Y106.588 E38.63911
G1 X5.742 Y106.01 E38.67043
G1 X5.608 Y105.415 E38.70149
G1 X5.543 Y105.001 E38.72284
G1 X5.486 Y104.267 E38.76033
G1 X5.508 Y16.432 E43.23373
G1 X5.548 Y15.819 E43.26502
G1 X5.667 Y15.216 E43.29632
G1 X5.769 Y14.885 E43.31396
G1 X5.976 Y14.288 E43.34614
G1 X6.214 Y13.722 E43.37741
G1 X6.524 Y13.191 E43.40873
G1 X6.972 Y12.627 E43.44541
G1 X7.54 Y12.013 E43.48801
G1 X7.985 Y11.59 E43.51928
G1 X8.062 Y11.534 E43.52413
G0 F1620 X8.482 Y11.229
G0 F4320 X8.707 Y11.501
G1 F2400 E43.55061
G1 F1800 X9.001 Y11.335 E43.56781
G1 X9.367 Y11.146 E43.58879
G1 X9.909 Y10.911 E43.61887
G1 X10.351 Y10.779 E43.64237
G1 X10.771 Y10.678 E43.66437
G1 X11.354 Y10.579 E43.69448
G1 X11.794 Y10.557 E43.71692
G1 X108.128 Y10.549 E48.62317
G1 X108.718 Y10.589 E48.65329
G1 X109.166 Y10.674 E48.67651
G1 X109.727 Y10.811 E48.70592
G1 X110.291 Y10.99 E48.73606
G1 X110.829 Y11.245 E48.76638
G1 X111.191 Y11.448 E48.78752
G1 X111.686 Y11.771 E48.81762
G1 X112.133 Y12.159 E48.84777
G1 X112.381 Y12.426 E48.86633
G1 X112.929 Y13.069 E48.90935
G1 X113.281 Y13.544 E48.93946
G1 X113.566 Y14.062 E48.96957
G1 X113.76 Y14.555 E48.99656
G1 X113.928 Y15.072 E49.02424
G1 X114.072 Y15.645 E49.05433
G1 X114.142 Y16.423 E49.09412
G1 X114.165 Y104.266 E53.56792
G1 X114.107 Y104.977 E53.60425
G1 X114.036 Y105.409 E53.62655
G1 X113.901 Y105.984 E53.65663
G1 X113.757 Y106.382 E53.67819
G1 X113.594 Y106.773 E53.69976
G1 X113.33 Y107.303 E53.72992
G1 X112.935 Y107.868 E53.76503
G1 X112.542 Y108.346 E53.79654
G1 X112.137 Y108.777 E53.82667
G1 X111.677 Y109.148 E53.85676
G1 X111.171 Y109.455 E53.88691
G1 X110.443 Y109.831 E53.92864
G1 X109.9 Y110.066 E53.95877
G1 X109.331 Y110.226 E53.98887
G1 X109.005 Y110.282 E54.00572
G1 X108.594 Y110.336 E54.02683
G1 X108.024 Y110.373 E54.05592
G1 X50 Y110.373 E57.01106
G1 X49.41 Y110.333 E57.04118
G1 X48.831 Y110.214 E57.07128
G1 X48.273 Y110.018 E57.1014
G1 X47.747 Y109.748 E57.13151
G1 X47.262 Y109.41 E57.16162
G1 X46.827 Y109.01 E57.19172
G1 X46.45 Y108.554 E57.22185
G1 X46.137 Y108.052 E57.25198
G1 X45.896 Y107.513 E57.28205
G1 X45.729 Y106.945 E57.3122
G1 X45.64 Y106.361 E57.34229
G1 X45.625 Y105.998 E57.36079
G1 X45.625 Y98.961 E57.71918
G1 X31.375 Y98.961 E58.44493
G1 X31.375 Y105.998 E58.80332
G1 X31.335 Y106.588 E58.83344
G1 X31.216 Y107.167 E58.86354
G1 X31.02 Y107.725 E58.89367
G1 X30.75 Y108.251 E58.92378
G1 X30.412 Y108.736 E58.95389
G1 X30.012 Y109.171 E58.98398
G1 X29.556 Y109.548 E59.01412
G1 X29.054 Y109.861 E59.04424
G1 X28.515 Y110.102 E59.07431
G1 X27.947 Y110.269 E59.10447
G1 X27.363 Y110.358 E59.13455
G1 X26.994 Y110.373 E59.15336
G1 X11.703 Y110.351 E59.93213
G1 X11.113 Y110.31 E59.96225
G1 X10.287 Y110.114 E60.00548
G1 X9.734 Y109.924 E60.03526
G1 X9.189 Y109.694 E60.06539
G1 X8.601 Y109.338 E60.1004
G1 X8.227 Y109.069 E60.12386
G1 X7.772 Y108.692 E60.15396
G1 X7.416 Y108.312 E60.18047
G1 X7.122 Y107.958 E60.20391
G1 X6.776 Y107.479 E60.234
G1 X6.485 Y106.927 E60.26579
G1 X6.273 Y106.446 E60.29256
G1 X6.071 Y105.891 E60.32264
G1 X5.954 Y105.361 E60.35028
G1 X5.889 Y104.947 E60.37162
G1 X5.836 Y104.267 E60.40636
G1 X5.858 Y16.432 E64.87976
G1 X5.898 Y15.842 E64.90988
G1 X6.099 Y15 E64.95396
G1 X6.306 Y14.403 E64.98614
G1 X6.537 Y13.858 E65.01629
G1 X6.84 Y13.35 E65.04642
G1 X7.228 Y12.865 E65.07805
G1 X7.796 Y12.251 E65.12065
G1 X8.226 Y11.845 E65.15077
G1 X8.284 Y11.803 E65.15441
G0 F1620 X8.707 Y11.501
G0 F4320 X9.161 Y11.646
G1 F2400 E65.1809
G1 F1800 X9.527 Y11.457 E65.20188
G1 X10.048 Y11.233 E65.23076
G1 X10.433 Y11.12 E65.25119
G1 X10.853 Y11.019 E65.27319
G1 X11.412 Y10.925 E65.30206
G1 X11.794 Y10.907 E65.32154
G1 X108.128 Y10.899 E70.22779
G1 X108.693 Y10.939 E70.25664
G1 X109.083 Y11.014 E70.27686
G1 X109.644 Y11.151 E70.30628
G1 X110.184 Y11.324 E70.33515
G1 X110.658 Y11.55 E70.3619
G1 X111.02 Y11.753 E70.38304
G1 X111.494 Y12.065 E70.41194
G1 X111.919 Y12.44 E70.4408
G1 X112.114 Y12.653 E70.45551
G1 X112.662 Y13.296 E70.49854
G1 X112.999 Y13.753 E70.52746
G1 X113.268 Y14.252 E70.55633
G1 X113.427 Y14.663 E70.57877
G1 X113.595 Y15.18 E70.60646
G1 X113.732 Y15.73 E70.63533
G1 X113.792 Y16.423 E70.67075
G1 X113.815 Y104.266 E75.14456
G1 X113.762 Y104.92 E75.17798
G1 X113.691 Y105.352 E75.20027
G1 X113.56 Y105.903 E75.22912
G1 X113.434 Y106.248 E75.24782
G1 X113.271 Y106.639 E75.2694
G1 X113.017 Y107.146 E75.29828
G1 X112.665 Y107.646 E75.32942
G1 X112.272 Y108.124 E75.36094
G1 X111.882 Y108.536 E75.38983
G1 X111.438 Y108.888 E75.41869
G1 X111.01 Y109.144 E75.44409
G1 X110.282 Y109.52 E75.48582
G1 X109.761 Y109.744 E75.5147
G1 X108.959 Y109.935 E75.55669
G1 X108.548 Y109.989 E75.5778
G1 X108.024 Y110.023 E75.60454
G1 X50 Y110.023 E78.55968
G1 X49.434 Y109.983 E78.58858
G1 X48.88 Y109.864 E78.61744
G1 X48.348 Y109.668 E78.64631
G1 X47.848 Y109.4 E78.6752
G1 X47.392 Y109.063 E78.70408
G1 X46.987 Y108.666 E78.73296
G1 X46.641 Y108.216 E78.76187
G1 X46.363 Y107.722 E78.79074
G1 X46.157 Y107.194 E78.81961
G1 X46.027 Y106.642 E78.84849
G1 X45.975 Y105.998 E78.8814
G1 X45.975 Y98.611 E79.25761
G1 X31.025 Y98.611 E80.01901
G1 X31.025 Y105.998 E80.39523
G1 X30.985 Y106.564 E80.42413
G1 X30.866 Y107.118 E80.45298
G1 X30.67 Y107.65 E80.48186
G1 X30.402 Y108.15 E80.51075
G1 X30.065 Y108.606 E80.53963
G1 X29.668 Y109.011 E80.56851
G1 X29.218 Y109.357 E80.59742
G1 X28.724 Y109.635 E80.62629
G1 X28.196 Y109.841 E80.65516
G1 X27.644 Y109.971 E80.68404
G1 X26.994 Y110.023 E80.71725
G1 X11.703 Y110.001 E81.49601
G1 X11.138 Y109.96 E81.52486
G1 X10.401 Y109.783 E81.56347
G1 X9.848 Y109.593 E81.59325
G1 X9.326 Y109.371 E81.62214
G1 X8.806 Y109.054 E81.65315
G1 X8.432 Y108.785 E81.67662
G1 X7.996 Y108.422 E81.70551
G1 X7.686 Y108.089 E81.72868
G1 X7.392 Y107.735 E81.75212
G1 X7.061 Y107.274 E81.78102
G1 X6.805 Y106.786 E81.80909
G1 X6.593 Y106.305 E81.83586
G1 X6.401 Y105.772 E81.86471
G1 X6.3 Y105.306 E81.88899
G1 X6.235 Y104.892 E81.91034
G1 X6.186 Y104.267 E81.94227
G1 X6.208 Y16.432 E86.41567
G1 X6.248 Y15.866 E86.44456
G1 X6.43 Y15.114 E86.48397
G1 X6.637 Y14.517 E86.51615
G1 X6.86 Y13.996 E86.54501
G1 X7.154 Y13.511 E86.5739
G1 X7.485 Y13.103 E86.60066
G1 X8.053 Y12.489 E86.64325
G1 X8.467 Y12.101 E86.67215
G1 X8.726 Y11.931 E86.68793
G0 F1620 X9.161 Y11.646
G0 F4320 X9.322 Y11.957
G1 F2400 E86.71441
G1 F1800 X9.688 Y11.768 E86.73539
G1 X10.186 Y11.555 E86.76298
G1 X10.515 Y11.46 E86.78042
G1 X10.935 Y11.359 E86.80242
G1 X11.469 Y11.271 E86.82998
G1 X11.794 Y11.257 E86.84655
G1 X108.128 Y11.249 E91.7528
G1 X108.668 Y11.289 E91.78038
G1 X109 Y11.354 E91.79761
G1 X109.561 Y11.491 E91.82702
G1 X110.076 Y11.658 E91.85459
G1 X110.487 Y11.856 E91.87783
G1 X110.849 Y12.059 E91.89896
G1 X111.3 Y12.358 E91.92652
G1 X111.848 Y12.88 E91.96507
G1 X112.396 Y13.523 E92.00809
G1 X112.716 Y13.96 E92.03568
G1 X112.968 Y14.44 E92.06329
G1 X113.094 Y14.771 E92.08133
G1 X113.262 Y15.288 E92.10901
G1 X113.391 Y15.815 E92.13665
G1 X113.442 Y16.423 E92.16772
G1 X113.465 Y104.266 E96.64153
G1 X113.416 Y104.863 E96.67203
G1 X113.345 Y105.295 E96.69433
G1 X113.218 Y105.822 E96.72194
G1 X113.111 Y106.113 E96.73773
G1 X112.948 Y106.504 E96.7593
G1 X112.703 Y106.987 E96.78689
G1 X112.395 Y107.424 E96.81412
G1 X112.002 Y107.902 E96.84563
G1 X111.628 Y108.294 E96.87322
G1 X111.2 Y108.627 E96.90084
G1 X110.849 Y108.833 E96.92157
G1 X110.121 Y109.209 E96.9633
G1 X109.623 Y109.422 E96.99089
G1 X108.914 Y109.588 E97.02797
G1 X108.503 Y109.642 E97.04908
G1 X108.024 Y109.673 E97.07353
G1 X50 Y109.673 E100.02867
G1 X49.46 Y109.633 E100.05625
G1 X48.931 Y109.514 E100.08386
G1 X48.426 Y109.319 E100.11143
G1 X47.954 Y109.051 E100.13907
G1 X47.528 Y108.717 E100.16664
G1 X47.155 Y108.324 E100.19424
G1 X46.844 Y107.88 E100.22185
G1 X46.601 Y107.396 E100.24943
G1 X46.433 Y106.881 E100.27702
G1 X46.342 Y106.347 E100.30461
G1 X46.325 Y105.998 E100.3224
G1 X46.325 Y98.261 E100.71644
G1 X30.675 Y98.261 E101.51349
G1 X30.675 Y105.998 E101.90753
G1 X30.635 Y106.538 E101.93511
G1 X30.516 Y107.067 E101.96273
G1 X30.321 Y107.572 E101.9903
G1 X30.053 Y108.044 E102.01794
G1 X29.719 Y108.47 E102.04551
G1 X29.326 Y108.843 E102.0731
G1 X28.882 Y109.154 E102.10071
G1 X28.398 Y109.397 E102.1283
G1 X27.883 Y109.565 E102.15588
G1 X27.349 Y109.656 E102.18347
G1 X26.995 Y109.673 E102.20152
G1 X11.704 Y109.651 E102.98029
G1 X11.163 Y109.61 E103.00792
G1 X10.515 Y109.452 E103.04189
G1 X9.962 Y109.262 E103.07167
G1 X9.464 Y109.048 E103.09927
G1 X9.01 Y108.769 E103.12641
G1 X8.636 Y108.5 E103.14988
G1 X8.221 Y108.152 E103.17746
G1 X7.955 Y107.865 E103.19739
G1 X7.661 Y107.511 E103.22083
G1 X7.346 Y107.07 E103.24843
G1 X7.125 Y106.645 E103.27282
G1 X6.913 Y106.164 E103.29959
G1 X6.732 Y105.654 E103.32716
G1 X6.645 Y105.252 E103.3481
G1 X6.58 Y104.838 E103.36945
G1 X6.536 Y104.267 E103.39861
G1 X6.558 Y16.432 E107.87201
G1 X6.598 Y15.892 E107.89959
G1 X6.761 Y15.229 E107.93436
G1 X6.968 Y14.632 E107.96654
G1 X7.183 Y14.135 E107.99412
G1 X7.468 Y13.674 E108.02172
G1 X7.742 Y13.34 E108.04373
G1 X8.31 Y12.726 E108.08633
G1 X8.707 Y12.357 E108.11393
G1 X8.886 Y12.24 E108.12482
G0 F1620 X9.322 Y11.957
G0 F4320 X8.945 Y12.614
G1 F2400 E108.1513
G1 F1800 X9.482 Y12.268 E108.18384
G1 X9.848 Y12.079 E108.20482
G1 X10.323 Y11.878 E108.23109
G1 X10.597 Y11.8 E108.2456
G1 X11.017 Y11.699 E108.2676
G1 X11.525 Y11.618 E108.29379
G1 X11.794 Y11.607 E108.30751
G1 X108.128 Y11.599 E113.21376
G1 X108.642 Y11.639 E113.24001
G1 X108.917 Y11.694 E113.2543
G1 X109.478 Y11.831 E113.28371
G1 X109.967 Y11.992 E113.30993
G1 X110.315 Y12.161 E113.32963
G1 X110.677 Y12.364 E113.35077
G1 X111.106 Y12.65 E113.37703
G1 X111.582 Y13.107 E113.41063
G1 X112.13 Y13.75 E113.45366
G1 X112.433 Y14.167 E113.47991
G1 X112.667 Y14.626 E113.50615
G1 X112.761 Y14.879 E113.5199
G1 X112.929 Y15.396 E113.54758
G1 X113.05 Y15.897 E113.57383
