;FLAVOR:Marlin
;TIME:579
;Filament used: 0.364061m
;Layer height: 0.175
;Generated with Cura_SteamEngine 3.6.0
M140 S65
M105
M190 S65
M104 S205
M105
M109 S205
M82 ;absolute extrusion mode
G21;(metric values)
G90;(absolute positioning)
M82;(set extruder to absolute mode)
M107;(start with the fan off)
G28;(Home the printer)
G92 E0;(Reset the extruder to 0)
G0 Z5 E5 F500;(Move up and prime the nozzle)
G0 X-1 Z0;(Move outside the printable area)
G1 Y60 E8 F500;(Draw a priming/wiping line to the rear)
G1 X-1;(Move a little closer to the print area)
G1 Y10 E16 F500;(draw more priming/wiping)
G1 E15 F250;(Small retract)
G92 E0;(Zero the extruder)
G92 E0
G1 F2400 E-2.5
;LAYER_COUNT:42
;LAYER:0
M107
G0 F4320 X46.42 Y49.52 Z0.263
;TYPE:SKIRT
G1 F2400 E0
G1 F1800 X47.089 Y48.892 E0.03512
G1 X52.948 Y44.311 E0.31974
G1 X53.473 Y43.951 E0.3441
G1 X54.04 Y43.66 E0.36849
G1 X54.638 Y43.441 E0.39286
G1 X55.455 Y43.272 E0.42479
G1 X55.919 Y43.215 E0.44268
G1 X56.711 Y43.18 E0.47302
G1 X63.911 Y43.425 E0.74873
G1 X64.544 Y43.486 E0.77306
G1 X65.166 Y43.627 E0.79747
G1 X65.764 Y43.844 E0.82182
G1 X66.574 Y44.289 E0.85718
G1 X72.742 Y48.446 E1.14184
G1 X73.247 Y48.834 E1.16621
G1 X73.699 Y49.282 E1.19057
G1 X74.016 Y49.677 E1.20995
G1 X74.158 Y49.873 E1.21921
G1 X74.498 Y50.411 E1.24357
G1 X74.769 Y50.987 E1.26793
G1 X74.927 Y51.453 E1.28676
G1 X76.974 Y58.603 E1.57138
G1 X77.111 Y59.225 E1.59576
G1 X77.168 Y59.86 E1.62016
G1 X77.146 Y60.496 E1.64451
G1 X76.974 Y61.397 E1.67962
G1 X74.927 Y68.547 E1.96424
G1 X74.714 Y69.147 E1.9886
G1 X74.427 Y69.716 E2.01299
G1 X74.158 Y70.127 E2.03179
G1 X74.016 Y70.323 E2.04105
G1 X73.61 Y70.815 E2.06547
G1 X73.147 Y71.251 E2.0898
G1 X72.742 Y71.555 E2.10918
G1 X66.573 Y75.712 E2.39387
G1 X66.024 Y76.034 E2.41823
G1 X65.438 Y76.284 E2.44261
G1 X64.826 Y76.46 E2.46698
G1 X63.916 Y76.575 E2.50208
G1 X56.483 Y76.838 E2.78672
G1 X55.847 Y76.82 E2.81107
G1 X55.217 Y76.723 E2.83547
G1 X54.731 Y76.591 E2.85474
G1 X54.501 Y76.516 E2.864
G1 X53.909 Y76.281 E2.88837
G1 X53.351 Y75.974 E2.91275
G1 X52.948 Y75.689 E2.93163
G1 X47.089 Y71.108 E3.21626
G1 X46.613 Y70.685 E3.24063
G1 X46.194 Y70.206 E3.26498
G1 X45.837 Y69.678 E3.28938
G1 X45.447 Y68.848 E3.32447
G1 X42.9 Y61.859 E3.60915
G1 X42.72 Y61.248 E3.63353
G1 X42.618 Y60.619 E3.65791
G1 X42.593 Y60.121 E3.67699
G1 X42.593 Y59.879 E3.68626
G1 X42.633 Y59.243 E3.71064
G1 X42.752 Y58.618 E3.73499
G1 X42.9 Y58.141 E3.7541
G1 X45.447 Y51.152 E4.03878
G1 X45.702 Y50.569 E4.06313
G1 X45.999 Y50.071 E4.08532
G0 F1620 X46.028 Y50.022
G0 X46.42 Y49.52
G0 F4320 X46.725 Y49.704
G1 F2400 E4.11188
G1 F1800 X47.305 Y49.168 E4.14211
G1 X53.164 Y44.587 E4.42673
G1 X53.671 Y44.24 E4.45024
G1 X54.22 Y43.963 E4.47378
G1 X54.799 Y43.759 E4.49727
G1 X55.498 Y43.619 E4.52455
G1 X55.962 Y43.562 E4.54244
G1 X56.699 Y43.53 E4.57067
G1 X63.899 Y43.775 E4.84638
G1 X64.51 Y43.836 E4.86988
G1 X65.109 Y43.975 E4.89341
G1 X65.684 Y44.191 E4.91692
G1 X66.379 Y44.579 E4.94738
G1 X72.547 Y48.736 E5.23203
G1 X73.033 Y49.112 E5.25555
G1 X73.466 Y49.547 E5.27904
G1 X73.732 Y49.882 E5.29541
G1 X73.874 Y50.078 E5.30467
G1 X74.202 Y50.598 E5.3282
G1 X74.459 Y51.156 E5.35171
G1 X74.591 Y51.55 E5.36761
G1 X76.638 Y58.7 E5.65223
G1 X76.768 Y59.3 E5.67573
G1 X76.819 Y59.912 E5.69923
G1 X76.791 Y60.526 E5.72275
G1 X76.638 Y61.3 E5.75295
G1 X74.591 Y68.45 E6.03757
G1 X74.383 Y69.029 E6.06112
G1 X74.103 Y69.576 E6.08463
G1 X73.874 Y69.922 E6.10051
G1 X73.732 Y70.118 E6.10977
G1 X73.34 Y70.591 E6.13328
G1 X72.89 Y71.01 E6.15682
G1 X72.546 Y71.264 E6.17318
G1 X66.377 Y75.421 E6.45787
G1 X65.847 Y75.731 E6.48136
G1 X65.28 Y75.969 E6.5049
G1 X64.687 Y76.131 E6.52842
G1 X63.904 Y76.225 E6.5586
G1 X56.471 Y76.488 E6.84324
G1 X55.857 Y76.47 E6.86675
G1 X55.25 Y76.372 E6.89028
G1 X54.839 Y76.258 E6.9066
G1 X54.609 Y76.183 E6.91586
G1 X54.039 Y75.955 E6.93936
G1 X53.502 Y75.655 E6.9629
G1 X53.164 Y75.413 E6.97881
G1 X47.305 Y70.832 E7.26343
G1 X46.846 Y70.423 E7.28696
G1 X46.445 Y69.958 E7.31046
G1 X46.107 Y69.445 E7.33397
G1 X45.776 Y68.728 E7.36419
G1 X43.229 Y61.739 E7.64887
G1 X43.056 Y61.149 E7.6724
G1 X42.962 Y60.542 E7.6959
G1 X42.943 Y60.121 E7.71203
G1 X42.943 Y59.879 E7.72129
G1 X42.983 Y59.266 E7.7448
G1 X43.102 Y58.663 E7.76832
G1 X43.229 Y58.261 E7.78446
G1 X45.776 Y51.272 E8.06913
G1 X46.023 Y50.71 E8.09263
G1 X46.301 Y50.252 E8.11313
G0 F1620 X46.342 Y50.184
G0 X46.725 Y49.704
G0 F4320 X47.029 Y49.891
G1 F2400 E8.13969
G1 F1800 X47.52 Y49.443 E8.16513
G1 X53.379 Y44.862 E8.44975
G1 X53.869 Y44.531 E8.47238
G1 X54.398 Y44.268 E8.49499
G1 X54.958 Y44.079 E8.51761
G1 X55.541 Y43.967 E8.54033
G1 X56.005 Y43.91 E8.55822
G1 X56.687 Y43.88 E8.58434
G1 X63.887 Y44.125 E8.86005
G1 X64.475 Y44.185 E8.88267
G1 X65.05 Y44.323 E8.9053
G1 X65.601 Y44.538 E8.92793
G1 X66.183 Y44.869 E8.95356
G1 X72.351 Y49.026 E9.23821
G1 X72.818 Y49.389 E9.26085
G1 X73.232 Y49.811 E9.28347
G1 X73.449 Y50.087 E9.29691
G1 X73.591 Y50.283 E9.30617
G1 X73.905 Y50.784 E9.3288
G1 X74.148 Y51.323 E9.35142
G1 X74.254 Y51.646 E9.36443
G1 X76.301 Y58.796 E9.64906
G1 X76.425 Y59.374 E9.67168
G1 X76.47 Y59.964 E9.69433
G1 X76.435 Y60.554 E9.71694
G1 X76.301 Y61.204 E9.74234
G1 X74.254 Y68.354 E10.02697
G1 X74.053 Y68.91 E10.04959
G1 X73.779 Y69.434 E10.07222
G1 X73.591 Y69.717 E10.08522
G1 X73.449 Y69.913 E10.09449
G1 X73.07 Y70.367 E10.11712
G1 X72.634 Y70.766 E10.13974
G1 X72.351 Y70.974 E10.15318
G1 X66.182 Y75.131 E10.43786
G1 X65.67 Y75.428 E10.46052
G1 X65.123 Y75.653 E10.48315
G1 X64.551 Y75.802 E10.50577
G1 X63.892 Y75.875 E10.53115
G1 X56.459 Y76.138 E10.81579
G1 X55.868 Y76.119 E10.83842
G1 X55.285 Y76.021 E10.86104
G1 X54.948 Y75.925 E10.87445
G1 X54.718 Y75.85 E10.88371
G1 X54.169 Y75.63 E10.90634
G1 X53.656 Y75.337 E10.92895
G1 X53.379 Y75.138 E10.942
G1 X47.52 Y70.557 E11.22663
G1 X47.08 Y70.162 E11.24926
G1 X46.697 Y69.711 E11.2719
G1 X46.379 Y69.213 E11.29451
G1 X46.104 Y68.608 E11.31995
G1 X43.557 Y61.619 E11.60462
G1 X43.393 Y61.051 E11.62725
G1 X43.307 Y60.466 E11.64988
G1 X43.293 Y60.121 E11.66309
G1 X43.293 Y59.879 E11.67235
G1 X43.333 Y59.289 E11.69498
G1 X43.452 Y58.71 E11.7176
G1 X43.557 Y58.381 E11.73082
G1 X46.104 Y51.392 E12.0155
G1 X46.344 Y50.851 E12.03815
G1 X46.6 Y50.435 E12.05684
G0 F1620 X46.654 Y50.348
G0 X47.029 Y49.891
G0 F4320 X47.332 Y50.081
G1 F2400 E12.0834
G1 F1800 X47.736 Y49.719 E12.10416
G1 X53.595 Y45.138 E12.38878
G1 X54.065 Y44.821 E12.41048
G1 X54.575 Y44.573 E12.43218
G1 X55.115 Y44.4 E12.45388
G1 X55.583 Y44.314 E12.47209
G1 X56.047 Y44.257 E12.48998
G1 X56.675 Y44.229 E12.51404
G1 X63.875 Y44.474 E12.78975
G1 X64.439 Y44.533 E12.81145
G1 X64.989 Y44.671 E12.83315
G1 X65.514 Y44.885 E12.85485
G1 X65.987 Y45.159 E12.87576
G1 X72.155 Y49.316 E13.16042
G1 X72.602 Y49.666 E13.18215
G1 X73.165 Y50.293 E13.21439
G1 X73.307 Y50.489 E13.22366
G1 X73.607 Y50.97 E13.24535
G1 X73.918 Y51.742 E13.2772
G1 X75.965 Y58.892 E13.56183
G1 X76.082 Y59.447 E13.58353
G1 X76.12 Y60.013 E13.60524
G1 X76.078 Y60.578 E13.62693
G1 X75.965 Y61.108 E13.64766
G1 X73.918 Y68.258 E13.93229
G1 X73.723 Y68.791 E13.95401
G1 X73.307 Y69.511 E13.98583
G1 X73.165 Y69.707 E13.99509
G1 X72.801 Y70.142 E14.0168
G1 X72.155 Y70.684 E14.04907
G1 X65.986 Y74.841 E14.33376
G1 X65.495 Y75.124 E14.35545
G1 X64.968 Y75.335 E14.37717
G1 X64.418 Y75.47 E14.39884
G1 X63.879 Y75.525 E14.41958
G1 X56.446 Y75.788 E14.70422
G1 X55.88 Y75.769 E14.72589
G1 X55.056 Y75.593 E14.75814
G1 X54.826 Y75.518 E14.76739
G1 X54.301 Y75.304 E14.78909
G1 X53.595 Y74.862 E14.82097
G1 X47.736 Y70.281 E15.10559
G1 X47.315 Y69.901 E15.1273
G1 X46.951 Y69.466 E15.149
G1 X46.653 Y68.984 E15.17069
G1 X46.433 Y68.488 E15.19146
G1 X43.886 Y61.499 E15.47613
G1 X43.73 Y60.954 E15.49783
G1 X43.643 Y60.121 E15.52988
G1 X43.643 Y59.879 E15.53914
G1 X43.683 Y59.313 E15.56086
G1 X43.886 Y58.501 E15.59289
G1 X46.433 Y51.512 E15.87756
G1 X46.665 Y50.994 E15.89928
G1 X46.898 Y50.622 E15.91608
G0 F1620 X46.966 Y50.514
G0 X47.332 Y50.081
G0 F4320 X47.634 Y50.274
G1 F2400 E15.94264
G1 F1800 X47.951 Y49.995 E15.9588
G1 X53.81 Y45.414 E16.24343
G1 X54.261 Y45.113 E16.26418
G1 X54.75 Y44.881 E16.28489
G1 X55.269 Y44.723 E16.30565
G1 X55.626 Y44.661 E16.31952
G1 X56.09 Y44.604 E16.33741
G1 X56.663 Y44.579 E16.35936
G1 X63.863 Y44.824 E16.63506
G1 X64.402 Y44.882 E16.65581
G1 X64.926 Y45.019 E16.67654
G1 X65.424 Y45.232 E16.69727
G1 X65.792 Y45.45 E16.71364
G1 X71.96 Y49.607 E16.99829
G1 X72.386 Y49.942 E17.01903
G1 X72.882 Y50.498 E17.04755
G1 X73.024 Y50.694 E17.05681
G1 X73.309 Y51.155 E17.07755
G1 X73.581 Y51.839 E17.10572
G1 X75.628 Y58.989 E17.39034
G1 X75.738 Y59.519 E17.41106
G1 X75.77 Y60.06 E17.4318
G1 X75.721 Y60.6 E17.45255
G1 X75.628 Y61.011 E17.46868
G1 X73.581 Y68.161 E17.7533
G1 X73.394 Y68.67 E17.77405
G1 X73.024 Y69.306 E17.80221
G1 X72.882 Y69.502 E17.81147
G1 X72.533 Y69.916 E17.8322
G1 X71.96 Y70.394 E17.86075
G1 X65.791 Y74.551 E18.14544
G1 X65.32 Y74.819 E18.16618
G1 X64.815 Y75.016 E18.18692
G1 X64.287 Y75.137 E18.20765
G1 X63.867 Y75.176 E18.22379
G1 X56.434 Y75.439 E18.50843
G1 X55.893 Y75.418 E18.52915
G1 X55.165 Y75.26 E18.55766
G1 X54.935 Y75.185 E18.56692
G1 X54.433 Y74.979 E18.58769
G1 X53.81 Y74.586 E18.61588
G1 X47.951 Y70.005 E18.9005
G1 X47.55 Y69.641 E18.92123
G1 X47.207 Y69.221 E18.94198
G1 X46.929 Y68.756 E18.96271
G1 X46.762 Y68.368 E18.97888
G1 X44.215 Y61.379 E19.26355
G1 X44.068 Y60.858 E19.28427
G1 X43.993 Y60.121 E19.31262
G1 X43.993 Y59.879 E19.32188
G1 X44.033 Y59.339 E19.34261
G1 X44.215 Y58.621 E19.37095
G1 X46.762 Y51.632 E19.65563
G1 X46.985 Y51.138 E19.67637
G1 X47.195 Y50.81 E19.69128
G0 F1620 X47.277 Y50.682
G0 X47.634 Y50.274
G0 F4320 X47.588 Y50.852
G1 F2400 E19.71784
G1 F1800 X47.934 Y50.47 E19.73756
G1 X48.167 Y50.271 E19.74929
G1 X54.026 Y45.69 E20.03391
G1 X54.455 Y45.405 E20.05362
G1 X54.924 Y45.189 E20.07338
G1 X55.669 Y45.009 E20.10271
G1 X56.133 Y44.952 E20.12061
G1 X56.651 Y44.929 E20.14045
G1 X63.851 Y45.174 E20.41615
G1 X64.363 Y45.231 E20.43587
G1 X64.86 Y45.367 E20.45559
G1 X65.331 Y45.578 E20.47534
G1 X65.596 Y45.74 E20.48722
G1 X71.764 Y49.897 E20.77188
G1 X72.168 Y50.217 E20.7916
G1 X72.599 Y50.703 E20.81646
G1 X72.741 Y50.899 E20.82572
G1 X73.01 Y51.339 E20.84546
G1 X73.245 Y51.935 E20.86998
G1 X75.292 Y59.085 E21.1546
G1 X75.395 Y59.59 E21.17433
G1 X75.418 Y60.105 E21.19405
G1 X75.362 Y60.617 E21.21377
G1 X75.292 Y60.915 E21.22548
G1 X73.245 Y68.065 E21.5101
G1 X73.065 Y68.548 E21.52983
G1 X72.741 Y69.101 E21.55436
G1 X72.599 Y69.297 E21.56362
G1 X72.265 Y69.689 E21.58333
G1 X71.764 Y70.103 E21.6082
G1 X65.595 Y74.26 E21.89289
G1 X65.147 Y74.514 E21.9126
G1 X64.664 Y74.696 E21.93235
G1 X64.16 Y74.801 E21.95205
G1 X63.855 Y74.826 E21.96376
G1 X56.422 Y75.089 E22.2484
G1 X55.907 Y75.067 E22.26813
G1 X55.273 Y74.927 E22.29298
G1 X55.043 Y74.852 E22.30223
G1 X54.567 Y74.655 E22.32195
G1 X54.026 Y74.31 E22.34651
G1 X48.167 Y69.729 E22.63113
G1 X47.787 Y69.381 E22.65085
G1 X47.465 Y68.979 E22.67056
G1 X47.209 Y68.532 E22.69027
G1 X47.091 Y68.248 E22.70204
G1 X44.544 Y61.259 E22.98672
G1 X44.406 Y60.763 E23.00642
G1 X44.343 Y60.121 E23.03111
G1 X44.343 Y59.879 E23.04037
G1 X44.383 Y59.365 E23.0601
G1 X44.544 Y58.741 E23.08476
G1 X47.091 Y51.752 E23.36944
G1 X47.231 Y51.445 E23.38235
G0 F1620 X47.304 Y51.282
G0 X47.588 Y50.852
G0 F4320 X47.897 Y51.025
G1 F2400 E23.40891
G1 F1800 X48.383 Y50.546 E23.43503
G1 X54.242 Y45.965 E23.71965
G1 X54.649 Y45.698 E23.73828
G1 X55.094 Y45.5 E23.75692
G1 X55.711 Y45.356 E23.78117
G1 X56.175 Y45.299 E23.79906
G1 X56.639 Y45.279 E23.81683
G1 X63.839 Y45.524 E24.09254
G1 X64.323 Y45.58 E24.11118
G1 X64.792 Y45.715 E24.12986
G1 X65.401 Y46.03 E24.1561
G1 X71.569 Y50.187 E24.44075
G1 X71.949 Y50.492 E24.4594
G1 X72.315 Y50.909 E24.48063
G1 X72.457 Y51.105 E24.4899
G1 X72.71 Y51.521 E24.50853
G1 X72.908 Y52.031 E24.52947
G1 X74.955 Y59.181 E24.81409
G1 X75.05 Y59.659 E24.83274
G1 X75.066 Y60.146 E24.85139
G1 X74.955 Y60.819 E24.87749
G1 X72.908 Y67.969 E25.16212
G1 X72.736 Y68.425 E25.18077
G1 X72.457 Y68.895 E25.20168
G1 X72.315 Y69.091 E25.21095
G1 X71.998 Y69.461 E25.22959
G1 X71.568 Y69.813 E25.25086
G1 X65.399 Y73.97 E25.53555
G1 X64.974 Y74.208 E25.55419
G1 X64.516 Y74.374 E25.57283
G1 X63.842 Y74.476 E25.59892
G1 X56.409 Y74.739 E25.88356
G1 X55.922 Y74.716 E25.90221
G1 X55.382 Y74.594 E25.9234
G1 X55.152 Y74.519 E25.93266
G1 X54.702 Y74.331 E25.95132
G1 X54.242 Y74.035 E25.97226
G1 X48.383 Y69.454 E26.25688
G1 X48.024 Y69.123 E26.27557
G1 X47.725 Y68.738 E26.29423
G1 X47.42 Y68.129 E26.32029
G1 X44.873 Y61.14 E26.60497
G1 X44.744 Y60.67 E26.62362
G1 X44.693 Y60.121 E26.64472
G1 X44.693 Y59.879 E26.65398
G1 X44.733 Y59.393 E26.67264
G1 X44.873 Y58.86 E26.69373
G1 X47.42 Y51.871 E26.97841
G1 X47.538 Y51.617 E26.98913
G0 F1620 X47.624 Y51.429
G0 X47.897 Y51.025
G0 F4320 X48.205 Y51.201
G1 F2400 E27.01569
G1 F1800 X48.598 Y50.822 E27.03658
G1 X54.457 Y46.241 E27.32121
G1 X54.841 Y45.992 E27.33872
G1 X55.262 Y45.813 E27.35623
G1 X55.754 Y45.704 E27.37551
G1 X56.218 Y45.647 E27.39341
G1 X56.627 Y45.629 E27.40907
G1 X63.827 Y45.874 E27.68478
G1 X64.282 Y45.929 E27.70232
G1 X64.72 Y46.062 E27.71983
G1 X65.205 Y46.32 E27.74086
G1 X71.373 Y50.477 E28.02551
G1 X71.729 Y50.765 E28.04304
G1 X72.032 Y51.114 E28.06072
G1 X72.174 Y51.31 E28.06999
G1 X72.409 Y51.703 E28.08751
G1 X72.572 Y52.128 E28.10493
G1 X74.619 Y59.278 E28.38955
G1 X74.706 Y59.727 E28.40706
G1 X74.713 Y60.185 E28.42459
G1 X74.619 Y60.722 E28.44545
G1 X72.572 Y67.872 E28.73007
G1 X72.408 Y68.3 E28.74761
G1 X72.174 Y68.69 E28.76502
G1 X72.032 Y68.886 E28.77428
G1 X71.732 Y69.232 E28.79181
G1 X71.373 Y69.523 E28.80949
G1 X65.204 Y73.68 E29.09418
G1 X64.803 Y73.902 E29.11172
G1 X64.37 Y74.05 E29.12923
G1 X63.83 Y74.126 E29.1501
G1 X56.397 Y74.389 E29.43474
G1 X55.94 Y74.366 E29.45225
G1 X55.49 Y74.262 E29.46993
G1 X55.26 Y74.187 E29.47919
G1 X54.839 Y74.007 E29.49671
G1 X54.457 Y73.759 E29.51414
G1 X48.598 Y69.178 E29.79876
G1 X48.263 Y68.866 E29.81628
G1 X47.988 Y68.5 E29.8338
G1 X47.749 Y68.009 E29.8547
G1 X45.202 Y61.02 E30.13938
G1 X45.083 Y60.578 E30.15689
G1 X45.043 Y60.121 E30.17445
G1 X45.043 Y59.879 E30.18371
G1 X45.083 Y59.423 E30.20123
G1 X45.202 Y58.98 E30.21878
G1 X47.749 Y51.991 E30.50346
G1 X47.843 Y51.79 E30.51195
G0 F1620 X47.942 Y51.576
G0 X48.205 Y51.201
G0 F4320 X48.512 Y51.382
G1 F2400 E30.53851
G1 F1800 X48.814 Y51.098 E30.55438
G1 X54.673 Y46.517 E30.839
G1 X55.032 Y46.287 E30.85532
G1 X55.427 Y46.128 E30.87161
G1 X55.797 Y46.051 E30.88608
G1 X56.261 Y45.994 E30.90397
G1 X56.615 Y45.978 E30.91753
G1 X63.815 Y46.223 E31.19323
G1 X64.238 Y46.278 E31.20956
G1 X64.643 Y46.41 E31.22586
G1 X65.009 Y46.61 E31.24182
G1 X71.177 Y50.767 E31.52648
G1 X71.507 Y51.038 E31.54282
G1 X71.748 Y51.319 E31.55698
G1 X71.89 Y51.515 E31.56625
G1 X72.107 Y51.882 E31.58256
G1 X72.235 Y52.224 E31.59654
G1 X74.282 Y59.374 E31.88116
G1 X74.361 Y59.793 E31.89748
G1 X74.359 Y60.219 E31.91378
G1 X74.282 Y60.626 E31.92963
G1 X72.235 Y67.776 E32.21426
G1 X72.08 Y68.173 E32.23057
G1 X71.89 Y68.485 E32.24455
G1 X71.748 Y68.681 E32.25381
G1 X71.467 Y69.001 E32.27011
G1 X71.177 Y69.233 E32.28432
G1 X65.008 Y73.39 E32.56901
G1 X64.634 Y73.594 E32.58531
G1 X64.229 Y73.724 E32.60159
G1 X63.817 Y73.777 E32.61749
G1 X56.384 Y74.04 E32.90212
G1 X55.959 Y74.015 E32.91842
G1 X55.599 Y73.929 E32.93258
G1 X55.369 Y73.854 E32.94184
G1 X54.978 Y73.684 E32.95816
G1 X54.673 Y73.483 E32.97214
G1 X48.814 Y68.902 E33.25676
G1 X48.504 Y68.609 E33.27309
G1 X48.254 Y68.264 E33.28939
G1 X48.078 Y67.889 E33.30524
G1 X45.531 Y60.9 E33.58992
G1 X45.423 Y60.488 E33.60622
G1 X45.393 Y60.121 E33.62031
G1 X45.393 Y59.879 E33.62957
G1 X45.433 Y59.455 E33.64587
G1 X45.531 Y59.1 E33.65997
G1 X48.078 Y52.111 E33.94464
G1 X48.146 Y51.968 E33.9507
G0 F1620 X48.26 Y51.726
G0 X48.512 Y51.382
G0 F4320 X48.816 Y51.568
G1 F2400 E33.97726
G1 F1800 X49.029 Y51.374 E33.98829
G1 X54.888 Y46.793 E34.27291
G1 X55.22 Y46.584 E34.28793
G1 X55.587 Y46.447 E34.30292
G1 X55.839 Y46.398 E34.31274
G1 X56.303 Y46.341 E34.33063
G1 X56.603 Y46.328 E34.34212
