;FLAVOR:Marlin
;TIME:11432
;Filament used: 8.62175m
;Layer height: 0.21875
;Generated with Cura_SteamEngine 3.6.0
M140 S65
M105
M190 S65
M104 S205
M105
M109 S205
M82 ;absolute extrusion mode
G21;(metric values)
G90;(absolute positioning)
M82;(set extruder to absolute mode)
M107;(start with the fan off)
G28;(Home the printer)
G92 E0;(Reset the extruder to 0)
G0 Z5 E5 F500;(Move up and prime the nozzle)
G0 X-1 Z0;(Move outside the printable area)
G1 Y60 E8 F500;(Draw a priming/wiping line to the rear)
G1 X-1;(Move a little closer to the print area)
G1 Y10 E16 F500;(draw more priming/wiping)
G1 E15 F250;(Small retract)
G92 E0;(Zero the extruder)
G92 E0
G1 F2400 E-2.5
;LAYER_COUNT:270
;LAYER:0
M107
G0 F4320 X23.799 Y24.028 Z0.263
;TYPE:SKIRT
G1 F2400 E0
G1 F2160 X24.263 Y23.592 E0.02437
G1 X24.778 Y23.217 E0.04875
G1 X25.335 Y22.91 E0.07309
G1 X25.927 Y22.675 E0.09746
G1 X26.544 Y22.516 E0.12185
G1 X27.176 Y22.435 E0.14623
G1 X27.5 Y22.425 E0.15864
G1 X92.5 Y22.425 E2.64618
G1 X93.136 Y22.465 E2.67057
G1 X93.761 Y22.584 E2.69492
G1 X94.367 Y22.781 E2.7193
G1 X94.943 Y23.052 E2.74367
G1 X95.481 Y23.393 E2.76804
G1 X95.972 Y23.799 E2.79243
G1 X96.408 Y24.263 E2.81679
G1 X96.783 Y24.778 E2.84117
G1 X97.09 Y25.335 E2.86551
G1 X97.325 Y25.927 E2.88989
G1 X97.484 Y26.544 E2.91427
G1 X97.565 Y27.176 E2.93866
G1 X97.575 Y27.5 E2.95106
G1 X97.575 Y92.5 E5.43861
G1 X97.535 Y93.136 E5.463
G1 X97.416 Y93.761 E5.48734
G1 X97.219 Y94.367 E5.51173
G1 X96.948 Y94.943 E5.53609
G1 X96.607 Y95.481 E5.56047
G1 X96.201 Y95.972 E5.58485
G1 X95.737 Y96.408 E5.60922
G1 X95.222 Y96.783 E5.6336
G1 X94.665 Y97.09 E5.65794
G1 X94.073 Y97.325 E5.68231
G1 X93.456 Y97.484 E5.7067
G1 X92.824 Y97.565 E5.73108
G1 X92.5 Y97.575 E5.74349
G1 X27.5 Y97.575 E8.23103
G1 X26.864 Y97.535 E8.25542
G1 X26.239 Y97.416 E8.27977
G1 X25.633 Y97.219 E8.30416
G1 X25.057 Y96.948 E8.32852
G1 X24.519 Y96.607 E8.35289
G1 X24.028 Y96.201 E8.37728
G1 X23.592 Y95.737 E8.40164
G1 X23.217 Y95.222 E8.42602
G1 X22.91 Y94.665 E8.45036
G1 X22.675 Y94.073 E8.47474
G1 X22.516 Y93.456 E8.49912
G1 X22.435 Y92.824 E8.52351
G1 X22.425 Y92.5 E8.53591
G1 X22.425 Y27.5 E11.02346
G1 X22.465 Y26.864 E11.04785
G1 X22.584 Y26.239 E11.07219
G1 X22.781 Y25.633 E11.09658
G1 X23.052 Y25.057 E11.12094
G1 X23.363 Y24.567 E11.14315
G0 F1944 X23.393 Y24.519
G0 X23.799 Y24.028
G0 F4320 X24.144 Y24.174
G1 F2400 E11.16971
G1 F2160 X24.604 Y23.767 E11.19322
G1 X25.113 Y23.422 E11.21675
G1 X25.662 Y23.147 E11.24025
G1 X26.243 Y22.945 E11.26379
G1 X26.844 Y22.821 E11.28727
G1 X27.5 Y22.775 E11.31244
G1 X92.5 Y22.775 E13.79999
G1 X93.113 Y22.815 E13.8235
G1 X93.716 Y22.934 E13.84702
G1 X94.298 Y23.131 E13.87053
G1 X94.85 Y23.401 E13.89405
G1 X95.362 Y23.741 E13.91757
G1 X95.826 Y24.144 E13.94109
G1 X96.233 Y24.604 E13.9646
G1 X96.578 Y25.113 E13.98813
G1 X96.853 Y25.662 E14.01163
G1 X97.055 Y26.243 E14.03517
G1 X97.179 Y26.844 E14.05865
G1 X97.225 Y27.5 E14.08382
G1 X97.225 Y92.5 E16.57136
G1 X97.185 Y93.113 E16.59487
G1 X97.066 Y93.716 E16.6184
G1 X96.869 Y94.298 E16.64191
G1 X96.599 Y94.85 E16.66543
G1 X96.259 Y95.362 E16.68895
G1 X95.856 Y95.826 E16.71247
G1 X95.396 Y96.233 E16.73597
G1 X94.887 Y96.578 E16.75951
G1 X94.338 Y96.853 E16.783
G1 X93.757 Y97.055 E16.80654
G1 X93.156 Y97.179 E16.83003
G1 X92.5 Y97.225 E16.8552
G1 X27.5 Y97.225 E19.34274
G1 X26.887 Y97.185 E19.36625
G1 X26.284 Y97.066 E19.38977
G1 X25.702 Y96.869 E19.41329
G1 X25.15 Y96.599 E19.4368
G1 X24.638 Y96.259 E19.46033
G1 X24.174 Y95.856 E19.48385
G1 X23.767 Y95.396 E19.50735
G1 X23.422 Y94.887 E19.53088
G1 X23.147 Y94.338 E19.55438
G1 X22.945 Y93.757 E19.57792
G1 X22.821 Y93.156 E19.60141
G1 X22.775 Y92.5 E19.62657
G1 X22.775 Y27.5 E22.11412
G1 X22.815 Y26.887 E22.13763
G1 X22.934 Y26.284 E22.16115
G1 X23.131 Y25.702 E22.18467
G1 X23.401 Y25.15 E22.20818
G1 X23.697 Y24.704 E22.22867
G0 F1944 X23.741 Y24.638
G0 X24.144 Y24.174
G0 F4320 X24.488 Y24.327
G1 F2400 E22.25523
G1 F2160 X24.944 Y23.95 E22.27787
G1 X25.446 Y23.637 E22.30051
G1 X25.985 Y23.396 E22.32311
G1 X26.553 Y23.229 E22.34576
G1 X27.137 Y23.14 E22.36837
G1 X27.5 Y23.125 E22.38227
G1 X92.5 Y23.125 E24.86982
G1 X93.09 Y23.165 E24.89245
G1 X93.669 Y23.284 E24.91507
G1 X94.227 Y23.48 E24.93771
G1 X94.753 Y23.75 E24.96033
G1 X95.238 Y24.088 E24.98296
G1 X95.673 Y24.488 E25.00557
G1 X96.05 Y24.944 E25.02822
G1 X96.363 Y25.446 E25.05086
G1 X96.604 Y25.985 E25.07345
G1 X96.771 Y26.553 E25.09611
G1 X96.86 Y27.137 E25.11872
G1 X96.875 Y27.5 E25.13262
G1 X96.875 Y92.5 E27.62017
G1 X96.835 Y93.09 E27.6428
G1 X96.716 Y93.669 E27.66542
G1 X96.52 Y94.227 E27.68805
G1 X96.25 Y94.753 E27.71068
G1 X95.912 Y95.238 E27.7333
G1 X95.512 Y95.673 E27.75592
G1 X95.056 Y96.05 E27.77856
G1 X94.554 Y96.363 E27.8012
G1 X94.015 Y96.604 E27.8238
G1 X93.447 Y96.771 E27.84646
G1 X92.863 Y96.86 E27.86906
G1 X92.5 Y96.875 E27.88297
G1 X27.5 Y96.875 E30.37051
G1 X26.91 Y96.835 E30.39314
G1 X26.331 Y96.716 E30.41577
G1 X25.773 Y96.52 E30.4384
G1 X25.247 Y96.25 E30.46103
G1 X24.762 Y95.912 E30.48365
G1 X24.327 Y95.512 E30.50627
G1 X23.95 Y95.056 E30.52891
G1 X23.637 Y94.554 E30.55155
G1 X23.396 Y94.015 E30.57414
G1 X23.229 Y93.447 E30.5968
G1 X23.14 Y92.863 E30.61941
G1 X23.125 Y92.5 E30.63331
G1 X23.125 Y27.5 E33.12086
G1 X23.165 Y26.91 E33.14349
G1 X23.284 Y26.331 E33.16611
G1 X23.48 Y25.773 E33.18875
G1 X23.75 Y25.247 E33.21137
G1 X24.029 Y24.847 E33.23004
G0 F1944 X24.088 Y24.762
G0 X24.488 Y24.327
G0 F4320 X24.435 Y24.892
G1 F2400 E33.2566
G1 F2160 X24.832 Y24.487 E33.2783
G1 X25.282 Y24.141 E33.30002
G1 X25.776 Y23.863 E33.32172
G1 X26.304 Y23.657 E33.34341
G1 X26.856 Y23.527 E33.36511
G1 X27.5 Y23.475 E33.38984
G1 X92.5 Y23.475 E35.87738
G1 X93.066 Y23.515 E35.8991
G1 X93.62 Y23.634 E35.92078
G1 X94.152 Y23.83 E35.94248
G1 X94.652 Y24.098 E35.96419
G1 X95.108 Y24.435 E35.98589
G1 X95.513 Y24.832 E36.00759
G1 X95.859 Y25.282 E36.02932
G1 X96.137 Y25.776 E36.05101
G1 X96.343 Y26.304 E36.0727
G1 X96.473 Y26.856 E36.0944
G1 X96.525 Y27.5 E36.11913
G1 X96.525 Y92.5 E38.60668
G1 X96.485 Y93.066 E38.62839
G1 X96.366 Y93.62 E38.65008
G1 X96.17 Y94.152 E38.67177
G1 X95.902 Y94.652 E38.69348
G1 X95.565 Y95.108 E38.71518
G1 X95.168 Y95.513 E38.73689
G1 X94.718 Y95.859 E38.75861
G1 X94.224 Y96.137 E38.7803
G1 X93.696 Y96.343 E38.80199
G1 X93.144 Y96.473 E38.8237
G1 X92.5 Y96.525 E38.84842
G1 X27.5 Y96.525 E41.33597
G1 X26.934 Y96.485 E41.35768
G1 X26.38 Y96.366 E41.37937
G1 X25.848 Y96.17 E41.40107
G1 X25.348 Y95.902 E41.42278
G1 X24.892 Y95.565 E41.44448
G1 X24.487 Y95.168 E41.46618
G1 X24.141 Y94.718 E41.4879
G1 X23.863 Y94.224 E41.5096
G1 X23.657 Y93.696 E41.53129
G1 X23.527 Y93.144 E41.55299
G1 X23.475 Y92.5 E41.57772
G1 X23.475 Y27.5 E44.06526
G1 X23.515 Y26.934 E44.08698
G1 X23.634 Y26.38 E44.10866
G1 X23.83 Y25.848 E44.13036
G1 X24.038 Y25.459 E44.14724
G0 F1944 X24.098 Y25.348
G0 X24.435 Y24.892
G0 F4320 X24.781 Y25.028
G1 F2400 E44.1738
G1 F2160 X25.174 Y24.655 E44.19454
G1 X25.618 Y24.344 E44.21528
G1 X26.102 Y24.101 E44.23601
G1 X26.617 Y23.933 E44.25674
G1 X27.151 Y23.842 E44.27747
G1 X27.5 Y23.825 E44.29084
G1 X92.5 Y23.825 E46.77839
G1 X93.04 Y23.865 E46.79911
G1 X93.569 Y23.984 E46.81986
G1 X94.074 Y24.179 E46.84058
G1 X94.546 Y24.447 E46.86135
G1 X94.972 Y24.781 E46.88207
G1 X95.345 Y25.174 E46.9028
G1 X95.656 Y25.618 E46.92355
G1 X95.899 Y26.102 E46.94427
G1 X96.067 Y26.617 E46.96501
G1 X96.158 Y27.151 E46.98574
G1 X96.175 Y27.5 E46.99911
G1 X96.175 Y92.5 E49.48666
G1 X96.135 Y93.04 E49.50738
G1 X96.016 Y93.569 E49.52813
G1 X95.821 Y94.074 E49.54885
G1 X95.553 Y94.546 E49.56962
G1 X95.219 Y94.972 E49.59033
G1 X94.826 Y95.345 E49.61107
G1 X94.382 Y95.656 E49.63182
G1 X93.898 Y95.899 E49.65254
G1 X93.383 Y96.067 E49.67327
G1 X92.849 Y96.158 E49.694
G1 X92.5 Y96.175 E49.70738
G1 X27.5 Y96.175 E52.19492
G1 X26.96 Y96.135 E52.21564
G1 X26.431 Y96.016 E52.23639
G1 X25.926 Y95.821 E52.25711
G1 X25.454 Y95.553 E52.27788
G1 X25.028 Y95.219 E52.2986
G1 X24.655 Y94.826 E52.31934
G1 X24.344 Y94.382 E52.34008
G1 X24.101 Y93.898 E52.36081
G1 X23.933 Y93.383 E52.38154
G1 X23.842 Y92.849 E52.40227
G1 X23.825 Y92.5 E52.41564
G1 X23.825 Y27.5 E54.90319
G1 X23.865 Y26.96 E54.92391
G1 X23.984 Y26.431 E54.94466
G1 X24.179 Y25.926 E54.96538
G1 X24.372 Y25.587 E54.98031
G0 F1944 X24.447 Y25.454
G0 X24.781 Y25.028
G0 F4320 X25.126 Y25.172
G1 F2400 E55.00687
G1 F2160 X25.515 Y24.833 E55.02661
G1 X25.951 Y24.558 E55.04634
G1 X26.424 Y24.354 E55.06605
G1 X26.923 Y24.225 E55.08578
G1 X27.5 Y24.175 E55.10794
G1 X92.5 Y24.175 E57.59549
G1 X93.014 Y24.215 E57.61522
G1 X93.515 Y24.334 E57.63493
G1 X93.992 Y24.529 E57.65465
G1 X94.434 Y24.795 E57.67439
G1 X94.828 Y25.126 E57.69408
G1 X95.167 Y25.515 E57.71383
G1 X95.442 Y25.951 E57.73356
G1 X95.646 Y26.424 E57.75327
G1 X95.775 Y26.923 E57.77299
G1 X95.825 Y27.5 E57.79516
G1 X95.825 Y92.5 E60.28271
G1 X95.785 Y93.014 E60.30244
G1 X95.666 Y93.515 E60.32214
G1 X95.471 Y93.992 E60.34186
G1 X95.205 Y94.434 E60.36161
G1 X94.874 Y94.828 E60.3813
G1 X94.485 Y95.167 E60.40105
G1 X94.049 Y95.442 E60.42077
G1 X93.576 Y95.646 E60.44049
G1 X93.077 Y95.775 E60.46021
G1 X92.5 Y95.825 E60.48238
G1 X27.5 Y95.825 E62.96992
G1 X26.986 Y95.785 E62.98965
G1 X26.485 Y95.666 E63.00936
G1 X26.008 Y95.471 E63.02908
G1 X25.566 Y95.205 E63.04882
G1 X25.172 Y94.874 E63.06852
G1 X24.833 Y94.485 E63.08826
G1 X24.558 Y94.049 E63.10799
G1 X24.354 Y93.576 E63.1277
G1 X24.225 Y93.077 E63.14743
G1 X24.175 Y92.5 E63.16959
G1 X24.175 Y27.5 E65.65714
G1 X24.215 Y26.986 E65.67687
G1 X24.334 Y26.485 E65.69658
G1 X24.529 Y26.008 E65.7163
G1 X24.703 Y25.72 E65.72917
G0 F1944 X24.795 Y25.566
G0 X25.126 Y25.172
G0 F4320 X25.471 Y25.325
G1 F2400 E65.75573
G1 F2160 X25.853 Y25.022 E65.77439
G1 X26.28 Y24.787 E65.79305
G1 X26.739 Y24.624 E65.81169
G1 X27.219 Y24.538 E65.83035
G1 X27.5 Y24.525 E65.84111
G1 X92.5 Y24.525 E68.32866
G1 X92.986 Y24.565 E68.34732
G1 X93.459 Y24.684 E68.36599
G1 X93.906 Y24.878 E68.38464
G1 X94.315 Y25.143 E68.40329
G1 X94.675 Y25.471 E68.42192
G1 X94.978 Y25.853 E68.44058
G1 X95.213 Y26.28 E68.45924
G1 X95.376 Y26.739 E68.47788
G1 X95.462 Y27.219 E68.49654
G1 X95.475 Y27.5 E68.50731
G1 X95.475 Y92.5 E70.99485
G1 X95.435 Y92.986 E71.01351
G1 X95.316 Y93.459 E71.03218
G1 X95.122 Y93.906 E71.05083
G1 X94.857 Y94.315 E71.06948
G1 X94.529 Y94.675 E71.08812
G1 X94.147 Y94.978 E71.10678
G1 X93.72 Y95.213 E71.12543
G1 X93.261 Y95.376 E71.14407
G1 X92.781 Y95.462 E71.16273
G1 X92.5 Y95.475 E71.1735
G1 X27.5 Y95.475 E73.66104
G1 X27.014 Y95.435 E73.6797
G1 X26.541 Y95.316 E73.69837
G1 X26.094 Y95.122 E73.71702
G1 X25.685 Y94.857 E73.73567
G1 X25.325 Y94.529 E73.75431
G1 X25.022 Y94.147 E73.77297
G1 X24.787 Y93.72 E73.79162
G1 X24.624 Y93.261 E73.81026
G1 X24.538 Y92.781 E73.82892
G1 X24.525 Y92.5 E73.83969
G1 X24.525 Y27.5 E76.32723
G1 X24.565 Y27.014 E76.3459
G1 X24.684 Y26.541 E76.36456
G1 X24.878 Y26.094 E76.38321
G1 X25.031 Y25.858 E76.39397
G0 F1944 X25.143 Y25.685
G0 X25.471 Y25.325
G0 F4320 X25.49 Y25.812
G1 F2400 E76.42053
G1 F2160 X25.814 Y25.488 E76.43807
G1 X26.189 Y25.226 E76.45558
G1 X26.604 Y25.033 E76.47309
G1 X27.046 Y24.915 E76.4906
G1 X27.5 Y24.875 E76.50804
G1 X92.5 Y24.875 E78.99559
G1 X92.956 Y24.915 E79.01311
G1 X93.398 Y25.033 E79.03061
G1 X93.813 Y25.227 E79.04814
G1 X94.188 Y25.49 E79.06567
G1 X94.512 Y25.814 E79.08321
G1 X94.774 Y26.189 E79.10072
G1 X94.967 Y26.604 E79.11823
G1 X95.085 Y27.046 E79.13574
G1 X95.125 Y27.5 E79.15318
G1 X95.125 Y92.5 E81.64073
G1 X95.085 Y92.956 E81.65825
G1 X94.967 Y93.398 E81.67575
G1 X94.773 Y93.813 E81.69329
G1 X94.51 Y94.188 E81.71081
G1 X94.186 Y94.512 E81.72835
G1 X93.811 Y94.774 E81.74586
G1 X93.396 Y94.967 E81.76337
G1 X92.954 Y95.085 E81.78088
G1 X92.5 Y95.125 E81.79832
G1 X27.5 Y95.125 E84.28587
G1 X27.044 Y95.085 E84.30339
G1 X26.602 Y94.967 E84.32089
G1 X26.187 Y94.773 E84.33843
G1 X25.812 Y94.51 E84.35595
G1 X25.488 Y94.186 E84.37349
G1 X25.226 Y93.811 E84.391
G1 X25.033 Y93.396 E84.40851
G1 X24.915 Y92.954 E84.42602
G1 X24.875 Y92.5 E84.44346
G1 X24.875 Y27.5 E86.93101
G1 X24.915 Y27.044 E86.94853
G1 X25.033 Y26.602 E86.96603
G1 X25.128 Y26.4 E86.97458
G0 F1944 X25.227 Y26.187
G0 X25.49 Y25.812
G0 F4320 X25.836 Y25.949
G1 F2400 E87.00114
G1 F2160 X26.154 Y25.666 E87.01743
G1 X26.52 Y25.447 E87.03375
G1 X26.92 Y25.3 E87.05006
G1 X27.5 Y25.225 E87.07244
G1 X92.5 Y25.225 E89.55999
G1 X92.924 Y25.265 E89.57629
G1 X93.334 Y25.383 E89.59261
G1 X93.714 Y25.576 E89.60892
G1 X94.051 Y25.836 E89.62521
G1 X94.334 Y26.154 E89.6415
G1 X94.553 Y26.52 E89.65783
G1 X94.7 Y26.92 E89.67414
G1 X94.775 Y27.5 E89.69652
G1 X94.775 Y92.5 E92.18406
G1 X94.735 Y92.924 E92.20036
G1 X94.617 Y93.334 E92.21669
G1 X94.424 Y93.714 E92.233
G1 X94.164 Y94.051 E92.24929
G1 X93.846 Y94.334 E92.26558
G1 X93.48 Y94.553 E92.2819
G1 X93.08 Y94.7 E92.29821
G1 X92.5 Y94.775 E92.32059
G1 X27.5 Y94.775 E94.80814
G1 X27.076 Y94.735 E94.82444
G1 X26.666 Y94.617 E94.84077
G1 X26.286 Y94.424 E94.85708
G1 X25.949 Y94.164 E94.87337
G1 X25.666 Y93.846 E94.88966
G1 X25.447 Y93.48 E94.90598
G1 X25.3 Y93.08 E94.92229
G1 X25.225 Y92.5 E94.94467
G1 X25.225 Y27.5 E97.43222
G1 X25.265 Y27.076 E97.44851
G1 X25.383 Y26.666 E97.46484
G1 X25.455 Y26.525 E97.4709
G0 F1944 X25.576 Y26.286
G0 X25.836 Y25.949
G0 F4320 X26.181 Y26.098
G1 F2400 E97.49746
G1 F2160 X26.492 Y25.86 E97.51245
G1 X26.845 Y25.69 E97.52744
G1 X27.225 Y25.595 E97.54243
G1 X27.5 Y25.575 E97.55298
G1 X92.5 Y25.575 E100.04053
G1 X92.89 Y25.615 E100.05553
G1 X93.264 Y25.733 E100.07054
G1 X93.606 Y25.924 E100.08553
G1 X93.902 Y26.181 E100.10054
G1 X94.14 Y26.492 E100.11552
G1 X94.31 Y26.845 E100.13052
G1 X94.405 Y27.225 E100.14551
G1 X94.425 Y27.5 E100.15606
G1 X94.425 Y92.5 E102.64361
G1 X94.385 Y92.89 E102.65861
G1 X94.267 Y93.264 E102.67362
G1 X94.076 Y93.606 E102.68861
G1 X93.819 Y93.902 E102.70361
G1 X93.508 Y94.14 E102.7186
G1 X93.155 Y94.31 E102.73359
G1 X92.775 Y94.405 E102.74858
G1 X92.5 Y94.425 E102.75913
G1 X27.5 Y94.425 E105.24668
G1 X27.11 Y94.385 E105.26168
G1 X26.736 Y94.267 E105.27669
G1 X26.394 Y94.076 E105.29168
G1 X26.098 Y93.819 E105.30669
G1 X25.86 Y93.508 E105.32167
G1 X25.69 Y93.155 E105.33667
G1 X25.595 Y92.775 E105.35166
G1 X25.575 Y92.5 E105.36221
G1 X25.575 Y27.5 E107.84976
G1 X25.615 Y27.11 E107.86476
G1 X25.733 Y26.736 E107.87977
G1 X25.777 Y26.658 E107.88319
G0 F1944 X25.924 Y26.394
G0 X26.181 Y26.098
G0 F4320 X26.272 Y26.514
G1 F2400 E107.90975
G1 F2160 X26.523 Y26.264 E107.92331
G1 X26.824 Y26.077 E107.93687
G1 X27.16 Y25.962 E107.95046
G1 X27.5 Y25.925 E107.96355
G1 X92.5 Y25.925 E110.4511
G1 X92.852 Y25.965 E110.46466
G1 X93.186 Y26.082 E110.4782
G1 X93.486 Y26.272 E110.49179
G1 X93.736 Y26.523 E110.50535
G1 X93.923 Y26.824 E110.51891
G1 X94.038 Y27.16 E110.5325
G1 X94.075 Y27.5 E110.54559
G1 X94.075 Y92.5 E113.03313
G1 X94.035 Y92.852 E113.04669
G1 X93.918 Y93.186 E113.06024
G1 X93.728 Y93.486 E113.07383
G1 X93.477 Y93.736 E113.08738
G1 X93.176 Y93.923 E113.10095
G1 X92.84 Y94.038 E113.11454
G1 X92.5 Y94.075 E113.12762
G1 X27.5 Y94.075 E115.61517
G1 X27.148 Y94.035 E115.62873
G1 X26.814 Y93.918 E115.64227
G1 X26.514 Y93.728 E115.65586
G1 X26.264 Y93.477 E115.66942
G1 X26.077 Y93.176 E115.68298
G1 X25.962 Y92.84 E115.69657
G1 X25.925 Y92.5 E115.70966
G1 X25.925 Y27.5 E118.19721
G1 X25.965 Y27.148 E118.21076
G1 X25.97 Y27.134 E118.21133
G0 F1944 X26.082 Y26.814
G0 X26.272 Y26.514
G0 F4320 X26.618 Y26.65
G1 F2400 E118.23789
G1 F2160 X26.862 Y26.454 E118.24987
G1 X27.147 Y26.327 E118.26181
G1 X27.5 Y26.275 E118.27547
G1 X92.5 Y26.275 E120.76301
G1 X92.81 Y26.315 E120.77497
G1 X93.1 Y26.432 E120.78694
G1 X93.35 Y26.618 E120.79887
G1 X93.546 Y26.862 E120.81084
G1 X93.673 Y27.147 E120.82279
G1 X93.725 Y27.5 E120.83644
G1 X93.725 Y92.5 E123.32399
G1 X93.685 Y92.81 E123.33595
G1 X93.568 Y93.1 E123.34792
G1 X93.382 Y93.35 E123.35984
G1 X93.138 Y93.546 E123.37182
G1 X92.853 Y93.673 E123.38376
G1 X92.5 Y93.725 E123.39741
G1 X27.5 Y93.725 E125.88496
G1 X27.19 Y93.685 E125.89692
G1 X26.9 Y93.568 E125.90889
G1 X26.65 Y93.382 E125.92082
G1 X26.454 Y93.138 E125.93279
