;FLAVOR:Marlin
;TIME:674
;Filament used: 0.29207m
;Layer height: 0.13125
;Generated with Cura_SteamEngine 3.6.0
M140 S65
M105
M190 S65
M104 S205
M105
M109 S205
M82 ;absolute extrusion mode
G21;(metric values)
G90;(absolute positioning)
M82;(set extruder to absolute mode)
M107;(start with the fan off)
G28;(Home the printer)
G92 E0;(Reset the extruder to 0)
G0 Z5 E5 F500;(Move up and prime the nozzle)
G0 X-1 Z0;(Move outside the printable area)
G1 Y60 E8 F500;(Draw a priming/wiping line to the rear)
G1 X-1;(Move a little closer to the print area)
G1 Y10 E16 F500;(draw more priming/wiping)
G1 E15 F250;(Small retract)
G92 E0;(Zero the extruder)
G92 E0
G1 F2400 E-2.5
;LAYER_COUNT:51
;LAYER:0
M107
G0 F4320 X47.17 Y50.065 Z0.263
;TYPE:SKIRT
G1 F2400 E0
G1 F1620 X47.838 Y49.437 E0.03509
G1 X53.239 Y45.213 E0.29749
G1 X53.764 Y44.853 E0.32185
G1 X54.33 Y44.562 E0.34621
G1 X54.797 Y44.384 E0.36533
G1 X55.031 Y44.308 E0.37475
G1 X55.648 Y44.15 E0.39912
G1 X56.28 Y44.07 E0.4235
G1 X56.779 Y44.063 E0.4426
G1 X63.631 Y44.306 E0.70499
G1 X64.265 Y44.369 E0.72937
G1 X64.886 Y44.51 E0.75375
G1 X65.484 Y44.728 E0.7781
G1 X66.286 Y45.169 E0.81313
G1 X71.973 Y49 E1.07555
G1 X72.478 Y49.388 E1.09992
G1 X72.93 Y49.837 E1.1243
G1 X73.249 Y50.234 E1.14379
G1 X73.393 Y50.433 E1.15319
G1 X73.734 Y50.971 E1.17757
G1 X74.004 Y51.548 E1.20195
G1 X74.161 Y52.011 E1.22066
G1 X76.048 Y58.603 E1.48307
G1 X76.185 Y59.225 E1.50744
G1 X76.242 Y59.86 E1.53184
G1 X76.22 Y60.496 E1.55619
G1 X76.048 Y61.397 E1.5913
G1 X74.161 Y67.989 E1.85371
G1 X73.948 Y68.589 E1.87807
G1 X73.661 Y69.157 E1.90243
G1 X73.393 Y69.567 E1.92117
G1 X73.249 Y69.766 E1.93057
G1 X72.844 Y70.258 E1.95496
G1 X72.381 Y70.695 E1.97933
G1 X71.973 Y71 E1.99882
G1 X66.286 Y74.831 E2.26124
G1 X65.737 Y75.153 E2.28559
G1 X65.151 Y75.404 E2.30999
G1 X64.539 Y75.579 E2.33435
G1 X63.631 Y75.694 E2.36938
G1 X56.779 Y75.937 E2.63177
G1 X56.142 Y75.919 E2.65616
G1 X55.513 Y75.822 E2.68051
G1 X55.031 Y75.692 E2.69962
G1 X54.797 Y75.616 E2.70903
G1 X54.205 Y75.381 E2.73341
G1 X53.647 Y75.075 E2.75776
G1 X53.239 Y74.787 E2.77688
G1 X47.838 Y70.563 E3.03928
G1 X47.361 Y70.14 E3.06368
G1 X46.942 Y69.66 E3.08806
G1 X46.586 Y69.132 E3.11243
G1 X46.196 Y68.303 E3.14749
G1 X43.848 Y61.861 E3.40989
G1 X43.668 Y61.25 E3.43427
G1 X43.566 Y60.621 E3.45866
G1 X43.541 Y60.123 E3.47774
G1 X43.541 Y59.877 E3.48715
G1 X43.581 Y59.241 E3.51154
G1 X43.7 Y58.616 E3.53589
G1 X43.848 Y58.139 E3.555
G1 X46.196 Y51.697 E3.8174
G1 X46.451 Y51.114 E3.84175
G1 X46.748 Y50.616 E3.86394
G0 F1458 X46.777 Y50.567
G0 X47.17 Y50.065
G0 F4320 X47.475 Y50.249
G1 F2400 E3.8905
G1 F1620 X48.053 Y49.713 E3.92067
G1 X53.454 Y45.489 E4.18307
G1 X53.962 Y45.143 E4.2066
G1 X54.51 Y44.865 E4.23011
G1 X54.905 Y44.717 E4.24625
G1 X55.139 Y44.641 E4.25567
G1 X55.735 Y44.49 E4.2792
G1 X56.345 Y44.417 E4.30271
G1 X56.766 Y44.413 E4.31882
G1 X63.618 Y44.656 E4.58121
G1 X64.23 Y44.718 E4.60475
G1 X64.828 Y44.858 E4.62826
G1 X65.403 Y45.075 E4.65178
G1 X66.091 Y45.459 E4.68193
G1 X71.778 Y49.29 E4.94435
G1 X72.264 Y49.666 E4.96787
G1 X72.697 Y50.102 E4.99138
G1 X72.966 Y50.439 E5.00788
G1 X73.11 Y50.638 E5.01728
G1 X73.437 Y51.158 E5.04079
G1 X73.694 Y51.716 E5.0643
G1 X73.825 Y52.108 E5.08012
G1 X75.712 Y58.7 E5.34253
G1 X75.842 Y59.3 E5.36602
G1 X75.893 Y59.913 E5.38956
G1 X75.865 Y60.526 E5.41305
G1 X75.712 Y61.3 E5.44324
G1 X73.825 Y67.892 E5.70565
G1 X73.617 Y68.471 E5.72919
G1 X73.337 Y69.018 E5.75271
G1 X73.11 Y69.362 E5.76848
G1 X72.966 Y69.561 E5.77788
G1 X72.574 Y70.034 E5.80139
G1 X72.124 Y70.453 E5.82492
G1 X71.778 Y70.71 E5.84142
G1 X66.091 Y74.541 E6.10384
G1 X65.56 Y74.85 E6.12735
G1 X64.993 Y75.088 E6.15088
G1 X64.401 Y75.251 E6.17438
G1 X63.618 Y75.344 E6.20456
G1 X56.766 Y75.587 E6.46695
G1 X56.152 Y75.569 E6.49045
G1 X55.546 Y75.471 E6.51395
G1 X55.139 Y75.359 E6.5301
G1 X54.905 Y75.283 E6.53952
G1 X54.335 Y75.055 E6.56301
G1 X53.798 Y74.756 E6.58653
G1 X53.454 Y74.511 E6.6027
G1 X48.053 Y70.287 E6.8651
G1 X47.595 Y69.878 E6.8886
G1 X47.193 Y69.412 E6.91215
G1 X46.856 Y68.899 E6.93564
G1 X46.525 Y68.183 E6.96583
G1 X44.177 Y61.741 E7.22823
G1 X44.004 Y61.151 E7.25176
G1 X43.91 Y60.544 E7.27526
G1 X43.891 Y60.123 E7.29139
G1 X43.891 Y59.877 E7.30081
G1 X43.931 Y59.264 E7.32432
G1 X44.05 Y58.661 E7.34784
G1 X44.177 Y58.259 E7.36397
G1 X46.525 Y51.817 E7.62637
G1 X46.772 Y51.255 E7.64987
G1 X47.05 Y50.797 E7.67037
G0 F1458 X47.091 Y50.729
G0 X47.475 Y50.249
G0 F4320 X47.779 Y50.436
G1 F2400 E7.69693
G1 F1620 X48.269 Y49.989 E7.72231
G1 X53.67 Y45.765 E7.98471
G1 X54.159 Y45.433 E8.00733
G1 X54.689 Y45.17 E8.02998
G1 X55.014 Y45.05 E8.04323
G1 X55.248 Y44.974 E8.05265
G1 X55.821 Y44.83 E8.07526
G1 X56.409 Y44.764 E8.0979
G1 X56.754 Y44.763 E8.11111
G1 X63.606 Y45.006 E8.3735
G1 X64.194 Y45.067 E8.39612
G1 X64.769 Y45.206 E8.41876
G1 X65.319 Y45.422 E8.44137
G1 X65.895 Y45.75 E8.46674
G1 X71.582 Y49.581 E8.72916
G1 X72.049 Y49.943 E8.75177
G1 X72.463 Y50.366 E8.77442
G1 X72.682 Y50.644 E8.78797
G1 X72.826 Y50.843 E8.79737
G1 X73.14 Y51.345 E8.82003
G1 X73.383 Y51.884 E8.84265
G1 X73.488 Y52.204 E8.85554
G1 X75.375 Y58.796 E9.11795
G1 X75.499 Y59.374 E9.14057
G1 X75.544 Y59.964 E9.16322
G1 X75.509 Y60.554 E9.18584
G1 X75.375 Y61.204 E9.21124
G1 X73.488 Y67.796 E9.47364
G1 X73.287 Y68.352 E9.49627
G1 X73.013 Y68.876 E9.5189
G1 X72.826 Y69.157 E9.53182
G1 X72.682 Y69.356 E9.54122
G1 X72.304 Y69.81 E9.56383
G1 X71.868 Y70.21 E9.58647
G1 X71.582 Y70.419 E9.60003
G1 X65.895 Y74.25 E9.86244
G1 X65.384 Y74.547 E9.88506
G1 X64.837 Y74.772 E9.9077
G1 X64.265 Y74.921 E9.93032
G1 X63.606 Y74.994 E9.95569
G1 X56.754 Y75.237 E10.21808
G1 X56.163 Y75.218 E10.24071
G1 X55.58 Y75.12 E10.26334
G1 X55.248 Y75.026 E10.27654
G1 X55.014 Y74.95 E10.28596
G1 X54.465 Y74.73 E10.30859
G1 X53.951 Y74.438 E10.33122
G1 X53.67 Y74.235 E10.34448
G1 X48.269 Y70.011 E10.60688
G1 X47.829 Y69.616 E10.62951
G1 X47.446 Y69.166 E10.65213
G1 X47.127 Y68.668 E10.67476
G1 X46.854 Y68.063 E10.70016
G1 X44.506 Y61.621 E10.96256
G1 X44.341 Y61.053 E10.9852
G1 X44.255 Y60.468 E11.00783
G1 X44.241 Y60.123 E11.02104
G1 X44.241 Y59.877 E11.03046
G1 X44.281 Y59.287 E11.05309
G1 X44.4 Y58.708 E11.07571
G1 X44.506 Y58.379 E11.08894
G1 X46.854 Y51.937 E11.35134
G1 X47.093 Y51.396 E11.37397
G1 X47.349 Y50.98 E11.39266
G0 F1458 X47.403 Y50.893
G0 X47.779 Y50.436
G0 F4320 X48.082 Y50.626
G1 F2400 E11.41922
G1 F1620 X48.484 Y50.264 E11.43993
G1 X53.885 Y46.04 E11.70233
G1 X54.356 Y45.723 E11.72406
G1 X55.122 Y45.383 E11.75613
G1 X55.356 Y45.307 E11.76554
G1 X55.906 Y45.17 E11.78724
G1 X56.742 Y45.113 E11.8193
G1 X63.594 Y45.356 E12.08169
G1 X64.158 Y45.416 E12.1034
G1 X64.707 Y45.554 E12.12506
G1 X65.232 Y45.769 E12.14677
G1 X65.7 Y46.04 E12.16747
G1 X71.387 Y49.871 E12.42989
G1 X71.834 Y50.22 E12.45159
G1 X72.399 Y50.849 E12.48395
G1 X72.543 Y51.048 E12.49335
G1 X72.842 Y51.53 E12.51506
G1 X73.152 Y52.3 E12.54682
G1 X75.039 Y58.892 E12.80923
G1 X75.156 Y59.447 E12.83094
G1 X75.194 Y60.013 E12.85265
G1 X75.152 Y60.579 E12.87437
G1 X75.039 Y61.108 E12.89507
G1 X73.152 Y67.7 E13.15748
G1 X72.957 Y68.233 E13.1792
G1 X72.543 Y68.952 E13.21095
G1 X72.399 Y69.151 E13.22035
G1 X72.035 Y69.585 E13.24203
G1 X71.387 Y70.129 E13.27441
G1 X65.7 Y73.96 E13.53682
G1 X65.208 Y74.243 E13.55854
G1 X64.682 Y74.454 E13.58023
G1 X64.131 Y74.589 E13.60194
G1 X63.594 Y74.644 E13.6226
G1 X56.742 Y74.887 E13.88499
G1 X56.175 Y74.868 E13.9067
G1 X55.356 Y74.693 E13.93875
G1 X55.122 Y74.617 E13.94817
G1 X54.596 Y74.404 E13.96989
G1 X53.885 Y73.96 E14.00197
G1 X48.484 Y69.736 E14.26437
G1 X48.063 Y69.356 E14.28607
G1 X47.7 Y68.92 E14.30779
G1 X47.401 Y68.438 E14.32949
G1 X47.182 Y67.943 E14.35021
G1 X44.834 Y61.501 E14.61261
G1 X44.678 Y60.956 E14.6343
G1 X44.591 Y60.123 E14.66635
G1 X44.591 Y59.877 E14.67577
G1 X44.631 Y59.311 E14.69748
G1 X44.834 Y58.499 E14.72952
G1 X47.182 Y52.057 E14.99192
G1 X47.414 Y51.539 E15.01364
G1 X47.648 Y51.166 E15.03049
G0 F1458 X47.715 Y51.059
G0 X48.082 Y50.626
G0 F4320 X48.383 Y50.819
G1 F2400 E15.05705
G1 F1620 X48.7 Y50.54 E15.07321
G1 X54.101 Y46.316 E15.33561
G1 X54.551 Y46.015 E15.35633
G1 X55.23 Y45.716 E15.38472
G1 X55.464 Y45.64 E15.39414
G1 X55.99 Y45.511 E15.41486
G1 X56.729 Y45.462 E15.44321
G1 X63.581 Y45.705 E15.7056
G1 X64.12 Y45.764 E15.72635
G1 X64.644 Y45.902 E15.74709
G1 X65.142 Y46.115 E15.76782
G1 X65.504 Y46.33 E15.78393
G1 X71.191 Y50.161 E16.04635
G1 X71.617 Y50.496 E16.06709
G1 X72.115 Y51.055 E16.09574
G1 X72.259 Y51.254 E16.10514
G1 X72.544 Y51.715 E16.12588
G1 X72.815 Y52.397 E16.15396
G1 X74.702 Y58.989 E16.41637
G1 X74.812 Y59.519 E16.43709
G1 X74.844 Y60.06 E16.45783
G1 X74.795 Y60.6 E16.47858
G1 X74.702 Y61.011 E16.4947
G1 X72.815 Y67.603 E16.75711
G1 X72.628 Y68.112 E16.77786
G1 X72.259 Y68.746 E16.80594
G1 X72.115 Y68.945 E16.81534
G1 X71.766 Y69.36 E16.83609
G1 X71.191 Y69.839 E16.86473
G1 X65.504 Y73.67 E17.12715
G1 X65.034 Y73.939 E17.14787
G1 X64.529 Y74.135 E17.1686
G1 X64.001 Y74.256 E17.18933
G1 X63.581 Y74.295 E17.20548
G1 X56.729 Y74.538 E17.46787
G1 X56.188 Y74.517 E17.48859
G1 X55.464 Y74.36 E17.51694
G1 X55.23 Y74.284 E17.52635
G1 X54.728 Y74.079 E17.5471
G1 X54.101 Y73.684 E17.57546
G1 X48.7 Y69.46 E17.83787
G1 X48.299 Y69.095 E17.85862
G1 X47.956 Y68.676 E17.87934
G1 X47.678 Y68.211 E17.90007
G1 X47.511 Y67.823 E17.91624
G1 X45.163 Y61.381 E18.17864
G1 X45.016 Y60.86 E18.19936
G1 X44.941 Y60.123 E18.22771
G1 X44.941 Y59.877 E18.23712
G1 X44.981 Y59.337 E18.25784
G1 X45.163 Y58.619 E18.28619
G1 X47.511 Y52.177 E18.54859
G1 X47.734 Y51.682 E18.56937
G1 X47.945 Y51.355 E18.58426
G0 F1458 X48.027 Y51.227
G0 X48.383 Y50.819
G0 F4320 X48.337 Y51.397
G1 F2400 E18.61082
G1 F1620 X48.683 Y51.015 E18.63055
G1 X48.916 Y50.816 E18.64227
G1 X54.317 Y46.592 E18.90467
G1 X54.746 Y46.307 E18.92439
G1 X55.338 Y46.049 E18.9491
G1 X55.572 Y45.973 E18.95851
G1 X56.073 Y45.852 E18.97824
G1 X56.717 Y45.812 E19.00293
G1 X63.569 Y46.055 E19.26532
G1 X64.081 Y46.113 E19.28504
G1 X64.578 Y46.25 E19.30477
G1 X65.048 Y46.461 E19.32449
G1 X65.309 Y46.62 E19.33618
G1 X70.996 Y50.451 E19.5986
G1 X71.4 Y50.772 E19.61835
G1 X71.832 Y51.26 E19.64329
G1 X71.976 Y51.459 E19.65269
G1 X72.245 Y51.898 E19.6724
G1 X72.479 Y52.493 E19.69686
G1 X74.366 Y59.085 E19.95927
G1 X74.469 Y59.59 E19.979
G1 X74.492 Y60.105 E19.99872
G1 X74.436 Y60.617 E20.01844
G1 X74.366 Y60.915 E20.03015
G1 X72.479 Y67.507 E20.29256
G1 X72.299 Y67.99 E20.31228
G1 X71.976 Y68.541 E20.33673
G1 X71.832 Y68.74 E20.34613
G1 X71.498 Y69.133 E20.36587
G1 X70.996 Y69.549 E20.39082
G1 X65.309 Y73.38 E20.65323
G1 X64.86 Y73.634 E20.67298
G1 X64.378 Y73.815 E20.69268
G1 X63.873 Y73.92 E20.71242
G1 X63.569 Y73.945 E20.72409
G1 X56.717 Y74.188 E20.98648
G1 X56.202 Y74.166 E21.00621
G1 X55.572 Y74.027 E21.0309
G1 X55.338 Y73.951 E21.04032
G1 X54.862 Y73.755 E21.06002
G1 X54.317 Y73.408 E21.08474
G1 X48.916 Y69.184 E21.34714
G1 X48.536 Y68.836 E21.36686
G1 X48.214 Y68.434 E21.38657
G1 X47.958 Y67.986 E21.40632
G1 X47.84 Y67.704 E21.41802
G1 X45.492 Y61.262 E21.68042
G1 X45.354 Y60.765 E21.70016
G1 X45.291 Y60.123 E21.72485
G1 X45.291 Y59.877 E21.73426
G1 X45.331 Y59.363 E21.75399
G1 X45.492 Y58.738 E21.77869
G1 X47.84 Y52.296 E22.04109
G1 X47.98 Y51.99 E22.05397
G0 F1458 X48.054 Y51.827
G0 X48.337 Y51.397
G0 F4320 X48.646 Y51.57
G1 F2400 E22.08053
G1 F1620 X49.131 Y51.092 E22.10659
G1 X54.532 Y46.868 E22.36899
G1 X54.94 Y46.6 E22.38767
G1 X55.446 Y46.381 E22.40877
G1 X55.68 Y46.305 E22.41819
G1 X56.154 Y46.193 E22.43683
G1 X56.704 Y46.162 E22.45791
G1 X63.556 Y46.405 E22.7203
G1 X64.041 Y46.462 E22.73899
G1 X64.509 Y46.597 E22.75763
G1 X65.113 Y46.911 E22.78368
G1 X70.8 Y50.742 E23.0461
G1 X71.181 Y51.046 E23.06475
G1 X71.548 Y51.465 E23.08607
G1 X71.692 Y51.664 E23.09547
G1 X71.945 Y52.081 E23.11414
G1 X72.142 Y52.589 E23.13499
G1 X74.029 Y59.181 E23.3974
G1 X74.124 Y59.659 E23.41605
G1 X74.14 Y60.146 E23.43469
G1 X74.029 Y60.819 E23.4608
G1 X72.142 Y67.411 E23.72321
G1 X71.97 Y67.867 E23.74186
G1 X71.692 Y68.336 E23.76272
G1 X71.548 Y68.535 E23.77212
G1 X71.231 Y68.905 E23.79077
G1 X70.8 Y69.258 E23.81209
G1 X65.113 Y73.089 E24.07451
G1 X64.688 Y73.328 E24.09317
G1 X64.229 Y73.493 E24.11183
G1 X63.556 Y73.595 E24.13788
G1 X56.704 Y73.838 E24.40027
G1 X56.218 Y73.815 E24.41889
G1 X55.68 Y73.695 E24.43999
G1 X55.446 Y73.619 E24.4494
G1 X54.996 Y73.43 E24.46808
G1 X54.532 Y73.132 E24.48919
G1 X49.131 Y68.908 E24.75159
G1 X48.773 Y68.578 E24.77022
G1 X48.474 Y68.193 E24.78888
G1 X48.169 Y67.584 E24.81494
G1 X45.821 Y61.142 E25.07734
G1 X45.692 Y60.672 E25.096
G1 X45.641 Y60.123 E25.1171
G1 X45.641 Y59.877 E25.12651
G1 X45.681 Y59.391 E25.14517
G1 X45.821 Y58.858 E25.16626
G1 X48.169 Y52.416 E25.42866
G1 X48.286 Y52.162 E25.43936
G0 F1458 X48.373 Y51.973
G0 X48.646 Y51.57
G0 F4320 X48.954 Y51.746
G1 F2400 E25.46592
G1 F1620 X49.347 Y51.367 E25.48682
G1 X54.748 Y47.143 E25.74922
G1 X55.132 Y46.894 E25.76673
G1 X55.554 Y46.714 E25.78429
G1 X55.788 Y46.638 E25.79371
G1 X56.234 Y46.535 E25.81123
G1 X56.692 Y46.512 E25.82878
G1 X63.544 Y46.755 E26.09117
G1 X63.998 Y46.811 E26.10867
G1 X64.436 Y46.945 E26.1262
G1 X64.918 Y47.201 E26.14709
G1 X70.605 Y51.032 E26.40951
G1 X70.961 Y51.32 E26.42703
G1 X71.265 Y51.67 E26.44477
G1 X71.409 Y51.869 E26.45417
G1 X71.644 Y52.262 E26.4717
G1 X71.806 Y52.686 E26.48907
G1 X73.693 Y59.278 E26.75147
G1 X73.78 Y59.727 E26.76898
G1 X73.787 Y60.185 E26.78651
G1 X73.693 Y60.722 E26.80737
G1 X71.806 Y67.314 E27.06978
G1 X71.642 Y67.742 E27.08732
G1 X71.409 Y68.131 E27.10467
G1 X71.265 Y68.33 E27.11407
G1 X70.965 Y68.676 E27.1316
G1 X70.605 Y68.968 E27.14934
G1 X64.918 Y72.799 E27.41175
G1 X64.517 Y73.021 E27.4293
G1 X64.084 Y73.17 E27.44682
G1 X63.544 Y73.245 E27.46768
G1 X56.692 Y73.488 E27.73007
G1 X56.235 Y73.465 E27.74759
G1 X55.788 Y73.362 E27.76514
G1 X55.554 Y73.286 E27.77456
G1 X55.133 Y73.107 E27.79206
G1 X54.748 Y72.857 E27.80963
G1 X49.347 Y68.633 E28.07203
G1 X49.012 Y68.32 E28.08958
G1 X48.737 Y67.955 E28.10707
G1 X48.498 Y67.464 E28.12797
G1 X46.15 Y61.022 E28.39037
G1 X46.031 Y60.58 E28.40788
G1 X45.991 Y60.123 E28.42544
G1 X45.991 Y59.877 E28.43486
G1 X46.031 Y59.421 E28.45237
G1 X46.15 Y58.978 E28.46993
G1 X48.498 Y52.536 E28.73233
G1 X48.592 Y52.335 E28.74082
G0 F1458 X48.691 Y52.121
G0 X48.954 Y51.746
G0 F4320 X49.261 Y51.927
G1 F2400 E28.76738
G1 F1620 X49.562 Y51.643 E28.78322
G1 X54.963 Y47.419 E29.04562
G1 X55.322 Y47.189 E29.06194
G1 X55.662 Y47.047 E29.07604
G1 X55.896 Y46.971 E29.08545
G1 X56.312 Y46.878 E29.10177
G1 X56.68 Y46.861 E29.11586
G1 X63.532 Y47.104 E29.37825
G1 X63.954 Y47.159 E29.39454
G1 X64.359 Y47.292 E29.41085
G1 X64.722 Y47.491 E29.4267
G1 X70.409 Y51.322 E29.68911
G1 X70.739 Y51.592 E29.70543
G1 X70.981 Y51.875 E29.71968
G1 X71.125 Y52.074 E29.72908
G1 X71.341 Y52.441 E29.74538
G1 X71.469 Y52.782 E29.75932
G1 X73.356 Y59.374 E30.02173
G1 X73.435 Y59.793 E30.03804
G1 X73.433 Y60.219 E30.05435
G1 X73.356 Y60.626 E30.0702
G1 X71.469 Y67.218 E30.33261
G1 X71.314 Y67.615 E30.34892
G1 X71.125 Y67.926 E30.36285
G1 X70.981 Y68.125 E30.37225
G1 X70.7 Y68.445 E30.38854
G1 X70.409 Y68.678 E30.40281
G1 X64.722 Y72.509 E30.66523
G1 X64.348 Y72.713 E30.68153
G1 X63.942 Y72.843 E30.69785
G1 X63.532 Y72.896 E30.71367
G1 X56.68 Y73.139 E30.97606
G1 X56.254 Y73.114 E30.99239
G1 X55.896 Y73.029 E31.00647
G1 X55.662 Y72.953 E31.01589
G1 X55.271 Y72.784 E31.03219
G1 X54.963 Y72.581 E31.0463
G1 X49.562 Y68.357 E31.30871
G1 X49.253 Y68.064 E31.325
G1 X49.003 Y67.719 E31.34131
G1 X48.827 Y67.344 E31.35716
G1 X46.479 Y60.902 E31.61956
G1 X46.371 Y60.49 E31.63586
G1 X46.341 Y60.123 E31.64995
G1 X46.341 Y59.877 E31.65937
G1 X46.381 Y59.453 E31.67567
G1 X46.479 Y59.098 E31.68976
G1 X48.827 Y52.656 E31.95216
G1 X48.895 Y52.513 E31.95822
G0 F1458 X49.009 Y52.271
G0 X49.261 Y51.927
G0 F4320 X49.565 Y52.112
G1 F2400 E31.98478
G1 F1620 X49.778 Y51.919 E31.99578
G1 X55.179 Y47.695 E32.25818
G1 X55.511 Y47.486 E32.27319
G1 X55.77 Y47.38 E32.2839
G1 X56.004 Y47.304 E32.29332
G1 X56.388 Y47.222 E32.30835
G1 X56.667 Y47.211 E32.31903
