;FLAVOR:Marlin
;TIME:4576
;Filament used: 3.66508m
;Layer height: 0.21875
;Generated with Cura_SteamEngine 3.6.0
M140 S65
M105
M190 S65
M104 S205
M105
M109 S205
M82 ;absolute extrusion mode
G21;(metric values)
G90;(absolute positioning)
M82;(set extruder to absolute mode)
M107;(start with the fan off)
G28;(Home the printer)
G92 E0;(Reset the extruder to 0)
G0 Z5 E5 F500;(Move up and prime the nozzle)
G0 X-1 Z0;(Move outside the printable area)
G1 Y60 E8 F500;(Draw a priming/wiping line to the rear)
G1 X-1;(Move a little closer to the print area)
G1 Y10 E16 F500;(draw more priming/wiping)
G1 E15 F250;(Small retract)
G92 E0;(Zero the extruder)
G92 E0
G1 F2400 E-2.5
;LAYER_COUNT:219
;LAYER:0
M107
G0 F4320 X32.1 Y49.386 Z0.263
;TYPE:SKIRT
G1 F2400 E0
G1 F1800 X32.641 Y49.051 E0.02435
G1 X33.458 Y48.701 E0.05837
G1 X33.961 Y48.536 E0.07863
G1 X34.578 Y48.376 E0.10302
G1 X35.233 Y48.292 E0.12829
G1 X59.319 Y46.819 E1.05178
G1 X59.816 Y46.813 E1.07081
G1 X61.765 Y46.885 E1.14544
G1 X62.401 Y46.949 E1.16991
G1 X64.201 Y47.245 E1.23972
G1 X64.671 Y47.346 E1.25812
G1 X65.597 Y47.59 E1.29476
G1 X66.033 Y47.726 E1.31224
G1 X67.675 Y48.321 E1.37908
G1 X68.09 Y48.492 E1.39626
G1 X68.957 Y48.896 E1.43286
G1 X69.478 Y49.177 E1.45552
G1 X71.569 Y50.467 E1.54954
G1 X72.148 Y50.883 E1.57683
G1 X73.534 Y52.035 E1.6458
G1 X74.011 Y52.487 E1.67095
G1 X75.369 Y53.951 E1.74737
G1 X75.742 Y54.403 E1.76979
G1 X76.607 Y55.584 E1.82582
G1 X76.951 Y56.122 E1.85026
G1 X77.546 Y57.195 E1.89721
G1 X77.82 Y57.77 E1.92159
G1 X78.019 Y58.375 E1.94596
G1 X78.145 Y59.034 E1.97164
G1 X78.193 Y59.423 E1.98664
G1 X78.231 Y60.059 E2.01102
G1 X78.151 Y60.943 E2.04499
G1 X78.087 Y61.299 E2.05883
G1 X77.935 Y61.917 E2.08319
G1 X77.615 Y62.703 E2.11566
G1 X77.362 Y63.2 E2.13701
G1 X77.015 Y63.782 E2.16294
G1 X75.942 Y65.336 E2.23521
G1 X75.544 Y65.841 E2.25982
G1 X74.317 Y67.209 E2.33014
G1 X73.816 Y67.695 E2.35685
G1 X72.075 Y69.167 E2.44411
G1 X71.541 Y69.562 E2.46953
G1 X70.173 Y70.441 E2.53175
G1 X69.587 Y70.765 E2.55738
G1 X67.451 Y71.768 E2.64769
G1 X66.672 Y72.058 E2.6795
G1 X64.294 Y72.729 E2.77406
G1 X63.611 Y72.872 E2.80076
G1 X61.968 Y73.099 E2.86424
G1 X61.387 Y73.146 E2.88655
G1 X59.599 Y73.186 E2.95499
G1 X59.176 Y73.178 E2.97118
G1 X35.327 Y71.721 E3.88558
G1 X34.695 Y71.642 E3.90996
G1 X33.853 Y71.407 E3.94341
G1 X33.056 Y71.108 E3.97599
G1 X32.475 Y70.847 E4.00036
G1 X31.931 Y70.516 E4.02473
G1 X31.433 Y70.119 E4.04911
G1 X30.972 Y69.642 E4.07449
G1 X30.435 Y69.01 E4.10623
G1 X30.053 Y68.5 E4.13062
G1 X29.739 Y67.946 E4.15499
G1 X29.497 Y67.357 E4.17936
G1 X29.348 Y66.827 E4.20043
G1 X29.157 Y65.969 E4.23407
G1 X29.058 Y65.34 E4.25843
G1 X29.036 Y64.862 E4.27675
G1 X29.043 Y54.979 E4.65497
G1 X29.083 Y54.344 E4.67932
G1 X29.173 Y53.842 E4.69884
G1 X29.313 Y53.235 E4.72268
G1 X29.495 Y52.625 E4.74704
G1 X29.751 Y52.042 E4.77141
G1 X30.056 Y51.531 E4.79418
G1 X30.444 Y50.958 E4.82066
G1 X30.833 Y50.454 E4.84503
G1 X31.283 Y50.002 E4.86944
G1 X31.541 Y49.797 E4.88205
G0 F1620 X31.706 Y49.666
G0 X32.1 Y49.386
G0 F4320 X32.303 Y49.672
G1 F2400 E4.90861
G1 F1800 X32.826 Y49.349 E4.93213
G1 X33.567 Y49.033 E4.96296
G1 X34.07 Y48.868 E4.98322
G1 X34.665 Y48.715 E5.00673
G1 X35.255 Y48.642 E5.02948
G1 X59.341 Y47.169 E5.95297
G1 X59.803 Y47.163 E5.97066
G1 X61.752 Y47.235 E6.0453
G1 X62.345 Y47.295 E6.06811
G1 X64.145 Y47.591 E6.13792
G1 X64.582 Y47.684 E6.15502
G1 X65.508 Y47.928 E6.19166
G1 X65.914 Y48.055 E6.20794
G1 X67.556 Y48.65 E6.27478
G1 X67.942 Y48.809 E6.29076
G1 X68.809 Y49.213 E6.32736
G1 X69.294 Y49.475 E6.34846
G1 X71.385 Y50.765 E6.44248
G1 X71.924 Y51.152 E6.46788
G1 X73.31 Y52.304 E6.53685
G1 X73.754 Y52.725 E6.56027
G1 X75.112 Y54.189 E6.63669
G1 X75.46 Y54.61 E6.65759
G1 X76.325 Y55.791 E6.71361
G1 X76.645 Y56.292 E6.73636
G1 X77.24 Y57.365 E6.78332
G1 X77.503 Y57.92 E6.80682
G1 X77.691 Y58.505 E6.83034
G1 X77.797 Y59.077 E6.8526
G1 X77.845 Y59.466 E6.8676
G1 X77.881 Y60.08 E6.89114
G1 X77.806 Y60.881 E6.92193
G1 X77.742 Y61.237 E6.93577
G1 X77.595 Y61.833 E6.95926
G1 X77.303 Y62.545 E6.98871
G1 X77.05 Y63.042 E7.01005
G1 X76.727 Y63.583 E7.03417
G1 X75.654 Y65.137 E7.10644
G1 X75.283 Y65.607 E7.12935
G1 X74.056 Y66.975 E7.19968
G1 X73.59 Y67.428 E7.22455
G1 X71.849 Y68.9 E7.3118
G1 X71.352 Y69.267 E7.33545
G1 X69.984 Y70.146 E7.39768
G1 X69.438 Y70.448 E7.42156
G1 X67.302 Y71.451 E7.51186
G1 X66.577 Y71.721 E7.54147
G1 X64.199 Y72.392 E7.63603
G1 X63.563 Y72.526 E7.6609
G1 X61.92 Y72.753 E7.72438
G1 X61.379 Y72.796 E7.74515
G1 X59.591 Y72.836 E7.81359
G1 X59.197 Y72.828 E7.82867
G1 X35.348 Y71.371 E8.74308
G1 X34.738 Y71.294 E8.76661
G1 X33.976 Y71.079 E8.79691
G1 X33.179 Y70.78 E8.82948
G1 X32.619 Y70.527 E8.853
G1 X32.097 Y70.204 E8.87649
G1 X31.621 Y69.815 E8.90002
G1 X31.238 Y69.415 E8.92121
G1 X30.701 Y68.783 E8.95295
G1 X30.335 Y68.29 E8.97645
G1 X30.035 Y67.754 E8.99995
G1 X29.808 Y67.183 E9.02347
G1 X29.69 Y66.751 E9.04061
G1 X29.499 Y65.893 E9.07425
G1 X29.405 Y65.285 E9.09779
G1 X29.386 Y64.863 E9.11396
G1 X29.393 Y54.98 E9.49218
G1 X29.433 Y54.366 E9.51573
G1 X29.514 Y53.921 E9.53304
G1 X29.654 Y53.314 E9.55688
G1 X29.831 Y52.726 E9.58038
G1 X30.082 Y52.165 E9.6039
G1 X30.346 Y51.727 E9.62347
G1 X30.734 Y51.154 E9.64995
G1 X31.11 Y50.668 E9.67347
G1 X31.547 Y50.236 E9.69698
G1 X31.743 Y50.082 E9.70652
G0 F1620 X31.909 Y49.952
G0 X32.303 Y49.672
G0 F4320 X32.506 Y49.957
G1 F2400 E9.73308
G1 F1800 X33.01 Y49.648 E9.75571
G1 X33.676 Y49.366 E9.78339
G1 X34.179 Y49.201 E9.80365
G1 X34.752 Y49.055 E9.82627
G1 X35.276 Y48.991 E9.84648
G1 X59.362 Y47.518 E10.76997
G1 X59.791 Y47.513 E10.78639
G1 X61.74 Y47.585 E10.86103
G1 X62.288 Y47.64 E10.8821
G1 X64.088 Y47.936 E10.95192
G1 X64.493 Y48.022 E10.96776
G1 X65.419 Y48.266 E11.00441
G1 X65.794 Y48.384 E11.01945
G1 X67.436 Y48.979 E11.08629
G1 X67.794 Y49.126 E11.1011
G1 X68.661 Y49.53 E11.13771
G1 X69.11 Y49.773 E11.15725
G1 X71.201 Y51.063 E11.25127
G1 X71.701 Y51.421 E11.2748
G1 X73.087 Y52.573 E11.34378
G1 X73.498 Y52.963 E11.36546
G1 X74.856 Y54.427 E11.44188
G1 X75.178 Y54.817 E11.46123
G1 X76.043 Y55.998 E11.51726
G1 X76.339 Y56.461 E11.53829
G1 X76.934 Y57.534 E11.58524
G1 X77.185 Y58.07 E11.60789
G1 X77.362 Y58.634 E11.63052
G1 X77.45 Y59.12 E11.64942
G1 X77.498 Y59.509 E11.66442
G1 X77.531 Y60.1 E11.68707
G1 X77.462 Y60.819 E11.71471
G1 X77.398 Y61.175 E11.72855
G1 X77.254 Y61.749 E11.7512
G1 X76.991 Y62.386 E11.77758
G1 X76.738 Y62.883 E11.79892
G1 X76.439 Y63.384 E11.82125
G1 X75.366 Y64.938 E11.89352
G1 X75.023 Y65.373 E11.91472
G1 X73.796 Y66.741 E11.98505
G1 X73.364 Y67.161 E12.0081
G1 X71.623 Y68.633 E12.09535
G1 X71.163 Y68.973 E12.11725
G1 X69.795 Y69.852 E12.17947
G1 X69.29 Y70.131 E12.20155
G1 X67.154 Y71.134 E12.29186
G1 X66.482 Y71.385 E12.31932
G1 X64.104 Y72.056 E12.41387
G1 X63.515 Y72.179 E12.4369
G1 X61.872 Y72.406 E12.50038
G1 X61.371 Y72.446 E12.51961
G1 X59.583 Y72.486 E12.58805
G1 X59.218 Y72.479 E12.60203
G1 X35.369 Y71.022 E13.51643
G1 X34.783 Y70.946 E13.53904
G1 X34.099 Y70.751 E13.56626
G1 X33.302 Y70.452 E13.59884
G1 X32.764 Y70.208 E13.62145
G1 X32.264 Y69.893 E13.64406
G1 X31.81 Y69.513 E13.66672
G1 X31.505 Y69.189 E13.68375
G1 X30.968 Y68.557 E13.71549
G1 X30.616 Y68.081 E13.73814
G1 X30.332 Y67.563 E13.76075
G1 X30.121 Y67.011 E13.78337
G1 X30.032 Y66.675 E13.79667
G1 X29.841 Y65.817 E13.83031
G1 X29.751 Y65.232 E13.85296
G1 X29.736 Y64.863 E13.86709
G1 X29.743 Y54.98 E14.24531
G1 X29.783 Y54.39 E14.26795
G1 X29.855 Y54 E14.28312
G1 X29.995 Y53.393 E14.30696
G1 X30.166 Y52.827 E14.32959
G1 X30.413 Y52.289 E14.35225
G1 X30.635 Y51.923 E14.36863
G1 X31.023 Y51.35 E14.39511
G1 X31.387 Y50.884 E14.41774
G1 X31.811 Y50.471 E14.44039
G1 X31.946 Y50.366 E14.44694
G0 F1620 X32.112 Y50.237
G0 X32.506 Y49.957
G0 F4320 X32.708 Y50.242
G1 F2400 E14.4735
G1 F1800 X33.193 Y49.947 E14.49522
G1 X33.785 Y49.699 E14.51979
G1 X34.288 Y49.534 E14.54004
G1 X34.838 Y49.395 E14.56175
G1 X35.297 Y49.341 E14.57944
G1 X59.383 Y47.868 E15.50293
G1 X59.778 Y47.863 E15.51805
G1 X61.727 Y47.935 E15.59269
G1 X62.231 Y47.985 E15.61207
G1 X64.031 Y48.281 E15.68188
G1 X64.404 Y48.361 E15.69648
G1 X65.33 Y48.605 E15.73313
G1 X65.675 Y48.713 E15.74697
G1 X67.317 Y49.308 E15.8138
G1 X67.646 Y49.444 E15.82743
G1 X68.513 Y49.848 E15.86403
G1 X68.926 Y50.07 E15.88198
G1 X71.017 Y51.36 E15.976
G1 X71.477 Y51.691 E15.99769
G1 X72.863 Y52.843 E16.06666
G1 X73.241 Y53.201 E16.08659
G1 X74.599 Y54.665 E16.16301
G1 X74.895 Y55.024 E16.18081
G1 X75.76 Y56.205 E16.23684
G1 X76.033 Y56.631 E16.2562
G1 X76.628 Y57.704 E16.30315
G1 X76.867 Y58.218 E16.32485
G1 X77.032 Y58.761 E16.34657
G1 X77.103 Y59.163 E16.36219
G1 X77.151 Y59.552 E16.37719
G1 X77.18 Y60.118 E16.39888
G1 X77.117 Y60.757 E16.42345
G1 X77.053 Y61.113 E16.43729
G1 X76.914 Y61.663 E16.459
G1 X76.679 Y62.227 E16.48239
G1 X76.426 Y62.724 E16.50373
G1 X76.151 Y63.185 E16.52427
G1 X75.078 Y64.739 E16.59654
G1 X74.762 Y65.139 E16.61605
G1 X73.535 Y66.507 E16.68638
G1 X73.138 Y66.894 E16.7076
G1 X71.397 Y68.366 E16.79485
G1 X70.974 Y68.678 E16.81496
G1 X69.606 Y69.557 E16.87719
G1 X69.141 Y69.814 E16.89752
G1 X67.005 Y70.817 E16.98783
G1 X66.387 Y71.048 E17.01308
G1 X64.009 Y71.719 E17.10764
G1 X63.467 Y71.832 E17.12883
G1 X61.824 Y72.059 E17.1923
G1 X61.363 Y72.096 E17.21
G1 X59.575 Y72.136 E17.27845
G1 X59.24 Y72.13 E17.29127
G1 X35.391 Y70.673 E18.20567
G1 X34.828 Y70.598 E18.22741
G1 X34.222 Y70.424 E18.25154
G1 X33.425 Y70.125 E18.28411
G1 X32.91 Y69.888 E18.30581
G1 X32.432 Y69.582 E18.32753
G1 X32.003 Y69.212 E18.34921
G1 X31.772 Y68.962 E18.36224
G1 X31.235 Y68.33 E18.39398
G1 X30.899 Y67.873 E18.41568
G1 X30.631 Y67.374 E18.43736
G1 X30.373 Y66.599 E18.46862
G1 X30.182 Y65.741 E18.50226
G1 X30.098 Y65.18 E18.52397
G1 X30.086 Y64.863 E18.53611
G1 X30.093 Y54.98 E18.91433
G1 X30.133 Y54.414 E18.93604
G1 X30.196 Y54.078 E18.94913
G1 X30.336 Y53.471 E18.97297
G1 X30.502 Y52.929 E18.99466
G1 X30.743 Y52.416 E19.01635
G1 X30.925 Y52.119 E19.02968
G1 X31.313 Y51.546 E19.05616
G1 X31.663 Y51.1 E19.07786
G1 X32.073 Y50.708 E19.09957
G1 X32.147 Y50.651 E19.10314
G0 F1620 X32.314 Y50.522
G0 X32.708 Y50.242
G0 F4320 X32.911 Y50.527
G1 F2400 E19.1297
G1 F1800 X33.375 Y50.247 E19.15044
G1 X33.895 Y50.031 E19.17199
G1 X34.398 Y49.866 E19.19225
G1 X34.923 Y49.736 E19.21295
G1 X35.319 Y49.69 E19.22821
G1 X59.405 Y48.217 E20.1517
G1 X59.765 Y48.213 E20.16548
G1 X61.714 Y48.285 E20.24012
G1 X62.174 Y48.331 E20.25781
G1 X63.974 Y48.627 E20.32762
G1 X64.314 Y48.699 E20.34092
G1 X65.24 Y48.943 E20.37757
G1 X65.556 Y49.042 E20.39024
G1 X67.198 Y49.637 E20.45708
G1 X67.498 Y49.761 E20.4695
G1 X68.365 Y50.165 E20.50611
G1 X68.743 Y50.368 E20.52253
G1 X70.834 Y51.658 E20.61655
G1 X71.253 Y51.96 E20.63632
G1 X72.639 Y53.112 E20.70529
G1 X72.984 Y53.439 E20.72348
G1 X74.342 Y54.903 E20.7999
G1 X74.613 Y55.23 E20.81615
G1 X75.478 Y56.411 E20.87218
G1 X75.727 Y56.801 E20.88989
G1 X76.322 Y57.874 E20.93684
G1 X76.549 Y58.366 E20.95758
G1 X76.701 Y58.886 E20.97831
G1 X76.755 Y59.206 E20.99073
G1 X76.803 Y59.595 E21.00573
G1 X76.83 Y60.136 E21.02646
G1 X76.773 Y60.695 E21.04796
G1 X76.709 Y61.051 E21.0618
G1 X76.574 Y61.576 E21.08255
G1 X76.367 Y62.068 E21.10298
G1 X76.114 Y62.565 E21.12432
G1 X75.863 Y62.986 E21.14308
G1 X74.79 Y64.54 E21.21535
G1 X74.502 Y64.906 E21.23317
G1 X73.275 Y66.274 E21.3035
G1 X72.912 Y66.626 E21.32285
G1 X71.171 Y68.098 E21.4101
G1 X70.785 Y68.384 E21.42849
G1 X69.417 Y69.263 E21.49072
G1 X68.992 Y69.498 E21.5093
G1 X66.856 Y70.501 E21.59961
G1 X66.292 Y70.711 E21.62264
G1 X63.914 Y71.382 E21.7172
G1 X63.419 Y71.485 E21.73655
G1 X61.776 Y71.712 E21.80002
G1 X61.355 Y71.746 E21.81619
G1 X59.567 Y71.786 E21.88463
G1 X59.261 Y71.78 E21.89635
G1 X35.412 Y70.323 E22.81075
G1 X34.875 Y70.25 E22.83149
G1 X34.345 Y70.096 E22.85261
G1 X33.548 Y69.797 E22.88519
G1 X33.056 Y69.57 E22.90592
G1 X32.603 Y69.273 E22.92665
G1 X32.038 Y68.736 E22.95648
G1 X31.501 Y68.104 E22.98822
G1 X31.182 Y67.666 E23.00896
G1 X30.93 Y67.186 E23.02971
G1 X30.715 Y66.523 E23.05638
G1 X30.524 Y65.665 E23.09002
G1 X30.436 Y64.863 E23.1209
G1 X30.443 Y54.98 E23.49912
G1 X30.483 Y54.44 E23.51984
G1 X30.537 Y54.157 E23.53087
G1 X30.677 Y53.55 E23.5547
G1 X30.837 Y53.032 E23.57545
G1 X31.215 Y52.315 E23.60647
G1 X31.603 Y51.742 E23.63296
G1 X31.939 Y51.317 E23.65369
G1 X32.359 Y50.946 E23.67514
G0 F1620 X32.517 Y50.807
G0 X32.911 Y50.527
G0 F4320 X33.114 Y50.813
G1 F2400 E23.70169
G1 F1800 X33.556 Y50.548 E23.72142
G1 X34.004 Y50.364 E23.73995
G1 X34.507 Y50.199 E23.76021
G1 X35.007 Y50.076 E23.77992
G1 X35.34 Y50.039 E23.79274
G1 X59.426 Y48.566 E24.71623
G1 X59.752 Y48.562 E24.72871
G1 X61.701 Y48.634 E24.80335
G1 X62.118 Y48.676 E24.81939
G1 X63.918 Y48.972 E24.8892
G1 X64.225 Y49.038 E24.90121
G1 X65.151 Y49.282 E24.93786
G1 X65.437 Y49.371 E24.94932
G1 X67.079 Y49.966 E25.01616
G1 X67.35 Y50.078 E25.02738
G1 X68.217 Y50.482 E25.06399
G1 X68.559 Y50.666 E25.07885
G1 X70.65 Y51.956 E25.17288
G1 X71.029 Y52.229 E25.19075
G1 X72.415 Y53.381 E25.25972
G1 X72.728 Y53.677 E25.27621
G1 X74.086 Y55.141 E25.35263
G1 X74.33 Y55.437 E25.36731
G1 X75.195 Y56.618 E25.42333
G1 X75.421 Y56.971 E25.43938
G1 X76.016 Y58.044 E25.48633
G1 X76.23 Y58.512 E25.50602
G1 X76.408 Y59.249 E25.53504
G1 X76.456 Y59.638 E25.55004
G1 X76.479 Y60.153 E25.56977
G1 X76.429 Y60.633 E25.58824
G1 X76.365 Y60.989 E25.60208
G1 X76.234 Y61.488 E25.62182
G1 X76.055 Y61.909 E25.63933
G1 X75.802 Y62.406 E25.66067
G1 X75.575 Y62.787 E25.67765
G1 X74.502 Y64.341 E25.74992
G1 X74.241 Y64.672 E25.76605
G1 X73.014 Y66.04 E25.83638
G1 X72.686 Y66.359 E25.85389
G1 X70.945 Y67.831 E25.94114
G1 X70.595 Y68.089 E25.95778
G1 X69.227 Y68.968 E26.02001
G1 X68.843 Y69.181 E26.03681
G1 X66.707 Y70.184 E26.12712
G1 X66.197 Y70.374 E26.14795
G1 X63.819 Y71.045 E26.24251
G1 X63.371 Y71.139 E26.26003
G1 X61.728 Y71.366 E26.3235
G1 X61.347 Y71.396 E26.33813
G1 X59.559 Y71.436 E26.40657
G1 X59.282 Y71.431 E26.41717
G1 X35.433 Y69.974 E27.33157
G1 X34.923 Y69.903 E27.35128
G1 X34.468 Y69.768 E27.36944
G1 X33.671 Y69.469 E27.40202
G1 X33.204 Y69.251 E27.42174
G1 X32.776 Y68.964 E27.44146
G1 X32.305 Y68.509 E27.46653
G1 X31.768 Y67.877 E27.49827
G1 X31.466 Y67.46 E27.51797
G1 X31.232 Y67 E27.53772
G1 X31.056 Y66.446 E27.55997
G1 X30.865 Y65.588 E27.59361
G1 X30.786 Y64.864 E27.62148
G1 X30.793 Y54.981 E27.9997
G1 X30.878 Y54.236 E28.0284
G1 X31.018 Y53.629 E28.05224
G1 X31.172 Y53.137 E28.07197
G1 X31.505 Y52.512 E28.09907
G1 X31.893 Y51.939 E28.12555
G1 X32.214 Y51.536 E28.14527
G1 X32.562 Y51.232 E28.16295
G0 F1620 X32.72 Y51.093
G0 X33.114 Y50.813
G0 F4320 X33.317 Y51.098
G1 F2400 E28.18951
G1 F1800 X33.736 Y50.849 E28.20816
G1 X34.113 Y50.696 E28.22373
G1 X34.616 Y50.531 E28.24399
G1 X35.09 Y50.418 E28.26264
G1 X35.361 Y50.389 E28.27307
G1 X59.447 Y48.916 E29.19656
G1 X59.739 Y48.912 E29.20774
G1 X61.688 Y48.984 E29.28238
G1 X62.061 Y49.021 E29.29672
G1 X63.861 Y49.317 E29.36653
G1 X64.136 Y49.376 E29.3773
G1 X65.062 Y49.62 E29.41395
G1 X65.318 Y49.7 E29.42421
G1 X66.96 Y50.295 E29.49105
G1 X67.203 Y50.395 E29.5011
G1 X68.07 Y50.799 E29.53771
G1 X68.375 Y50.964 E29.55098
G1 X70.466 Y52.254 E29.64501
G1 X70.806 Y52.498 E29.66102
G1 X72.192 Y53.65 E29.72999
G1 X72.471 Y53.915 E29.74472
G1 X73.829 Y55.379 E29.82114
G1 X74.048 Y55.644 E29.8343
G1 X74.913 Y56.825 E29.89032
G1 X75.115 Y57.14 E29.90464
G1 X75.71 Y58.213 E29.95159
G1 X75.91 Y58.657 E29.97023
G1 X76.061 Y59.292 E29.99521
G1 X76.109 Y59.681 E30.01021
G1 X76.128 Y60.168 E30.02886
G1 X76.084 Y60.571 E30.04438
G1 X76.02 Y60.927 E30.05822
G1 X75.895 Y61.398 E30.07687
G1 X75.743 Y61.751 E30.09158
G1 X75.49 Y62.248 E30.11292
G1 X75.287 Y62.588 E30.12807
G1 X74.214 Y64.142 E30.20034
G1 X73.981 Y64.438 E30.21476
G1 X72.754 Y65.806 E30.28509
G1 X72.46 Y66.092 E30.30078
G1 X70.719 Y67.564 E30.38803
G1 X70.406 Y67.795 E30.40292
G1 X69.038 Y68.674 E30.46515
G1 X68.694 Y68.864 E30.48019
G1 X66.558 Y69.867 E30.5705
G1 X66.102 Y70.037 E30.58912
G1 X63.724 Y70.708 E30.68368
G1 X63.323 Y70.792 E30.69936
G1 X61.68 Y71.019 E30.76284
