;FLAVOR:Marlin
;TIME:3890
;Filament used: 2.77357m
;Layer height: 0.175
;Generated with Cura_SteamEngine 3.6.0
M140 S65
M105
M190 S65
M104 S205
M105
M109 S205
M82 ;absolute extrusion mode
G21;(metric values)
G90;(absolute positioning)
M82;(set extruder to absolute mode)
M107;(start with the fan off)
G28;(Home the printer)
G92 E0;(Reset the extruder to 0)
G0 Z5 E5 F500;(Move up and prime the nozzle)
G0 X-1 Z0;(Move outside the printable area)
G1 Y60 E8 F500;(Draw a priming/wiping line to the rear)
G1 X-1;(Move a little closer to the print area)
G1 Y10 E16 F500;(draw more priming/wiping)
G1 E15 F250;(Small retract)
G92 E0;(Zero the extruder)
G92 E0
G1 F2400 E-2.5
;LAYER_COUNT:109
;LAYER:0
M107
G0 F4320 X36.647 Y38.065 Z0.263
;TYPE:SKIRT
G1 F2400 E0
G1 F1800 X37.171 Y37.603 E0.02673
G1 X38.415 Y36.65 E0.08671
G1 X38.944 Y36.295 E0.11109
G1 X39.556 Y35.991 E0.13724
G1 X41 Y35.392 E0.19707
G1 X41.603 Y35.186 E0.22145
G1 X42.282 Y35.049 E0.24796
G1 X43.837 Y34.844 E0.30799
G1 X44.472 Y34.8 E0.33235
G1 X45.163 Y34.844 E0.35884
G1 X46.718 Y35.049 E0.41887
G1 X47.343 Y35.171 E0.44324
G1 X48 Y35.392 E0.46977
G1 X49.444 Y35.991 E0.5296
G1 X50.015 Y36.272 E0.55395
G1 X50.585 Y36.65 E0.58012
G1 X51.829 Y37.603 E0.6401
G1 X52.31 Y38.022 E0.66451
G1 X52.771 Y38.545 E0.69119
G1 X53.237 Y39.154 E0.72054
G1 X53.368 Y39.251 E0.72677
G1 X53.615 Y39.474 E0.73951
G1 X59.112 Y44.782 E1.03195
G1 X59.25 Y44.867 E1.03815
G1 X59.747 Y45.265 E1.06252
G1 X60.19 Y45.722 E1.08688
G1 X60.573 Y46.232 E1.11128
G1 X60.888 Y46.785 E1.13564
G1 X61.132 Y47.374 E1.16004
G1 X61.3 Y47.988 E1.1844
G1 X61.404 Y48.929 E1.22063
G1 X61.458 Y52.05 E1.34009
G1 X95 Y52.05 E2.62374
G1 X95.636 Y52.09 E2.64813
G1 X96.261 Y52.209 E2.67248
G1 X96.867 Y52.406 E2.69686
G1 X97.443 Y52.677 E2.72122
G1 X97.981 Y53.018 E2.7456
G1 X98.472 Y53.424 E2.76998
G1 X98.908 Y53.888 E2.79435
G1 X99.283 Y54.403 E2.81873
G1 X99.59 Y54.96 E2.84307
G1 X99.825 Y55.552 E2.86745
G1 X99.984 Y56.169 E2.89183
G1 X100.065 Y56.801 E2.91621
G1 X100.075 Y57.125 E2.92862
G1 X100.075 Y61.125 E3.0817
G1 X100.035 Y61.761 E3.10609
G1 X99.916 Y62.386 E3.13044
G1 X99.719 Y62.992 E3.15482
G1 X99.448 Y63.568 E3.17918
G1 X99.107 Y64.106 E3.20356
G1 X98.701 Y64.597 E3.22794
G1 X98.237 Y65.033 E3.25231
G1 X97.722 Y65.408 E3.27669
G1 X97.165 Y65.715 E3.30103
G1 X96.573 Y65.95 E3.3254
G1 X95.956 Y66.109 E3.34979
G1 X95.324 Y66.19 E3.37417
G1 X95 Y66.2 E3.38658
G1 X82.727 Y66.2 E3.85627
G1 X82.81 Y66.272 E3.86047
G1 X83.271 Y66.795 E3.88715
G1 X84.225 Y68.04 E3.94718
G1 X84.58 Y68.569 E3.97156
G1 X84.885 Y69.184 E3.99783
G1 X85.483 Y70.627 E4.05761
G1 X85.69 Y71.23 E4.08201
G1 X85.826 Y71.907 E4.10843
G1 X86.031 Y73.462 E4.16846
G1 X86.075 Y74.097 E4.19282
G1 X86.031 Y74.788 E4.21931
G1 X85.826 Y76.343 E4.27934
G1 X85.704 Y76.968 E4.30371
G1 X85.483 Y77.623 E4.33016
G1 X84.885 Y79.066 E4.38994
G1 X84.605 Y79.638 E4.41431
G1 X84.225 Y80.21 E4.4406
G1 X83.271 Y81.455 E4.50062
G1 X82.853 Y81.935 E4.52498
G1 X82.329 Y82.397 E4.55171
G1 X81.085 Y83.35 E4.61169
G1 X80.556 Y83.705 E4.63607
G1 X79.944 Y84.009 E4.66222
G1 X78.5 Y84.608 E4.72205
G1 X77.897 Y84.814 E4.74643
G1 X77.218 Y84.951 E4.77294
G1 X75.663 Y85.156 E4.83297
G1 X75.028 Y85.2 E4.85733
G1 X74.337 Y85.156 E4.88382
G1 X72.782 Y84.951 E4.94385
G1 X72.157 Y84.829 E4.96822
G1 X71.5 Y84.608 E4.99475
G1 X70.056 Y84.009 E5.05457
G1 X69.485 Y83.728 E5.07893
G1 X68.915 Y83.35 E5.1051
G1 X67.671 Y82.397 E5.16508
G1 X67.19 Y81.978 E5.18949
G1 X66.729 Y81.455 E5.21617
G1 X65.775 Y80.21 E5.2762
G1 X65.42 Y79.681 E5.30058
G1 X65.115 Y79.066 E5.32685
G1 X64.56 Y77.727 E5.38232
G1 X60.145 Y73.312 E5.62127
G1 X60.019 Y73.232 E5.62698
G1 X59.528 Y72.826 E5.65136
G1 X59.092 Y72.362 E5.67573
G1 X58.717 Y71.847 E5.70011
G1 X58.41 Y71.29 E5.72445
G1 X58.175 Y70.698 E5.74882
G1 X58.016 Y70.081 E5.77321
G1 X57.935 Y69.449 E5.79759
G1 X57.925 Y69.125 E5.81
G1 X57.925 Y66.2 E5.92194
G1 X25 Y66.2 E7.18197
G1 X24.364 Y66.16 E7.20636
G1 X23.739 Y66.041 E7.23071
G1 X23.133 Y65.844 E7.2551
G1 X22.557 Y65.573 E7.27946
G1 X22.019 Y65.232 E7.30383
G1 X21.528 Y64.826 E7.32822
G1 X21.092 Y64.362 E7.35258
G1 X20.717 Y63.847 E7.37696
G1 X20.41 Y63.29 E7.4013
G1 X20.175 Y62.698 E7.42568
G1 X20.016 Y62.081 E7.45006
G1 X19.935 Y61.449 E7.47445
G1 X19.925 Y61.125 E7.48685
G1 X19.925 Y57.125 E7.63993
G1 X19.965 Y56.489 E7.66432
G1 X20.084 Y55.864 E7.68867
G1 X20.281 Y55.258 E7.71306
G1 X20.552 Y54.682 E7.73742
G1 X20.893 Y54.144 E7.76179
G1 X21.299 Y53.653 E7.78618
G1 X21.763 Y53.217 E7.81054
G1 X22.278 Y52.842 E7.83492
G1 X22.835 Y52.535 E7.85926
G1 X23.427 Y52.3 E7.88364
G1 X24.044 Y52.141 E7.90802
G1 X24.676 Y52.06 E7.93241
G1 X25 Y52.05 E7.94481
G1 X35.344 Y52.05 E8.34068
G1 X35.275 Y51.96 E8.34502
G1 X34.92 Y51.431 E8.3694
G1 X34.615 Y50.816 E8.39567
G1 X34.017 Y49.373 E8.45545
G1 X33.81 Y48.77 E8.47984
G1 X33.674 Y48.093 E8.50627
G1 X33.469 Y46.538 E8.5663
G1 X33.425 Y45.903 E8.59066
G1 X33.469 Y45.212 E8.61715
G1 X33.674 Y43.657 E8.67718
G1 X33.796 Y43.032 E8.70155
G1 X34.017 Y42.377 E8.728
G1 X34.615 Y40.934 E8.78778
G1 X34.895 Y40.362 E8.81215
G1 X35.275 Y39.79 E8.83843
G1 X36.194 Y38.591 E8.89625
G0 F1620 X36.229 Y38.545
G0 X36.647 Y38.065
G0 F4320 X36.911 Y38.296
G1 F2400 E8.92281
G1 F1800 X37.384 Y37.881 E8.94689
G1 X38.628 Y36.928 E9.00686
G1 X39.139 Y36.587 E9.03037
G1 X39.691 Y36.315 E9.05392
G1 X41.135 Y35.716 E9.11375
G1 X41.716 Y35.518 E9.13724
G1 X42.327 Y35.396 E9.16108
G1 X43.882 Y35.191 E9.22111
G1 X44.496 Y35.15 E9.24466
G1 X45.118 Y35.191 E9.26852
G1 X46.673 Y35.396 E9.32854
G1 X47.275 Y35.515 E9.35202
G1 X47.865 Y35.716 E9.37588
G1 X49.309 Y36.315 E9.43571
G1 X49.861 Y36.586 E9.45924
G1 X50.372 Y36.928 E9.48277
G1 X51.616 Y37.881 E9.54274
G1 X52.079 Y38.286 E9.56628
G1 X52.494 Y38.758 E9.59034
G1 X52.99 Y39.406 E9.62157
G1 X53.372 Y39.726 E9.64064
G1 X58.9 Y45.064 E9.93473
G1 X59.137 Y45.216 E9.9455
G1 X59.606 Y45.612 E9.96899
G1 X60.02 Y46.066 E9.99251
G1 X60.372 Y46.57 E10.01603
G1 X60.655 Y47.115 E10.03953
G1 X60.866 Y47.693 E10.06308
G1 X60.999 Y48.293 E10.0866
G1 X61.054 Y48.935 E10.11126
G1 X61.114 Y52.4 E10.24389
G1 X95 Y52.4 E11.5407
G1 X95.613 Y52.44 E11.56421
G1 X96.216 Y52.559 E11.58773
G1 X96.798 Y52.756 E11.61125
G1 X97.35 Y53.026 E11.63476
G1 X97.862 Y53.366 E11.65828
G1 X98.326 Y53.769 E11.6818
G1 X98.733 Y54.229 E11.70531
G1 X99.078 Y54.738 E11.72884
G1 X99.353 Y55.287 E11.75234
G1 X99.555 Y55.868 E11.77588
G1 X99.679 Y56.469 E11.79937
G1 X99.725 Y57.125 E11.82453
G1 X99.725 Y61.125 E11.97761
G1 X99.685 Y61.738 E12.00112
G1 X99.566 Y62.341 E12.02464
G1 X99.369 Y62.923 E12.04816
G1 X99.099 Y63.475 E12.07167
G1 X98.759 Y63.987 E12.0952
G1 X98.356 Y64.451 E12.11872
G1 X97.896 Y64.858 E12.14222
G1 X97.387 Y65.203 E12.16575
G1 X96.838 Y65.478 E12.18925
G1 X96.257 Y65.68 E12.21279
G1 X95.656 Y65.804 E12.23628
G1 X95 Y65.85 E12.26144
G1 X81.749 Y65.85 E12.76856
G1 X82.116 Y66.131 E12.78625
G1 X82.579 Y66.536 E12.80979
G1 X82.994 Y67.008 E12.83384
G1 X83.948 Y68.253 E12.89387
G1 X84.289 Y68.764 E12.91738
G1 X84.562 Y69.318 E12.94101
G1 X85.16 Y70.761 E13.00079
G1 X85.358 Y71.343 E13.02432
G1 X85.479 Y71.952 E13.04808
G1 X85.684 Y73.507 E13.10811
G1 X85.725 Y74.121 E13.13166
G1 X85.684 Y74.743 E13.15551
G1 X85.479 Y76.298 E13.21554
G1 X85.36 Y76.9 E13.23902
G1 X85.16 Y77.489 E13.26283
G1 X84.562 Y78.932 E13.3226
G1 X84.29 Y79.483 E13.34612
G1 X83.948 Y79.997 E13.36975
G1 X82.994 Y81.242 E13.42977
G1 X82.589 Y81.704 E13.45328
G1 X82.116 Y82.119 E13.47737
G1 X80.872 Y83.072 E13.53734
G1 X80.361 Y83.413 E13.56085
G1 X79.809 Y83.685 E13.5844
G1 X78.365 Y84.284 E13.64423
G1 X77.784 Y84.482 E13.66772
G1 X77.173 Y84.604 E13.69156
G1 X75.618 Y84.809 E13.75159
G1 X75.004 Y84.85 E13.77514
G1 X74.382 Y84.809 E13.79899
G1 X72.827 Y84.604 E13.85902
G1 X72.225 Y84.485 E13.8825
G1 X71.635 Y84.284 E13.90635
G1 X70.191 Y83.685 E13.96618
G1 X69.639 Y83.414 E13.98972
G1 X69.128 Y83.072 E14.01325
G1 X67.884 Y82.119 E14.07322
G1 X67.421 Y81.714 E14.09676
G1 X67.006 Y81.242 E14.12081
G1 X66.052 Y79.997 E14.18084
G1 X65.711 Y79.486 E14.20435
G1 X65.438 Y78.932 E14.22799
G1 X64.856 Y77.527 E14.28619
G1 X60.361 Y73.032 E14.52946
G1 X60.138 Y72.884 E14.53971
G1 X59.674 Y72.481 E14.56323
G1 X59.267 Y72.021 E14.58673
G1 X58.922 Y71.512 E14.61026
G1 X58.647 Y70.963 E14.63376
G1 X58.445 Y70.382 E14.6573
G1 X58.321 Y69.781 E14.68079
G1 X58.275 Y69.125 E14.70595
G1 X58.275 Y65.85 E14.83129
G1 X25 Y65.85 E16.10472
G1 X24.387 Y65.81 E16.12823
G1 X23.784 Y65.691 E16.15175
G1 X23.202 Y65.494 E16.17527
G1 X22.65 Y65.224 E16.19878
G1 X22.138 Y64.884 E16.2223
G1 X21.674 Y64.481 E16.24582
G1 X21.267 Y64.021 E16.26933
G1 X20.922 Y63.512 E16.29286
G1 X20.647 Y62.963 E16.31636
G1 X20.445 Y62.382 E16.3399
G1 X20.321 Y61.781 E16.36339
G1 X20.275 Y61.125 E16.38855
G1 X20.275 Y57.125 E16.54163
G1 X20.315 Y56.512 E16.56514
G1 X20.434 Y55.909 E16.58866
G1 X20.631 Y55.327 E16.61218
G1 X20.901 Y54.775 E16.63569
G1 X21.241 Y54.263 E16.65922
G1 X21.644 Y53.799 E16.68274
G1 X22.104 Y53.392 E16.70624
G1 X22.613 Y53.047 E16.72977
G1 X23.162 Y52.772 E16.75327
G1 X23.743 Y52.57 E16.77681
G1 X24.344 Y52.446 E16.8003
G1 X25 Y52.4 E16.82546
G1 X36.052 Y52.4 E17.24842
G1 X35.552 Y51.747 E17.2799
G1 X35.211 Y51.236 E17.30341
G1 X34.938 Y50.682 E17.32704
G1 X34.34 Y49.239 E17.38682
G1 X34.142 Y48.657 E17.41035
G1 X34.021 Y48.048 E17.43411
G1 X33.816 Y46.493 E17.49414
G1 X33.775 Y45.879 E17.51769
G1 X33.816 Y45.257 E17.54154
G1 X34.021 Y43.702 E17.60157
G1 X34.14 Y43.1 E17.62505
G1 X34.34 Y42.511 E17.64885
G1 X34.938 Y41.068 E17.70863
G1 X35.21 Y40.517 E17.73215
G1 X35.552 Y40.003 E17.75578
G1 X36.458 Y38.821 E17.81277
G0 F1620 X36.506 Y38.758
G0 X36.911 Y38.296
G0 F4320 X37.175 Y38.527
G1 F2400 E17.83933
G1 F1800 X37.596 Y38.159 E17.86073
G1 X38.84 Y37.206 E17.9207
G1 X39.333 Y36.879 E17.94334
G1 X39.825 Y36.638 E17.96431
G1 X41.269 Y36.039 E18.02414
G1 X41.829 Y35.85 E18.04675
G1 X42.373 Y35.743 E18.06797
G1 X43.928 Y35.538 E18.128
G1 X44.518 Y35.5 E18.15062
G1 X45.072 Y35.538 E18.17187
G1 X46.627 Y35.743 E18.2319
G1 X47.206 Y35.859 E18.2545
G1 X47.731 Y36.039 E18.27574
G1 X49.175 Y36.638 E18.33557
G1 X49.705 Y36.901 E18.35821
G1 X50.16 Y37.206 E18.37917
G1 X51.404 Y38.159 E18.43914
G1 X51.848 Y38.549 E18.46176
G1 X52.216 Y38.971 E18.48319
G1 X52.736 Y39.65 E18.51592
G1 X52.851 Y39.731 E18.5213
G1 X53.129 Y39.978 E18.53553
G1 X58.675 Y45.334 E18.8306
G1 X59.018 Y45.565 E18.84642
G1 X59.459 Y45.959 E18.86905
G1 X59.842 Y46.409 E18.89167
G1 X60.162 Y46.906 E18.91429
G1 X60.412 Y47.442 E18.93692
G1 X60.587 Y48.007 E18.95956
G1 X60.684 Y48.59 E18.98218
G1 X60.704 Y48.941 E18.99563
G1 X60.77 Y52.75 E19.14142
G1 X95 Y52.75 E20.4514
G1 X95.59 Y52.79 E20.47404
G1 X96.169 Y52.909 E20.49666
G1 X96.727 Y53.105 E20.51929
G1 X97.253 Y53.375 E20.54192
G1 X97.738 Y53.713 E20.56454
G1 X98.173 Y54.113 E20.58716
G1 X98.55 Y54.569 E20.6098
G1 X98.863 Y55.071 E20.63244
G1 X99.104 Y55.61 E20.65504
G1 X99.271 Y56.178 E20.67769
G1 X99.36 Y56.762 E20.7003
G1 X99.375 Y57.125 E20.7142
G1 X99.375 Y61.125 E20.86728
G1 X99.335 Y61.715 E20.88992
G1 X99.216 Y62.294 E20.91254
G1 X99.02 Y62.852 E20.93517
G1 X98.75 Y63.378 E20.9578
G1 X98.412 Y63.863 E20.98042
G1 X98.012 Y64.298 E21.00304
G1 X97.556 Y64.675 E21.02568
G1 X97.054 Y64.988 E21.04832
G1 X96.515 Y65.229 E21.07092
G1 X95.947 Y65.396 E21.09357
G1 X95.363 Y65.485 E21.11618
G1 X95 Y65.5 E21.13008
G1 X80.717 Y65.5 E21.67669
G1 X81.904 Y66.409 E21.73391
G1 X82.348 Y66.799 E21.75653
G1 X82.716 Y67.221 E21.77795
G1 X83.67 Y68.466 E21.83798
G1 X83.997 Y68.959 E21.86062
G1 X84.239 Y69.452 E21.88164
G1 X84.837 Y70.895 E21.94142
G1 X85.026 Y71.455 E21.96403
G1 X85.132 Y71.998 E21.98521
G1 X85.337 Y73.553 E22.04523
G1 X85.375 Y74.143 E22.06786
G1 X85.337 Y74.697 E22.08911
G1 X85.132 Y76.252 E22.14913
G1 X85.016 Y76.831 E22.17173
G1 X84.837 Y77.355 E22.19292
G1 X84.239 Y78.798 E22.2527
G1 X83.976 Y79.328 E22.27534
G1 X83.67 Y79.784 E22.29636
G1 X82.716 Y81.029 E22.35639
G1 X82.325 Y81.473 E22.37903
G1 X81.904 Y81.841 E22.40043
G1 X80.66 Y82.794 E22.4604
G1 X80.167 Y83.121 E22.48304
G1 X79.675 Y83.362 E22.50401
G1 X78.231 Y83.961 E22.56383
G1 X77.671 Y84.15 E22.58645
G1 X77.127 Y84.257 E22.60767
G1 X75.572 Y84.462 E22.66769
G1 X74.982 Y84.5 E22.69032
G1 X74.428 Y84.462 E22.71157
G1 X72.873 Y84.257 E22.7716
G1 X72.294 Y84.141 E22.7942
G1 X71.769 Y83.961 E22.81544
G1 X70.325 Y83.362 E22.87526
G1 X69.795 Y83.099 E22.89791
G1 X69.34 Y82.794 E22.91887
G1 X68.096 Y81.841 E22.97884
G1 X67.652 Y81.451 E23.00146
G1 X67.284 Y81.029 E23.02289
G1 X66.33 Y79.784 E23.08291
G1 X66.003 Y79.291 E23.10555
G1 X65.761 Y78.798 E23.12657
G1 X65.163 Y77.355 E23.18635
G1 X65.155 Y77.332 E23.18728
G1 X60.585 Y72.762 E23.43462
G1 X60.262 Y72.537 E23.44968
G1 X59.827 Y72.137 E23.4723
G1 X59.45 Y71.681 E23.49494
G1 X59.137 Y71.179 E23.51758
G1 X58.896 Y70.64 E23.54017
G1 X58.729 Y70.072 E23.56283
G1 X58.64 Y69.488 E23.58544
G1 X58.625 Y69.125 E23.59934
G1 X58.625 Y65.5 E23.73807
G1 X25 Y65.5 E25.0249
G1 X24.41 Y65.46 E25.04753
G1 X23.831 Y65.341 E25.07015
G1 X23.273 Y65.145 E25.09278
G1 X22.747 Y64.875 E25.11541
G1 X22.262 Y64.537 E25.13804
G1 X21.827 Y64.137 E25.16065
G1 X21.45 Y63.681 E25.18329
G1 X21.137 Y63.179 E25.20593
G1 X20.896 Y62.64 E25.22853
G1 X20.729 Y62.072 E25.25119
G1 X20.64 Y61.488 E25.27379
G1 X20.625 Y61.125 E25.2877
G1 X20.625 Y57.125 E25.44078
G1 X20.665 Y56.535 E25.46341
G1 X20.784 Y55.956 E25.48603
G1 X20.98 Y55.398 E25.50866
G1 X21.25 Y54.872 E25.53129
G1 X21.588 Y54.387 E25.55392
G1 X21.988 Y53.952 E25.57653
G1 X22.444 Y53.575 E25.59917
G1 X22.946 Y53.262 E25.62181
G1 X23.485 Y53.021 E25.64441
G1 X24.053 Y52.854 E25.66707
G1 X24.637 Y52.765 E25.68967
G1 X25 Y52.75 E25.70358
G1 X36.762 Y52.75 E26.15371
G1 X35.83 Y51.534 E26.21234
G1 X35.503 Y51.041 E26.23498
G1 X35.261 Y50.548 E26.256
G1 X34.663 Y49.105 E26.31578
G1 X34.474 Y48.545 E26.3384
G1 X34.368 Y48.002 E26.35957
G1 X34.163 Y46.447 E26.41959
G1 X34.125 Y45.857 E26.44222
G1 X34.163 Y45.303 E26.46347
G1 X34.368 Y43.748 E26.5235
G1 X34.484 Y43.169 E26.54609
G1 X34.663 Y42.645 E26.56729
G1 X35.261 Y41.202 E26.62706
G1 X35.524 Y40.672 E26.64971
G1 X35.83 Y40.216 E26.67072
G1 X36.722 Y39.052 E26.72684
G0 F1620 X36.784 Y38.971
G0 X37.175 Y38.527
G0 F4320 X37.438 Y38.759
G1 F2400 E26.7534
G1 F1800 X37.809 Y38.437 E26.7722
G1 X39.053 Y37.484 E26.83218
G1 X39.527 Y37.172 E26.85389
G1 X39.959 Y36.961 E26.87229
G1 X41.403 Y36.362 E26.93212
G1 X41.941 Y36.182 E26.95383
G1 X42.419 Y36.09 E26.97246
G1 X43.974 Y35.885 E27.03248
G1 X44.54 Y35.85 E27.05419
G1 X45.026 Y35.885 E27.07283
G1 X46.581 Y36.09 E27.13286
G1 X47.137 Y36.203 E27.15457
G1 X47.597 Y36.362 E27.1732
G1 X49.041 Y36.961 E27.23303
G1 X49.548 Y37.215 E27.25473
G1 X49.947 Y37.484 E27.27314
G1 X51.191 Y38.437 E27.33312
G1 X51.616 Y38.813 E27.35483
G1 X51.938 Y39.184 E27.37363
G1 X52.49 Y39.905 E27.40838
G1 X52.886 Y40.23 E27.42799
G1 X58.429 Y45.583 E27.72289
G1 X58.432 Y45.584 E27.72301
G1 X58.893 Y45.914 E27.74471
G1 X59.304 Y46.305 E27.76642
G1 X59.656 Y46.75 E27.78813
G1 X59.941 Y47.239 E27.80979
G1 X60.155 Y47.765 E27.83152
G1 X60.293 Y48.315 E27.85322
G1 X60.354 Y48.947 E27.87752
G1 X60.426 Y53.1 E28.03648
G1 X95 Y53.1 E29.35963
G1 X95.566 Y53.14 E29.38134
G1 X96.12 Y53.259 E29.40303
G1 X96.652 Y53.455 E29.42472
G1 X97.152 Y53.723 E29.44643
G1 X97.608 Y54.06 E29.46813
G1 X98.013 Y54.457 E29.48984
G1 X98.359 Y54.907 E29.51156
G1 X98.637 Y55.401 E29.53325
G1 X98.843 Y55.929 E29.55494
G1 X98.973 Y56.481 E29.57665
G1 X99.025 Y57.125 E29.60137
G1 X99.025 Y61.125 E29.75445
G1 X98.985 Y61.691 E29.77617
G1 X98.866 Y62.245 E29.79785
G1 X98.67 Y62.777 E29.81955
G1 X98.402 Y63.277 E29.84126
G1 X98.065 Y63.733 E29.86296
G1 X97.668 Y64.138 E29.88466
G1 X97.218 Y64.484 E29.90639
G1 X96.724 Y64.762 E29.92808
G1 X96.196 Y64.968 E29.94977
G1 X95.644 Y65.098 E29.97147
G1 X95 Y65.15 E29.9962
G1 X79.394 Y65.15 E30.59344
G1 X79.541 Y65.211 E30.59953
G1 X80.048 Y65.465 E30.62123
G1 X80.447 Y65.734 E30.63965
G1 X81.691 Y66.687 E30.69962
G1 X82.116 Y67.063 E30.72134
G1 X82.438 Y67.434 E30.74014
