;FLAVOR:Marlin
;TIME:830
;Filament used: 0.44743m
;Layer height: 0.175
;Generated with Cura_SteamEngine 3.6.0
M140 S60
M105
M190 S60
M104 S200
M105
M109 S200
M82 ;absolute extrusion mode
G21;(metric values)
G90;(absolute positioning)
M82;(set extruder to absolute mode)
M107;(start with the fan off)
G28;(Home the printer)
G92 E0;(Reset the extruder to 0)
G0 Z5 E5 F500;(Move up and prime the nozzle)
G0 X-1 Z0;(Move outside the printable area)
G1 Y60 E8 F500;(Draw a priming/wiping line to the rear)
G1 X-1;(Move a little closer to the print area)
G1 Y10 E16 F500;(draw more priming/wiping)
G1 E15 F250;(Small retract)
G92 E0;(Zero the extruder)
G92 E0
G1 F2400 E-2.5
;LAYER_COUNT:46
;LAYER:0
M107
G0 F4320 X46.864 Y42.466 Z0.263
;TYPE:SKIRT
G1 F2400 E0
G1 F1800 X47.368 Y41.918 E0.02849
G1 X47.827 Y41.477 E0.05285
G1 X48.339 Y41.097 E0.07725
G1 X48.88 Y40.791 E0.10104
G1 X49.467 Y40.505 E0.12603
G1 X50.056 Y40.262 E0.15041
G1 X50.671 Y40.095 E0.1748
G1 X51.301 Y40.007 E0.19915
G1 X51.69 Y39.992 E0.21404
G1 X68.31 Y39.992 E0.85009
G1 X68.946 Y40.032 E0.87448
G1 X69.571 Y40.151 E0.89883
G1 X70.177 Y40.348 E0.92321
G1 X70.533 Y40.505 E0.9381
G1 X71.12 Y40.791 E0.96309
G1 X71.674 Y41.105 E0.98746
G1 X72.184 Y41.486 E1.01182
G1 X72.632 Y41.918 E1.03564
G1 X73.136 Y42.466 E1.06414
G1 X73.537 Y42.96 E1.08849
G1 X73.813 Y43.394 E1.10817
G1 X74.013 Y43.746 E1.12366
G1 X74.293 Y44.318 E1.14803
G1 X74.405 Y44.617 E1.16025
G1 X74.687 Y45.445 E1.19373
G1 X74.854 Y46.059 E1.21808
G1 X74.93 Y46.553 E1.23721
G1 X75.026 Y47.471 E1.27253
G1 X75.054 Y48.004 E1.29296
G1 X75.03 Y72.469 E2.22923
G1 X74.989 Y73.105 E2.25362
G1 X74.916 Y73.533 E2.27024
G1 X74.726 Y74.415 E2.30477
G1 X74.553 Y75.028 E2.32914
G1 X74.334 Y75.555 E2.35098
G1 X73.97 Y76.308 E2.38299
G1 X73.658 Y76.863 E2.40736
G1 X73.136 Y77.534 E2.43989
G1 X72.632 Y78.082 E2.46838
G1 X72.173 Y78.523 E2.49274
G1 X71.661 Y78.903 E2.51714
G1 X71.12 Y79.209 E2.54093
G1 X70.533 Y79.495 E2.56592
G1 X69.944 Y79.738 E2.5903
G1 X69.329 Y79.905 E2.61469
G1 X68.699 Y79.993 E2.63904
G1 X68.34 Y80.008 E2.65279
G1 X62.033 Y80.045 E2.89416
G1 X61.397 Y80.009 E2.91854
G1 X60.771 Y79.893 E2.9429
G1 X60.164 Y79.7 E2.96728
G1 X59.999 Y79.624 E2.97423
G1 X59.57 Y79.794 E2.99189
G1 X58.953 Y79.953 E3.01628
G1 X58.321 Y80.034 E3.04066
G1 X57.968 Y80.044 E3.05417
G1 X51.661 Y80.008 E3.29555
G1 X51.026 Y79.964 E3.31991
G1 X50.401 Y79.842 E3.34428
G1 X49.796 Y79.641 E3.36867
G1 X49.467 Y79.495 E3.38245
G1 X48.88 Y79.209 E3.40744
G1 X48.326 Y78.895 E3.43181
G1 X47.816 Y78.514 E3.45617
G1 X47.368 Y78.082 E3.47999
G1 X46.864 Y77.534 E3.50848
G1 X46.463 Y77.04 E3.53283
G1 X46.187 Y76.606 E3.55252
G1 X45.987 Y76.254 E3.56801
G1 X45.707 Y75.682 E3.59238
G1 X45.595 Y75.383 E3.6046
G1 X45.313 Y74.555 E3.63808
G1 X45.146 Y73.941 E3.66243
G1 X45.07 Y73.447 E3.68155
G1 X44.974 Y72.529 E3.71688
G1 X44.946 Y71.996 E3.7373
G1 X44.97 Y47.531 E4.67358
G1 X45.011 Y46.895 E4.69797
G1 X45.084 Y46.467 E4.71458
G1 X45.274 Y45.585 E4.74911
G1 X45.447 Y44.972 E4.77349
G1 X45.666 Y44.445 E4.79533
G1 X46.03 Y43.692 E4.82734
G1 X46.342 Y43.137 E4.8517
G1 X46.438 Y43.013 E4.8577
G0 F1620 X46.864 Y42.466
G0 F4320 X47.121 Y42.702
G1 F2400 E4.88426
G1 F1800 X47.625 Y42.154 E4.91276
G1 X48.07 Y41.73 E4.93628
G1 X48.566 Y41.367 E4.9598
G1 X49.033 Y41.105 E4.98029
G1 X49.62 Y40.819 E5.00528
G1 X50.189 Y40.587 E5.0288
G1 X50.783 Y40.43 E5.05231
G1 X51.69 Y40.342 E5.08719
G1 X68.31 Y40.342 E5.72323
G1 X68.923 Y40.382 E5.74674
G1 X69.526 Y40.501 E5.77026
G1 X70.38 Y40.819 E5.80514
G1 X70.967 Y41.105 E5.83013
G1 X71.5 Y41.41 E5.85363
G1 X71.99 Y41.781 E5.87715
G1 X72.375 Y42.154 E5.89766
G1 X72.879 Y42.702 E5.92616
G1 X73.264 Y43.181 E5.94968
G1 X73.509 Y43.567 E5.96717
G1 X73.709 Y43.919 E5.98267
G1 X74.074 Y44.73 E6.0167
G1 X74.356 Y45.558 E6.05018
G1 X74.516 Y46.151 E6.07368
G1 X74.582 Y46.59 E6.09067
G1 X74.678 Y47.508 E6.126
G1 X74.704 Y48.004 E6.145
G1 X74.68 Y72.469 E7.08128
G1 X74.639 Y73.082 E7.10479
G1 X74.574 Y73.459 E7.11943
G1 X74.384 Y74.341 E7.15396
G1 X74.216 Y74.932 E7.17747
G1 X74.019 Y75.402 E7.19698
G1 X73.655 Y76.155 E7.22898
G1 X73.352 Y76.69 E7.25251
G1 X72.879 Y77.298 E7.28199
G1 X72.375 Y77.846 E7.31049
G1 X71.93 Y78.27 E7.33401
G1 X71.434 Y78.633 E7.35753
G1 X70.967 Y78.895 E7.37802
G1 X70.38 Y79.181 E7.40301
G1 X69.811 Y79.413 E7.42653
G1 X69.217 Y79.57 E7.45004
G1 X68.338 Y79.658 E7.48385
G1 X62.031 Y79.695 E7.72522
G1 X61.417 Y79.659 E7.74876
G1 X60.814 Y79.543 E7.77226
G1 X60.23 Y79.35 E7.7958
G1 X60 Y79.239 E7.80557
G1 X59.835 Y79.322 E7.81264
G1 X59.254 Y79.524 E7.83618
G1 X58.653 Y79.648 E7.85967
G1 X57.97 Y79.694 E7.88586
G1 X51.663 Y79.658 E8.12724
G1 X51.05 Y79.614 E8.15076
G1 X50.448 Y79.492 E8.17426
G1 X49.62 Y79.181 E8.20811
G1 X49.033 Y78.895 E8.2331
G1 X48.5 Y78.59 E8.2566
G1 X48.01 Y78.219 E8.28012
G1 X47.625 Y77.846 E8.30064
G1 X47.121 Y77.298 E8.32913
G1 X46.736 Y76.819 E8.35265
G1 X46.491 Y76.433 E8.37015
G1 X46.291 Y76.081 E8.38564
G1 X45.926 Y75.27 E8.41967
G1 X45.644 Y74.442 E8.45315
G1 X45.484 Y73.849 E8.47665
G1 X45.418 Y73.41 E8.49364
G1 X45.322 Y72.492 E8.52897
G1 X45.296 Y71.996 E8.54798
G1 X45.32 Y47.531 E9.48425
G1 X45.361 Y46.918 E9.50776
G1 X45.426 Y46.541 E9.5224
G1 X45.616 Y45.659 E9.55693
G1 X45.784 Y45.068 E9.58044
G1 X45.981 Y44.598 E9.59995
G1 X46.345 Y43.845 E9.63196
G1 X46.648 Y43.31 E9.65549
G1 X46.695 Y43.249 E9.65843
G0 F1620 X47.121 Y42.702
G0 F4320 X47.379 Y42.939
G1 F2400 E9.68499
G1 F1800 X47.883 Y42.391 E9.71348
G1 X48.312 Y41.984 E9.73612
G1 X48.791 Y41.639 E9.75871
G1 X49.187 Y41.42 E9.77602
G1 X49.774 Y41.134 E9.80101
G1 X50.322 Y40.912 E9.82364
G1 X50.894 Y40.765 E9.84624
G1 X51.69 Y40.692 E9.87683
G1 X68.31 Y40.692 E10.51288
G1 X68.9 Y40.732 E10.53551
G1 X69.479 Y40.851 E10.55813
G1 X70.226 Y41.134 E10.5887
G1 X70.813 Y41.42 E10.61369
G1 X71.326 Y41.714 E10.63632
G1 X71.795 Y42.075 E10.65897
G1 X72.117 Y42.391 E10.67624
G1 X72.621 Y42.939 E10.70473
G1 X72.991 Y43.401 E10.72738
G1 X73.205 Y43.74 E10.74272
G1 X73.405 Y44.092 E10.75822
G1 X73.742 Y44.843 E10.78972
G1 X74.024 Y45.671 E10.82319
G1 X74.177 Y46.242 E10.84582
G1 X74.234 Y46.626 E10.86067
G1 X74.33 Y47.544 E10.896
G1 X74.354 Y48.003 E10.91359
G1 X74.33 Y72.468 E11.84986
G1 X74.289 Y73.058 E11.87249
G1 X74.232 Y73.385 E11.8852
G1 X74.042 Y74.267 E11.91973
G1 X73.879 Y74.836 E11.94238
G1 X73.704 Y75.25 E11.95958
G1 X73.34 Y76.003 E11.99159
G1 X73.047 Y76.517 E12.01423
G1 X72.621 Y77.061 E12.04067
G1 X72.117 Y77.609 E12.06916
G1 X71.688 Y78.016 E12.09179
G1 X71.209 Y78.361 E12.11439
G1 X70.813 Y78.58 E12.1317
G1 X70.226 Y78.866 E12.15669
G1 X69.678 Y79.088 E12.17932
G1 X69.106 Y79.235 E12.20192
G1 X68.336 Y79.308 E12.23152
G1 X62.029 Y79.345 E12.47289
G1 X61.439 Y79.308 E12.49552
G1 X60.859 Y79.193 E12.51815
G1 X60.3 Y79 E12.54078
G1 X60.007 Y78.852 E12.55334
G1 X59.512 Y79.073 E12.57409
G1 X58.944 Y79.24 E12.59674
G1 X58.36 Y79.329 E12.61935
G1 X57.972 Y79.344 E12.63421
G1 X51.665 Y79.308 E12.87558
G1 X51.075 Y79.265 E12.89822
G1 X50.497 Y79.142 E12.92084
G1 X49.774 Y78.866 E12.95046
G1 X49.187 Y78.58 E12.97544
G1 X48.674 Y78.286 E12.99807
G1 X48.205 Y77.925 E13.02072
G1 X47.883 Y77.609 E13.03799
G1 X47.379 Y77.061 E13.06648
G1 X47.009 Y76.599 E13.08913
G1 X46.795 Y76.26 E13.10448
G1 X46.595 Y75.908 E13.11997
G1 X46.258 Y75.157 E13.15147
G1 X45.976 Y74.329 E13.18495
G1 X45.823 Y73.758 E13.20757
G1 X45.766 Y73.374 E13.22243
G1 X45.67 Y72.456 E13.25775
G1 X45.646 Y71.997 E13.27534
G1 X45.67 Y47.532 E14.21161
G1 X45.711 Y46.942 E14.23425
G1 X45.768 Y46.615 E14.24695
G1 X45.958 Y45.733 E14.28148
G1 X46.121 Y45.164 E14.30413
G1 X46.296 Y44.75 E14.32133
G1 X46.66 Y43.997 E14.35334
G1 X46.952 Y43.486 E14.37586
G0 F1620 X46.953 Y43.483
G0 X47.379 Y42.939
G0 F4320 X47.636 Y43.176
G1 F2400 E14.40242
G1 F1800 X48.14 Y42.628 E14.43091
G1 X48.553 Y42.239 E14.45263
G1 X49.016 Y41.911 E14.47434
G1 X49.34 Y41.735 E14.48845
G1 X49.927 Y41.449 E14.51344
G1 X50.453 Y41.237 E14.53515
G1 X51.004 Y41.101 E14.55686
G1 X51.69 Y41.042 E14.58321
G1 X68.31 Y41.042 E15.21926
G1 X68.876 Y41.082 E15.24098
G1 X69.43 Y41.201 E15.26266
G1 X70.073 Y41.449 E15.28904
G1 X70.66 Y41.735 E15.31402
G1 X71.151 Y42.018 E15.33571
G1 X71.597 Y42.368 E15.35741
G1 X71.86 Y42.628 E15.37156
G1 X72.364 Y43.176 E15.40006
G1 X72.717 Y43.62 E15.42176
G1 X72.901 Y43.913 E15.435
G1 X73.101 Y44.265 E15.4505
G1 X73.411 Y44.955 E15.47945
G1 X73.693 Y45.783 E15.51292
G1 X73.838 Y46.332 E15.53465
G1 X73.886 Y46.662 E15.54741
G1 X73.982 Y47.58 E15.58274
G1 X74.004 Y48.003 E15.59895
G1 X73.98 Y72.468 E16.53522
G1 X73.89 Y73.312 E16.56771
G1 X73.7 Y74.194 E16.60223
G1 X73.542 Y74.738 E16.62391
G1 X73.389 Y75.098 E16.63888
G1 X73.025 Y75.851 E16.67089
G1 X72.743 Y76.343 E16.69259
G1 X72.364 Y76.824 E16.71603
G1 X71.86 Y77.372 E16.74452
G1 X71.447 Y77.761 E16.76623
G1 X70.984 Y78.089 E16.78795
G1 X70.66 Y78.265 E16.80206
G1 X70.073 Y78.551 E16.82705
G1 X69.547 Y78.763 E16.84875
G1 X68.996 Y78.899 E16.87047
G1 X68.334 Y78.958 E16.89591
G1 X62.027 Y78.995 E17.13728
G1 X61.461 Y78.958 E17.15899
G1 X60.906 Y78.842 E17.18068
G1 X60.372 Y78.65 E17.2024
G1 X59.997 Y78.451 E17.21865
G1 X59.721 Y78.606 E17.23076
G1 X59.193 Y78.812 E17.25245
G1 X58.641 Y78.942 E17.27416
G1 X57.974 Y78.994 E17.29976
G1 X51.667 Y78.958 E17.54113
G1 X51.102 Y78.915 E17.56282
G1 X50.548 Y78.793 E17.58453
G1 X49.927 Y78.551 E17.61003
G1 X49.34 Y78.265 E17.63502
G1 X48.849 Y77.982 E17.65671
G1 X48.403 Y77.632 E17.67841
G1 X48.14 Y77.372 E17.69256
G1 X47.636 Y76.824 E17.72105
G1 X47.283 Y76.38 E17.74276
G1 X47.099 Y76.087 E17.756
G1 X46.899 Y75.735 E17.77149
G1 X46.589 Y75.045 E17.80044
G1 X46.307 Y74.217 E17.83392
G1 X46.162 Y73.668 E17.85565
G1 X46.114 Y73.338 E17.86841
G1 X46.018 Y72.42 E17.90373
G1 X45.996 Y71.997 E17.91994
G1 X46.02 Y47.532 E18.85622
G1 X46.11 Y46.688 E18.8887
G1 X46.3 Y45.806 E18.92323
G1 X46.458 Y45.262 E18.94491
G1 X46.611 Y44.902 E18.95988
G1 X46.975 Y44.149 E18.99189
G1 X47.217 Y43.728 E19.01047
G0 F1620 X47.257 Y43.657
G0 X47.636 Y43.176
G0 F4320 X47.894 Y43.413
G1 F2400 E19.03703
G1 F1800 X48.398 Y42.865 E19.06552
G1 X48.793 Y42.495 E19.08624
G1 X49.239 Y42.186 E19.107
G1 X49.493 Y42.049 E19.11804
G1 X50.08 Y41.763 E19.14303
G1 X50.584 Y41.562 E19.1638
G1 X51.111 Y41.438 E19.18452
G1 X51.69 Y41.392 E19.20675
G1 X68.31 Y41.392 E19.84279
G1 X68.85 Y41.432 E19.86352
G1 X69.379 Y41.551 E19.88427
G1 X69.92 Y41.763 E19.9065
G1 X70.507 Y42.049 E19.93149
G1 X70.975 Y42.322 E19.95223
G1 X71.398 Y42.66 E19.97295
G1 X71.602 Y42.865 E19.98402
G1 X72.106 Y43.413 E20.01251
G1 X72.442 Y43.838 E20.03324
G1 X72.596 Y44.086 E20.04441
G1 X72.796 Y44.438 E20.05991
G1 X73.08 Y45.068 E20.08635
G1 X73.362 Y45.896 E20.11983
G1 X73.498 Y46.421 E20.14058
G1 X73.538 Y46.699 E20.15133
G1 X73.634 Y47.617 E20.18666
G1 X73.654 Y48.003 E20.20145
G1 X73.63 Y72.468 E21.13772
G1 X73.548 Y73.238 E21.16736
G1 X73.358 Y74.12 E21.20189
G1 X73.205 Y74.64 E21.22263
G1 X73.074 Y74.945 E21.23533
G1 X72.71 Y75.698 E21.26734
G1 X72.439 Y76.168 E21.2881
G1 X72.106 Y76.587 E21.30859
G1 X71.602 Y77.135 E21.33708
G1 X71.207 Y77.505 E21.35779
G1 X70.761 Y77.814 E21.37856
G1 X70.507 Y77.951 E21.3896
G1 X69.92 Y78.237 E21.41459
G1 X69.416 Y78.438 E21.43536
G1 X68.889 Y78.562 E21.45607
G1 X68.332 Y78.608 E21.47746
G1 X62.025 Y78.645 E21.71884
G1 X61.484 Y78.608 E21.73959
G1 X60.955 Y78.492 E21.76031
G1 X60.448 Y78.3 E21.78106
G1 X59.993 Y78.045 E21.80102
G1 X59.879 Y78.125 E21.80635
G1 X59.395 Y78.368 E21.82708
G1 X58.88 Y78.536 E21.84781
G1 X58.346 Y78.627 E21.86854
G1 X57.976 Y78.644 E21.88272
G1 X51.669 Y78.608 E22.12409
G1 X51.129 Y78.565 E22.14482
G1 X50.601 Y78.443 E22.16556
G1 X50.08 Y78.237 E22.187
G1 X49.493 Y77.951 E22.21199
G1 X49.025 Y77.678 E22.23272
G1 X48.602 Y77.34 E22.25344
G1 X48.398 Y77.135 E22.26451
G1 X47.894 Y76.587 E22.293
G1 X47.558 Y76.162 E22.31374
G1 X47.404 Y75.914 E22.32491
G1 X47.204 Y75.562 E22.3404
G1 X46.92 Y74.932 E22.36685
G1 X46.638 Y74.104 E22.40033
G1 X46.502 Y73.579 E22.42108
G1 X46.462 Y73.301 E22.43183
G1 X46.366 Y72.383 E22.46715
G1 X46.346 Y71.997 E22.48194
G1 X46.37 Y47.532 E23.41822
G1 X46.452 Y46.762 E23.44785
G1 X46.642 Y45.88 E23.48238
G1 X46.795 Y45.36 E23.50313
G1 X46.926 Y45.055 E23.51583
G1 X47.29 Y44.302 E23.54784
G1 X47.482 Y43.969 E23.56255
G0 F1620 X47.561 Y43.832
G0 X47.894 Y43.413
G0 F4320 X48.152 Y43.65
G1 F2400 E23.58911
G1 F1800 X48.656 Y43.102 E23.6176
G1 X49.033 Y42.751 E23.63731
G1 X49.647 Y42.364 E23.66509
G1 X50.234 Y42.078 E23.69008
G1 X50.713 Y41.889 E23.70978
G1 X51.216 Y41.776 E23.72951
G1 X51.69 Y41.742 E23.7477
G1 X68.31 Y41.742 E24.38375
G1 X68.824 Y41.782 E24.40348
G1 X69.325 Y41.901 E24.42318
G1 X69.766 Y42.078 E24.44137
G1 X70.353 Y42.364 E24.46636
G1 X70.798 Y42.625 E24.4861
G1 X71.344 Y43.102 E24.51385
G1 X71.848 Y43.65 E24.54234
G1 X72.292 Y44.258 E24.57115
G1 X72.492 Y44.61 E24.58665
G1 X72.748 Y45.181 E24.61059
G1 X73.03 Y46.009 E24.64407
G1 X73.19 Y46.735 E24.67252
G1 X73.286 Y47.653 E24.70784
G1 X73.304 Y48.002 E24.72122
G1 X73.28 Y72.467 E25.65749
G1 X73.205 Y73.164 E25.68432
G1 X73.015 Y74.046 E25.71885
G1 X72.868 Y74.54 E25.73857
G1 X72.759 Y74.793 E25.74912
G1 X72.395 Y75.546 E25.78112
G1 X72.135 Y75.991 E25.80085
G1 X71.848 Y76.35 E25.81844
G1 X71.344 Y76.898 E25.84693
G1 X70.967 Y77.249 E25.86664
G1 X70.353 Y77.636 E25.89442
G1 X69.766 Y77.922 E25.91941
G1 X69.287 Y78.111 E25.93911
G1 X68.784 Y78.224 E25.95884
G1 X68.33 Y78.258 E25.97627
G1 X62.023 Y78.295 E26.21764
G1 X61.508 Y78.258 E26.2374
G1 X61.006 Y78.142 E26.25712
G1 X60.528 Y77.95 E26.27683
G1 X60.085 Y77.686 E26.29657
G1 X60.003 Y77.618 E26.30064
G1 X59.982 Y77.636 E26.3017
G1 X59.546 Y77.911 E26.32143
G1 X59.073 Y78.115 E26.34114
G1 X58.574 Y78.244 E26.36087
G1 X57.978 Y78.294 E26.38376
G1 X51.671 Y78.258 E26.62513
G1 X51.157 Y78.215 E26.64487
G1 X50.657 Y78.093 E26.66456
G1 X50.234 Y77.922 E26.68203
G1 X49.647 Y77.636 E26.70701
G1 X49.202 Y77.375 E26.72676
G1 X48.656 Y76.898 E26.7545
G1 X48.152 Y76.35 E26.783
G1 X47.708 Y75.742 E26.81181
G1 X47.508 Y75.39 E26.8273
G1 X47.252 Y74.819 E26.85125
G1 X46.97 Y73.991 E26.88472
G1 X46.81 Y73.265 E26.91318
G1 X46.714 Y72.347 E26.9485
G1 X46.696 Y71.998 E26.96187
G1 X46.72 Y47.533 E27.89815
G1 X46.795 Y46.836 E27.92498
G1 X46.985 Y45.954 E27.9595
G1 X47.132 Y45.46 E27.97923
G1 X47.241 Y45.207 E27.98977
G1 X47.605 Y44.454 E28.02178
G1 X47.747 Y44.212 E28.03252
G0 F1620 X47.865 Y44.009
G0 X48.152 Y43.65
G0 F4320 X48.409 Y43.887
G1 F2400 E28.05908
G1 F1800 X48.913 Y43.339 E28.08757
G1 X49.272 Y43.009 E28.10623
G1 X49.8 Y42.679 E28.13006
G1 X50.387 Y42.393 E28.15505
G1 X50.841 Y42.216 E28.1737
G1 X51.318 Y42.115 E28.19236
G1 X51.69 Y42.092 E28.20662
G1 X68.31 Y42.092 E28.84267
G1 X68.796 Y42.132 E28.86133
G1 X69.269 Y42.251 E28.87999
G1 X69.613 Y42.393 E28.89424
G1 X70.2 Y42.679 E28.91923
G1 X70.619 Y42.927 E28.93786
G1 X71.087 Y43.339 E28.96172
G1 X71.591 Y43.887 E28.99021
G1 X71.988 Y44.431 E29.01599
G1 X72.188 Y44.783 E29.03148
G1 X72.417 Y45.294 E29.05291
G1 X72.699 Y46.122 E29.08638
G1 X72.842 Y46.772 E29.11186
G1 X72.938 Y47.69 E29.14718
G1 X72.954 Y48.002 E29.15913
G1 X72.93 Y72.467 E30.09541
G1 X72.863 Y73.091 E30.11943
G1 X72.673 Y73.973 E30.15396
G1 X72.443 Y74.641 E30.18099
G1 X72.079 Y75.394 E30.213
G1 X71.832 Y75.814 E30.23165
G1 X71.591 Y76.113 E30.24634
G1 X71.087 Y76.661 E30.27484
G1 X70.728 Y76.991 E30.2935
G1 X70.2 Y77.321 E30.31733
G1 X69.613 Y77.607 E30.34232
G1 X69.159 Y77.784 E30.36096
G1 X68.682 Y77.885 E30.37962
G1 X68.327 Y77.908 E30.39324
G1 X62.02 Y77.945 E30.63461
G1 X61.534 Y77.908 E30.65326
G1 X61.061 Y77.792 E30.6719
G1 X60.613 Y77.6 E30.69055
G1 X60.202 Y77.338 E30.70921
G1 X60.005 Y77.161 E30.71934
G1 X59.644 Y77.447 E30.73697
G1 X59.217 Y77.682 E30.75562
G1 X58.758 Y77.845 E30.77426
G1 X58.278 Y77.931 E30.79292
G1 X57.98 Y77.944 E30.80434
G1 X51.673 Y77.908 E31.04571
G1 X51.187 Y77.865 E31.06438
G1 X50.715 Y77.744 E31.08303
G1 X50.387 Y77.607 E31.09663
G1 X49.8 Y77.321 E31.12162
G1 X49.381 Y77.073 E31.14026
G1 X48.913 Y76.661 E31.16412
G1 X48.409 Y76.113 E31.19261
