;FLAVOR:Marlin
;TIME:1248
;Filament used: 0.497065m
;Layer height: 0.175
;Generated with Cura_SteamEngine 3.6.0
M140 S65
M105
M190 S65
M104 S205
M105
M109 S205
M82 ;absolute extrusion mode
G21;(metric values)
G90;(absolute positioning)
M82;(set extruder to absolute mode)
M107;(start with the fan off)
G28;(Home the printer)
G92 E0;(Reset the extruder to 0)
G0 Z5 E5 F500;(Move up and prime the nozzle)
G0 X-1 Z0;(Move outside the printable area)
G1 Y60 E8 F500;(Draw a priming/wiping line to the rear)
G1 X-1;(Move a little closer to the print area)
G1 Y10 E16 F500;(draw more priming/wiping)
G1 E15 F250;(Small retract)
G92 E0;(Zero the extruder)
G92 E0
G1 F2400 E-2.5
;LAYER_COUNT:160
;LAYER:0
M107
G0 F4320 X45.384 Y49.517 Z0.263
;TYPE:SKIRT
G1 F2400 E0
G1 F1620 X45.896 Y49.138 E0.02438
G1 X46.451 Y48.826 E0.04874
G1 X47.041 Y48.585 E0.07313
G1 X47.656 Y48.421 E0.09749
G1 X48.287 Y48.335 E0.12186
G1 X48.924 Y48.328 E0.14624
G1 X49.557 Y48.401 E0.17063
G1 X50.175 Y48.553 E0.19499
G1 X50.77 Y48.782 E0.21938
G1 X51.158 Y48.98 E0.23605
G1 X52.722 Y49.866 E0.30485
G1 X52.776 Y49.901 E0.30731
G1 X52.783 Y49.892 E0.30774
G1 X53.728 Y48.729 E0.36509
G1 X54.16 Y48.261 E0.38947
G1 X54.424 Y48.025 E0.40302
G1 X55.575 Y47.069 E0.46028
G1 X56.09 Y46.694 E0.48466
G1 X56.392 Y46.515 E0.4981
G1 X57.706 Y45.8 E0.55535
G1 X58.284 Y45.532 E0.57973
G1 X58.645 Y45.406 E0.59436
G1 X60.064 Y44.971 E0.65116
G1 X60.683 Y44.823 E0.67552
G1 X61.044 Y44.773 E0.68946
G1 X62.529 Y44.624 E0.74658
G1 X63.166 Y44.601 E0.77097
G1 X63.533 Y44.623 E0.78504
G1 X65.018 Y44.769 E0.84215
G1 X65.646 Y44.871 E0.8665
G1 X65.996 Y44.964 E0.88036
G1 X67.415 Y45.395 E0.93711
G1 X68.011 Y45.618 E0.96146
G1 X68.351 Y45.785 E0.97596
G1 X69.67 Y46.497 E1.03332
G1 X70.21 Y46.834 E1.05768
G1 X70.496 Y47.054 E1.07149
G1 X71.648 Y48.008 E1.12873
G1 X72.112 Y48.444 E1.1531
G1 X72.341 Y48.706 E1.16642
G1 X73.284 Y49.86 E1.22345
G1 X73.655 Y50.377 E1.2478
G1 X73.837 Y50.692 E1.26173
G1 X74.545 Y52.026 E1.31952
G1 X74.807 Y52.606 E1.34388
G1 X74.922 Y52.944 E1.35754
G1 X75.354 Y54.381 E1.41497
G1 X75.499 Y55.001 E1.43934
G1 X75.544 Y55.341 E1.45246
G1 X75.692 Y56.833 E1.50984
G1 X75.715 Y57.469 E1.5342
G1 X75.693 Y57.823 E1.54777
G1 X75.548 Y59.322 E1.6054
G1 X75.447 Y59.95 E1.62975
G1 X75.361 Y60.282 E1.64287
G1 X74.932 Y61.722 E1.70037
G1 X74.712 Y62.32 E1.72476
G1 X74.557 Y62.641 E1.7384
G1 X73.855 Y63.972 E1.79599
G1 X73.523 Y64.515 E1.82035
G1 X73.304 Y64.806 E1.83428
G1 X72.36 Y65.967 E1.89155
G1 X71.928 Y66.435 E1.91592
G1 X71.668 Y66.666 E1.92923
G1 X70.519 Y67.622 E1.98643
G1 X70.005 Y67.998 E2.01081
G1 X69.696 Y68.18 E2.02453
G1 X68.38 Y68.895 E2.08185
G1 X67.802 Y69.164 E2.10625
G1 X67.444 Y69.288 E2.12075
G1 X66.025 Y69.723 E2.17754
G1 X65.406 Y69.871 E2.2019
G1 X65.045 Y69.921 E2.21585
G1 X63.561 Y70.07 E2.27293
G1 X62.925 Y70.093 E2.29728
G1 X62.558 Y70.071 E2.31135
G1 X61.072 Y69.925 E2.3685
G1 X60.443 Y69.823 E2.39288
G1 X60.093 Y69.73 E2.40674
G1 X58.674 Y69.299 E2.4635
G1 X58.078 Y69.076 E2.48785
G1 X57.735 Y68.907 E2.50248
G1 X56.418 Y68.195 E2.55978
G1 X55.878 Y67.858 E2.58414
G1 X55.598 Y67.642 E2.59767
G1 X54.442 Y66.686 E2.65508
G1 X53.977 Y66.25 E2.67947
G1 X53.743 Y65.983 E2.69306
G1 X52.801 Y64.828 E2.7501
G1 X52.43 Y64.31 E2.77448
G1 X52.251 Y63.998 E2.78825
G1 X51.547 Y62.671 E2.84574
G1 X51.329 Y62.191 E2.86591
G1 X51.03 Y62.282 E2.87787
G1 X50.403 Y62.39 E2.90222
G1 X49.984 Y62.418 E2.91829
G1 X47.798 Y62.474 E3.00198
G1 X47.162 Y62.451 E3.02633
G1 X46.533 Y62.347 E3.05073
G1 X45.923 Y62.166 E3.07508
G1 X45.339 Y61.91 E3.09949
G1 X44.793 Y61.583 E3.12384
G1 X44.292 Y61.19 E3.14821
G1 X43.844 Y60.737 E3.17259
G1 X43.456 Y60.232 E3.19697
G1 X43.135 Y59.682 E3.22134
G1 X42.885 Y59.097 E3.24568
G1 X42.71 Y58.484 E3.27008
G1 X42.613 Y57.855 E3.29444
G1 X42.596 Y57.218 E3.31882
G1 X42.659 Y56.584 E3.34321
G1 X42.741 Y56.184 E3.35883
G1 X43.73 Y52.179 E3.51671
G1 X43.921 Y51.572 E3.54106
G1 X44.187 Y50.993 E3.56544
G1 X44.523 Y50.452 E3.58982
G1 X44.889 Y50.002 E3.61202
G0 F1458 X44.924 Y49.958
G0 X45.384 Y49.517
G0 F4320 X45.693 Y49.716
G1 F2400 E3.63857
G1 F1620 X46.196 Y49.362 E3.66211
G1 X46.74 Y49.077 E3.68562
G1 X47.317 Y48.865 E3.70914
G1 X47.916 Y48.729 E3.73265
G1 X48.528 Y48.673 E3.75617
G1 X49.142 Y48.696 E3.77968
G1 X49.748 Y48.799 E3.80321
G1 X50.335 Y48.979 E3.8267
G1 X50.986 Y49.285 E3.85423
G1 X52.55 Y50.171 E3.92302
G1 X52.859 Y50.373 E3.93715
G1 X52.864 Y50.365 E3.93751
G1 X53.055 Y50.112 E3.94964
G1 X54 Y48.949 E4.00699
G1 X54.418 Y48.499 E4.0305
G1 X54.648 Y48.294 E4.04229
G1 X55.799 Y47.338 E4.09955
G1 X56.56 Y46.823 E4.13472
G1 X57.874 Y46.108 E4.19196
G1 X58.431 Y45.85 E4.21546
G1 X58.747 Y45.741 E4.22825
G1 X60.166 Y45.306 E4.28505
G1 X60.764 Y45.164 E4.30857
G1 X61.079 Y45.122 E4.32073
G1 X62.564 Y44.973 E4.37785
G1 X63.178 Y44.951 E4.40136
G1 X63.498 Y44.972 E4.41363
G1 X64.983 Y45.118 E4.47074
G1 X65.59 Y45.217 E4.49428
G1 X65.894 Y45.299 E4.50633
G1 X67.313 Y45.73 E4.56308
G1 X67.888 Y45.946 E4.58659
G1 X68.184 Y46.093 E4.59923
G1 X69.503 Y46.805 E4.6566
G1 X70.024 Y47.132 E4.68014
G1 X70.273 Y47.324 E4.69217
G1 X71.425 Y48.278 E4.74941
G1 X72.07 Y48.927 E4.78443
G1 X73.013 Y50.081 E4.84146
G1 X73.37 Y50.581 E4.86497
G1 X73.528 Y50.856 E4.87711
G1 X74.236 Y52.19 E4.93491
G1 X74.488 Y52.75 E4.95841
G1 X74.587 Y53.045 E4.97032
G1 X75.019 Y54.482 E5.02774
G1 X75.196 Y55.376 E5.06262
G1 X75.344 Y56.868 E5.12
G1 X75.365 Y57.482 E5.14351
G1 X75.345 Y57.789 E5.15529
G1 X75.2 Y59.288 E5.21292
G1 X75.025 Y60.182 E5.24778
G1 X74.596 Y61.622 E5.30528
G1 X74.383 Y62.198 E5.32879
G1 X74.247 Y62.477 E5.34067
G1 X73.545 Y63.808 E5.39825
G1 X73.224 Y64.332 E5.42177
G1 X73.032 Y64.585 E5.43393
G1 X72.088 Y65.746 E5.49119
G1 X71.444 Y66.397 E5.52623
G1 X70.295 Y67.353 E5.58344
G1 X69.798 Y67.715 E5.60697
G1 X69.529 Y67.873 E5.61891
G1 X68.213 Y68.588 E5.67622
G1 X67.655 Y68.845 E5.69973
G1 X67.342 Y68.953 E5.71241
G1 X65.923 Y69.388 E5.76921
G1 X65.325 Y69.53 E5.79273
G1 X65.01 Y69.572 E5.80489
G1 X63.526 Y69.721 E5.86197
G1 X62.912 Y69.743 E5.88548
G1 X62.592 Y69.722 E5.89775
G1 X61.106 Y69.576 E5.9549
G1 X60.5 Y69.477 E5.97839
G1 X60.195 Y69.395 E5.99048
G1 X58.776 Y68.964 E6.04724
G1 X58.201 Y68.748 E6.07074
G1 X57.902 Y68.599 E6.08353
G1 X56.585 Y67.887 E6.14082
G1 X56.065 Y67.561 E6.16431
G1 X55.821 Y67.372 E6.17612
G1 X54.665 Y66.416 E6.23353
G1 X54.218 Y65.995 E6.25703
G1 X54.014 Y65.761 E6.26891
G1 X53.072 Y64.606 E6.32595
G1 X52.716 Y64.106 E6.34944
G1 X52.56 Y63.834 E6.36144
G1 X51.856 Y62.507 E6.41893
G1 X51.544 Y61.748 E6.45033
G1 X51.333 Y61.833 E6.45904
G1 X50.738 Y61.987 E6.48256
G1 X49.975 Y62.068 E6.51192
G1 X47.789 Y62.124 E6.59561
G1 X47.175 Y62.1 E6.61912
G1 X46.569 Y61.996 E6.64265
G1 X45.982 Y61.815 E6.66616
G1 X45.424 Y61.559 E6.68966
G1 X44.903 Y61.233 E6.71318
G1 X44.429 Y60.841 E6.73672
G1 X44.01 Y60.392 E6.76022
G1 X43.653 Y59.892 E6.78373
G1 X43.364 Y59.35 E6.80724
G1 X43.147 Y58.775 E6.83076
G1 X43.007 Y58.176 E6.8543
G1 X42.946 Y57.565 E6.8778
G1 X42.965 Y56.951 E6.90131
G1 X43.081 Y56.268 E6.92782
G1 X44.07 Y52.263 E7.0857
G1 X44.256 Y51.678 E7.10919
G1 X44.516 Y51.121 E7.13271
G1 X44.846 Y50.603 E7.15622
G1 X45.19 Y50.193 E7.1767
G0 F1458 X45.241 Y50.132
G0 X45.693 Y49.716
G0 F4320 X46.001 Y49.92
G1 F2400 E7.20326
G1 F1620 X46.494 Y49.593 E7.2259
G1 X47.026 Y49.336 E7.24851
G1 X47.589 Y49.153 E7.27117
G1 X48.17 Y49.048 E7.29376
G1 X48.761 Y49.022 E7.3164
G1 X49.35 Y49.076 E7.33904
G1 X49.926 Y49.209 E7.36166
G1 X50.479 Y49.418 E7.38428
G1 X50.813 Y49.589 E7.39864
G1 X52.377 Y50.475 E7.46743
G1 X52.871 Y50.801 E7.49009
G1 X52.964 Y50.882 E7.49481
G1 X53.327 Y50.333 E7.51999
G1 X54.272 Y49.17 E7.57734
G1 X54.872 Y48.563 E7.61
G1 X56.023 Y47.607 E7.66727
G1 X56.727 Y47.13 E7.69981
G1 X58.041 Y46.415 E7.75706
G1 X58.85 Y46.075 E7.79064
G1 X60.269 Y45.64 E7.84744
G1 X61.114 Y45.47 E7.88043
G1 X62.599 Y45.321 E7.93754
G1 X63.464 Y45.32 E7.97065
G1 X64.949 Y45.466 E8.02775
G1 X65.792 Y45.634 E8.06065
G1 X67.211 Y46.065 E8.1174
G1 X68.018 Y46.401 E8.15086
G1 X69.337 Y47.113 E8.20822
G1 X70.049 Y47.593 E8.24108
G1 X71.201 Y48.547 E8.29832
G1 X71.799 Y49.149 E8.3308
G1 X72.742 Y50.303 E8.38783
G1 X73.218 Y51.02 E8.42077
G1 X73.926 Y52.354 E8.47856
G1 X74.252 Y53.145 E8.5113
G1 X74.684 Y54.582 E8.56873
G1 X74.848 Y55.41 E8.60103
G1 X74.996 Y56.902 E8.65841
G1 X74.997 Y57.755 E8.69106
G1 X74.852 Y59.254 E8.74869
G1 X74.69 Y60.082 E8.78098
G1 X74.261 Y61.522 E8.83848
G1 X73.938 Y62.314 E8.87121
G1 X73.236 Y63.645 E8.9288
G1 X72.761 Y64.364 E8.96178
G1 X71.817 Y65.525 E9.01905
G1 X71.22 Y66.128 E9.05152
G1 X70.071 Y67.084 E9.10872
G1 X69.362 Y67.565 E9.14151
G1 X68.046 Y68.28 E9.19883
G1 X67.239 Y68.619 E9.23233
G1 X65.82 Y69.054 E9.28912
G1 X64.975 Y69.224 E9.32211
G1 X63.491 Y69.373 E9.37919
G1 X62.626 Y69.374 E9.41229
G1 X61.14 Y69.228 E9.46944
G1 X60.297 Y69.06 E9.50233
G1 X58.878 Y68.629 E9.55909
G1 X58.068 Y68.292 E9.59266
G1 X56.751 Y67.58 E9.64996
G1 X56.044 Y67.102 E9.68262
G1 X54.888 Y66.146 E9.74002
G1 X54.286 Y65.54 E9.77271
G1 X53.344 Y64.385 E9.82975
G1 X52.869 Y63.67 E9.8626
G1 X52.165 Y62.343 E9.92009
G1 X51.841 Y61.555 E9.9527
G1 X51.757 Y61.275 E9.96389
G1 X51.588 Y61.362 E9.97116
G1 X51.031 Y61.559 E9.99377
G1 X50.452 Y61.679 E10.0164
G1 X49.966 Y61.719 E10.03506
G1 X47.78 Y61.775 E10.11875
G1 X47.189 Y61.75 E10.14139
G1 X46.607 Y61.645 E10.16402
G1 X46.045 Y61.464 E10.18661
G1 X45.512 Y61.208 E10.20924
G1 X45.018 Y60.882 E10.23189
G1 X44.573 Y60.493 E10.25451
G1 X44.184 Y60.047 E10.27716
G1 X43.859 Y59.554 E10.29976
G1 X43.604 Y59.02 E10.32241
G1 X43.422 Y58.458 E10.34501
G1 X43.319 Y57.875 E10.36767
G1 X43.295 Y57.285 E10.39027
G1 X43.35 Y56.696 E10.41291
G1 X43.421 Y56.352 E10.42635
G1 X44.41 Y52.347 E10.58422
G1 X44.59 Y51.784 E10.60685
G1 X44.844 Y51.25 E10.62948
G1 X45.168 Y50.756 E10.65208
G1 X45.489 Y50.387 E10.6708
G0 F1458 X45.556 Y50.31
G0 X46.001 Y49.92
G0 F4320 X45.871 Y50.491
G1 F2400 E10.69736
G1 F1620 X46.306 Y50.129 E10.71902
G1 X46.789 Y49.831 E10.74074
G1 X47.309 Y49.604 E10.76245
G1 X47.855 Y49.452 E10.78414
G1 X48.417 Y49.378 E10.80584
G1 X48.984 Y49.384 E10.82754
G1 X49.545 Y49.47 E10.84926
G1 X50.088 Y49.634 E10.87096
G1 X50.641 Y49.894 E10.89435
G1 X52.205 Y50.78 E10.96314
G1 X52.677 Y51.093 E10.98481
G1 X53.05 Y51.425 E11.00392
G1 X53.161 Y51.215 E11.01302
G1 X53.598 Y50.554 E11.04334
G1 X54.543 Y49.391 E11.10069
G1 X55.095 Y48.833 E11.13073
G1 X56.246 Y47.877 E11.18799
G1 X56.894 Y47.438 E11.21794
G1 X58.208 Y46.723 E11.27519
G1 X58.952 Y46.41 E11.30608
G1 X60.371 Y45.975 E11.36288
G1 X61.149 Y45.818 E11.39325
G1 X62.634 Y45.669 E11.45037
G1 X63.43 Y45.668 E11.48083
G1 X64.915 Y45.814 E11.53794
G1 X65.691 Y45.969 E11.56822
G1 X67.11 Y46.4 E11.62498
G1 X67.852 Y46.709 E11.65574
G1 X69.171 Y47.421 E11.7131
G1 X69.826 Y47.863 E11.74334
G1 X70.978 Y48.817 E11.80058
G1 X71.528 Y49.37 E11.83043
G1 X72.471 Y50.524 E11.88746
G1 X72.909 Y51.184 E11.91778
G1 X73.617 Y52.518 E11.97558
G1 X73.917 Y53.246 E12.00571
G1 X74.349 Y54.683 E12.06313
G1 X74.499 Y55.445 E12.09286
G1 X74.647 Y56.937 E12.15023
G1 X74.648 Y57.722 E12.18028
G1 X74.503 Y59.221 E12.23791
G1 X74.354 Y59.982 E12.26759
G1 X73.925 Y61.422 E12.32509
G1 X73.628 Y62.151 E12.35521
G1 X72.926 Y63.482 E12.4128
G1 X72.489 Y64.143 E12.44313
G1 X71.545 Y65.304 E12.50039
G1 X70.996 Y65.859 E12.53027
G1 X69.847 Y66.815 E12.58747
G1 X69.195 Y67.258 E12.61764
G1 X67.879 Y67.973 E12.67495
G1 X67.137 Y68.284 E12.70574
G1 X65.718 Y68.719 E12.76254
G1 X64.94 Y68.876 E12.79292
G1 X63.456 Y69.025 E12.84999
G1 X62.66 Y69.026 E12.88046
G1 X61.174 Y68.88 E12.9376
G1 X60.398 Y68.725 E12.96788
G1 X58.979 Y68.294 E13.02464
G1 X58.235 Y67.984 E13.05549
G1 X56.918 Y67.272 E13.11278
G1 X56.267 Y66.833 E13.14283
G1 X55.111 Y65.877 E13.20024
G1 X54.557 Y65.319 E13.23033
G1 X53.615 Y64.164 E13.28737
G1 X53.178 Y63.506 E13.3176
G1 X52.474 Y62.179 E13.37509
G1 X52.176 Y61.454 E13.40508
G1 X51.967 Y60.76 E13.43282
G1 X51.793 Y60.872 E13.44074
G1 X51.278 Y61.11 E13.46245
G1 X50.734 Y61.273 E13.48419
G1 X49.957 Y61.369 E13.51415
G1 X47.771 Y61.425 E13.59783
G1 X47.205 Y61.399 E13.61952
G1 X46.647 Y61.294 E13.64125
G1 X46.11 Y61.112 E13.66295
G1 X45.604 Y60.857 E13.68463
G1 X45.139 Y60.532 E13.70634
G1 X44.724 Y60.146 E13.72803
G1 X44.367 Y59.705 E13.74975
G1 X44.076 Y59.218 E13.77146
G1 X43.857 Y58.695 E13.79316
G1 X43.713 Y58.147 E13.81484
G1 X43.647 Y57.583 E13.83657
G1 X43.661 Y57.016 E13.85828
G1 X43.76 Y56.436 E13.8808
G1 X44.749 Y52.431 E14.03867
G1 X44.924 Y51.891 E14.06039
G1 X45.172 Y51.382 E14.08206
G1 X45.419 Y51.017 E14.09893
G0 F1458 X45.49 Y50.912
G0 X45.871 Y50.491
G0 F4320 X46.183 Y50.678
G1 F2400 E14.12549
G1 F1620 X46.61 Y50.344 E14.14623
G1 X47.081 Y50.076 E14.16697
G1 X47.586 Y49.88 E14.1877
G1 X48.115 Y49.761 E14.20846
G1 X48.655 Y49.721 E14.22918
G1 X49.195 Y49.761 E14.2499
G1 X49.724 Y49.879 E14.27064
G1 X50.468 Y50.198 E14.30162
G1 X52.032 Y51.084 E14.37041
G1 X52.483 Y51.386 E14.39119
G1 X52.884 Y51.75 E14.41191
G1 X53.122 Y52.04 E14.42627
G1 X53.471 Y51.378 E14.45491
G1 X53.87 Y50.774 E14.48261
G1 X54.815 Y49.611 E14.53996
G1 X55.319 Y49.102 E14.56737
G1 X56.47 Y48.146 E14.62463
G1 X57.061 Y47.745 E14.65197
G1 X58.375 Y47.03 E14.70922
G1 X59.055 Y46.744 E14.73745
G1 X60.474 Y46.309 E14.79425
G1 X61.184 Y46.166 E14.82196
G1 X62.669 Y46.017 E14.87908
G1 X63.396 Y46.017 E14.9069
G1 X64.881 Y46.163 E14.96401
G1 X65.589 Y46.304 E14.99163
G1 X67.008 Y46.735 E15.04839
G1 X67.686 Y47.017 E15.07649
G1 X69.005 Y47.729 E15.13385
G1 X69.603 Y48.133 E15.16147
G1 X70.755 Y49.087 E15.21871
G1 X71.257 Y49.592 E15.24597
G1 X72.2 Y50.746 E15.303
G1 X72.6 Y51.348 E15.33066
G1 X73.308 Y52.682 E15.38846
G1 X73.581 Y53.347 E15.41597
G1 X74.013 Y54.784 E15.47339
G1 X74.151 Y55.479 E15.50051
G1 X74.299 Y56.971 E15.55789
G1 X74.3 Y57.688 E15.58533
G1 X74.155 Y59.187 E15.64296
G1 X74.019 Y59.882 E15.67006
G1 X73.59 Y61.322 E15.72757
G1 X73.319 Y61.987 E15.75505
G1 X72.617 Y63.318 E15.81264
G1 X72.217 Y63.922 E15.84036
G1 X71.273 Y65.083 E15.89762
G1 X70.773 Y65.59 E15.92488
G1 X69.624 Y66.546 E15.98208
G1 X69.027 Y66.95 E16.00966
G1 X67.711 Y67.665 E16.06698
G1 X67.034 Y67.95 E16.09509
G1 X65.615 Y68.385 E16.15189
G1 X64.905 Y68.528 E16.17961
G1 X63.421 Y68.677 E16.23669
G1 X62.695 Y68.677 E16.26447
G1 X61.209 Y68.531 E16.32161
G1 X60.5 Y68.39 E16.34928
G1 X59.081 Y67.959 E16.40603
G1 X58.401 Y67.676 E16.43422
G1 X57.084 Y66.964 E16.49152
G1 X56.49 Y66.563 E16.51894
G1 X55.334 Y65.607 E16.57635
G1 X54.828 Y65.098 E16.60382
G1 X53.886 Y63.943 E16.66086
G1 X53.488 Y63.342 E16.68844
G1 X52.784 Y62.015 E16.74593
G1 X52.511 Y61.353 E16.77334
G1 X52.161 Y60.193 E16.81971
G1 X51.942 Y60.369 E16.83046
G1 X51.474 Y60.644 E16.85123
G1 X50.972 Y60.846 E16.87194
G1 X50.445 Y60.972 E16.89268
G1 X49.948 Y61.019 E16.91178
G1 X47.762 Y61.075 E16.99547
G1 X47.221 Y61.049 E17.0162
G1 X46.689 Y60.943 E17.03696
G1 X46.179 Y60.761 E17.05768
G1 X45.701 Y60.505 E17.07843
G1 X45.266 Y60.183 E17.09914
G1 X44.883 Y59.799 E17.1199
G1 X44.561 Y59.364 E17.14061
G1 X44.306 Y58.885 E17.16138
G1 X44.124 Y58.375 E17.1821
G1 X44.02 Y57.843 E17.20285
G1 X43.994 Y57.302 E17.22357
G1 X44.1 Y56.52 E17.25377
G1 X45.089 Y52.515 E17.41165
G1 X45.258 Y52 E17.43239
G1 X45.5 Y51.515 E17.45314
G1 X45.724 Y51.196 E17.46805
G0 F1458 X45.811 Y51.071
G0 X46.183 Y50.678
G0 F4320 X46.494 Y50.87
G1 F2400 E17.49461
G1 F1620 X46.911 Y50.566 E17.51436
G1 X47.369 Y50.331 E17.53406
G1 X47.858 Y50.168 E17.55379
G1 X48.366 Y50.084 E17.57349
G1 X48.882 Y50.079 E17.59324
G1 X49.392 Y50.153 E17.61296
G1 X49.884 Y50.306 E17.63268
G1 X50.296 Y50.503 E17.65016
G1 X51.86 Y51.389 E17.71895
G1 X52.287 Y51.677 E17.73866
G1 X52.665 Y52.028 E17.7584
G1 X52.984 Y52.432 E17.7781
G1 X53.153 Y52.732 E17.79128
G1 X53.781 Y51.541 E17.84281
G1 X54.141 Y50.995 E17.86784
G1 X55.086 Y49.832 E17.92518
G1 X55.543 Y49.371 E17.95003
G1 X56.694 Y48.415 E18.00729
G1 X57.229 Y48.052 E18.03203
G1 X58.543 Y47.337 E18.08928
G1 X59.157 Y47.079 E18.11477
G1 X60.576 Y46.644 E18.17157
G1 X61.219 Y46.515 E18.19666
