;FLAVOR:Marlin
;TIME:3096
;Filament used: 1.77214m
;Layer height: 0.175
;Generated with Cura_SteamEngine 3.6.0
M140 S65
M105
M190 S65
M104 S205
M105
M109 S205
M82 ;absolute extrusion mode
G21;(metric values)
G90;(absolute positioning)
M82;(set extruder to absolute mode)
M107;(start with the fan off)
G28;(Home the printer)
G92 E0;(Reset the extruder to 0)
G0 Z5 E5 F500;(Move up and prime the nozzle)
G0 X-1 Z0;(Move outside the printable area)
G1 Y60 E8 F500;(Draw a priming/wiping line to the rear)
G1 X-1;(Move a little closer to the print area)
G1 Y10 E16 F500;(draw more priming/wiping)
G1 E15 F250;(Small retract)
G92 E0;(Zero the extruder)
G92 E0
G1 F2400 E-2.5
;LAYER_COUNT:31
;LAYER:0
M107
G0 F4320 X31.314 Y43.569 Z0.263
;TYPE:SKIRT
G1 F2400 E0
G1 F1620 X31.225 Y43.941 E0.01464
G1 X31.179 Y44.063 E0.01963
G1 X31.199 Y44.285 E0.02816
G1 X31.176 Y44.921 E0.05251
G1 X31.074 Y45.55 E0.0769
G1 X30.893 Y46.161 E0.10129
G1 X30.887 Y46.174 E0.10184
G1 X30.794 Y47.474 E0.15171
G1 X30.812 Y47.786 E0.16367
G1 X30.808 Y48.423 E0.18805
G1 X30.752 Y48.798 E0.20256
G1 X30.846 Y49.44 E0.22739
G1 X30.898 Y50.075 E0.25178
G1 X30.878 Y50.639 E0.27337
G1 X30.745 Y52.088 E0.32906
G1 X30.681 Y52.55 E0.34691
G1 X30.611 Y52.927 E0.36158
G1 X30.455 Y53.545 E0.38598
G1 X30.425 Y53.623 E0.38918
G1 X31.161 Y57.484 E0.5396
G1 X31.271 Y57.731 E0.54994
G1 X31.493 Y58.328 E0.57432
G1 X31.638 Y58.948 E0.59869
G1 X31.705 Y59.581 E0.62305
G1 X31.691 Y60.218 E0.64743
G1 X31.598 Y60.848 E0.6718
G1 X31.507 Y61.16 E0.68424
G1 X31.5 Y61.326 E0.6906
G1 X31.392 Y61.954 E0.71499
G1 X31.207 Y62.563 E0.73934
G1 X31.119 Y62.757 E0.7475
G1 X31.15 Y62.876 E0.7522
G1 X31.229 Y63.507 E0.77654
G1 X31.236 Y64.007 E0.79568
G1 X31.224 Y64.337 E0.80831
G1 X31.161 Y64.971 E0.8327
G1 X31.063 Y65.376 E0.84864
G1 X31.111 Y66.083 E0.87576
G1 X31.121 Y66.519 E0.89245
G1 X31.105 Y67.396 E0.92602
G1 X31.168 Y67.666 E0.93663
G1 X31.236 Y68.299 E0.96099
G1 X31.224 Y68.936 E0.98538
G1 X31.132 Y69.566 E1.00974
G1 X30.963 Y70.176 E1.03397
G1 X30.964 Y70.181 E1.03416
G1 X31.012 Y70.816 E1.05853
G1 X30.979 Y71.452 E1.0829
G1 X30.943 Y71.656 E1.09083
G1 X31.002 Y72.17 E1.11063
G1 X31.154 Y72.648 E1.12983
G1 X31.309 Y73.266 E1.15421
G1 X31.394 Y74.16 E1.18858
G1 X31.401 Y75.364 E1.23466
G1 X31.379 Y75.673 E1.24651
G1 X31.803 Y75.632 E1.26281
G1 X32.427 Y75.61 E1.28671
G1 X34.658 Y75.669 E1.37212
G1 X35.522 Y75.766 E1.40539
G1 X36.22 Y75.906 E1.43264
G1 X36.22 Y61.351 E1.98966
G1 X36.26 Y60.715 E2.01404
G1 X36.356 Y60.211 E2.03368
G1 X36.312 Y60.136 E2.03701
G1 X36.061 Y59.551 E2.06137
G1 X35.886 Y58.938 E2.08576
G1 X35.788 Y58.309 E2.11013
G1 X35.767 Y57.847 E2.12783
G1 X35.767 Y43.264 E2.68592
G1 X35.267 Y43.385 E2.7056
G1 X34.64 Y43.496 E2.72997
G1 X34.174 Y43.527 E2.74785
G1 X32.008 Y43.571 E2.83076
G0 F1458 X31.562 Y43.58
G0 X31.314 Y43.569
G0 F4320 X31.018 Y43.325
G1 F2400 E2.85731
G1 F1620 X30.865 Y43.92 E2.88083
G1 X30.824 Y44.02 E2.88496
G1 X30.851 Y44.359 E2.89798
G1 X30.819 Y44.973 E2.92151
G1 X30.707 Y45.577 E2.94502
G1 X30.543 Y46.086 E2.96548
G1 X30.443 Y47.477 E3.01885
G1 X30.462 Y47.806 E3.03146
G1 X30.457 Y48.421 E3.055
G1 X30.399 Y48.806 E3.0699
G1 X30.499 Y49.491 E3.09639
G1 X30.548 Y50.104 E3.11993
G1 X30.529 Y50.607 E3.13919
G1 X30.396 Y52.056 E3.19488
G1 X30.337 Y52.487 E3.21153
G1 X30.267 Y52.864 E3.2262
G1 X30.115 Y53.459 E3.2497
G1 X30.062 Y53.592 E3.25518
G1 X30.824 Y57.588 E3.41086
G1 X30.951 Y57.873 E3.4228
G1 X31.164 Y58.449 E3.44631
G1 X31.3 Y59.049 E3.46985
G1 X31.357 Y59.66 E3.49334
G1 X31.335 Y60.275 E3.51689
G1 X31.232 Y60.88 E3.54037
G1 X31.159 Y61.122 E3.55005
G1 X31.15 Y61.31 E3.55725
G1 X31.042 Y61.915 E3.58077
G1 X30.856 Y62.501 E3.6043
G1 X30.751 Y62.729 E3.6139
G1 X30.832 Y63.09 E3.62806
G1 X30.886 Y63.995 E3.66276
G1 X30.874 Y64.325 E3.6754
G1 X30.812 Y64.936 E3.6989
G1 X30.71 Y65.354 E3.71537
G1 X30.761 Y66.107 E3.74425
G1 X30.771 Y66.513 E3.75979
G1 X30.754 Y67.433 E3.79501
G1 X30.831 Y67.768 E3.80816
G1 X30.889 Y68.379 E3.83165
G1 X30.867 Y68.993 E3.85516
G1 X30.766 Y69.6 E3.87871
G1 X30.599 Y70.146 E3.90056
G1 X30.62 Y70.25 E3.90462
G1 X30.662 Y70.863 E3.92814
G1 X30.624 Y71.476 E3.95164
G1 X30.59 Y71.652 E3.9585
G1 X30.657 Y72.24 E3.98115
G1 X30.821 Y72.754 E4.0018
G1 X30.969 Y73.351 E4.02534
G1 X31.044 Y74.163 E4.05654
G1 X31.051 Y75.367 E4.10262
G1 X31.002 Y76.064 E4.12936
G1 X31.043 Y76.057 E4.13095
G1 X31.837 Y75.98 E4.16148
G1 X32.418 Y75.96 E4.18373
G1 X34.649 Y76.019 E4.26914
G1 X35.453 Y76.109 E4.3001
G1 X36.156 Y76.25 E4.32754
G1 X36.505 Y76.334 E4.34128
G1 X36.57 Y76.352 E4.34386
G1 X36.57 Y61.351 E4.91795
G1 X36.61 Y60.738 E4.94146
G1 X36.726 Y60.149 E4.96443
G1 X36.541 Y59.803 E4.97945
G1 X36.323 Y59.228 E5.00298
G1 X36.182 Y58.63 E5.02649
G1 X36.117 Y57.847 E5.05656
G1 X36.117 Y42.819 E5.63168
G1 X35.185 Y43.045 E5.66838
G1 X34.58 Y43.151 E5.69189
G1 X34.167 Y43.177 E5.70772
G1 X31.608 Y43.229 E5.80568
G0 F1458 X31.555 Y43.23
G0 X31.032 Y43.207
G0 X31.018 Y43.325
G0 F4320 X30.661 Y43.326
G1 F2400 E5.83224
G1 F1620 X30.503 Y43.896 E5.85487
G1 X30.471 Y43.971 E5.85799
G1 X30.501 Y44.431 E5.87564
G1 X30.46 Y45.02 E5.89823
G1 X30.339 Y45.599 E5.92087
G1 X30.198 Y45.998 E5.93706
G1 X30.093 Y47.472 E5.99362
G1 X30.113 Y47.826 E6.00719
G1 X30.107 Y48.417 E6.0298
G1 X30.046 Y48.811 E6.04506
G1 X30.153 Y49.542 E6.07334
G1 X30.199 Y50.131 E6.09595
G1 X30.181 Y50.575 E6.11295
G1 X30.048 Y52.024 E6.16864
G1 X29.992 Y52.423 E6.18406
G1 X29.922 Y52.8 E6.19873
G1 X29.776 Y53.372 E6.22132
G1 X29.7 Y53.558 E6.22901
G1 X30.489 Y57.695 E6.39019
G1 X30.631 Y58.015 E6.40359
G1 X30.834 Y58.57 E6.4262
G1 X30.961 Y59.148 E6.44885
G1 X31.009 Y59.737 E6.47147
G1 X30.976 Y60.328 E6.49412
G1 X30.865 Y60.908 E6.51672
G1 X30.809 Y61.082 E6.52371
G1 X30.799 Y61.293 E6.5318
G1 X30.691 Y61.875 E6.55445
G1 X30.505 Y62.436 E6.57707
G1 X30.387 Y62.687 E6.58768
G1 X30.397 Y62.718 E6.58893
G1 X30.508 Y63.299 E6.61157
G1 X30.536 Y63.982 E6.63773
G1 X30.524 Y64.312 E6.65037
G1 X30.463 Y64.9 E6.67299
G1 X30.358 Y65.329 E6.68989
G1 X30.412 Y66.13 E6.72062
G1 X30.421 Y66.506 E6.73501
G1 X30.403 Y67.466 E6.77175
G1 X30.492 Y67.868 E6.78751
G1 X30.541 Y68.457 E6.81013
G1 X30.509 Y69.047 E6.83274
G1 X30.399 Y69.628 E6.85537
G1 X30.229 Y70.082 E6.87393
G1 X30.276 Y70.319 E6.88317
G1 X30.312 Y70.909 E6.90579
G1 X30.267 Y71.498 E6.9284
G1 X30.237 Y71.64 E6.93395
G1 X30.315 Y72.321 E6.96019
G1 X30.487 Y72.861 E6.98188
G1 X30.628 Y73.435 E7.0045
G1 X30.694 Y74.165 E7.03255
G1 X30.701 Y75.369 E7.07862
G1 X30.654 Y76.031 E7.10402
G1 X30.648 Y76.073 E7.10565
G1 X30.652 Y76.12 E7.10745
G1 X30.665 Y76.47 E7.12086
G1 X31.077 Y76.405 E7.13682
G1 X31.871 Y76.328 E7.16735
G1 X32.409 Y76.31 E7.18795
G1 X34.64 Y76.369 E7.27336
G1 X35.384 Y76.452 E7.30201
G1 X36.087 Y76.593 E7.32945
G1 X36.41 Y76.671 E7.34216
G1 X36.92 Y76.814 E7.36243
G1 X36.92 Y61.351 E7.9542
G1 X36.96 Y60.761 E7.97683
G1 X37.079 Y60.182 E7.99945
G1 X37.105 Y60.109 E8.00242
G1 X37.037 Y60.006 E8.00714
G1 X36.78 Y59.473 E8.02979
G1 X36.598 Y58.911 E8.0524
G1 X36.494 Y58.329 E8.07502
G1 X36.467 Y57.847 E8.0935
G1 X36.467 Y42.374 E8.68565
G1 X35.102 Y42.705 E8.7394
G1 X34.52 Y42.805 E8.762
G1 X34.16 Y42.827 E8.7758
G1 X31.548 Y42.88 E8.87578
G1 X30.957 Y42.852 E8.89843
G1 X30.902 Y42.842 E8.90057
G0 F1458 X30.73 Y42.811
G0 X30.661 Y43.326
G0 F4320 X30.303 Y43.323
G1 F2400 E8.92713
G1 F1620 X30.141 Y43.867 E8.94885
G1 X30.118 Y43.917 E8.95095
G1 X30.121 Y43.933 E8.95158
G1 X30.15 Y44.499 E8.97327
G1 X30.099 Y45.064 E8.99498
G1 X29.969 Y45.616 E9.01668
G1 X29.855 Y45.891 E9.02807
G1 X29.743 Y47.468 E9.08858
G1 X29.764 Y47.846 E9.10306
G1 X29.756 Y48.413 E9.12477
G1 X29.693 Y48.812 E9.14022
G1 X29.807 Y49.592 E9.17039
G1 X29.849 Y50.158 E9.19211
G1 X29.832 Y50.543 E9.20686
G1 X29.699 Y51.992 E9.26255
G1 X29.648 Y52.359 E9.27673
G1 X29.578 Y52.736 E9.2914
G1 X29.436 Y53.285 E9.3131
G1 X29.337 Y53.523 E9.32297
G1 X30.153 Y57.804 E9.48975
G1 X30.311 Y58.158 E9.50459
G1 X30.505 Y58.691 E9.52629
G1 X30.621 Y59.246 E9.54799
G1 X30.659 Y59.811 E9.56966
G1 X30.617 Y60.377 E9.59138
G1 X30.495 Y60.931 E9.61309
G1 X30.461 Y61.032 E9.61717
G1 X30.449 Y61.276 E9.62652
G1 X30.34 Y61.832 E9.6482
G1 X30.154 Y62.368 E9.66992
G1 X30.009 Y62.67 E9.68274
G1 X30.091 Y62.942 E9.69361
G1 X30.176 Y63.502 E9.71529
G1 X30.186 Y63.969 E9.73316
G1 X30.174 Y64.299 E9.7458
G1 X30.114 Y64.863 E9.76751
G1 X30.005 Y65.299 E9.78471
G1 X30.063 Y66.154 E9.8175
G1 X30.071 Y66.5 E9.83075
G1 X30.052 Y67.493 E9.86876
G1 X30.153 Y67.966 E9.88727
G1 X30.191 Y68.532 E9.90897
G1 X30.15 Y69.097 E9.93065
G1 X30.029 Y69.651 E9.95236
G1 X29.869 Y70.062 E9.96923
G1 X29.932 Y70.386 E9.98187
G1 X29.961 Y70.953 E10.00359
G1 X29.911 Y71.517 E10.02526
G1 X29.883 Y71.634 E10.02987
G1 X29.97 Y72.39 E10.05899
G1 X30.154 Y72.967 E10.08217
G1 X30.288 Y73.518 E10.10387
G1 X30.344 Y74.167 E10.1288
G1 X30.351 Y75.371 E10.17488
G1 X30.308 Y75.98 E10.19824
G1 X30.296 Y76.063 E10.20145
G1 X30.302 Y76.133 E10.20414
G1 X30.331 Y76.918 E10.2342
G1 X30.675 Y76.82 E10.24789
G1 X31.11 Y76.754 E10.26473
G1 X31.904 Y76.677 E10.29526
G1 X32.399 Y76.659 E10.31421
G1 X34.63 Y76.718 E10.39962
G1 X35.316 Y76.796 E10.42604
G1 X36.019 Y76.937 E10.45348
G1 X36.316 Y77.008 E10.46517
G1 X37.06 Y77.217 E10.49475
G1 X37.27 Y77.295 E10.50332
G1 X37.27 Y61.351 E11.11349
G1 X37.31 Y60.785 E11.13521
G1 X37.429 Y60.231 E11.15689
G1 X37.49 Y60.065 E11.16366
G1 X37.253 Y59.67 E11.18129
G1 X37.033 Y59.147 E11.20301
G1 X36.888 Y58.599 E11.2247
G1 X36.817 Y57.847 E11.25361
G1 X36.817 Y41.893 E11.86416
G1 X36.814 Y41.891 E11.8643
G1 X36.467 Y42.014 E11.87839
G1 X35.02 Y42.365 E11.93537
G1 X34.461 Y42.459 E11.95707
G1 X34.153 Y42.477 E11.96887
G1 X31.541 Y42.53 E12.06886
G1 X30.974 Y42.502 E12.09058
G1 X30.479 Y42.41 E12.10985
G1 X30.415 Y42.394 E12.11237
G1 X30.404 Y42.496 E12.1163
G1 X30.389 Y42.578 E12.11949
G1 X30.388 Y42.635 E12.12167
G0 F1458 X30.388 Y42.763
G0 X30.303 Y43.323
G0 F4320 X29.945 Y43.318
G1 F2400 E12.14823
G1 F1620 X29.779 Y43.833 E12.16894
G1 X29.755 Y43.879 E12.17093
G1 X29.754 Y43.882 E12.17105
G1 X29.78 Y44.023 E12.17653
G1 X29.798 Y44.565 E12.19729
G1 X29.737 Y45.103 E12.21801
G1 X29.597 Y45.627 E12.23877
G1 X29.509 Y45.831 E12.24727
G1 X29.392 Y47.47 E12.31015
G1 X29.414 Y47.866 E12.32533
G1 X29.405 Y48.407 E12.34604
G1 X29.339 Y48.816 E12.36189
G1 X29.46 Y49.643 E12.39388
G1 X29.499 Y50.184 E12.41464
G1 X29.484 Y50.511 E12.42716
G1 X29.351 Y51.96 E12.48285
G1 X29.304 Y52.295 E12.4958
G1 X29.234 Y52.672 E12.51047
G1 X29.096 Y53.196 E12.53121
G1 X28.973 Y53.484 E12.54319
G1 X29.816 Y57.905 E12.71543
G1 X29.992 Y58.3 E12.73198
G1 X30.175 Y58.81 E12.75272
G1 X30.281 Y59.341 E12.77344
G1 X30.308 Y59.882 E12.79417
G1 X30.255 Y60.422 E12.81493
G1 X30.116 Y60.935 E12.83527
G1 X30.098 Y61.257 E12.84762
G1 X29.989 Y61.788 E12.86836
G1 X29.691 Y62.523 E12.89871
G1 X29.637 Y62.624 E12.9031
G1 X29.642 Y62.636 E12.90359
G1 X29.779 Y63.16 E12.92432
G1 X29.837 Y63.957 E12.9549
G1 X29.825 Y64.287 E12.96754
G1 X29.765 Y64.825 E12.98826
G1 X29.653 Y65.271 E13.00586
G1 X29.714 Y66.177 E13.04061
G1 X29.721 Y66.493 E13.0527
G1 X29.702 Y67.522 E13.09209
G1 X29.705 Y67.531 E13.09245
G1 X29.812 Y68.062 E13.11318
G1 X29.84 Y68.603 E13.13392
G1 X29.788 Y69.142 E13.15464
G1 X29.657 Y69.668 E13.17538
G1 X29.508 Y70.035 E13.19054
G1 X29.588 Y70.453 E13.20683
G1 X29.61 Y70.994 E13.22755
G1 X29.553 Y71.533 E13.24829
G1 X29.53 Y71.623 E13.25185
G1 X29.626 Y72.465 E13.28428
G1 X29.82 Y73.073 E13.3087
G1 X29.946 Y73.6 E13.32944
G1 X29.994 Y74.169 E13.35129
G1 X30.001 Y75.373 E13.39737
G1 X29.962 Y75.929 E13.4187
G1 X29.945 Y76.048 E13.4233
G1 X29.953 Y76.146 E13.42706
G1 X29.993 Y77.24 E13.46896
G1 X29.986 Y77.422 E13.47593
G1 X30.272 Y77.296 E13.48789
G1 X30.794 Y77.153 E13.5086
G1 X31.144 Y77.102 E13.52214
G1 X31.938 Y77.025 E13.55267
G1 X32.39 Y77.009 E13.56998
G1 X34.621 Y77.068 E13.65539
G1 X35.247 Y77.139 E13.6795
G1 X35.95 Y77.28 E13.70694
G1 X36.221 Y77.345 E13.7176
G1 X36.965 Y77.554 E13.74718
G1 X37.348 Y77.696 E13.76281
G1 X37.62 Y77.477 E13.77617
G1 X37.62 Y61.351 E14.39332
G1 X37.66 Y60.811 E14.41404
G1 X37.779 Y60.282 E14.43479
G1 X37.884 Y60.011 E14.44591
G1 X37.738 Y59.815 E14.45526
G1 X37.483 Y59.337 E14.476
G1 X37.3 Y58.827 E14.49673
G1 X37.194 Y58.295 E14.51749
G1 X37.167 Y57.847 E14.53467
G1 X37.167 Y41.716 E15.152
G1 X36.901 Y41.507 E15.16495
G1 X36.889 Y41.494 E15.16562
G1 X36.384 Y41.673 E15.18613
G1 X34.937 Y42.024 E15.24311
G1 X34.146 Y42.127 E15.27364
G1 X31.534 Y42.18 E15.37362
G1 X30.992 Y42.151 E15.39439
G1 X30.564 Y42.07 E15.41106
G1 X30.11 Y41.956 E15.42898
G1 X30.056 Y42.459 E15.44834
G1 X30.039 Y42.553 E15.45199
G1 X30.037 Y42.631 E15.45498
G0 F1458 X30.035 Y42.783
G0 X29.945 Y43.318
G0 F4320 X29.587 Y43.308
G1 F2400 E15.48154
G1 F1620 X29.416 Y43.792 E15.50118
G1 X29.396 Y43.874 E15.50441
G1 X29.437 Y44.111 E15.51362
G1 X29.445 Y44.626 E15.53333
G1 X29.373 Y45.137 E15.55308
G1 X29.223 Y45.63 E15.5728
G1 X29.163 Y45.762 E15.57835
G1 X29.041 Y47.465 E15.64369
G1 X29.065 Y47.886 E15.65983
G1 X29.054 Y48.401 E15.67954
G1 X28.986 Y48.816 E15.69563
G1 X29.114 Y49.694 E15.72959
G1 X29.149 Y50.208 E15.74931
G1 X29.135 Y50.479 E15.75969
G1 X29.002 Y51.928 E15.81538
G1 X28.96 Y52.231 E15.82708
G1 X28.89 Y52.608 E15.84176
G1 X28.757 Y53.106 E15.86149
G1 X28.609 Y53.442 E15.87554
G1 X29.48 Y58.01 E16.0535
G1 X29.672 Y58.442 E16.07159
G1 X29.844 Y58.928 E16.09132
G1 X29.939 Y59.434 E16.11103
G1 X29.955 Y59.949 E16.13075
G1 X29.891 Y60.461 E16.15049
G1 X29.768 Y60.888 E16.1675
G1 X29.748 Y61.237 E16.18088
G1 X29.638 Y61.74 E16.20058
G1 X29.383 Y62.358 E16.22617
G1 X29.248 Y62.609 E16.23707
G1 X29.349 Y62.869 E16.24775
G1 X29.458 Y63.373 E16.26748
G1 X29.487 Y63.944 E16.28936
G1 X29.475 Y64.274 E16.302
G1 X29.416 Y64.786 E16.32172
G1 X29.319 Y65.164 E16.33666
G1 X29.298 Y65.228 E16.33924
G1 X29.364 Y66.201 E16.37656
G1 X29.371 Y66.486 E16.38747
G1 X29.35 Y67.581 E16.42938
G1 X29.375 Y67.649 E16.43215
G1 X29.471 Y68.156 E16.4519
G1 X29.488 Y68.671 E16.47162
G1 X29.425 Y69.182 E16.49133
G1 X29.283 Y69.678 E16.51107
G1 X29.15 Y69.987 E16.52394
G1 X29.144 Y69.998 E16.52442
G1 X29.148 Y70.012 E16.52498
G1 X29.243 Y70.518 E16.54468
G1 X29.258 Y71.033 E16.5644
G1 X29.194 Y71.545 E16.58415
G1 X29.176 Y71.609 E16.58669
G1 X29.282 Y72.537 E16.62244
G1 X29.487 Y73.18 E16.64827
G1 X29.605 Y73.681 E16.66796
G1 X29.644 Y74.171 E16.68678
G1 X29.651 Y75.375 E16.73285
G1 X29.616 Y75.878 E16.75215
G1 X29.593 Y76.036 E16.75826
G1 X29.603 Y76.159 E16.76298
G1 X29.643 Y77.253 E16.80488
G1 X29.622 Y77.767 E16.82457
G1 X29.572 Y78.019 E16.8344
G1 X29.94 Y77.823 E16.85035
G1 X30.412 Y77.618 E16.87005
G1 X30.911 Y77.487 E16.88979
G1 X31.178 Y77.451 E16.9001
G1 X31.972 Y77.374 E16.93063
G1 X32.381 Y77.359 E16.94629
G1 X34.612 Y77.418 E17.0317
G1 X35.178 Y77.482 E17.0535
G1 X35.881 Y77.623 E17.08094
G1 X36.126 Y77.682 E17.09059
G1 X36.87 Y77.891 E17.12016
G1 X37.375 Y78.078 E17.14077
G1 X37.438 Y78.107 E17.14342
G1 X37.655 Y77.888 E17.15522
G1 X37.97 Y77.656 E17.17019
G1 X37.97 Y61.351 E17.79419
G1 X38.01 Y60.837 E17.81392
G1 X38.129 Y60.336 E17.83362
G1 X38.282 Y59.961 E17.84912
G1 X38.23 Y59.904 E17.85207
G1 X37.943 Y59.476 E17.8718
G1 X37.726 Y59.009 E17.8915
G1 X37.584 Y58.513 E17.91125
G1 X37.517 Y57.847 E17.93686
G1 X37.517 Y41.54 E18.56093
G1 X37.44 Y41.494 E18.56436
G1 X37.045 Y41.162 E18.58411
G1 X36.981 Y41.088 E18.58786
G1 X36.946 Y41.105 E18.58935
G1 X36.302 Y41.333 E18.61549
G1 X34.855 Y41.684 E18.67247
G1 X34.138 Y41.777 E18.70014
G1 X31.526 Y41.83 E18.80012
G1 X31.012 Y41.801 E18.81983
G1 X30.649 Y41.731 E18.83397
G1 X29.988 Y41.565 E18.86006
G1 X29.807 Y41.504 E18.86737
G1 X29.708 Y42.422 E18.9027
G1 X29.689 Y42.523 E18.90663
G1 X29.686 Y42.622 E18.91042
G0 F1458 X29.681 Y42.801
G0 X29.587 Y43.308
G0 F4320 X28.26 Y42.838
G1 F2400 E18.93698
G1 F1620 X28.142 Y43.211 E18.95196
G1 X28.087 Y43.314 E18.95642
G1 X28.069 Y43.422 E18.96061
G1 X27.967 Y43.8 E18.9756
G1 X27.95 Y43.834 E18.97705
G1 X28.013 Y44.039 E18.98526
G1 X28.051 Y44.429 E19.00026
G1 X28.009 Y44.818 E19.01523
