;FLAVOR:Marlin
;TIME:2201
;Filament used: 1.83774m
;Layer height: 0.21875
;Generated with Cura_SteamEngine 3.6.0
M140 S65
M105
M190 S65
M104 S205
M105
M109 S205
M82 ;absolute extrusion mode
G21;(metric values)
G90;(absolute positioning)
M82;(set extruder to absolute mode)
M107;(start with the fan off)
G28;(Home the printer)
G92 E0;(Reset the extruder to 0)
G0 Z5 E5 F500;(Move up and prime the nozzle)
G0 X-1 Z0;(Move outside the printable area)
G1 Y60 E8 F500;(Draw a priming/wiping line to the rear)
G1 X-1;(Move a little closer to the print area)
G1 Y10 E16 F500;(draw more priming/wiping)
G1 E15 F250;(Small retract)
G92 E0;(Zero the extruder)
G92 E0
G1 F2400 E-2.5
;LAYER_COUNT:202
;LAYER:0
M107
G0 F4320 X44.486 Y49.003 Z0.263
;TYPE:SKIRT
G1 F2400 E0
G1 F2160 X45.185 Y48.517 E0.03258
G1 X57.459 Y41.43 E0.57498
G1 X58.03 Y41.147 E0.59937
G1 X58.631 Y40.937 E0.62374
G1 X59.254 Y40.805 E0.64811
G1 X59.889 Y40.751 E0.6725
G1 X60.525 Y40.778 E0.69686
G1 X61.153 Y40.883 E0.72123
G1 X61.763 Y41.067 E0.74561
G1 X62.534 Y41.429 E0.77821
G1 X74.812 Y48.514 E1.3207
G1 X75.342 Y48.867 E1.34507
G1 X75.824 Y49.283 E1.36944
G1 X76.251 Y49.756 E1.39383
G1 X76.614 Y50.278 E1.41816
G1 X76.91 Y50.843 E1.44257
G1 X77.132 Y51.439 E1.46691
G1 X77.278 Y52.059 E1.49129
G1 X77.35 Y52.909 E1.52393
G1 X77.352 Y67.086 E2.06649
G1 X77.312 Y67.722 E2.09087
G1 X77.193 Y68.348 E2.11526
G1 X76.996 Y68.953 E2.13961
G1 X76.725 Y69.53 E2.16401
G1 X76.385 Y70.068 E2.18836
G1 X75.979 Y70.559 E2.21274
G1 X75.515 Y70.995 E2.23711
G1 X74.814 Y71.483 E2.2698
G1 X62.533 Y78.57 E2.81243
G1 X61.962 Y78.853 E2.83682
G1 X61.361 Y79.062 E2.86117
G1 X60.738 Y79.195 E2.88555
G1 X60.103 Y79.248 E2.90994
G1 X59.467 Y79.221 E2.9343
G1 X58.839 Y79.115 E2.95867
G1 X58.229 Y78.931 E2.98306
G1 X57.457 Y78.568 E3.01571
G1 X45.183 Y71.477 E3.55819
G1 X44.653 Y71.125 E3.58253
G1 X44.171 Y70.709 E3.6069
G1 X43.745 Y70.235 E3.63129
G1 X43.381 Y69.712 E3.65568
G1 X43.086 Y69.148 E3.68003
G1 X42.864 Y68.551 E3.70441
G1 X42.718 Y67.931 E3.72879
G1 X42.647 Y67.083 E3.76135
G1 X42.648 Y52.912 E4.30368
G1 X42.688 Y52.276 E4.32806
G1 X42.807 Y51.65 E4.35245
G1 X43.004 Y51.045 E4.3768
G1 X43.275 Y50.468 E4.4012
G1 X43.616 Y49.931 E4.42554
G1 X43.986 Y49.483 E4.44778
G0 F1944 X44.022 Y49.44
G0 X44.486 Y49.003
G0 F4320 X44.827 Y49.178
G1 F2400 E4.47434
G1 F2160 X45.36 Y48.82 E4.49891
G1 X57.634 Y41.733 E5.04131
G1 X58.185 Y41.461 E5.06483
G1 X58.767 Y41.263 E5.08835
G1 X59.369 Y41.142 E5.11185
G1 X59.983 Y41.1 E5.13541
G1 X60.596 Y41.138 E5.15891
G1 X61.199 Y41.255 E5.18242
G1 X61.782 Y41.45 E5.20594
G1 X62.359 Y41.732 E5.23052
G1 X74.637 Y48.817 E5.77302
G1 X75.148 Y49.159 E5.79655
G1 X75.61 Y49.563 E5.82004
G1 X76.016 Y50.024 E5.84355
G1 X76.359 Y50.534 E5.86707
G1 X76.633 Y51.084 E5.89058
G1 X76.833 Y51.665 E5.9141
G1 X76.956 Y52.267 E5.93761
G1 X77 Y52.909 E5.96224
G1 X77.002 Y67.086 E6.50479
G1 X76.962 Y67.7 E6.52834
G1 X76.843 Y68.302 E6.55183
G1 X76.647 Y68.885 E6.57536
G1 X76.376 Y69.437 E6.5989
G1 X76.037 Y69.949 E6.6224
G1 X75.634 Y70.412 E6.64589
G1 X75.174 Y70.82 E6.66942
G1 X74.639 Y71.179 E6.69408
G1 X62.358 Y78.266 E7.23671
G1 X61.807 Y78.538 E7.26023
G1 X61.225 Y78.736 E7.28376
G1 X60.622 Y78.857 E7.30729
G1 X60.009 Y78.899 E7.33081
G1 X59.396 Y78.861 E7.35431
G1 X58.793 Y78.743 E7.37783
G1 X58.21 Y78.548 E7.40135
G1 X57.632 Y78.265 E7.42598
G1 X45.358 Y71.174 E7.96846
G1 X44.847 Y70.833 E7.99197
G1 X44.385 Y70.428 E8.01548
G1 X43.979 Y69.967 E8.03899
G1 X43.637 Y69.457 E8.06249
G1 X43.363 Y68.906 E8.08604
G1 X43.163 Y68.325 E8.10956
G1 X43.041 Y67.723 E8.13306
G1 X42.997 Y67.083 E8.15762
G1 X42.998 Y52.912 E8.69994
G1 X43.038 Y52.298 E8.72349
G1 X43.157 Y51.696 E8.74697
G1 X43.354 Y51.113 E8.77052
G1 X43.624 Y50.562 E8.794
G1 X43.964 Y50.05 E8.81752
G1 X44.315 Y49.646 E8.83801
G0 F1944 X44.367 Y49.586
G0 X44.827 Y49.178
G0 F4320 X45.167 Y49.361
G1 F2400 E8.86457
G1 F2160 X45.535 Y49.123 E8.88134
G1 X57.809 Y42.036 E9.42374
G1 X58.34 Y41.776 E9.44637
G1 X58.901 Y41.589 E9.469
G1 X59.482 Y41.48 E9.49162
G1 X60.073 Y41.451 E9.51427
G1 X60.662 Y41.501 E9.53689
G1 X61.239 Y41.63 E9.55951
G1 X61.793 Y41.836 E9.58213
G1 X62.184 Y42.036 E9.59894
G1 X74.462 Y49.121 E10.14144
G1 X74.953 Y49.45 E10.16406
G1 X75.395 Y49.843 E10.18669
G1 X75.78 Y50.291 E10.2093
G1 X76.101 Y50.788 E10.23194
G1 X76.352 Y51.323 E10.25456
G1 X76.529 Y51.887 E10.27718
G1 X76.628 Y52.47 E10.29981
G1 X76.65 Y52.909 E10.31663
G1 X76.652 Y67.086 E10.85919
G1 X76.612 Y67.676 E10.88182
G1 X76.493 Y68.255 E10.90444
G1 X76.297 Y68.813 E10.92707
G1 X76.028 Y69.34 E10.94972
G1 X75.69 Y69.825 E10.97234
G1 X75.289 Y70.26 E10.99498
G1 X74.834 Y70.637 E11.01759
G1 X74.464 Y70.876 E11.03445
G1 X62.183 Y77.963 E11.57709
G1 X61.652 Y78.224 E11.59973
G1 X61.091 Y78.41 E11.62235
G1 X60.509 Y78.519 E11.64501
G1 X59.919 Y78.548 E11.66762
G1 X59.33 Y78.498 E11.69024
G1 X58.753 Y78.369 E11.71286
G1 X58.199 Y78.163 E11.73548
G1 X57.807 Y77.962 E11.75234
G1 X45.533 Y70.871 E12.29482
G1 X45.043 Y70.542 E12.31741
G1 X44.601 Y70.149 E12.34005
G1 X44.216 Y69.7 E12.36268
G1 X43.895 Y69.203 E12.38532
G1 X43.644 Y68.668 E12.40794
G1 X43.468 Y68.103 E12.43059
G1 X43.369 Y67.52 E12.45322
G1 X43.347 Y67.083 E12.46996
G1 X43.348 Y52.912 E13.01229
G1 X43.388 Y52.322 E13.03492
G1 X43.507 Y51.743 E13.05754
G1 X43.703 Y51.185 E13.08017
G1 X43.973 Y50.659 E13.1028
G1 X44.311 Y50.174 E13.12542
G1 X44.642 Y49.814 E13.14414
G0 F1944 X44.711 Y49.739
G0 X45.167 Y49.361
G0 F4320 X45.055 Y49.898
G1 F2400 E13.1707
G1 F2160 X45.71 Y49.426 E13.20159
G1 X57.984 Y42.339 E13.744
G1 X58.494 Y42.091 E13.7657
G1 X59.034 Y41.917 E13.78741
G1 X59.593 Y41.82 E13.80913
G1 X60.16 Y41.803 E13.83083
G1 X60.723 Y41.866 E13.85252
G1 X61.272 Y42.007 E13.87421
G1 X62.009 Y42.339 E13.90514
G1 X74.287 Y49.424 E14.44764
G1 X74.757 Y49.741 E14.46934
G1 X75.177 Y50.121 E14.49101
G1 X75.541 Y50.557 E14.51275
G1 X75.839 Y51.039 E14.53443
G1 X76.066 Y51.559 E14.55615
G1 X76.219 Y52.105 E14.57785
G1 X76.3 Y52.909 E14.60877
G1 X76.302 Y67.086 E15.15133
G1 X76.262 Y67.652 E15.17304
G1 X76.143 Y68.207 E15.19476
G1 X75.947 Y68.739 E15.21646
G1 X75.679 Y69.238 E15.23814
G1 X75.343 Y69.695 E15.25985
G1 X74.946 Y70.1 E15.28155
G1 X74.289 Y70.573 E15.31253
G1 X62.008 Y77.66 E15.85517
G1 X61.498 Y77.908 E15.87687
G1 X60.958 Y78.082 E15.89858
G1 X60.399 Y78.179 E15.92029
G1 X59.832 Y78.196 E15.942
G1 X59.269 Y78.133 E15.96368
G1 X58.72 Y77.991 E15.98538
G1 X57.983 Y77.659 E16.01632
G1 X45.709 Y70.568 E16.5588
G1 X45.239 Y70.251 E16.5805
G1 X44.818 Y69.87 E16.60223
G1 X44.455 Y69.434 E16.62394
G1 X44.157 Y68.952 E16.64562
G1 X43.93 Y68.432 E16.66734
G1 X43.778 Y67.886 E16.68903
G1 X43.697 Y67.083 E16.71991
G1 X43.698 Y52.912 E17.26224
G1 X43.738 Y52.346 E17.28395
G1 X43.857 Y51.792 E17.30564
G1 X44.053 Y51.259 E17.32737
G1 X44.322 Y50.76 E17.34907
G1 X44.583 Y50.405 E17.36593
G0 F1944 X44.658 Y50.303
G0 X45.055 Y49.898
G0 F4320 X45.397 Y50.067
G1 F2400 E17.39249
G1 F2160 X45.885 Y49.729 E17.41521
G1 X58.159 Y42.642 E17.95761
G1 X58.647 Y42.407 E17.97834
G1 X59.165 Y42.246 E17.9991
G1 X59.7 Y42.162 E18.01982
G1 X60.242 Y42.158 E18.04056
G1 X60.778 Y42.234 E18.06128
G1 X61.298 Y42.388 E18.08204
G1 X61.834 Y42.642 E18.10474
G1 X74.112 Y49.727 E18.64723
G1 X74.56 Y50.032 E18.66798
G1 X74.958 Y50.399 E18.68869
G1 X75.298 Y50.821 E18.70943
G1 X75.573 Y51.288 E18.73017
G1 X75.775 Y51.791 E18.75092
G1 X75.902 Y52.317 E18.77163
G1 X75.95 Y52.909 E18.79436
G1 X75.952 Y67.086 E19.33691
G1 X75.912 Y67.627 E19.35767
G1 X75.793 Y68.156 E19.37842
G1 X75.598 Y68.661 E19.39914
G1 X75.33 Y69.132 E19.41988
G1 X74.996 Y69.559 E19.44062
G1 X74.603 Y69.932 E19.46136
G1 X74.114 Y70.27 E19.48411
G1 X61.833 Y77.357 E20.02674
G1 X61.345 Y77.593 E20.04749
G1 X60.828 Y77.754 E20.06821
G1 X60.292 Y77.837 E20.08897
G1 X59.75 Y77.841 E20.10971
G1 X59.214 Y77.765 E20.13043
G1 X58.694 Y77.611 E20.15118
G1 X58.158 Y77.356 E20.1739
G1 X45.884 Y70.265 E20.71638
G1 X45.436 Y69.96 E20.73712
G1 X45.037 Y69.593 E20.75787
G1 X44.698 Y69.171 E20.77858
G1 X44.424 Y68.703 E20.79934
G1 X44.221 Y68.201 E20.82006
G1 X44.095 Y67.674 E20.8408
G1 X44.047 Y67.083 E20.86349
G1 X44.048 Y52.912 E21.40581
G1 X44.088 Y52.371 E21.42657
G1 X44.207 Y51.843 E21.44729
G1 X44.402 Y51.337 E21.46804
G1 X44.67 Y50.866 E21.48878
G1 X44.91 Y50.56 E21.50366
G0 F1944 X45.004 Y50.44
G0 X45.397 Y50.067
G0 F4320 X45.738 Y50.245
G1 F2400 E21.53022
G1 F2160 X46.06 Y50.033 E21.54497
G1 X58.334 Y42.946 E22.08738
G1 X58.799 Y42.723 E22.10711
G1 X59.293 Y42.575 E22.12685
G1 X59.804 Y42.506 E22.14658
G1 X60.319 Y42.516 E22.1663
G1 X60.826 Y42.605 E22.186
G1 X61.314 Y42.772 E22.20573
G1 X61.659 Y42.945 E22.2205
G1 X73.937 Y50.03 E22.763
G1 X74.362 Y50.321 E22.78271
G1 X74.737 Y50.675 E22.80245
G1 X75.053 Y51.082 E22.82217
G1 X75.302 Y51.534 E22.84192
G1 X75.478 Y52.018 E22.86163
G1 X75.577 Y52.523 E22.88132
G1 X75.6 Y52.91 E22.89616
G1 X75.602 Y67.087 E23.43871
G1 X75.562 Y67.6 E23.4584
G1 X75.443 Y68.102 E23.47815
G1 X75.248 Y68.579 E23.49787
G1 X74.982 Y69.02 E23.51758
G1 X74.651 Y69.415 E23.5373
G1 X74.263 Y69.754 E23.55702
G1 X73.939 Y69.967 E23.57186
G1 X61.658 Y77.054 E24.11449
G1 X61.193 Y77.276 E24.13421
G1 X60.699 Y77.424 E24.15395
G1 X60.189 Y77.493 E24.17364
G1 X59.673 Y77.483 E24.1934
G1 X59.166 Y77.394 E24.21309
G1 X58.678 Y77.227 E24.23283
G1 X58.333 Y77.053 E24.24762
G1 X46.059 Y69.962 E24.7901
G1 X45.634 Y69.67 E24.80983
G1 X45.259 Y69.317 E24.82954
G1 X44.943 Y68.909 E24.84929
G1 X44.695 Y68.458 E24.86899
G1 X44.518 Y67.974 E24.88871
G1 X44.419 Y67.468 E24.90845
G1 X44.397 Y67.083 E24.9232
G1 X44.398 Y52.912 E25.46553
G1 X44.438 Y52.398 E25.48526
G1 X44.557 Y51.896 E25.505
G1 X44.752 Y51.419 E25.52472
G1 X45.018 Y50.978 E25.54443
G1 X45.234 Y50.72 E25.55731
G0 F1944 X45.349 Y50.583
G0 X45.738 Y50.245
G0 F4320 X45.694 Y50.736
G1 F2400 E25.58387
G1 F2160 X46.235 Y50.336 E25.60962
G1 X58.509 Y43.249 E26.15202
G1 X58.95 Y43.04 E26.1707
G1 X59.419 Y42.907 E26.18935
G1 X59.903 Y42.851 E26.208
G1 X60.39 Y42.876 E26.22666
G1 X60.866 Y42.98 E26.24531
G1 X61.484 Y43.248 E26.27109
G1 X73.762 Y50.333 E26.81358
G1 X74.163 Y50.611 E26.83226
G1 X74.513 Y50.95 E26.8509
G1 X74.803 Y51.341 E26.86953
G1 X75.025 Y51.775 E26.88819
G1 X75.173 Y52.24 E26.90687
G1 X75.25 Y52.91 E26.93268
G1 X75.252 Y67.087 E27.47523
G1 X75.212 Y67.572 E27.49385
G1 X75.093 Y68.045 E27.51252
G1 X74.899 Y68.492 E27.53117
G1 X74.635 Y68.902 E27.54983
G1 X74.307 Y69.262 E27.56847
G1 X73.764 Y69.664 E27.59432
G1 X61.483 Y76.751 E28.13696
G1 X61.042 Y76.959 E28.15562
G1 X60.573 Y77.092 E28.17427
G1 X60.089 Y77.148 E28.19292
G1 X59.602 Y77.123 E28.21158
G1 X59.126 Y77.019 E28.23023
G1 X58.508 Y76.75 E28.25602
G1 X46.234 Y69.659 E28.7985
G1 X45.833 Y69.381 E28.81718
G1 X45.483 Y69.042 E28.83582
G1 X45.193 Y68.65 E28.85448
G1 X44.971 Y68.216 E28.87314
G1 X44.823 Y67.752 E28.89178
G1 X44.747 Y67.083 E28.91755
G1 X44.748 Y52.912 E29.45987
G1 X44.788 Y52.426 E29.47853
G1 X44.907 Y51.953 E29.4972
G1 X45.101 Y51.506 E29.51585
G1 X45.254 Y51.27 E29.52661
G0 F1944 X45.366 Y51.097
G0 X45.694 Y50.736
G0 F4320 X46.037 Y50.9
G1 F2400 E29.55317
G1 F2160 X46.41 Y50.639 E29.57059
G1 X58.684 Y43.552 E30.113
G1 X59.099 Y43.358 E30.13053
G1 X59.542 Y43.24 E30.14807
G1 X59.998 Y43.2 E30.16559
G1 X60.454 Y43.24 E30.18311
G1 X60.896 Y43.359 E30.20063
G1 X61.309 Y43.551 E30.21806
G1 X73.587 Y50.636 E30.76055
G1 X73.962 Y50.899 E30.77808
G1 X74.286 Y51.223 E30.79562
G1 X74.548 Y51.598 E30.81312
G1 X74.742 Y52.013 E30.83066
G1 X74.86 Y52.455 E30.84816
G1 X74.9 Y52.91 E30.86564
G1 X74.902 Y67.087 E31.4082
G1 X74.862 Y67.543 E31.42572
G1 X74.744 Y67.985 E31.44322
G1 X74.55 Y68.4 E31.46075
G1 X74.287 Y68.775 E31.47828
G1 X73.964 Y69.098 E31.49576
G1 X73.589 Y69.361 E31.51329
G1 X61.308 Y76.448 E32.05593
G1 X60.893 Y76.641 E32.07344
G1 X60.451 Y76.759 E32.09095
G1 X59.995 Y76.799 E32.10847
G1 X59.539 Y76.759 E32.12599
G1 X59.096 Y76.64 E32.14354
G1 X58.683 Y76.447 E32.16099
G1 X46.409 Y69.356 E32.70347
G1 X46.034 Y69.093 E32.721
G1 X45.71 Y68.769 E32.73853
G1 X45.448 Y68.394 E32.75604
G1 X45.255 Y67.979 E32.77356
G1 X45.137 Y67.537 E32.79106
G1 X45.097 Y67.083 E32.80851
G1 X45.098 Y52.912 E33.35083
G1 X45.138 Y52.456 E33.36835
G1 X45.257 Y52.014 E33.38587
G1 X45.45 Y51.599 E33.40338
G1 X45.578 Y51.417 E33.4119
G0 F1944 X45.713 Y51.224
G0 X46.037 Y50.9
G0 F4320 X46.378 Y51.077
G1 F2400 E33.43846
G1 F2160 X46.585 Y50.942 E33.44791
G1 X58.859 Y43.855 E33.99032
G1 X59.247 Y43.677 E34.00665
G1 X59.661 Y43.575 E34.02297
G1 X60.086 Y43.552 E34.03926
G1 X60.508 Y43.608 E34.05555
G1 X60.913 Y43.742 E34.07188
G1 X61.134 Y43.855 E34.08138
G1 X73.412 Y50.94 E34.62387
G1 X73.76 Y51.186 E34.64018
G1 X74.055 Y51.493 E34.65648
G1 X74.288 Y51.85 E34.67279
G1 X74.45 Y52.244 E34.68909
G1 X74.536 Y52.661 E34.70539
G1 X74.55 Y52.91 E34.71493
G1 X74.552 Y67.087 E35.25749
G1 X74.512 Y67.511 E35.27378
G1 X74.394 Y67.92 E35.29008
G1 X74.201 Y68.301 E35.30642
G1 X73.941 Y68.638 E35.32271
G1 X73.623 Y68.921 E35.339
G1 X73.414 Y69.057 E35.34854
G1 X61.133 Y76.144 E35.89118
G1 X60.746 Y76.322 E35.90748
G1 X60.332 Y76.424 E35.9238
G1 X59.906 Y76.447 E35.94013
G1 X59.484 Y76.391 E35.95642
G1 X59.08 Y76.256 E35.97272
G1 X58.858 Y76.144 E35.98223
G1 X46.584 Y69.053 E36.52471
G1 X46.237 Y68.806 E36.54101
G1 X45.941 Y68.499 E36.55734
G1 X45.708 Y68.142 E36.57365
G1 X45.546 Y67.748 E36.58995
G1 X45.46 Y67.33 E36.60629
G1 X45.447 Y67.083 E36.61575
G1 X45.448 Y52.912 E37.15807
G1 X45.488 Y52.488 E37.17437
G1 X45.606 Y52.078 E37.1907
G1 X45.799 Y51.698 E37.20701
G1 X45.896 Y51.572 E37.2131
G0 F1944 X46.059 Y51.361
G0 X46.378 Y51.077
G0 F4320 X46.404 Y51.51
G1 F2400 E37.23966
G1 F2160 X46.76 Y51.245 E37.25664
G1 X59.034 Y44.158 E37.79904
G1 X59.392 Y43.998 E37.81405
G1 X59.775 Y43.913 E37.82906
G1 X60.167 Y43.907 E37.84407
G1 X60.551 Y43.982 E37.85904
G1 X60.959 Y44.158 E37.87605
G1 X73.237 Y51.243 E38.41854
G1 X73.555 Y51.472 E38.43354
G1 X73.82 Y51.761 E38.44855
G1 X74.02 Y52.098 E38.46354
G1 X74.149 Y52.468 E38.47854
G1 X74.2 Y52.91 E38.49557
G1 X74.202 Y67.087 E39.03812
G1 X74.162 Y67.477 E39.05312
G1 X74.044 Y67.85 E39.0681
G1 X73.853 Y68.192 E39.08309
G1 X73.596 Y68.489 E39.09812
G1 X73.239 Y68.754 E39.11513
G1 X60.958 Y75.841 E39.65777
G1 X60.601 Y76.002 E39.67276
G1 X60.218 Y76.086 E39.68776
G1 X59.826 Y76.091 E39.70276
G1 X59.441 Y76.017 E39.71777
G1 X59.033 Y75.841 E39.73477
G1 X46.759 Y68.75 E40.27725
G1 X46.441 Y68.52 E40.29227
G1 X46.177 Y68.231 E40.30725
G1 X45.976 Y67.894 E40.32227
G1 X45.848 Y67.524 E40.33725
G1 X45.797 Y67.083 E40.35424
G1 X45.798 Y52.912 E40.89657
G1 X45.838 Y52.522 E40.91157
G1 X45.956 Y52.148 E40.92658
G1 X46 Y52.07 E40.93001
G0 F1944 X46.147 Y51.806
G0 X46.404 Y51.51
G0 F4320 X46.746 Y51.676
G1 F2400 E40.95656
G1 F2160 X46.935 Y51.548 E40.9653
G1 X59.209 Y44.461 E41.5077
G1 X59.534 Y44.319 E41.52128
G1 X59.883 Y44.254 E41.53486
G1 X60.237 Y44.268 E41.54842
G1 X60.579 Y44.361 E41.56198
G1 X60.784 Y44.461 E41.57071
G1 X73.062 Y51.546 E42.11321
G1 X73.347 Y51.756 E42.12676
G1 X73.578 Y52.025 E42.14033
G1 X73.743 Y52.339 E42.1539
G1 X73.833 Y52.682 E42.16747
G1 X73.85 Y52.91 E42.17622
G1 X73.852 Y67.087 E42.71878
G1 X73.812 Y67.439 E42.73234
G1 X73.695 Y67.773 E42.74588
G1 X73.505 Y68.073 E42.75947
G1 X73.254 Y68.323 E42.77303
G1 X73.064 Y68.451 E42.78179
G1 X60.783 Y75.538 E43.32443
G1 X60.458 Y75.68 E43.338
G1 X60.11 Y75.745 E43.35155
G1 X59.756 Y75.731 E43.36511
G1 X59.414 Y75.637 E43.37868
G1 X59.208 Y75.538 E43.38743
G1 X46.934 Y68.447 E43.92991
G1 X46.649 Y68.236 E43.94348
G1 X46.418 Y67.967 E43.95705
G1 X46.254 Y67.653 E43.97061
G1 X46.164 Y67.31 E43.98418
G1 X46.147 Y67.083 E43.99289
G1 X46.148 Y52.912 E44.53521
G1 X46.188 Y52.56 E44.54877
G1 X46.306 Y52.225 E44.56236
G1 X46.313 Y52.213 E44.56289
G0 F1944 X46.495 Y51.926
G0 X46.746 Y51.676
G0 F4320 X46.841 Y52.062
G1 F2400 E44.58945
G1 F2160 X47.11 Y51.851 E44.60254
G1 X59.384 Y44.764 E45.14494
G1 X59.673 Y44.644 E45.15692
G1 X59.982 Y44.6 E45.16886
G1 X60.292 Y44.636 E45.1808
G1 X60.609 Y44.764 E45.19389
G1 X72.887 Y51.849 E45.73639
