;FLAVOR:Marlin
;TIME:11882
;Filament used: 7.23384m
;Layer height: 0.175
;Generated with Cura_SteamEngine 3.6.0
M140 S65
M105
M190 S65
M104 S205
M105
M109 S205
M82 ;absolute extrusion mode
G21;(metric values)
G90;(absolute positioning)
M82;(set extruder to absolute mode)
M107;(start with the fan off)
G28;(Home the printer)
G92 E0;(Reset the extruder to 0)
G0 Z5 E5 F500;(Move up and prime the nozzle)
G0 X-1 Z0;(Move outside the printable area)
G1 Y60 E8 F500;(Draw a priming/wiping line to the rear)
G1 X-1;(Move a little closer to the print area)
G1 Y10 E16 F500;(draw more priming/wiping)
G1 E15 F250;(Small retract)
G92 E0;(Zero the extruder)
G92 E0
G1 F2400 E-2.5
;LAYER_COUNT:183
;LAYER:0
M107
G0 F4320 X36.235 Y24.375 Z0.263
;TYPE:SKIRT
G1 F2400 E0
G1 F1800 X36.651 Y23.893 E0.02437
G1 X37.124 Y23.467 E0.04873
G1 X37.647 Y23.103 E0.07311
G1 X38.211 Y22.808 E0.09747
G1 X38.808 Y22.586 E0.12185
G1 X39.428 Y22.44 E0.14622
G1 X40.278 Y22.368 E0.17887
G1 X46.712 Y22.368 E0.4251
G1 X46.979 Y21.8 E0.44912
G1 X47.32 Y21.262 E0.47349
G1 X47.726 Y20.771 E0.49788
G1 X48.19 Y20.335 E0.52224
G1 X48.705 Y19.96 E0.54662
G1 X49.262 Y19.653 E0.57096
G1 X49.854 Y19.418 E0.59534
G1 X50.471 Y19.259 E0.61972
G1 X51.103 Y19.178 E0.64411
G1 X51.427 Y19.168 E0.65651
G1 X55.426 Y19.168 E0.80955
G1 X56.062 Y19.208 E0.83394
G1 X56.687 Y19.327 E0.85829
G1 X57.293 Y19.524 E0.88268
G1 X57.869 Y19.795 E0.90704
G1 X58.407 Y20.136 E0.93141
G1 X58.898 Y20.542 E0.9558
G1 X59.334 Y21.006 E0.98016
G1 X59.709 Y21.521 E1.00454
G1 X60.005 Y22.058 E1.02801
G1 X60.126 Y21.8 E1.03892
G1 X60.467 Y21.262 E1.06329
G1 X60.873 Y20.771 E1.08767
G1 X61.337 Y20.335 E1.11204
G1 X61.852 Y19.96 E1.13642
G1 X62.409 Y19.653 E1.16076
G1 X63.001 Y19.418 E1.18514
G1 X63.618 Y19.259 E1.20952
G1 X64.25 Y19.178 E1.23391
G1 X64.574 Y19.168 E1.24631
G1 X68.573 Y19.168 E1.39935
G1 X69.209 Y19.208 E1.42374
G1 X69.834 Y19.327 E1.44809
G1 X70.44 Y19.524 E1.47247
G1 X71.016 Y19.795 E1.49684
G1 X71.554 Y20.136 E1.52121
G1 X72.045 Y20.542 E1.5456
G1 X72.481 Y21.006 E1.56996
G1 X72.856 Y21.521 E1.59434
G1 X73.163 Y22.078 E1.61868
G1 X73.278 Y22.368 E1.63062
G1 X79.722 Y22.368 E1.87723
G1 X80.358 Y22.408 E1.90162
G1 X80.983 Y22.527 E1.92597
G1 X81.589 Y22.724 E1.95035
G1 X82.165 Y22.995 E1.97472
G1 X82.703 Y23.336 E1.99909
G1 X83.194 Y23.742 E2.02348
G1 X83.63 Y24.206 E2.04784
G1 X84.117 Y24.906 E2.08048
G1 X90.214 Y35.469 E2.54723
G1 X90.497 Y36.039 E2.57158
G1 X90.594 Y36.317 E2.58285
G1 X90.607 Y36.33 E2.58356
G1 X90.992 Y36.837 E2.60792
G1 X91.164 Y37.113 E2.62036
G1 X96.788 Y46.854 E3.05082
G1 X97.071 Y47.425 E3.07521
G1 X97.169 Y47.704 E3.08653
G1 X97.18 Y47.716 E3.08715
G1 X97.565 Y48.223 E3.11151
G1 X97.737 Y48.499 E3.12396
G1 X103.836 Y59.062 E3.59075
G1 X104.119 Y59.633 E3.61514
G1 X104.329 Y60.234 E3.6395
G1 X104.461 Y60.857 E3.66387
G1 X104.515 Y61.492 E3.68826
G1 X104.488 Y62.128 E3.71263
G1 X104.383 Y62.756 E3.73699
G1 X104.199 Y63.366 E3.76138
G1 X103.836 Y64.137 E3.79399
G1 X100.62 Y69.707 E4.04013
G1 X100.979 Y70.223 E4.06419
G1 X101.274 Y70.787 E4.08855
G1 X101.496 Y71.384 E4.11292
G1 X101.642 Y72.004 E4.1373
G1 X101.709 Y72.637 E4.16166
G1 X101.697 Y73.274 E4.18604
G1 X101.604 Y73.904 E4.21041
G1 X101.434 Y74.518 E4.23479
G1 X101.187 Y75.105 E4.25917
G1 X101.034 Y75.392 E4.27161
G1 X99.034 Y78.856 E4.42469
G1 X98.682 Y79.386 E4.44904
G1 X98.266 Y79.868 E4.47341
G1 X97.792 Y80.294 E4.49779
G1 X97.269 Y80.658 E4.52218
G1 X96.705 Y80.953 E4.54654
G1 X96.108 Y81.176 E4.57093
G1 X95.488 Y81.321 E4.5953
G1 X94.855 Y81.388 E4.61966
G1 X94.244 Y81.376 E4.64304
G1 X94.406 Y81.609 E4.6539
G1 X94.701 Y82.174 E4.6783
G1 X94.923 Y82.771 E4.70267
G1 X95.069 Y83.39 E4.72701
G1 X95.135 Y84.024 E4.75141
G1 X95.122 Y84.661 E4.77579
G1 X95.03 Y85.291 E4.80015
G1 X94.859 Y85.904 E4.82451
G1 X94.613 Y86.492 E4.8489
G1 X94.46 Y86.777 E4.86128
G1 X92.46 Y90.241 E5.01436
G1 X92.108 Y90.771 E5.03871
G1 X91.692 Y91.253 E5.06307
G1 X91.218 Y91.679 E5.08746
G1 X90.695 Y92.043 E5.11185
G1 X90.131 Y92.338 E5.13621
G1 X89.534 Y92.561 E5.1606
G1 X88.914 Y92.706 E5.18496
G1 X88.281 Y92.773 E5.20932
G1 X87.644 Y92.761 E5.23371
G1 X87.337 Y92.716 E5.24558
G1 X84.117 Y98.294 E5.49206
G1 X83.765 Y98.825 E5.51645
G1 X83.349 Y99.307 E5.54081
G1 X82.876 Y99.733 E5.56517
G1 X82.353 Y100.097 E5.58956
G1 X81.788 Y100.392 E5.61395
G1 X81.192 Y100.615 E5.6383
G1 X80.572 Y100.76 E5.66267
G1 X79.722 Y100.832 E5.69532
G1 X67.523 Y100.832 E6.16217
G1 X66.887 Y100.792 E6.18656
G1 X66.597 Y100.737 E6.19786
G1 X66.58 Y100.741 E6.19852
G1 X65.948 Y100.822 E6.22291
G1 X65.624 Y100.832 E6.23531
G1 X54.376 Y100.832 E6.66577
G1 X53.74 Y100.792 E6.69016
G1 X53.45 Y100.737 E6.70146
G1 X53.433 Y100.741 E6.70213
G1 X52.801 Y100.822 E6.72651
G1 X52.477 Y100.832 E6.73892
G1 X40.278 Y100.832 E7.20577
G1 X39.642 Y100.792 E7.23016
G1 X39.017 Y100.673 E7.25451
G1 X38.411 Y100.476 E7.27889
G1 X37.835 Y100.205 E7.30326
G1 X37.297 Y99.864 E7.32763
G1 X36.806 Y99.458 E7.35201
G1 X36.37 Y98.994 E7.37638
G1 X35.883 Y98.294 E7.40902
G1 X32.667 Y92.724 E7.65516
G1 X32.044 Y92.777 E7.67909
G1 X31.408 Y92.751 E7.70345
G1 X30.78 Y92.645 E7.72782
G1 X30.17 Y92.461 E7.7522
G1 X29.588 Y92.203 E7.77657
G1 X29.043 Y91.873 E7.80095
G1 X28.543 Y91.478 E7.82534
G1 X28.097 Y91.024 E7.84969
G1 X27.712 Y90.517 E7.87406
G1 X27.54 Y90.241 E7.8865
G1 X25.54 Y86.777 E8.03958
G1 X25.257 Y86.206 E8.06397
G1 X25.047 Y85.605 E8.08833
G1 X24.915 Y84.982 E8.1127
G1 X24.861 Y84.347 E8.13709
G1 X24.888 Y83.711 E8.16145
G1 X24.993 Y83.083 E8.18582
G1 X25.177 Y82.473 E8.2102
G1 X25.436 Y81.891 E8.23458
G1 X25.752 Y81.368 E8.25797
G1 X25.469 Y81.392 E8.26884
G1 X24.832 Y81.365 E8.29324
G1 X24.204 Y81.259 E8.31761
G1 X23.594 Y81.076 E8.34198
G1 X23.013 Y80.817 E8.36633
G1 X22.468 Y80.487 E8.39071
G1 X21.968 Y80.092 E8.41509
G1 X21.522 Y79.637 E8.43948
G1 X21.137 Y79.131 E8.46381
G1 X20.966 Y78.856 E8.4762
G1 X18.966 Y75.392 E8.62928
G1 X18.683 Y74.821 E8.65367
G1 X18.473 Y74.22 E8.67803
G1 X18.341 Y73.597 E8.7024
G1 X18.287 Y72.962 E8.72679
G1 X18.314 Y72.326 E8.75115
G1 X18.419 Y71.698 E8.77552
G1 X18.603 Y71.088 E8.7999
G1 X18.862 Y70.506 E8.82428
G1 X19.191 Y69.961 E8.84865
G1 X19.385 Y69.716 E8.86061
G1 X16.164 Y64.137 E9.10714
G1 X15.881 Y63.567 E9.1315
G1 X15.671 Y62.965 E9.1559
G1 X15.539 Y62.343 E9.18023
G1 X15.485 Y61.708 E9.20462
G1 X15.512 Y61.072 E9.22898
G1 X15.618 Y60.444 E9.25336
G1 X15.801 Y59.834 E9.27773
G1 X16.164 Y59.062 E9.31038
G1 X22.263 Y48.499 E9.77717
G1 X22.615 Y47.969 E9.80152
G1 X22.807 Y47.747 E9.81275
G1 X22.812 Y47.729 E9.81346
G1 X23.058 Y47.141 E9.83786
G1 X23.212 Y46.854 E9.85032
G1 X28.836 Y37.113 E10.28078
G1 X29.188 Y36.583 E10.30513
G1 X29.382 Y36.359 E10.31647
G1 X29.386 Y36.343 E10.3171
G1 X29.632 Y35.755 E10.34149
G1 X29.786 Y35.469 E10.35392
G1 X35.855 Y24.955 E10.81852
G0 F1620 X35.883 Y24.906
G0 X36.235 Y24.375
G0 F4320 X36.527 Y24.57
G1 F2400 E10.84508
G1 F1800 X36.932 Y24.107 E10.86862
G1 X37.393 Y23.701 E10.89213
G1 X37.903 Y23.358 E10.91565
G1 X38.453 Y23.085 E10.93915
G1 X39.034 Y22.885 E10.96266
G1 X39.636 Y22.762 E10.98618
G1 X40.278 Y22.718 E11.0108
G1 X46.966 Y22.718 E11.26675
G1 X47.058 Y22.445 E11.27778
G1 X47.328 Y21.893 E11.30129
G1 X47.668 Y21.381 E11.32482
G1 X48.071 Y20.917 E11.34834
G1 X48.531 Y20.51 E11.37184
G1 X49.04 Y20.165 E11.39537
G1 X49.589 Y19.89 E11.41887
G1 X50.17 Y19.688 E11.44241
G1 X50.771 Y19.564 E11.4659
G1 X51.427 Y19.518 E11.49106
G1 X55.426 Y19.518 E11.64411
G1 X56.039 Y19.558 E11.66761
G1 X56.642 Y19.677 E11.69114
G1 X57.224 Y19.874 E11.71465
G1 X57.776 Y20.144 E11.73817
G1 X58.288 Y20.484 E11.76169
G1 X58.752 Y20.887 E11.78521
G1 X59.159 Y21.347 E11.80871
G1 X59.504 Y21.856 E11.83225
G1 X59.779 Y22.405 E11.85575
G1 X59.888 Y22.718 E11.86843
G1 X60.113 Y22.718 E11.87704
G1 X60.205 Y22.445 E11.88807
G1 X60.475 Y21.893 E11.91158
G1 X60.815 Y21.381 E11.9351
G1 X61.218 Y20.917 E11.95862
G1 X61.678 Y20.51 E11.98213
G1 X62.187 Y20.165 E12.00566
G1 X62.736 Y19.89 E12.02916
G1 X63.317 Y19.688 E12.0527
G1 X63.918 Y19.564 E12.07618
G1 X64.574 Y19.518 E12.10135
G1 X68.573 Y19.518 E12.25439
G1 X69.186 Y19.558 E12.2779
G1 X69.789 Y19.677 E12.30142
G1 X70.371 Y19.874 E12.32494
G1 X70.923 Y20.144 E12.34845
G1 X71.435 Y20.484 E12.37198
G1 X71.899 Y20.887 E12.3955
G1 X72.306 Y21.347 E12.419
G1 X72.651 Y21.856 E12.44253
G1 X72.926 Y22.405 E12.46603
G1 X73.035 Y22.718 E12.47872
G1 X79.722 Y22.718 E12.73463
G1 X80.335 Y22.758 E12.75814
G1 X80.938 Y22.877 E12.78166
G1 X81.52 Y23.074 E12.80517
G1 X82.072 Y23.344 E12.82869
G1 X82.584 Y23.684 E12.85221
G1 X83.048 Y24.087 E12.87573
G1 X83.455 Y24.547 E12.89924
G1 X83.814 Y25.081 E12.92386
G1 X89.911 Y35.644 E13.39061
G1 X90.183 Y36.195 E13.41413
G1 X90.293 Y36.519 E13.42722
G1 X90.493 Y36.743 E13.43872
G1 X90.861 Y37.288 E13.46388
G1 X96.485 Y47.029 E13.89434
G1 X96.757 Y47.581 E13.91789
G1 X96.868 Y47.907 E13.93107
G1 X97.066 Y48.129 E13.94246
G1 X97.434 Y48.674 E13.96762
G1 X103.533 Y59.237 E14.43441
G1 X103.805 Y59.788 E14.45793
G1 X104.003 Y60.37 E14.48146
G1 X104.124 Y60.972 E14.50496
G1 X104.166 Y61.586 E14.52851
G1 X104.128 Y62.199 E14.55201
G1 X104.011 Y62.802 E14.57552
G1 X103.816 Y63.385 E14.59905
G1 X103.533 Y63.962 E14.62364
G1 X100.19 Y69.752 E14.87951
G1 X100.381 Y69.969 E14.89057
G1 X100.724 Y70.479 E14.91409
G1 X100.997 Y71.029 E14.93759
G1 X101.197 Y71.61 E14.9611
G1 X101.32 Y72.212 E14.98462
G1 X101.364 Y72.825 E15.00814
G1 X101.328 Y73.438 E15.03164
G1 X101.212 Y74.042 E15.05518
G1 X101.019 Y74.625 E15.07868
G1 X100.731 Y75.217 E15.10387
G1 X98.731 Y78.681 E15.25695
G1 X98.39 Y79.192 E15.28046
G1 X97.985 Y79.654 E15.30397
G1 X97.524 Y80.06 E15.32748
G1 X97.014 Y80.403 E15.351
G1 X96.464 Y80.676 E15.3745
G1 X95.883 Y80.876 E15.39802
G1 X95.28 Y80.999 E15.42157
G1 X94.668 Y81.043 E15.44505
G1 X94.054 Y81.007 E15.46859
G1 X93.729 Y80.945 E15.48125
G1 X93.617 Y81.138 E15.48979
G1 X93.808 Y81.355 E15.50085
G1 X94.15 Y81.865 E15.52435
G1 X94.424 Y82.415 E15.54787
G1 X94.624 Y82.996 E15.57138
G1 X94.746 Y83.598 E15.59489
G1 X94.79 Y84.211 E15.61841
G1 X94.754 Y84.825 E15.64195
G1 X94.638 Y85.428 E15.66545
G1 X94.445 Y86.012 E15.68899
G1 X94.157 Y86.602 E15.71411
G1 X92.157 Y90.066 E15.86719
G1 X91.816 Y90.577 E15.8907
G1 X91.411 Y91.039 E15.91421
G1 X90.95 Y91.445 E15.93772
G1 X90.44 Y91.788 E15.96124
G1 X89.89 Y92.061 E15.98474
G1 X89.309 Y92.261 E16.00826
G1 X88.706 Y92.384 E16.03181
G1 X88.094 Y92.428 E16.05529
G1 X87.48 Y92.392 E16.07883
G1 X87.156 Y92.33 E16.09145
G1 X83.814 Y98.119 E16.34727
G1 X83.473 Y98.63 E16.37078
G1 X83.068 Y99.093 E16.39432
G1 X82.607 Y99.499 E16.41783
G1 X82.097 Y99.842 E16.44135
G1 X81.547 Y100.115 E16.46485
G1 X80.966 Y100.315 E16.48836
G1 X80.364 Y100.438 E16.51188
G1 X79.722 Y100.482 E16.5365
G1 X67.523 Y100.482 E17.00336
G1 X66.91 Y100.442 E17.02687
G1 X66.573 Y100.376 E17.04001
G1 X66.28 Y100.436 E17.05145
G1 X65.624 Y100.482 E17.07662
G1 X54.376 Y100.482 E17.50708
G1 X53.763 Y100.442 E17.53059
G1 X53.426 Y100.376 E17.54373
G1 X53.133 Y100.436 E17.55518
G1 X52.477 Y100.482 E17.58035
G1 X40.278 Y100.482 E18.0472
G1 X39.665 Y100.442 E18.07071
G1 X39.062 Y100.323 E18.09423
G1 X38.48 Y100.126 E18.11775
G1 X37.928 Y99.856 E18.14126
G1 X37.416 Y99.516 E18.16478
G1 X36.952 Y99.113 E18.1883
G1 X36.545 Y98.653 E18.21181
G1 X36.186 Y98.119 E18.23643
G1 X32.844 Y92.33 E18.49225
G1 X32.563 Y92.386 E18.50321
G1 X31.95 Y92.428 E18.52673
G1 X31.337 Y92.39 E18.55023
G1 X30.734 Y92.273 E18.57374
G1 X30.151 Y92.078 E18.59727
G1 X29.598 Y91.81 E18.62078
G1 X29.085 Y91.472 E18.64429
G1 X28.62 Y91.07 E18.66782
G1 X28.211 Y90.611 E18.69134
G1 X27.843 Y90.066 E18.71651
G1 X25.843 Y86.602 E18.86959
G1 X25.571 Y86.051 E18.8931
G1 X25.373 Y85.469 E18.91663
G1 X25.252 Y84.866 E18.94017
G1 X25.21 Y84.253 E18.96368
G1 X25.248 Y83.64 E18.98719
G1 X25.365 Y83.037 E19.01069
G1 X25.56 Y82.454 E19.03422
G1 X25.829 Y81.901 E19.05775
G1 X26.167 Y81.388 E19.08127
G1 X26.383 Y81.138 E19.09391
G1 X26.271 Y80.944 E19.10248
G1 X25.988 Y81.001 E19.11353
G1 X25.375 Y81.043 E19.13704
G1 X24.761 Y81.005 E19.16059
G1 X24.158 Y80.887 E19.1841
G1 X23.575 Y80.693 E19.20762
G1 X23.023 Y80.424 E19.23112
G1 X22.51 Y80.086 E19.25463
G1 X22.045 Y79.684 E19.27815
G1 X21.636 Y79.225 E19.30168
G1 X21.269 Y78.681 E19.32679
G1 X19.269 Y75.217 E19.47987
G1 X18.997 Y74.666 E19.50338
G1 X18.799 Y74.084 E19.52691
G1 X18.678 Y73.481 E19.55045
G1 X18.636 Y72.868 E19.57396
G1 X18.674 Y72.255 E19.59747
G1 X18.791 Y71.652 E19.62097
G1 X18.986 Y71.069 E19.6445
G1 X19.255 Y70.516 E19.66803
G1 X19.593 Y70.003 E19.69154
G1 X19.81 Y69.752 E19.70424
G1 X16.467 Y63.962 E19.96011
G1 X16.195 Y63.411 E19.98362
G1 X15.997 Y62.83 E20.00711
G1 X15.876 Y62.227 E20.03065
G1 X15.834 Y61.614 E20.05417
G1 X15.872 Y61.001 E20.07767
G1 X15.99 Y60.398 E20.10118
G1 X16.184 Y59.815 E20.1247
G1 X16.467 Y59.237 E20.14933
G1 X22.566 Y48.674 E20.61612
G1 X22.907 Y48.163 E20.63963
G1 X23.132 Y47.906 E20.6527
G1 X23.226 Y47.621 E20.66419
G1 X23.515 Y47.029 E20.6894
G1 X29.139 Y37.288 E21.11986
G1 X29.48 Y36.777 E21.14337
G1 X29.707 Y36.518 E21.15655
G1 X29.8 Y36.235 E21.16795
G1 X30.089 Y35.644 E21.19312
G1 X36.147 Y25.15 E21.65684
G0 F1620 X36.186 Y25.081
G0 X36.527 Y24.57
G0 F4320 X36.818 Y24.765
G1 F2400 E21.6834
G1 F1800 X37.211 Y24.323 E21.70604
G1 X37.66 Y23.938 E21.72867
G1 X38.156 Y23.617 E21.75128
G1 X38.692 Y23.366 E21.77393
G1 X39.256 Y23.189 E21.79656
G1 X39.839 Y23.09 E21.81919
G1 X40.278 Y23.068 E21.83601
G1 X47.213 Y23.068 E22.10141
G1 X47.407 Y22.516 E22.1238
G1 X47.677 Y21.99 E22.14643
G1 X48.015 Y21.505 E22.16905
G1 X48.415 Y21.07 E22.19167
G1 X48.871 Y20.693 E22.21431
G1 X49.373 Y20.38 E22.23695
G1 X49.912 Y20.139 E22.25955
G1 X50.48 Y19.972 E22.2822
G1 X51.064 Y19.883 E22.30481
G1 X51.427 Y19.868 E22.31872
G1 X55.426 Y19.868 E22.47176
G1 X56.016 Y19.908 E22.49439
G1 X56.595 Y20.027 E22.51701
G1 X57.153 Y20.223 E22.53964
G1 X57.679 Y20.493 E22.56227
G1 X58.164 Y20.831 E22.58489
G1 X58.599 Y21.231 E22.60751
G1 X58.976 Y21.687 E22.63015
G1 X59.289 Y22.189 E22.65279
G1 X59.53 Y22.728 E22.67539
G1 X59.63 Y23.068 E22.68895
G1 X60.36 Y23.068 E22.71689
G1 X60.554 Y22.516 E22.73928
G1 X60.824 Y21.99 E22.76191
G1 X61.162 Y21.505 E22.78453
G1 X61.562 Y21.07 E22.80715
G1 X62.018 Y20.693 E22.82979
G1 X62.52 Y20.38 E22.85243
G1 X63.059 Y20.139 E22.87502
G1 X63.627 Y19.972 E22.89768
G1 X64.211 Y19.883 E22.92029
G1 X64.574 Y19.868 E22.93419
G1 X68.573 Y19.868 E23.08723
G1 X69.163 Y19.908 E23.10987
G1 X69.742 Y20.027 E23.13249
G1 X70.3 Y20.223 E23.15512
G1 X70.826 Y20.493 E23.17775
G1 X71.311 Y20.831 E23.20037
G1 X71.746 Y21.231 E23.22299
G1 X72.123 Y21.687 E23.24563
G1 X72.436 Y22.189 E23.26827
G1 X72.677 Y22.728 E23.29087
G1 X72.777 Y23.068 E23.30443
G1 X79.722 Y23.068 E23.57021
G1 X80.312 Y23.108 E23.59284
G1 X80.891 Y23.227 E23.61547
G1 X81.449 Y23.423 E23.6381
G1 X81.975 Y23.693 E23.66073
G1 X82.46 Y24.031 E23.68335
G1 X82.895 Y24.431 E23.70597
G1 X83.272 Y24.887 E23.72861
G1 X83.511 Y25.256 E23.74543
G1 X89.608 Y35.819 E24.21219
G1 X89.868 Y36.35 E24.23481
G1 X89.977 Y36.678 E24.24804
G1 X89.994 Y36.694 E24.24893
G1 X90.363 Y37.156 E24.27156
G1 X90.558 Y37.463 E24.28548
G1 X96.182 Y47.204 E24.71594
G1 X96.442 Y47.735 E24.73857
G1 X96.552 Y48.066 E24.75191
G1 X96.567 Y48.08 E24.7527
G1 X96.936 Y48.542 E24.77533
G1 X97.131 Y48.849 E24.78925
G1 X103.23 Y59.412 E25.25604
G1 X103.49 Y59.943 E25.27866
G1 X103.677 Y60.504 E25.30129
G1 X103.786 Y61.085 E25.32392
G1 X103.815 Y61.676 E25.34656
G1 X103.765 Y62.265 E25.36918
G1 X103.636 Y62.842 E25.39181
G1 X103.43 Y63.396 E25.41443
G1 X103.23 Y63.787 E25.43124
G1 X99.763 Y69.792 E25.6966
G1 X100.144 Y70.236 E25.71899
G1 X100.465 Y70.732 E25.7416
G1 X100.716 Y71.268 E25.76425
G1 X100.893 Y71.832 E25.78687
G1 X100.992 Y72.415 E25.80951
G1 X101.011 Y73.006 E25.83213
G1 X100.951 Y73.594 E25.85475
G1 X100.812 Y74.169 E25.87739
G1 X100.596 Y74.719 E25.90001
G1 X100.428 Y75.042 E25.91394
G1 X98.428 Y78.506 E26.06702
G1 X98.098 Y78.996 E26.08962
G1 X97.706 Y79.438 E26.11223
G1 X97.257 Y79.823 E26.13487
G1 X96.76 Y80.144 E26.15751
