;FLAVOR:Marlin
;TIME:2483
;Filament used: 2.61955m
;Layer height: 0.35
;Generated with Cura_SteamEngine 3.6.0
M140 S65
M105
M190 S65
M104 S205
M105
M109 S205
M82 ;absolute extrusion mode
G21;(metric values)
G90;(absolute positioning)
M82;(set extruder to absolute mode)
M107;(start with the fan off)
G28;(Home the printer)
G92 E0;(Reset the extruder to 0)
G0 Z5 E5 F500;(Move up and prime the nozzle)
G0 X-1 Z0;(Move outside the printable area)
G1 Y60 E8 F500;(Draw a priming/wiping line to the rear)
G1 X-1;(Move a little closer to the print area)
G1 Y10 E16 F500;(draw more priming/wiping)
G1 E15 F250;(Small retract)
G92 E0;(Zero the extruder)
G92 E0
G1 F2400 E-2.5
;LAYER_COUNT:100
;LAYER:0
M107
G0 F4320 X49.618 Y51.789 Z0.35
;TYPE:SKIRT
G1 F2400 E0
G1 F1800 X52.335 Y49.212 E0.19072
G1 X52.823 Y48.803 E0.22315
G1 X53.621 Y48.324 E0.27055
G1 X54.257 Y48.017 E0.30651
G1 X54.98 Y47.733 E0.34608
G1 X57.15 Y47.07 E0.46164
G1 X57.77 Y46.923 E0.49409
G1 X58.248 Y46.864 E0.51862
G1 X59.615 Y46.76 E0.58844
G1 X60.382 Y46.759 E0.6275
G1 X61.748 Y46.862 E0.69727
G1 X62.378 Y46.95 E0.72967
G1 X62.851 Y47.07 E0.75452
G1 X65.021 Y47.734 E0.87009
G1 X65.739 Y48.015 E0.90936
G1 X66.374 Y48.321 E0.94526
G1 X66.929 Y48.633 E0.97769
G1 X67.663 Y49.211 E1.02527
G1 X70.381 Y51.789 E1.21606
G1 X70.815 Y52.255 E1.24849
G1 X71.187 Y52.772 E1.28093
G1 X71.406 Y53.158 E1.30353
G1 X71.746 Y53.822 E1.34152
G1 X72.02 Y54.46 E1.37689
G1 X72.839 Y56.802 E1.50325
G1 X73.011 Y57.415 E1.53567
G1 X73.105 Y58.045 E1.56811
G1 X73.123 Y58.474 E1.58998
G1 X73.125 Y61.52 E1.74511
G1 X73.085 Y62.155 E1.77752
G1 X72.967 Y62.781 E1.80996
G1 X72.84 Y63.2 E1.83226
G1 X72.021 Y65.539 E1.95848
G1 X71.75 Y66.172 E1.99354
G1 X71.409 Y66.839 E2.0317
G1 X71.084 Y67.387 E2.06414
G1 X70.693 Y67.89 E2.09659
G1 X70.382 Y68.211 E2.11935
G1 X67.665 Y70.788 E2.31007
G1 X67.177 Y71.197 E2.3425
G1 X66.379 Y71.676 E2.3899
G1 X65.743 Y71.983 E2.42587
G1 X65.02 Y72.267 E2.46543
G1 X62.85 Y72.93 E2.58099
G1 X62.23 Y73.077 E2.61344
G1 X61.752 Y73.136 E2.63797
G1 X60.385 Y73.24 E2.70779
G1 X59.618 Y73.241 E2.74686
G1 X58.252 Y73.138 E2.81662
G1 X57.622 Y73.05 E2.84902
G1 X57.149 Y72.93 E2.87387
G1 X54.979 Y72.266 E2.98945
G1 X54.261 Y71.985 E3.02872
G1 X53.626 Y71.679 E3.06462
G1 X53.071 Y71.367 E3.09704
G1 X52.337 Y70.789 E3.14462
G1 X49.619 Y68.211 E3.33541
G1 X49.185 Y67.745 E3.36785
G1 X48.813 Y67.228 E3.40028
G1 X48.594 Y66.842 E3.42289
G1 X48.253 Y66.176 E3.46099
G1 X47.988 Y65.563 E3.49501
G1 X47.156 Y63.223 E3.62149
G1 X46.981 Y62.611 E3.65391
G1 X46.884 Y61.982 E3.68632
G1 X46.863 Y61.528 E3.70947
G1 X46.86 Y58.482 E3.8646
G1 X46.899 Y57.846 E3.89705
G1 X47.018 Y57.221 E3.92945
G1 X47.155 Y56.773 E3.95331
G1 X47.989 Y54.434 E4.07978
G1 X48.25 Y53.828 E4.11339
G1 X48.591 Y53.161 E4.15154
G1 X48.916 Y52.613 E4.18399
G1 X49.262 Y52.168 E4.2127
G0 F1620 X49.307 Y52.11
G0 X49.618 Y51.789
G0 F4320 X49.858 Y52.043
G1 F2400 E4.23918
G1 F1800 X52.575 Y49.466 E4.4299
G1 X53.048 Y49.073 E4.46122
G1 X53.773 Y48.639 E4.50425
G1 X54.409 Y48.332 E4.54022
G1 X55.082 Y48.068 E4.57704
G1 X57.252 Y47.405 E4.6926
G1 X57.85 Y47.264 E4.72389
G1 X58.275 Y47.213 E4.74569
G1 X59.642 Y47.109 E4.81551
G1 X60.355 Y47.108 E4.85182
G1 X61.721 Y47.211 E4.92159
G1 X62.33 Y47.297 E4.95292
G1 X62.749 Y47.405 E4.97495
G1 X64.919 Y48.069 E5.09053
G1 X65.587 Y48.33 E5.12705
G1 X66.222 Y48.636 E5.16295
G1 X66.757 Y48.939 E5.19427
G1 X67.423 Y49.465 E5.23749
G1 X70.141 Y52.043 E5.42828
G1 X70.558 Y52.494 E5.45956
G1 X70.913 Y52.995 E5.49083
G1 X71.095 Y53.317 E5.50967
G1 X71.435 Y53.981 E5.54766
G1 X71.689 Y54.575 E5.58057
G1 X72.508 Y56.917 E5.70693
G1 X72.673 Y57.509 E5.73823
G1 X72.759 Y58.118 E5.76955
G1 X72.773 Y58.474 E5.78769
G1 X72.775 Y61.52 E5.94283
G1 X72.735 Y62.133 E5.97411
G1 X72.617 Y62.736 E6.0054
G1 X72.51 Y63.085 E6.024
G1 X71.691 Y65.424 E6.15021
G1 X71.438 Y66.013 E6.18286
G1 X71.097 Y66.68 E6.22101
G1 X70.782 Y67.208 E6.25232
G1 X70.402 Y67.69 E6.28358
G1 X70.142 Y67.957 E6.30256
G1 X67.425 Y70.534 E6.49328
G1 X66.952 Y70.927 E6.5246
G1 X66.227 Y71.361 E6.56764
G1 X65.591 Y71.668 E6.6036
G1 X64.918 Y71.932 E6.64042
G1 X62.748 Y72.595 E6.75598
G1 X62.15 Y72.736 E6.78727
G1 X61.725 Y72.787 E6.80907
G1 X60.358 Y72.891 E6.8789
G1 X59.645 Y72.892 E6.91521
G1 X58.279 Y72.789 E6.98498
G1 X57.67 Y72.703 E7.0163
G1 X57.251 Y72.595 E7.03834
G1 X55.081 Y71.931 E7.15391
G1 X54.413 Y71.67 E7.19044
G1 X53.778 Y71.364 E7.22634
G1 X53.243 Y71.061 E7.25765
G1 X52.577 Y70.535 E7.30087
G1 X49.859 Y67.957 E7.49166
G1 X49.442 Y67.506 E7.52295
G1 X49.087 Y67.005 E7.55422
G1 X48.905 Y66.682 E7.5731
G1 X48.564 Y66.016 E7.61121
G1 X48.318 Y65.446 E7.64282
G1 X47.486 Y63.106 E7.76931
G1 X47.318 Y62.515 E7.8006
G1 X47.229 Y61.907 E7.83189
G1 X47.213 Y61.528 E7.85121
G1 X47.21 Y58.482 E8.00635
G1 X47.249 Y57.868 E8.03768
G1 X47.368 Y57.265 E8.06898
G1 X47.484 Y56.89 E8.08897
G1 X48.318 Y54.551 E8.21544
G1 X48.562 Y53.987 E8.24674
G1 X48.903 Y53.32 E8.28489
G1 X49.218 Y52.792 E8.31621
G1 X49.507 Y52.426 E8.33996
G0 F1620 X49.598 Y52.31
G0 X49.858 Y52.043
G0 F4320 X50.099 Y52.297
G1 F2400 E8.36644
G1 F1800 X52.816 Y49.72 E8.55716
G1 X53.272 Y49.343 E8.58729
G1 X53.925 Y48.954 E8.626
G1 X54.561 Y48.647 E8.66197
G1 X55.185 Y48.403 E8.69609
G1 X57.355 Y47.74 E8.81165
G1 X57.93 Y47.606 E8.84172
G1 X58.301 Y47.562 E8.86075
G1 X59.668 Y47.458 E8.93057
G1 X60.329 Y47.457 E8.96424
G1 X61.695 Y47.56 E9.034
G1 X62.28 Y47.645 E9.06411
G1 X62.646 Y47.739 E9.08336
G1 X64.816 Y48.403 E9.19893
G1 X65.435 Y48.646 E9.2328
G1 X66.07 Y48.952 E9.2687
G1 X66.584 Y49.244 E9.2988
G1 X67.182 Y49.719 E9.3377
G1 X69.9 Y52.297 E9.52849
G1 X70.3 Y52.732 E9.55859
G1 X70.638 Y53.217 E9.58869
G1 X70.783 Y53.477 E9.60386
G1 X71.123 Y54.141 E9.64185
G1 X71.359 Y54.691 E9.67233
G1 X72.178 Y57.033 E9.79869
G1 X72.335 Y57.603 E9.8288
G1 X72.423 Y58.474 E9.87339
G1 X72.425 Y61.52 E10.02852
G1 X72.385 Y62.11 E10.05863
G1 X72.179 Y62.969 E10.10362
G1 X71.36 Y65.308 E10.22984
G1 X71.126 Y65.854 E10.26009
G1 X70.785 Y66.521 E10.29824
G1 X70.481 Y67.028 E10.32835
G1 X70.112 Y67.489 E10.35843
G1 X69.901 Y67.703 E10.37373
G1 X67.184 Y70.28 E10.56445
G1 X66.728 Y70.657 E10.59458
G1 X66.075 Y71.046 E10.63329
G1 X65.439 Y71.353 E10.66926
G1 X64.815 Y71.597 E10.70338
G1 X62.645 Y72.26 E10.81894
G1 X62.07 Y72.394 E10.84901
G1 X61.699 Y72.438 E10.86804
G1 X60.332 Y72.542 E10.93786
G1 X59.671 Y72.543 E10.97153
G1 X58.305 Y72.44 E11.04129
G1 X57.72 Y72.355 E11.0714
G1 X57.354 Y72.261 E11.09065
G1 X55.184 Y71.597 E11.20622
G1 X54.565 Y71.354 E11.24009
G1 X53.93 Y71.048 E11.27599
G1 X53.416 Y70.756 E11.3061
G1 X52.818 Y70.281 E11.34499
G1 X50.1 Y67.703 E11.53578
G1 X49.7 Y67.268 E11.56588
G1 X49.362 Y66.783 E11.59598
G1 X49.217 Y66.523 E11.61115
G1 X48.876 Y65.857 E11.64925
G1 X48.648 Y65.329 E11.67854
G1 X47.816 Y62.989 E11.80503
G1 X47.656 Y62.419 E11.83518
G1 X47.574 Y61.834 E11.86526
G1 X47.563 Y61.527 E11.88091
G1 X47.56 Y58.481 E12.03604
G1 X47.599 Y57.891 E12.06616
G1 X47.718 Y57.312 E12.09626
G1 X47.814 Y57.008 E12.1125
G1 X48.648 Y54.669 E12.23897
G1 X48.874 Y54.146 E12.26798
G1 X49.215 Y53.479 E12.30614
G1 X49.519 Y52.972 E12.33624
G1 X49.751 Y52.682 E12.35516
G0 F1620 X49.888 Y52.511
G0 X50.099 Y52.297
G0 F4320 X50.34 Y52.551
G1 F2400 E12.38164
G1 F1800 X53.057 Y49.974 E12.57236
G1 X53.495 Y49.613 E12.60127
G1 X54.077 Y49.269 E12.6357
G1 X54.713 Y48.962 E12.67166
G1 X55.287 Y48.738 E12.70305
G1 X57.457 Y48.075 E12.81861
G1 X58.01 Y47.948 E12.8475
G1 X58.328 Y47.911 E12.86381
G1 X59.695 Y47.807 E12.93363
G1 X60.303 Y47.806 E12.9646
G1 X61.669 Y47.909 E13.03436
G1 X62.23 Y47.992 E13.06324
G1 X62.544 Y48.074 E13.07977
G1 X64.714 Y48.738 E13.19535
G1 X65.283 Y48.961 E13.22647
G1 X65.918 Y49.267 E13.26237
G1 X66.411 Y49.549 E13.2913
G1 X66.941 Y49.973 E13.32587
G1 X69.659 Y52.551 E13.51666
G1 X70.042 Y52.969 E13.54553
G1 X70.472 Y53.637 E13.58599
G1 X70.812 Y54.301 E13.62398
G1 X71.028 Y54.806 E13.65196
G1 X71.847 Y57.148 E13.77832
G1 X71.996 Y57.696 E13.80724
G1 X72.073 Y58.474 E13.84706
G1 X72.075 Y61.52 E14.00219
G1 X72.035 Y62.086 E14.03108
G1 X71.849 Y62.853 E14.07128
G1 X71.03 Y65.192 E14.1975
G1 X70.815 Y65.694 E14.22531
G1 X70.474 Y66.361 E14.26346
G1 X70.181 Y66.847 E14.29236
G1 X69.66 Y67.449 E14.33291
G1 X66.943 Y70.026 E14.52363
G1 X66.505 Y70.387 E14.55253
G1 X65.923 Y70.731 E14.58697
G1 X65.287 Y71.038 E14.62293
G1 X64.713 Y71.262 E14.65431
G1 X62.543 Y71.925 E14.76988
G1 X61.99 Y72.052 E14.79877
G1 X61.672 Y72.089 E14.81508
G1 X60.305 Y72.193 E14.8849
G1 X59.697 Y72.194 E14.91586
G1 X58.331 Y72.091 E14.98563
G1 X57.77 Y72.008 E15.01451
G1 X57.456 Y71.926 E15.03104
G1 X55.286 Y71.262 E15.14662
G1 X54.717 Y71.039 E15.17774
G1 X54.082 Y70.733 E15.21364
G1 X53.589 Y70.451 E15.24257
G1 X53.059 Y70.027 E15.27714
G1 X50.341 Y67.449 E15.46792
G1 X49.958 Y67.031 E15.4968
G1 X49.528 Y66.363 E15.53726
G1 X49.187 Y65.697 E15.57537
G1 X48.978 Y65.211 E15.60231
G1 X48.146 Y62.871 E15.72879
G1 X47.994 Y62.325 E15.75766
G1 X47.913 Y61.527 E15.79851
G1 X47.91 Y58.481 E15.95364
G1 X47.949 Y57.915 E15.98253
G1 X48.144 Y57.125 E16.02398
G1 X48.978 Y54.786 E16.15045
G1 X49.185 Y54.306 E16.17707
G1 X49.526 Y53.639 E16.21522
G1 X49.819 Y53.153 E16.24412
G1 X50 Y52.944 E16.2582
G0 F1620 X50.34 Y52.551
G0 F4320 X50.581 Y52.805
G1 F2400 E16.28469
G1 F1800 X53.298 Y50.228 E16.47541
G1 X53.718 Y49.885 E16.50302
G1 X54.229 Y49.584 E16.53323
G1 X54.865 Y49.277 E16.56919
G1 X55.389 Y49.072 E16.59785
G1 X57.559 Y48.409 E16.71341
G1 X58.354 Y48.26 E16.75461
G1 X59.721 Y48.156 E16.82443
G1 X60.276 Y48.155 E16.85269
G1 X61.642 Y48.258 E16.92246
G1 X62.178 Y48.339 E16.95007
G1 X62.441 Y48.409 E16.96393
G1 X64.611 Y49.073 E17.07951
G1 X65.131 Y49.276 E17.10794
G1 X65.766 Y49.582 E17.14383
G1 X66.236 Y49.853 E17.17147
G1 X66.7 Y50.227 E17.20182
G1 X69.418 Y52.805 E17.39261
G1 X69.783 Y53.205 E17.42019
G1 X70.16 Y53.796 E17.45589
G1 X70.5 Y54.46 E17.49388
G1 X70.698 Y54.922 E17.51948
G1 X71.517 Y57.264 E17.64584
G1 X71.658 Y57.787 E17.67343
G1 X71.723 Y58.475 E17.70862
G1 X71.725 Y61.521 E17.86375
G1 X71.685 Y62.061 E17.89133
G1 X71.519 Y62.738 E17.92683
G1 X70.7 Y65.077 E18.05305
G1 X70.503 Y65.535 E18.07844
G1 X70.162 Y66.202 E18.11659
G1 X69.881 Y66.665 E18.14418
G1 X69.419 Y67.195 E18.17998
G1 X66.702 Y69.772 E18.3707
G1 X66.282 Y70.115 E18.39832
G1 X65.771 Y70.416 E18.42852
G1 X65.135 Y70.723 E18.46449
G1 X64.611 Y70.928 E18.49315
G1 X62.441 Y71.591 E18.60871
G1 X61.646 Y71.74 E18.6499
G1 X60.279 Y71.844 E18.71972
G1 X59.724 Y71.845 E18.74799
G1 X58.358 Y71.742 E18.81776
G1 X57.822 Y71.661 E18.84537
G1 X57.559 Y71.591 E18.85923
G1 X55.389 Y70.927 E18.9748
G1 X54.869 Y70.724 E19.00323
G1 X54.234 Y70.418 E19.03913
G1 X53.764 Y70.147 E19.06676
G1 X53.3 Y69.773 E19.09711
G1 X50.582 Y67.195 E19.2879
G1 X50.217 Y66.795 E19.31548
G1 X49.84 Y66.204 E19.35118
G1 X49.499 Y65.538 E19.38929
G1 X49.307 Y65.094 E19.41393
G1 X48.475 Y62.754 E19.54041
G1 X48.332 Y62.232 E19.56798
G1 X48.263 Y61.527 E19.60405
G1 X48.26 Y58.481 E19.75918
G1 X48.299 Y57.94 E19.78681
G1 X48.473 Y57.243 E19.8234
G1 X49.307 Y54.904 E19.94987
G1 X49.497 Y54.465 E19.97423
G1 X49.838 Y53.798 E20.01238
G1 X50.119 Y53.335 E20.03996
G1 X50.24 Y53.197 E20.04931
G0 F1620 X50.581 Y52.805
G0 F4320 X50.822 Y53.059
G1 F2400 E20.07579
G1 F1800 X53.539 Y50.482 E20.26651
G1 X53.939 Y50.157 E20.29276
G1 X54.382 Y49.9 E20.31884
G1 X55.018 Y49.593 E20.35481
G1 X55.491 Y49.407 E20.3807
G1 X57.661 Y48.744 E20.49626
G1 X58.381 Y48.609 E20.53357
G1 X59.748 Y48.505 E20.60339
G1 X60.25 Y48.504 E20.62895
G1 X61.616 Y48.607 E20.69872
G1 X62.339 Y48.744 E20.7362
G1 X64.509 Y49.408 E20.85177
G1 X64.979 Y49.592 E20.87748
G1 X65.614 Y49.898 E20.91338
G1 X66.06 Y50.157 E20.93965
G1 X66.459 Y50.481 E20.96582
G1 X69.177 Y53.059 E21.15661
G1 X69.522 Y53.441 E21.18283
G1 X69.849 Y53.956 E21.2139
G1 X70.189 Y54.62 E21.25189
G1 X70.368 Y55.037 E21.275
G1 X71.187 Y57.379 E21.40136
G1 X71.319 Y57.878 E21.42765
G1 X71.373 Y58.475 E21.45818
G1 X71.375 Y61.521 E21.61331
G1 X71.335 Y62.035 E21.63957
G1 X71.188 Y62.622 E21.67039
G1 X70.369 Y64.961 E21.7966
G1 X70.192 Y65.376 E21.81958
G1 X69.851 Y66.043 E21.85773
G1 X69.581 Y66.482 E21.88398
G1 X69.178 Y66.941 E21.91509
G1 X66.461 Y69.518 E22.10581
G1 X66.061 Y69.843 E22.13205
G1 X65.618 Y70.1 E22.15814
G1 X64.982 Y70.407 E22.19411
G1 X64.509 Y70.593 E22.21999
G1 X62.339 Y71.256 E22.33555
G1 X61.619 Y71.391 E22.37286
G1 X60.252 Y71.495 E22.44268
G1 X59.75 Y71.496 E22.46825
G1 X58.384 Y71.393 E22.53802
G1 X57.661 Y71.256 E22.57549
G1 X55.491 Y70.592 E22.69107
G1 X55.021 Y70.408 E22.71677
G1 X54.386 Y70.102 E22.75267
G1 X53.94 Y69.843 E22.77894
G1 X53.541 Y69.519 E22.80512
G1 X50.823 Y66.941 E22.99591
G1 X50.478 Y66.559 E23.02212
G1 X50.151 Y66.044 E23.05319
G1 X49.81 Y65.378 E23.0913
G1 X49.637 Y64.977 E23.11354
G1 X48.805 Y62.637 E23.24002
G1 X48.671 Y62.139 E23.26629
G1 X48.613 Y61.526 E23.29765
G1 X48.61 Y58.48 E23.45278
G1 X48.649 Y57.966 E23.47903
G1 X48.803 Y57.36 E23.51088
G1 X49.637 Y55.021 E23.63735
G1 X49.808 Y54.624 E23.65936
G1 X50.149 Y53.957 E23.69752
G1 X50.419 Y53.518 E23.72376
G1 X50.479 Y53.45 E23.72838
G0 F1620 X50.822 Y53.059
G0 F4320 X51.063 Y53.312
G1 F2400 E23.75487
G1 F1800 X53.78 Y50.735 E23.94558
G1 X54.16 Y50.43 E23.9704
G1 X54.534 Y50.215 E23.99237
G1 X55.17 Y49.908 E24.02834
G1 X55.594 Y49.742 E24.05153
G1 X57.764 Y49.079 E24.16709
G1 X58.407 Y48.958 E24.20041
G1 X59.774 Y48.854 E24.27023
G1 X60.224 Y48.853 E24.29315
G1 X61.59 Y48.956 E24.36292
G1 X62.236 Y49.078 E24.3964
G1 X64.406 Y49.742 E24.51198
G1 X64.827 Y49.907 E24.535
G1 X65.462 Y50.213 E24.5709
G1 X65.883 Y50.46 E24.59576
G1 X66.218 Y50.735 E24.61784
G1 X68.936 Y53.313 E24.80863
G1 X69.261 Y53.676 E24.83344
G1 X69.537 Y54.115 E24.85985
G1 X69.877 Y54.779 E24.89784
G1 X70.037 Y55.153 E24.91856
G1 X70.856 Y57.495 E25.04492
G1 X70.979 Y57.967 E25.06976
G1 X71.023 Y58.475 E25.09573
G1 X71.025 Y61.521 E25.25086
G1 X70.985 Y62.007 E25.2757
G1 X70.858 Y62.506 E25.30192
G1 X70.039 Y64.845 E25.42814
G1 X69.88 Y65.216 E25.4487
G1 X69.539 Y65.883 E25.48685
G1 X69.282 Y66.298 E25.51171
G1 X68.937 Y66.688 E25.53823
G1 X66.22 Y69.265 E25.72894
G1 X65.84 Y69.57 E25.75376
G1 X65.466 Y69.785 E25.77573
G1 X64.83 Y70.092 E25.8117
G1 X64.406 Y70.258 E25.83489
G1 X62.236 Y70.921 E25.95045
G1 X61.593 Y71.042 E25.98377
G1 X60.226 Y71.146 E26.05359
G1 X59.776 Y71.147 E26.07651
G1 X58.41 Y71.044 E26.14628
G1 X57.764 Y70.922 E26.17976
G1 X55.594 Y70.258 E26.29534
G1 X55.173 Y70.093 E26.31837
G1 X54.538 Y69.787 E26.35427
G1 X54.117 Y69.54 E26.37912
G1 X53.782 Y69.265 E26.4012
G1 X51.064 Y66.687 E26.59199
G1 X50.739 Y66.324 E26.6168
G1 X50.463 Y65.885 E26.64321
G1 X50.122 Y65.219 E26.68132
G1 X49.967 Y64.86 E26.70123
G1 X49.135 Y62.52 E26.82772
G1 X49.01 Y62.049 E26.85254
G1 X48.963 Y61.526 E26.87928
G1 X48.96 Y58.48 E27.03441
G1 X48.999 Y57.994 E27.05924
G1 X49.133 Y57.478 E27.08639
G1 X49.967 Y55.139 E27.21286
G1 X50.12 Y54.784 E27.23255
G1 X50.461 Y54.117 E27.2707
G1 X50.718 Y53.702 E27.29556
G0 F1620 X51.063 Y53.312
G0 F4320 X51.304 Y53.566
G1 F2400 E27.32205
G1 F1800 X54.021 Y50.989 E27.51277
G1 X54.379 Y50.705 E27.53604
G1 X54.686 Y50.53 E27.55404
G1 X55.322 Y50.223 E27.59
G1 X55.696 Y50.077 E27.61045
G1 X57.866 Y49.414 E27.72601
G1 X58.434 Y49.307 E27.75545
G1 X59.801 Y49.203 E27.82527
G1 X60.197 Y49.202 E27.84544
G1 X61.563 Y49.305 E27.91521
G1 X62.134 Y49.413 E27.9448
G1 X64.304 Y50.077 E28.06038
G1 X64.676 Y50.222 E28.08071
G1 X65.311 Y50.528 E28.11661
G1 X65.704 Y50.762 E28.13991
G1 X65.977 Y50.988 E28.15796
G1 X68.695 Y53.566 E28.34875
G1 X68.999 Y53.909 E28.37209
G1 X69.226 Y54.275 E28.39402
G1 X69.566 Y54.939 E28.43202
G1 X69.707 Y55.268 E28.45024
G1 X70.526 Y57.61 E28.5766
G1 X70.639 Y58.054 E28.59994
G1 X70.673 Y58.475 E28.62145
G1 X70.675 Y61.521 E28.77658
G1 X70.635 Y61.977 E28.79989
G1 X70.528 Y62.391 E28.82167
G1 X69.709 Y64.73 E28.94789
G1 X69.568 Y65.057 E28.96602
G1 X69.227 Y65.724 E29.00418
G1 X68.984 Y66.112 E29.02749
G1 X68.696 Y66.434 E29.04949
G1 X65.979 Y69.011 E29.24021
G1 X65.621 Y69.295 E29.26348
