;FLAVOR:Marlin
;TIME:26610
;Filament used: 17.6228m
;Layer height: 0.175
;Generated with Cura_SteamEngine 3.6.0
M140 S65
M105
M190 S65
M104 S205
M105
M109 S205
M82 ;absolute extrusion mode
G21;(metric values)
G90;(absolute positioning)
M82;(set extruder to absolute mode)
M107;(start with the fan off)
G28;(Home the printer)
G92 E0;(Reset the extruder to 0)
G0 Z5 E5 F500;(Move up and prime the nozzle)
G0 X-1 Z0;(Move outside the printable area)
G1 Y60 E8 F500;(Draw a priming/wiping line to the rear)
G1 X-1;(Move a little closer to the print area)
G1 Y10 E16 F500;(draw more priming/wiping)
G1 E15 F250;(Small retract)
G92 E0;(Zero the extruder)
G92 E0
G1 F2400 E-2.5
;LAYER_COUNT:373
;LAYER:0
M107
G0 F4320 X48.122 Y33.363 Z0.263
;TYPE:SKIRT
G1 F2400 E0
G1 F1620 X48.528 Y32.872 E0.02438
G1 X48.992 Y32.435 E0.04878
G1 X49.506 Y32.06 E0.07312
G1 X50.064 Y31.753 E0.0975
G1 X50.665 Y31.515 E0.12224
G1 X50.813 Y31.467 E0.12819
G1 X51.43 Y31.308 E0.15257
G1 X52.062 Y31.229 E0.17695
G1 X52.699 Y31.229 E0.20133
G1 X53.331 Y31.309 E0.22571
G1 X53.947 Y31.467 E0.25004
G1 X81.664 Y40.473 E1.36536
G1 X82.256 Y40.708 E1.38974
G1 X82.815 Y41.015 E1.41414
G1 X83.33 Y41.389 E1.4385
G1 X83.794 Y41.825 E1.46287
G1 X84.191 Y42.302 E1.48662
G1 X84.284 Y42.429 E1.49264
G1 X84.627 Y42.965 E1.517
G1 X84.9 Y43.54 E1.54136
G1 X85.099 Y44.145 E1.56573
G1 X85.221 Y44.77 E1.5901
G1 X85.264 Y45.432 E1.61549
G1 X85.236 Y74.652 E2.73374
G1 X85.195 Y75.287 E2.75809
G1 X85.076 Y75.913 E2.78247
G1 X84.878 Y76.518 E2.80684
G1 X84.607 Y77.095 E2.83123
G1 X84.265 Y77.632 E2.8556
G1 X83.859 Y78.123 E2.87998
G1 X83.395 Y78.558 E2.90432
G1 X82.879 Y78.933 E2.92873
G1 X82.321 Y79.239 E2.95309
G1 X81.734 Y79.472 E2.97725
G1 X53.952 Y88.532 E4.09558
G1 X53.336 Y88.691 E4.11992
G1 X52.704 Y88.772 E4.14431
G1 X52.067 Y88.772 E4.16869
G1 X51.435 Y88.693 E4.19306
G1 X50.774 Y88.522 E4.21919
G1 X50.627 Y88.473 E4.22512
G1 X50.037 Y88.234 E4.24948
G1 X49.481 Y87.923 E4.27386
G1 X48.969 Y87.545 E4.29822
G1 X48.507 Y87.105 E4.32264
G1 X48.123 Y86.637 E4.3458
G1 X30.969 Y62.979 E5.46415
G1 X30.629 Y62.441 E5.48851
G1 X30.358 Y61.865 E5.51287
G1 X30.162 Y61.259 E5.53724
G1 X30.043 Y60.633 E5.56163
G1 X30.003 Y59.997 E5.58602
G1 X30.043 Y59.362 E5.61037
G1 X30.163 Y58.736 E5.63476
G1 X30.36 Y58.131 E5.65911
G1 X30.631 Y57.554 E5.6835
G1 X30.969 Y57.021 E5.70766
G1 X47.715 Y33.924 E6.79946
G0 F1458 X48.122 Y33.363
G0 F4320 X48.406 Y33.568
G1 F2400 E6.82602
G1 F1620 X48.798 Y33.095 E6.84953
G1 X49.248 Y32.677 E6.87303
G1 X49.749 Y32.321 E6.89655
G1 X50.292 Y32.033 E6.92008
G1 X50.773 Y31.847 E6.93981
G1 X50.921 Y31.799 E6.94577
G1 X51.517 Y31.648 E6.9693
G1 X52.127 Y31.576 E6.9928
G1 X52.742 Y31.583 E7.01634
G1 X53.35 Y31.67 E7.03985
G1 X53.839 Y31.8 E7.05921
G1 X81.556 Y40.806 E8.17453
G1 X82.127 Y41.034 E8.19806
G1 X82.663 Y41.333 E8.22155
G1 X83.157 Y41.7 E8.2451
G1 X83.598 Y42.128 E8.26862
G1 X83.908 Y42.508 E8.28738
G1 X84.001 Y42.635 E8.29341
G1 X84.331 Y43.154 E8.31695
G1 X84.591 Y43.711 E8.34047
G1 X84.777 Y44.296 E8.36396
G1 X84.885 Y44.901 E8.38748
G1 X84.914 Y45.432 E8.40783
G1 X84.886 Y74.652 E9.52608
G1 X84.845 Y75.265 E9.54959
G1 X84.726 Y75.867 E9.57308
G1 X84.529 Y76.449 E9.59659
G1 X84.258 Y77.001 E9.62013
G1 X83.918 Y77.513 E9.64365
G1 X83.514 Y77.976 E9.66716
G1 X83.054 Y78.383 E9.69067
G1 X82.544 Y78.727 E9.71421
G1 X81.995 Y79.002 E9.73771
G1 X81.626 Y79.139 E9.75277
G1 X53.844 Y88.199 E10.8711
G1 X53.249 Y88.351 E10.8946
G1 X52.639 Y88.425 E10.91811
G1 X52.024 Y88.419 E10.94165
G1 X51.416 Y88.333 E10.96515
G1 X50.885 Y88.19 E10.9862
G1 X50.738 Y88.141 E10.99213
G1 X50.169 Y87.909 E11.01564
G1 X49.635 Y87.605 E11.03916
G1 X49.144 Y87.235 E11.06269
G1 X48.706 Y86.804 E11.0862
G1 X48.407 Y86.432 E11.10447
G1 X31.253 Y62.774 E12.22281
G1 X30.925 Y62.254 E12.24634
G1 X30.668 Y61.696 E12.26985
G1 X30.485 Y61.109 E12.29339
G1 X30.38 Y60.504 E12.31688
G1 X30.354 Y59.89 E12.3404
G1 X30.409 Y59.278 E12.36392
G1 X30.542 Y58.678 E12.38744
G1 X30.752 Y58.1 E12.41097
G1 X31.035 Y57.555 E12.43447
G1 X31.253 Y57.226 E12.44958
G1 X47.999 Y34.129 E13.54138
G0 F1458 X48.406 Y33.568
G0 F4320 X48.689 Y33.774
G1 F2400 E13.56794
G1 F1620 X49.068 Y33.32 E13.59057
G1 X49.504 Y32.921 E13.61319
G1 X49.99 Y32.584 E13.63582
G1 X50.517 Y32.317 E13.65843
G1 X50.881 Y32.18 E13.67332
G1 X51.029 Y32.132 E13.67927
G1 X51.603 Y31.988 E13.70192
G1 X52.19 Y31.923 E13.72452
G1 X52.782 Y31.938 E13.74718
G1 X53.365 Y32.032 E13.76978
G1 X53.731 Y32.133 E13.78431
G1 X81.448 Y41.139 E14.89963
G1 X81.997 Y41.359 E14.92226
G1 X82.511 Y41.652 E14.94491
G1 X82.981 Y42.011 E14.96754
G1 X83.398 Y42.43 E14.99016
G1 X83.626 Y42.715 E15.00413
G1 X83.719 Y42.842 E15.01016
G1 X84.035 Y43.342 E15.03279
G1 X84.281 Y43.879 E15.0554
G1 X84.452 Y44.445 E15.07802
G1 X84.546 Y45.029 E15.10066
G1 X84.564 Y45.431 E15.11606
G1 X84.536 Y74.651 E16.23431
G1 X84.495 Y75.241 E16.25694
G1 X84.376 Y75.82 E16.27956
G1 X84.179 Y76.378 E16.30221
G1 X83.909 Y76.904 E16.32484
G1 X83.571 Y77.388 E16.34743
G1 X83.17 Y77.823 E16.37007
G1 X82.714 Y78.2 E16.39271
G1 X82.212 Y78.512 E16.41533
G1 X81.517 Y78.806 E16.44421
G1 X53.735 Y87.866 E17.56254
G1 X53.162 Y88.011 E17.58516
G1 X52.575 Y88.078 E17.60777
G1 X51.984 Y88.064 E17.63039
G1 X51.4 Y87.971 E17.65302
G1 X50.996 Y87.857 E17.66909
G1 X50.849 Y87.808 E17.67502
G1 X50.301 Y87.584 E17.69767
G1 X49.79 Y87.288 E17.72027
G1 X49.323 Y86.925 E17.74291
G1 X48.909 Y86.503 E17.76553
G1 X48.69 Y86.226 E17.77905
G1 X31.536 Y62.568 E18.89739
G1 X31.222 Y62.067 E18.92002
G1 X30.979 Y61.528 E18.94265
G1 X30.81 Y60.962 E18.96526
G1 X30.719 Y60.377 E18.98791
G1 X30.708 Y59.786 E19.01053
G1 X30.777 Y59.199 E19.03315
G1 X30.924 Y58.626 E19.05579
G1 X31.147 Y58.079 E19.0784
G1 X31.536 Y57.432 E19.10729
G1 X48.282 Y34.335 E20.19909
G0 F1458 X48.689 Y33.774
G0 F4320 X48.972 Y33.979
G1 F2400 E20.22565
G1 F1620 X49.337 Y33.545 E20.24735
G1 X49.759 Y33.166 E20.26906
G1 X50.23 Y32.85 E20.29076
G1 X50.989 Y32.513 E20.32255
G1 X51.137 Y32.465 E20.3285
G1 X51.688 Y32.329 E20.35022
G1 X52.252 Y32.271 E20.37192
G1 X52.819 Y32.293 E20.39363
G1 X53.623 Y32.466 E20.42511
G1 X81.34 Y41.472 E21.54042
G1 X81.865 Y41.685 E21.56211
G1 X82.356 Y41.969 E21.58381
G1 X82.802 Y42.32 E21.60553
G1 X83.343 Y42.922 E21.63651
G1 X83.436 Y43.049 E21.64253
G1 X83.738 Y43.529 E21.66424
G1 X83.97 Y44.047 E21.68596
G1 X84.126 Y44.592 E21.70765
G1 X84.214 Y45.431 E21.73994
G1 X84.186 Y74.651 E22.85819
G1 X84.146 Y75.217 E22.8799
G1 X84.026 Y75.771 E22.90159
G1 X83.83 Y76.303 E22.92329
G1 X83.56 Y76.802 E22.945
G1 X83.224 Y77.258 E22.96668
G1 X82.826 Y77.663 E22.98841
G1 X82.376 Y78.008 E23.01011
G1 X81.882 Y78.286 E23.0318
G1 X81.409 Y78.474 E23.05128
G1 X53.627 Y87.534 E24.16961
G1 X53.077 Y87.671 E24.1913
G1 X52.513 Y87.73 E24.213
G1 X51.946 Y87.709 E24.23471
G1 X51.388 Y87.608 E24.25642
G1 X51.106 Y87.525 E24.26767
G1 X50.959 Y87.476 E24.2736
G1 X50.435 Y87.26 E24.29529
G1 X49.947 Y86.971 E24.31699
G1 X49.504 Y86.617 E24.33869
G1 X48.973 Y86.021 E24.36924
G1 X31.819 Y62.363 E25.48759
G1 X31.52 Y61.881 E25.5093
G1 X31.291 Y61.363 E25.53097
G1 X31.137 Y60.817 E25.55268
G1 X31.061 Y60.255 E25.57438
G1 X31.065 Y59.688 E25.59608
G1 X31.149 Y59.127 E25.61779
G1 X31.311 Y58.583 E25.63952
G1 X31.547 Y58.068 E25.66119
G1 X31.819 Y57.637 E25.6807
G1 X48.565 Y34.54 E26.7725
G0 F1458 X48.972 Y33.979
G0 F4320 X49.256 Y34.185
G1 F2400 E26.79906
G1 F1620 X49.605 Y33.771 E26.81978
G1 X50.012 Y33.413 E26.84053
G1 X50.467 Y33.118 E26.86128
G1 X51.097 Y32.846 E26.88754
G1 X51.245 Y32.798 E26.89349
G1 X51.772 Y32.67 E26.91425
G1 X52.311 Y32.62 E26.93496
G1 X52.852 Y32.65 E26.9557
G1 X53.515 Y32.799 E26.98171
G1 X81.232 Y41.805 E28.09702
G1 X81.733 Y42.01 E28.11774
G1 X82.199 Y42.286 E28.13847
G1 X82.619 Y42.628 E28.1592
G1 X83.061 Y43.129 E28.18476
G1 X83.154 Y43.256 E28.19079
G1 X83.441 Y43.715 E28.2115
G1 X83.657 Y44.212 E28.23224
G1 X83.798 Y44.735 E28.25297
G1 X83.864 Y45.431 E28.27973
G1 X83.836 Y74.651 E29.39798
G1 X83.796 Y75.191 E29.4187
G1 X83.676 Y75.719 E29.43942
G1 X83.48 Y76.225 E29.46019
G1 X83.212 Y76.695 E29.48089
G1 X82.878 Y77.122 E29.50164
G1 X82.484 Y77.494 E29.52238
G1 X82.04 Y77.805 E29.54312
G1 X81.556 Y78.047 E29.56383
G1 X81.3 Y78.141 E29.57427
G1 X53.518 Y87.201 E30.69259
G1 X52.992 Y87.33 E30.71332
G1 X52.453 Y87.381 E30.73404
G1 X51.912 Y87.352 E30.75477
G1 X51.217 Y87.193 E30.78206
G1 X51.07 Y87.144 E30.78799
G1 X50.57 Y86.936 E30.80871
G1 X50.106 Y86.656 E30.82945
G1 X49.688 Y86.31 E30.85022
G1 X49.257 Y85.815 E30.87533
G1 X32.103 Y62.157 E31.99368
G1 X31.818 Y61.696 E32.01442
G1 X31.604 Y61.199 E32.03513
G1 X31.465 Y60.675 E32.05588
G1 X31.406 Y60.136 E32.07663
G1 X31.425 Y59.595 E32.09735
G1 X31.525 Y59.062 E32.1181
G1 X31.701 Y58.55 E32.13882
G1 X31.951 Y58.069 E32.15957
G1 X32.103 Y57.843 E32.16999
G1 X48.849 Y34.746 E33.26179
G0 F1458 X49.256 Y34.185
G0 F4320 X49.539 Y34.39
G1 F2400 E33.28835
G1 F1620 X49.873 Y33.998 E33.30806
G1 X50.264 Y33.662 E33.32779
G1 X50.701 Y33.39 E33.34749
G1 X51.205 Y33.179 E33.3684
G1 X51.353 Y33.131 E33.37435
G1 X51.854 Y33.011 E33.39407
G1 X52.368 Y32.969 E33.4138
G1 X52.882 Y33.007 E33.43353
G1 X53.407 Y33.132 E33.45418
G1 X81.124 Y42.138 E34.5695
G1 X81.6 Y42.335 E34.58921
G1 X82.04 Y42.603 E34.60893
G1 X82.434 Y42.935 E34.62865
G1 X82.779 Y43.336 E34.64889
G1 X82.872 Y43.463 E34.65492
G1 X83.143 Y43.901 E34.67463
G1 X83.343 Y44.376 E34.69435
G1 X83.468 Y44.876 E34.71407
G1 X83.514 Y45.43 E34.73535
G1 X83.486 Y74.65 E35.8536
G1 X83.446 Y75.164 E35.87333
G1 X83.326 Y75.665 E35.89304
G1 X83.131 Y76.142 E35.91276
G1 X82.864 Y76.583 E35.93249
G1 X82.532 Y76.978 E35.95224
G1 X82.144 Y77.316 E35.97193
G1 X81.708 Y77.59 E35.99164
G1 X81.192 Y77.808 E36.01308
G1 X53.41 Y86.868 E37.1314
G1 X52.909 Y86.989 E37.15113
G1 X52.395 Y87.032 E37.17086
G1 X51.881 Y86.995 E37.19059
G1 X51.328 Y86.861 E37.21236
G1 X51.181 Y86.812 E37.21829
G1 X50.706 Y86.612 E37.23802
G1 X50.268 Y86.341 E37.25773
G1 X49.877 Y86.005 E37.27746
G1 X49.54 Y85.61 E37.29733
G1 X32.386 Y61.952 E38.41568
G1 X32.117 Y61.512 E38.43541
G1 X31.919 Y61.037 E38.45511
G1 X31.796 Y60.536 E38.47485
G1 X31.753 Y60.022 E38.49459
G1 X31.79 Y59.508 E38.51431
G1 X31.905 Y59.006 E38.53402
G1 X32.097 Y58.528 E38.55373
G1 X32.386 Y58.048 E38.57517
G1 X49.132 Y34.951 E39.66697
G0 F1458 X49.539 Y34.39
G0 F4320 X49.822 Y34.596
G1 F2400 E39.69353
G1 F1620 X50.14 Y34.226 E39.71221
G1 X50.514 Y33.913 E39.73087
G1 X50.933 Y33.665 E39.7495
G1 X51.313 Y33.512 E39.76518
G1 X51.461 Y33.464 E39.77113
G1 X51.936 Y33.352 E39.78981
G1 X52.422 Y33.319 E39.80845
G1 X52.907 Y33.366 E39.8271
G1 X53.298 Y33.465 E39.84254
G1 X81.015 Y42.471 E40.95785
G1 X81.465 Y42.659 E40.97652
G1 X81.878 Y42.918 E40.99517
G1 X82.243 Y43.241 E41.01383
G1 X82.496 Y43.542 E41.02888
G1 X82.589 Y43.669 E41.0349
G1 X82.844 Y44.085 E41.05357
G1 X83.028 Y44.536 E41.07221
G1 X83.135 Y45.012 E41.09088
G1 X83.164 Y45.43 E41.10692
G1 X83.136 Y74.65 E42.22517
G1 X83.096 Y75.136 E42.24383
G1 X82.976 Y75.608 E42.26247
G1 X82.782 Y76.055 E42.28112
G1 X82.517 Y76.464 E42.29977
G1 X82.188 Y76.824 E42.31843
G1 X81.805 Y77.126 E42.3371
G1 X81.379 Y77.361 E42.35572
G1 X81.083 Y77.475 E42.36785
G1 X53.301 Y86.535 E43.48618
G1 X52.827 Y86.648 E43.50483
G1 X52.341 Y86.682 E43.52347
G1 X51.856 Y86.636 E43.54211
G1 X51.438 Y86.529 E43.55863
G1 X51.291 Y86.48 E43.56456
G1 X50.843 Y86.289 E43.5832
G1 X50.432 Y86.027 E43.60185
G1 X50.069 Y85.701 E43.62052
G1 X49.824 Y85.404 E43.63525
G1 X32.67 Y61.746 E44.7536
G1 X32.417 Y61.33 E44.77224
G1 X32.235 Y60.877 E44.79092
G1 X32.13 Y60.401 E44.80957
G1 X32.104 Y59.914 E44.82824
G1 X32.158 Y59.43 E44.84687
G1 X32.29 Y58.961 E44.86552
G1 X32.497 Y58.52 E44.88416
G1 X32.669 Y58.254 E44.89629
G1 X49.415 Y35.157 E45.98809
G0 F1458 X49.822 Y34.596
G0 F4320 X50.106 Y34.801
G1 F2400 E46.01465
G1 F1620 X50.406 Y34.455 E46.03217
G1 X50.761 Y34.167 E46.04967
G1 X51.162 Y33.945 E46.06721
G1 X51.421 Y33.845 E46.07783
G1 X51.569 Y33.797 E46.08379
G1 X52.015 Y33.694 E46.10131
G1 X52.473 Y33.671 E46.11885
G1 X52.927 Y33.727 E46.13636
G1 X53.19 Y33.797 E46.14678
G1 X80.907 Y42.803 E47.26209
G1 X81.329 Y42.982 E47.27964
G1 X81.713 Y43.232 E47.29717
G1 X82.047 Y43.544 E47.31466
G1 X82.214 Y43.749 E47.32478
G1 X82.307 Y43.876 E47.33081
G1 X82.544 Y44.268 E47.34834
G1 X82.71 Y44.694 E47.36583
G1 X82.799 Y45.144 E47.38339
G1 X82.814 Y45.43 E47.39435
G1 X82.786 Y74.65 E48.5126
G1 X82.746 Y75.106 E48.53012
G1 X82.627 Y75.548 E48.54763
G1 X82.433 Y75.962 E48.56513
G1 X82.17 Y76.337 E48.58266
G1 X81.845 Y76.66 E48.6002
G1 X81.47 Y76.922 E48.6177
G1 X80.975 Y77.143 E48.63845
G1 X53.193 Y86.203 E49.75677
G1 X52.747 Y86.306 E49.77429
G1 X52.29 Y86.33 E49.7918
G1 X51.835 Y86.275 E49.80934
G1 X51.549 Y86.197 E49.82069
G1 X51.402 Y86.148 E49.82662
G1 X50.982 Y85.966 E49.84413
G1 X50.6 Y85.714 E49.86165
G1 X50.267 Y85.399 E49.87919
G1 X50.107 Y85.199 E49.88899
G1 X32.953 Y61.541 E51.00734
G1 X32.717 Y61.148 E51.02488
G1 X32.554 Y60.721 E51.04237
G1 X32.467 Y60.271 E51.05992
G1 X32.46 Y59.813 E51.07744
G1 X32.532 Y59.361 E51.09496
G1 X32.682 Y58.929 E51.11246
G1 X32.953 Y58.459 E51.13322
G1 X49.699 Y35.362 E52.22503
G0 F1458 X50.106 Y34.801
G0 F4320 X50.389 Y35.007
G1 F2400 E52.25158
G1 F1620 X50.671 Y34.687 E52.26791
G1 X51.007 Y34.425 E52.28421
G1 X51.529 Y34.178 E52.30631
G1 X51.677 Y34.13 E52.31227
G1 X52.093 Y34.037 E52.32858
G1 X52.519 Y34.023 E52.34489
G1 X53.082 Y34.13 E52.36682
G1 X80.799 Y43.136 E53.48214
G1 X81.19 Y43.305 E53.49844
G1 X81.543 Y43.544 E53.51476
G1 X81.931 Y43.956 E53.53642
G1 X82.024 Y44.083 E53.54244
G1 X82.243 Y44.449 E53.55876
G1 X82.389 Y44.849 E53.57506
G1 X82.464 Y45.429 E53.59744
G1 X82.436 Y74.649 E54.71569
G1 X82.396 Y75.073 E54.73199
G1 X82.277 Y75.483 E54.74833
G1 X82.084 Y75.863 E54.76464
G1 X81.824 Y76.2 E54.78093
G1 X81.505 Y76.483 E54.79725
G1 X81.139 Y76.701 E54.81355
G1 X80.866 Y76.81 E54.8248
G1 X53.084 Y85.87 E55.94312
G1 X52.669 Y85.963 E55.9594
G1 X52.243 Y85.978 E55.97571
G1 X51.66 Y85.865 E55.99844
G1 X51.513 Y85.816 E56.00437
G1 X51.123 Y85.644 E56.02068
G1 X50.772 Y85.403 E56.03697
G1 X50.39 Y84.993 E56.05842
G1 X33.236 Y61.335 E57.17677
G1 X33.019 Y60.969 E57.19305
G1 X32.875 Y60.568 E57.20936
G1 X32.808 Y60.147 E57.22567
G1 X32.82 Y59.721 E57.24198
G1 X32.912 Y59.305 E57.25829
G1 X33.08 Y58.913 E57.27461
G1 X33.236 Y58.665 E57.28582
G1 X49.982 Y35.568 E58.37762
G0 F1458 X50.389 Y35.007
G0 F4320 X50.673 Y35.212
G1 F2400 E58.40418
G1 F1620 X50.934 Y34.92 E58.41917
G1 X51.249 Y34.687 E58.43416
G1 X51.637 Y34.511 E58.45047
G1 X51.785 Y34.463 E58.45642
G1 X52.168 Y34.381 E58.47141
G1 X52.56 Y34.378 E58.48641
G1 X52.974 Y34.463 E58.50259
G1 X80.691 Y43.469 E59.6179
G1 X81.049 Y43.628 E59.6329
G1 X81.368 Y43.855 E59.64788
G1 X81.649 Y44.163 E59.66384
G1 X81.742 Y44.29 E59.66986
G1 X81.94 Y44.628 E59.68485
G1 X82.066 Y44.999 E59.69985
G1 X82.114 Y45.429 E59.7164
G1 X82.086 Y74.649 E60.83465
G1 X82.046 Y75.039 E60.84966
G1 X81.927 Y75.412 E60.86464
G1 X81.736 Y75.754 E60.87963
G1 X81.479 Y76.05 E60.89463
G1 X81.167 Y76.288 E60.90965
G1 X80.758 Y76.477 E60.92689
G1 X52.976 Y85.537 E62.04522
G1 X52.593 Y85.62 E62.06021
G1 X52.201 Y85.624 E62.07522
G1 X51.77 Y85.533 E62.09207
G1 X51.623 Y85.484 E62.098
G1 X51.266 Y85.323 E62.11299
G1 X50.949 Y85.093 E62.12798
G1 X50.674 Y84.788 E62.1437
G1 X33.52 Y61.13 E63.26204
G1 X33.323 Y60.791 E63.27705
G1 X33.199 Y60.419 E63.29205
G1 X33.153 Y60.03 E63.30705
G1 X33.187 Y59.639 E63.32207
G1 X33.299 Y59.264 E63.33704
G1 X33.52 Y58.87 E63.35433
G1 X50.266 Y35.773 E64.44613
G0 F1458 X50.673 Y35.212
G0 F4320 X50.956 Y35.417
G1 F2400 E64.47269
G1 F1620 X51.195 Y35.156 E64.48623
G1 X51.486 Y34.954 E64.49979
G1 X51.745 Y34.844 E64.51056
G1 X51.893 Y34.796 E64.51651
G1 X52.24 Y34.725 E64.53007
G1 X52.595 Y34.734 E64.54366
G1 X52.866 Y34.796 E64.5543
G1 X80.583 Y43.802 E65.66962
G1 X80.905 Y43.949 E65.68316
G1 X81.187 Y44.164 E65.69673
G1 X81.367 Y44.369 E65.70717
G1 X81.46 Y44.496 E65.7132
G1 X81.636 Y44.804 E65.72677
G1 X81.738 Y45.143 E65.74032
G1 X81.764 Y45.429 E65.75131
