;FLAVOR:Marlin
;TIME:411
;Filament used: 0.198313m
;Layer height: 0.175
;Generated with Cura_SteamEngine 3.6.0
M140 S65
M105
M190 S65
M104 S205
M105
M109 S205
M82 ;absolute extrusion mode
G21;(metric values)
G90;(absolute positioning)
M82;(set extruder to absolute mode)
M107;(start with the fan off)
G28;(Home the printer)
G92 E0;(Reset the extruder to 0)
G0 Z5 E5 F500;(Move up and prime the nozzle)
G0 X-1 Z0;(Move outside the printable area)
G1 Y60 E8 F500;(Draw a priming/wiping line to the rear)
G1 X-1;(Move a little closer to the print area)
G1 Y10 E16 F500;(draw more priming/wiping)
G1 E15 F250;(Small retract)
G92 E0;(Zero the extruder)
G92 E0
G1 F2400 E-2.5
;LAYER_COUNT:21
;LAYER:0
M107
G0 F4320 X44.284 Y52.558 Z0.263
;TYPE:SKIRT
G1 F2400 E0
G1 F1080 X44.904 Y52.081 E0.02994
G1 X45.433 Y51.725 E0.05434
G1 X46.263 Y51.334 E0.08945
G1 X47.244 Y50.977 E0.1294
G1 X47.706 Y50.841 E0.14783
G1 X47.799 Y50.728 E0.15343
G1 X48.263 Y50.292 E0.1778
G1 X48.778 Y49.917 E0.20218
G1 X49.335 Y49.61 E0.22652
G1 X49.927 Y49.375 E0.2509
G1 X50.544 Y49.216 E0.27528
G1 X51.176 Y49.135 E0.29967
G1 X51.5 Y49.125 E0.31207
G1 X53.5 Y49.125 E0.38861
G1 X54.136 Y49.165 E0.413
G1 X54.761 Y49.284 E0.43735
G1 X55.367 Y49.481 E0.46173
G1 X55.943 Y49.752 E0.48609
G1 X56.481 Y50.093 E0.51047
G1 X56.972 Y50.499 E0.53485
G1 X57.383 Y50.936 E0.55781
G1 X57.706 Y50.841 E0.5707
G1 X57.799 Y50.728 E0.5763
G1 X58.263 Y50.292 E0.60066
G1 X58.778 Y49.917 E0.62504
G1 X59.335 Y49.61 E0.64938
G1 X59.927 Y49.375 E0.67376
G1 X60.544 Y49.216 E0.69814
G1 X61.176 Y49.135 E0.72253
G1 X61.5 Y49.125 E0.73493
G1 X63.5 Y49.125 E0.81147
G1 X64.136 Y49.165 E0.83586
G1 X64.761 Y49.284 E0.86021
G1 X65.367 Y49.481 E0.8846
G1 X65.943 Y49.752 E0.90896
G1 X66.481 Y50.093 E0.93333
G1 X66.972 Y50.499 E0.95772
G1 X67.408 Y50.963 E0.98208
G1 X67.783 Y51.478 E1.00646
G1 X68.09 Y52.035 E1.0308
G1 X68.325 Y52.627 E1.05518
G1 X68.484 Y53.244 E1.07956
G1 X68.565 Y53.876 E1.10395
G1 X68.575 Y54.2 E1.11635
G1 X68.575 Y59.5 E1.31918
G1 X68.543 Y60.006 E1.33859
G1 X68.565 Y60.176 E1.34515
G1 X68.575 Y60.5 E1.35755
G1 X68.575 Y65.8 E1.56038
G1 X68.535 Y66.436 E1.58477
G1 X68.416 Y67.061 E1.60912
G1 X68.219 Y67.667 E1.6335
G1 X67.948 Y68.243 E1.65787
G1 X67.607 Y68.781 E1.68224
G1 X67.201 Y69.272 E1.70663
G1 X66.737 Y69.708 E1.73099
G1 X66.222 Y70.083 E1.75537
G1 X65.665 Y70.39 E1.77971
G1 X65.073 Y70.625 E1.80409
G1 X64.456 Y70.784 E1.82847
G1 X63.824 Y70.865 E1.85286
G1 X63.5 Y70.875 E1.86526
G1 X61.5 Y70.875 E1.9418
G1 X60.864 Y70.835 E1.96619
G1 X60.239 Y70.716 E1.99054
G1 X59.633 Y70.519 E2.01492
G1 X59.057 Y70.248 E2.03928
G1 X58.519 Y69.907 E2.06366
G1 X58.028 Y69.501 E2.08804
G1 X57.687 Y69.138 E2.1071
G1 X57.584 Y69.115 E2.11114
G1 X57.383 Y69.052 E2.1192
G1 X57.201 Y69.272 E2.13013
G1 X56.737 Y69.708 E2.1545
G1 X56.222 Y70.083 E2.17888
G1 X55.665 Y70.39 E2.20322
G1 X55.073 Y70.625 E2.22759
G1 X54.456 Y70.784 E2.25198
G1 X53.824 Y70.865 E2.27636
G1 X53.5 Y70.875 E2.28877
G1 X51.5 Y70.875 E2.36531
G1 X50.864 Y70.835 E2.3897
G1 X50.239 Y70.716 E2.41404
G1 X49.633 Y70.519 E2.43843
G1 X49.057 Y70.248 E2.46279
G1 X48.519 Y69.907 E2.48717
G1 X48.028 Y69.501 E2.51155
G1 X47.687 Y69.138 E2.53061
G1 X47.584 Y69.115 E2.53465
G1 X46.59 Y68.802 E2.57453
G1 X45.995 Y68.573 E2.59893
G1 X45.435 Y68.271 E2.62328
G1 X45.026 Y67.989 E2.64229
G1 X44.199 Y67.355 E2.68217
G1 X43.719 Y66.936 E2.70655
G1 X43.295 Y66.461 E2.73092
G1 X43.004 Y66.049 E2.75022
G1 X42.446 Y65.171 E2.79004
G1 X42.139 Y64.613 E2.81441
G1 X41.904 Y64.021 E2.83879
G1 X41.775 Y63.55 E2.85748
G1 X41.549 Y62.533 E2.89735
G1 X41.45 Y61.904 E2.92171
G1 X41.428 Y61.418 E2.94033
G1 X41.436 Y58.427 E3.0548
G1 X41.478 Y57.792 E3.07915
G1 X41.609 Y57.128 E3.10505
G1 X41.879 Y56.12 E3.14499
G1 X42.082 Y55.516 E3.16937
G1 X42.359 Y54.943 E3.19373
G1 X42.625 Y54.52 E3.21285
G1 X43.223 Y53.667 E3.25272
G1 X43.621 Y53.169 E3.27712
G1 X43.774 Y53.028 E3.28508
G0 F972 X44.284 Y52.558
G0 F4320 X44.498 Y52.835
G1 F2400 E3.31164
G1 F1080 X45.118 Y52.358 E3.34158
G1 X45.628 Y52.016 E3.36508
G1 X46.383 Y51.663 E3.39697
G1 X47.364 Y51.306 E3.43692
G1 X47.906 Y51.148 E3.45853
G1 X48.144 Y50.874 E3.47242
G1 X48.604 Y50.467 E3.49593
G1 X49.113 Y50.122 E3.51946
G1 X49.662 Y49.847 E3.54296
G1 X50.243 Y49.645 E3.5665
G1 X50.844 Y49.521 E3.58998
G1 X51.5 Y49.475 E3.61515
G1 X53.5 Y49.475 E3.69169
G1 X54.113 Y49.515 E3.7152
G1 X54.716 Y49.634 E3.73872
G1 X55.298 Y49.831 E3.76223
G1 X55.85 Y50.101 E3.78575
G1 X56.362 Y50.441 E3.80927
G1 X56.826 Y50.844 E3.83279
G1 X57.233 Y51.304 E3.8563
G1 X57.26 Y51.344 E3.85814
G1 X57.364 Y51.306 E3.86238
G1 X57.906 Y51.148 E3.88399
G1 X58.144 Y50.874 E3.89788
G1 X58.604 Y50.467 E3.92138
G1 X59.113 Y50.122 E3.94491
G1 X59.662 Y49.847 E3.96841
G1 X60.243 Y49.645 E3.99195
G1 X60.844 Y49.521 E4.01544
G1 X61.5 Y49.475 E4.0406
G1 X63.5 Y49.475 E4.11714
G1 X64.113 Y49.515 E4.14065
G1 X64.716 Y49.634 E4.16418
G1 X65.298 Y49.831 E4.18769
G1 X65.85 Y50.101 E4.21121
G1 X66.362 Y50.441 E4.23473
G1 X66.826 Y50.844 E4.25825
G1 X67.233 Y51.304 E4.28175
G1 X67.578 Y51.813 E4.30529
G1 X67.853 Y52.362 E4.32878
G1 X68.055 Y52.943 E4.35232
G1 X68.179 Y53.544 E4.37581
G1 X68.225 Y54.2 E4.40098
G1 X68.225 Y59.5 E4.60381
G1 X68.191 Y60.018 E4.62367
G1 X68.225 Y60.5 E4.64217
G1 X68.225 Y65.8 E4.845
G1 X68.185 Y66.413 E4.86851
G1 X68.066 Y67.016 E4.89203
G1 X67.869 Y67.598 E4.91554
G1 X67.599 Y68.15 E4.93906
G1 X67.259 Y68.662 E4.96258
G1 X66.856 Y69.126 E4.9861
G1 X66.396 Y69.533 E5.0096
G1 X65.887 Y69.878 E5.03314
G1 X65.338 Y70.153 E5.05664
G1 X64.757 Y70.355 E5.08018
G1 X64.156 Y70.479 E5.10366
G1 X63.5 Y70.525 E5.12883
G1 X61.5 Y70.525 E5.20537
G1 X60.887 Y70.485 E5.22888
G1 X60.284 Y70.366 E5.2524
G1 X59.702 Y70.169 E5.27591
G1 X59.15 Y69.899 E5.29943
G1 X58.638 Y69.559 E5.32295
G1 X58.174 Y69.156 E5.34647
G1 X57.881 Y68.824 E5.36342
G1 X57.689 Y68.781 E5.37095
G1 X57.268 Y68.648 E5.38784
G1 X57.259 Y68.662 E5.38848
G1 X56.856 Y69.126 E5.412
G1 X56.396 Y69.533 E5.43551
G1 X55.887 Y69.878 E5.45904
G1 X55.338 Y70.153 E5.48254
G1 X54.757 Y70.355 E5.50608
G1 X54.156 Y70.479 E5.52956
G1 X53.5 Y70.525 E5.55473
G1 X51.5 Y70.525 E5.63127
G1 X50.887 Y70.485 E5.65478
G1 X50.284 Y70.366 E5.6783
G1 X49.702 Y70.169 E5.70181
G1 X49.15 Y69.899 E5.72533
G1 X48.638 Y69.559 E5.74885
G1 X48.174 Y69.156 E5.77237
G1 X47.881 Y68.824 E5.78932
G1 X47.689 Y68.781 E5.79685
G1 X46.695 Y68.468 E5.83673
G1 X46.122 Y68.246 E5.86025
G1 X45.583 Y67.951 E5.88376
G1 X45.239 Y67.711 E5.89981
G1 X44.412 Y67.077 E5.93969
G1 X43.95 Y66.672 E5.96321
G1 X43.544 Y66.211 E5.98671
G1 X43.299 Y65.861 E6.00306
G1 X42.741 Y64.983 E6.04288
G1 X42.446 Y64.444 E6.06639
G1 X42.223 Y63.872 E6.08989
G1 X42.117 Y63.474 E6.10565
G1 X41.891 Y62.457 E6.14552
G1 X41.797 Y61.85 E6.16903
G1 X41.778 Y61.419 E6.18554
G1 X41.786 Y58.428 E6.3
G1 X41.828 Y57.815 E6.32352
G1 X41.947 Y57.218 E6.34681
G1 X42.217 Y56.21 E6.38675
G1 X42.414 Y55.628 E6.41026
G1 X42.685 Y55.077 E6.43376
G1 X42.912 Y54.721 E6.44992
G1 X43.51 Y53.868 E6.48979
G1 X43.895 Y53.388 E6.51334
G1 X43.987 Y53.304 E6.5181
G0 F972 X44.498 Y52.835
G0 F4320 X44.711 Y53.112
G1 F2400 E6.54466
G1 F1080 X45.331 Y52.635 E6.5746
G1 X45.823 Y52.307 E6.59723
G1 X46.503 Y51.992 E6.62591
G1 X47.484 Y51.635 E6.66586
G1 X48.052 Y51.471 E6.68849
G1 X48.084 Y51.467 E6.68972
G1 X48.088 Y51.462 E6.68997
G1 X48.488 Y51.027 E6.71258
G1 X48.944 Y50.65 E6.73522
G1 X49.446 Y50.337 E6.75786
G1 X49.985 Y50.096 E6.78046
G1 X50.553 Y49.929 E6.80312
G1 X51.137 Y49.84 E6.82573
G1 X51.5 Y49.825 E6.83963
G1 X53.5 Y49.825 E6.91617
G1 X54.09 Y49.865 E6.9388
G1 X54.669 Y49.984 E6.96142
G1 X55.227 Y50.18 E6.98406
G1 X55.753 Y50.45 E7.00668
G1 X56.238 Y50.788 E7.02931
G1 X56.673 Y51.188 E7.05192
G1 X57.05 Y51.644 E7.07456
G1 X57.126 Y51.765 E7.08003
G1 X57.484 Y51.635 E7.09461
G1 X58.052 Y51.471 E7.11723
G1 X58.084 Y51.467 E7.11847
G1 X58.088 Y51.462 E7.11871
G1 X58.488 Y51.027 E7.14133
G1 X58.944 Y50.65 E7.16397
G1 X59.446 Y50.337 E7.18661
G1 X59.985 Y50.096 E7.20921
G1 X60.553 Y49.929 E7.23186
G1 X61.137 Y49.84 E7.25447
G1 X61.5 Y49.825 E7.26838
G1 X63.5 Y49.825 E7.34492
G1 X64.09 Y49.865 E7.36755
G1 X64.669 Y49.984 E7.39017
G1 X65.227 Y50.18 E7.4128
G1 X65.753 Y50.45 E7.43543
G1 X66.238 Y50.788 E7.45805
G1 X66.673 Y51.188 E7.48067
G1 X67.05 Y51.644 E7.50331
G1 X67.363 Y52.146 E7.52595
G1 X67.604 Y52.685 E7.54855
G1 X67.771 Y53.253 E7.5712
G1 X67.86 Y53.837 E7.59381
G1 X67.875 Y54.2 E7.60772
G1 X67.875 Y59.5 E7.81055
G1 X67.84 Y60.009 E7.83007
G1 X67.86 Y60.137 E7.83503
G1 X67.875 Y60.5 E7.84893
G1 X67.875 Y65.8 E8.05176
G1 X67.835 Y66.39 E8.0744
G1 X67.716 Y66.969 E8.09702
G1 X67.52 Y67.527 E8.11965
G1 X67.25 Y68.053 E8.14228
G1 X66.912 Y68.538 E8.1649
G1 X66.512 Y68.973 E8.18752
G1 X66.056 Y69.35 E8.21016
G1 X65.554 Y69.663 E8.2328
G1 X65.015 Y69.904 E8.2554
G1 X64.447 Y70.071 E8.27805
G1 X63.863 Y70.16 E8.30066
G1 X63.5 Y70.175 E8.31456
G1 X61.5 Y70.175 E8.3911
G1 X60.91 Y70.135 E8.41374
G1 X60.331 Y70.016 E8.43636
G1 X59.773 Y69.82 E8.45899
G1 X59.247 Y69.55 E8.48162
G1 X58.762 Y69.212 E8.50424
G1 X58.327 Y68.812 E8.52686
G1 X58.079 Y68.512 E8.54175
G1 X57.794 Y68.447 E8.55294
G1 X57.123 Y68.236 E8.57986
G1 X56.912 Y68.538 E8.59396
G1 X56.512 Y68.973 E8.61657
G1 X56.056 Y69.35 E8.63922
G1 X55.554 Y69.663 E8.66186
G1 X55.015 Y69.904 E8.68445
G1 X54.447 Y70.071 E8.70711
G1 X53.863 Y70.16 E8.72972
G1 X53.5 Y70.175 E8.74362
G1 X51.5 Y70.175 E8.82016
G1 X50.91 Y70.135 E8.84279
G1 X50.331 Y70.016 E8.86541
G1 X49.773 Y69.82 E8.88805
G1 X49.247 Y69.55 E8.91067
G1 X48.762 Y69.212 E8.9333
G1 X48.327 Y68.812 E8.95591
G1 X48.079 Y68.512 E8.97081
G1 X47.794 Y68.447 E8.982
G1 X46.8 Y68.134 E9.02188
G1 X46.249 Y67.919 E9.04451
G1 X45.733 Y67.631 E9.06713
G1 X45.452 Y67.433 E9.08028
G1 X44.625 Y66.799 E9.12016
G1 X44.181 Y66.408 E9.1428
G1 X43.794 Y65.962 E9.1654
G1 X43.595 Y65.674 E9.1788
G1 X43.037 Y64.796 E9.21861
G1 X42.754 Y64.276 E9.24127
G1 X42.544 Y63.724 E9.26387
G1 X42.458 Y63.398 E9.27677
G1 X42.232 Y62.381 E9.31664
G1 X42.143 Y61.797 E9.33925
G1 X42.128 Y61.42 E9.35369
G1 X42.136 Y58.429 E9.46816
G1 X42.178 Y57.839 E9.49079
G1 X42.285 Y57.309 E9.51149
G1 X42.555 Y56.301 E9.55142
G1 X42.746 Y55.742 E9.57403
G1 X43.011 Y55.213 E9.59667
G1 X43.199 Y54.922 E9.60993
G1 X43.797 Y54.069 E9.6498
G1 X44.168 Y53.608 E9.67244
G1 X44.199 Y53.58 E9.67404
G0 F972 X44.711 Y53.112
G0 F4320 X44.925 Y53.39
G1 F2400 E9.7006
G1 F1080 X45.545 Y52.913 E9.73054
G1 X46.017 Y52.6 E9.75221
G1 X46.623 Y52.321 E9.77774
G1 X47.604 Y51.964 E9.8177
G1 X48.149 Y51.808 E9.83939
G1 X48.287 Y51.792 E9.84471
G1 X48.435 Y51.592 E9.85423
G1 X48.832 Y51.187 E9.87593
G1 X49.282 Y50.841 E9.89766
G1 X49.776 Y50.563 E9.91935
G1 X50.304 Y50.357 E9.94104
G1 X50.856 Y50.227 E9.96274
G1 X51.5 Y50.175 E9.98747
G1 X53.5 Y50.175 E10.06401
G1 X54.066 Y50.215 E10.08572
G1 X54.62 Y50.334 E10.10741
G1 X55.152 Y50.53 E10.12911
G1 X55.652 Y50.798 E10.15082
G1 X56.108 Y51.135 E10.17252
G1 X56.513 Y51.532 E10.19422
G1 X56.859 Y51.982 E10.21594
G1 X56.977 Y52.192 E10.22516
G1 X57.604 Y51.964 E10.25069
G1 X58.149 Y51.808 E10.27239
G1 X58.287 Y51.792 E10.27771
G1 X58.435 Y51.592 E10.28723
G1 X58.832 Y51.187 E10.30893
G1 X59.282 Y50.841 E10.33065
G1 X59.776 Y50.563 E10.35235
G1 X60.304 Y50.357 E10.37404
G1 X60.856 Y50.227 E10.39574
G1 X61.5 Y50.175 E10.42047
G1 X63.5 Y50.175 E10.49701
G1 X64.066 Y50.215 E10.51872
G1 X64.62 Y50.334 E10.54041
G1 X65.152 Y50.53 E10.5621
G1 X65.652 Y50.798 E10.58381
G1 X66.108 Y51.135 E10.60551
G1 X66.513 Y51.532 E10.62722
G1 X66.859 Y51.982 E10.64894
G1 X67.137 Y52.476 E10.67064
G1 X67.343 Y53.004 E10.69233
G1 X67.473 Y53.556 E10.71403
G1 X67.525 Y54.2 E10.73875
G1 X67.525 Y59.5 E10.94158
G1 X67.487 Y60.033 E10.96203
G1 X67.525 Y60.5 E10.97997
G1 X67.525 Y65.8 E11.1828
G1 X67.485 Y66.366 E11.20451
G1 X67.366 Y66.92 E11.2262
G1 X67.17 Y67.452 E11.24789
G1 X66.902 Y67.952 E11.2696
G1 X66.565 Y68.408 E11.2913
G1 X66.168 Y68.813 E11.31301
G1 X65.718 Y69.159 E11.33473
G1 X65.224 Y69.437 E11.35642
G1 X64.696 Y69.643 E11.37811
G1 X64.144 Y69.773 E11.39982
G1 X63.5 Y69.825 E11.42454
G1 X61.5 Y69.825 E11.50108
G1 X60.934 Y69.785 E11.5228
G1 X60.38 Y69.666 E11.54448
G1 X59.848 Y69.47 E11.56618
G1 X59.348 Y69.202 E11.58789
G1 X58.892 Y68.865 E11.60959
G1 X58.487 Y68.468 E11.63129
G1 X58.283 Y68.203 E11.64409
G1 X57.899 Y68.113 E11.65919
G1 X56.972 Y67.821 E11.69638
G1 X56.902 Y67.952 E11.70207
G1 X56.565 Y68.408 E11.72377
G1 X56.168 Y68.813 E11.74547
G1 X55.718 Y69.159 E11.76719
G1 X55.224 Y69.437 E11.78889
G1 X54.696 Y69.643 E11.81058
G1 X54.144 Y69.773 E11.83228
G1 X53.5 Y69.825 E11.85701
G1 X51.5 Y69.825 E11.93355
G1 X50.934 Y69.785 E11.95526
G1 X50.38 Y69.666 E11.97695
G1 X49.848 Y69.47 E11.99864
G1 X49.348 Y69.202 E12.02035
G1 X48.892 Y68.865 E12.04205
G1 X48.487 Y68.468 E12.06376
G1 X48.283 Y68.203 E12.07656
G1 X47.899 Y68.113 E12.09165
G1 X46.905 Y67.8 E12.13153
G1 X46.378 Y67.592 E12.15321
G1 X45.665 Y67.155 E12.18522
G1 X44.838 Y66.521 E12.2251
G1 X44.414 Y66.145 E12.24678
G1 X43.89 Y65.486 E12.279
G1 X43.332 Y64.608 E12.31882
G1 X43.062 Y64.109 E12.34053
G1 X42.8 Y63.322 E12.37227
G1 X42.574 Y62.305 E12.41214
G1 X42.49 Y61.744 E12.43385
G1 X42.478 Y61.421 E12.44622
G1 X42.486 Y58.43 E12.56069
G1 X42.527 Y57.865 E12.58237
G1 X42.623 Y57.4 E12.60054
G1 X42.893 Y56.392 E12.64047
G1 X43.078 Y55.855 E12.66221
G1 X43.485 Y55.122 E12.6943
G1 X44.083 Y54.269 E12.73416
G1 X44.416 Y53.86 E12.75435
G0 F972 X44.441 Y53.829
G0 X44.925 Y53.39
G0 F4320 X45.138 Y53.667
G1 F2400 E12.78091
G1 F1080 X45.758 Y53.19 E12.81084
G1 X46.211 Y52.892 E12.8316
G1 X46.742 Y52.65 E12.85393
G1 X47.723 Y52.293 E12.89388
G1 X48.245 Y52.145 E12.91464
G1 X48.474 Y52.12 E12.92346
G1 X48.781 Y51.728 E12.94251
G1 X49.174 Y51.355 E12.96325
G1 X49.618 Y51.044 E12.984
G1 X50.102 Y50.801 E13.00472
G1 X50.617 Y50.633 E13.02545
G1 X51.151 Y50.542 E13.04618
G1 X51.5 Y50.525 E13.05956
G1 X53.5 Y50.525 E13.1361
G1 X54.04 Y50.565 E13.15682
G1 X54.569 Y50.684 E13.17757
G1 X55.074 Y50.879 E13.19829
G1 X55.546 Y51.147 E13.21906
G1 X55.972 Y51.481 E13.23977
G1 X56.345 Y51.874 E13.26051
G1 X56.656 Y52.318 E13.28126
G1 X56.81 Y52.625 E13.2944
G1 X57.723 Y52.293 E13.33158
G1 X58.245 Y52.145 E13.35234
G1 X58.474 Y52.12 E13.36116
G1 X58.781 Y51.728 E13.38021
G1 X59.174 Y51.355 E13.40095
G1 X59.618 Y51.044 E13.4217
G1 X60.102 Y50.801 E13.44242
G1 X60.617 Y50.633 E13.46315
G1 X61.151 Y50.542 E13.48388
G1 X61.5 Y50.525 E13.49726
G1 X63.5 Y50.525 E13.5738
G1 X64.04 Y50.565 E13.59452
G1 X64.569 Y50.684 E13.61527
G1 X65.074 Y50.879 E13.63599
G1 X65.546 Y51.147 E13.65676
G1 X65.972 Y51.481 E13.67747
G1 X66.345 Y51.874 E13.69821
G1 X66.656 Y52.318 E13.71896
G1 X66.899 Y52.802 E13.73968
G1 X67.067 Y53.317 E13.76041
G1 X67.158 Y53.851 E13.78114
G1 X67.175 Y54.2 E13.79452
G1 X67.175 Y59.5 E13.99735
G1 X67.136 Y60.023 E14.01742
G1 X67.158 Y60.151 E14.02239
G1 X67.175 Y60.5 E14.03576
G1 X67.175 Y65.8 E14.23859
G1 X67.135 Y66.34 E14.25931
G1 X67.016 Y66.869 E14.28006
G1 X66.821 Y67.374 E14.30078
G1 X66.553 Y67.846 E14.32155
G1 X66.219 Y68.272 E14.34227
G1 X65.826 Y68.645 E14.363
G1 X65.382 Y68.956 E14.38375
G1 X64.898 Y69.199 E14.40448
G1 X64.383 Y69.367 E14.42521
G1 X63.849 Y69.458 E14.44594
G1 X63.5 Y69.475 E14.45931
G1 X61.5 Y69.475 E14.53585
G1 X60.96 Y69.435 E14.55657
G1 X60.431 Y69.316 E14.57732
G1 X59.926 Y69.121 E14.59804
G1 X59.454 Y68.853 E14.61881
G1 X59.028 Y68.519 E14.63953
G1 X58.655 Y68.126 E14.66026
G1 X58.493 Y67.895 E14.67106
G1 X58.004 Y67.779 E14.6903
G1 X57.01 Y67.466 E14.73018
G1 X56.813 Y67.388 E14.73829
G1 X56.553 Y67.846 E14.75844
G1 X56.219 Y68.272 E14.77916
G1 X55.826 Y68.645 E14.79989
G1 X55.382 Y68.956 E14.82064
G1 X54.898 Y69.199 E14.84136
G1 X54.383 Y69.367 E14.8621
G1 X53.849 Y69.458 E14.88283
G1 X53.5 Y69.475 E14.8962
G1 X51.5 Y69.475 E14.97274
G1 X50.96 Y69.435 E14.99346
G1 X50.431 Y69.316 E15.01421
G1 X49.926 Y69.121 E15.03493
G1 X49.454 Y68.853 E15.0557
G1 X49.028 Y68.519 E15.07642
G1 X48.655 Y68.126 E15.09715
G1 X48.493 Y67.895 E15.10795
G1 X48.004 Y67.779 E15.12718
G1 X47.01 Y67.466 E15.16707
