;FLAVOR:Marlin
;TIME:7850
;Filament used: 6.31457m
;Layer height: 0.175
;Generated with Cura_SteamEngine 3.6.0
M140 S65
M105
M190 S65
M104 S205
M105
M109 S205
M82 ;absolute extrusion mode
G21;(metric values)
G90;(absolute positioning)
M82;(set extruder to absolute mode)
M107;(start with the fan off)
G28;(Home the printer)
G92 E0;(Reset the extruder to 0)
G0 Z5 E5 F500;(Move up and prime the nozzle)
G0 X-1 Z0;(Move outside the printable area)
G1 Y60 E8 F500;(Draw a priming/wiping line to the rear)
G1 X-1;(Move a little closer to the print area)
G1 Y10 E16 F500;(draw more priming/wiping)
G1 E15 F250;(Small retract)
G92 E0;(Zero the extruder)
G92 E0
G1 F2400 E-2.5
;LAYER_COUNT:114
;LAYER:0
M107
G0 F4320 X51.435 Y30.017 Z0.263
;TYPE:SKIRT
G1 F2400 E0
G1 F1800 X51.82 Y29.51 E0.02436
G1 X52.266 Y29.055 E0.04875
G1 X52.765 Y28.66 E0.0731
G1 X53.31 Y28.33 E0.09748
G1 X54.105 Y27.997 E0.13047
G1 X54.428 Y27.893 E0.14346
G1 X55.045 Y27.736 E0.16782
G1 X55.982 Y27.649 E0.20383
G1 X63.526 Y27.648 E0.49254
G1 X64.162 Y27.688 E0.51693
G1 X64.788 Y27.807 E0.54132
G1 X65.096 Y27.897 E0.5536
G1 X65.419 Y28.002 E0.56659
G1 X66.011 Y28.236 E0.59096
G1 X66.569 Y28.543 E0.61533
G1 X67.084 Y28.917 E0.63969
G1 X67.549 Y29.353 E0.66408
G1 X67.955 Y29.844 E0.68846
G1 X68.399 Y30.579 E0.72133
G1 X68.577 Y30.939 E0.7367
G1 X68.823 Y31.526 E0.76105
G1 X68.994 Y32.14 E0.78545
G1 X69.086 Y32.77 E0.80981
G1 X69.089 Y32.846 E0.81272
G1 X87.345 Y64.471 E2.21019
G1 X87.628 Y65.041 E2.23454
G1 X87.838 Y65.643 E2.25894
G1 X87.97 Y66.266 E2.28332
G1 X88.021 Y66.796 E2.30369
G1 X88.038 Y67.203 E2.31928
G1 X88.024 Y67.84 E2.34367
G1 X87.931 Y68.47 E2.36804
G1 X87.76 Y69.083 E2.39239
G1 X87.513 Y69.671 E2.4168
G1 X87.195 Y70.222 E2.44115
G1 X86.836 Y70.699 E2.46399
G1 X86.651 Y70.917 E2.47494
G1 X86.21 Y71.375 E2.49927
G1 X85.714 Y71.775 E2.52365
G1 X85.313 Y72.032 E2.54188
G1 X75.234 Y77.831 E2.98689
G1 X74.511 Y78.174 E3.01751
G1 X73.011 Y78.746 E3.07895
G1 X72.403 Y78.935 E3.10332
G1 X71.968 Y79.021 E3.12029
G1 X70.185 Y79.293 E3.18931
G1 X69.423 Y79.351 E3.21856
G1 X68.451 Y79.352 E3.25576
G1 X68.455 Y86.81 E3.54117
G1 X68.415 Y87.445 E3.56552
G1 X68.296 Y88.071 E3.58991
G1 X68.1 Y88.677 E3.61428
G1 X67.962 Y88.994 E3.62752
G1 X67.791 Y89.353 E3.64273
G1 X67.481 Y89.91 E3.66713
G1 X67.105 Y90.424 E3.6915
G1 X66.667 Y90.886 E3.71586
G1 X66.174 Y91.29 E3.74026
G1 X65.635 Y91.629 E3.76463
G1 X64.872 Y91.966 E3.79655
G1 X64.578 Y92.068 E3.80846
G1 X63.965 Y92.238 E3.8328
G1 X63.335 Y92.331 E3.85717
G1 X62.915 Y92.348 E3.87326
G1 X55.916 Y92.348 E4.14111
G1 X55.28 Y92.308 E4.1655
G1 X54.655 Y92.189 E4.18985
G1 X54.049 Y91.992 E4.21423
G1 X53.651 Y91.815 E4.2309
G1 X53.268 Y91.624 E4.24728
G1 X52.717 Y91.304 E4.27167
G1 X52.211 Y90.918 E4.29602
G1 X51.756 Y90.472 E4.32041
G1 X51.361 Y89.972 E4.34479
G1 X51.032 Y89.427 E4.36915
G1 X50.774 Y88.845 E4.39352
G1 X50.667 Y88.524 E4.40647
G1 X50.587 Y88.254 E4.41724
G1 X50.445 Y87.633 E4.44162
G1 X50.378 Y86.813 E4.47311
G1 X50.377 Y73.407 E4.98616
G1 X39.491 Y73.419 E5.40276
G1 X39.018 Y73.511 E5.4212
G1 X38.383 Y73.554 E5.44556
G1 X37.474 Y73.476 E5.48048
G1 X36.29 Y73.266 E5.52649
G1 X35.671 Y73.116 E5.55087
G1 X35.076 Y72.889 E5.57524
G1 X34.514 Y72.59 E5.5996
G1 X33.993 Y72.222 E5.62401
G1 X33.523 Y71.792 E5.64839
G1 X33.111 Y71.307 E5.67275
G1 X32.762 Y70.774 E5.69713
G1 X32.609 Y70.481 E5.70978
G1 X32.423 Y70.097 E5.72611
G1 X32.181 Y69.508 E5.75048
G1 X32.016 Y68.893 E5.77484
G1 X31.929 Y68.262 E5.79922
G1 X31.915 Y67.885 E5.81366
G1 X31.915 Y60.889 E6.0814
G1 X31.955 Y60.253 E6.10578
G1 X32.074 Y59.628 E6.13013
G1 X32.271 Y59.022 E6.15452
G1 X32.42 Y58.682 E6.16872
G1 X32.605 Y58.299 E6.185
G1 X32.918 Y57.744 E6.20939
G1 X33.297 Y57.232 E6.23376
G1 X33.738 Y56.772 E6.25815
G1 X34.232 Y56.371 E6.2825
G1 X34.773 Y56.035 E6.30687
G1 X35.352 Y55.77 E6.33124
G1 X35.972 Y55.576 E6.3561
G1 X36.308 Y55.494 E6.36934
G1 X36.935 Y55.382 E6.39372
G1 X37.501 Y55.349 E6.41541
G1 X48.957 Y55.326 E6.85383
G1 X50.381 Y54.505 E6.91674
G1 X50.406 Y33.182 E7.73277
G1 X50.447 Y32.546 E7.75716
G1 X50.567 Y31.921 E7.78152
G1 X50.764 Y31.315 E7.8059
G1 X50.937 Y30.928 E7.82213
G1 X51.091 Y30.619 E7.83534
G0 F1620 X51.116 Y30.568
G0 X51.435 Y30.017
G0 F4320 X51.738 Y30.193
G1 F2400 E7.8619
G1 F1800 X52.113 Y29.706 E7.88542
G1 X52.548 Y29.272 E7.90894
G1 X53.036 Y28.899 E7.93244
G1 X53.568 Y28.591 E7.95597
G1 X54.212 Y28.33 E7.98256
G1 X54.535 Y28.226 E7.99555
G1 X55.131 Y28.076 E8.01907
G1 X55.982 Y27.999 E8.05177
G1 X63.526 Y27.998 E8.34048
G1 X64.14 Y28.038 E8.36402
G1 X64.988 Y28.229 E8.39729
G1 X65.311 Y28.334 E8.41029
G1 X65.882 Y28.562 E8.43382
G1 X66.418 Y28.862 E8.45732
G1 X66.911 Y29.229 E8.48085
G1 X67.352 Y29.656 E8.50434
G1 X67.734 Y30.138 E8.52787
G1 X68.086 Y30.734 E8.55436
G1 X68.264 Y31.094 E8.56973
G1 X68.5 Y31.661 E8.59324
G1 X68.66 Y32.254 E8.61674
G1 X68.742 Y32.863 E8.64026
G1 X68.745 Y32.95 E8.64359
G1 X87.042 Y64.646 E10.0442
G1 X87.314 Y65.197 E10.06771
G1 X87.512 Y65.778 E10.0912
G1 X87.633 Y66.381 E10.11474
G1 X87.671 Y66.811 E10.13126
G1 X87.688 Y67.218 E10.14685
G1 X87.674 Y67.832 E10.17035
G1 X87.58 Y68.439 E10.19386
G1 X87.408 Y69.029 E10.21738
G1 X87.161 Y69.592 E10.24091
G1 X86.843 Y70.118 E10.26443
G1 X86.57 Y70.472 E10.28154
G1 X86.385 Y70.69 E10.29248
G1 X85.957 Y71.132 E10.31603
G1 X85.476 Y71.514 E10.33953
G1 X85.138 Y71.729 E10.35486
G1 X75.059 Y77.528 E10.79987
G1 X74.387 Y77.847 E10.82834
G1 X72.887 Y78.419 E10.88978
G1 X72.299 Y78.6 E10.91332
G1 X71.916 Y78.675 E10.92826
G1 X70.133 Y78.947 E10.99728
G1 X69.423 Y79.001 E11.02453
G1 X68.101 Y79.002 E11.07513
G1 X68.105 Y86.81 E11.37394
G1 X68.065 Y87.423 E11.39745
G1 X67.946 Y88.026 E11.42097
G1 X67.646 Y88.844 E11.45431
G1 X67.475 Y89.203 E11.46953
G1 X67.175 Y89.739 E11.49304
G1 X66.808 Y90.232 E11.51656
G1 X66.38 Y90.673 E11.54008
G1 X65.899 Y91.055 E11.56358
G1 X65.372 Y91.372 E11.58712
G1 X64.758 Y91.635 E11.61268
G1 X64.464 Y91.737 E11.62459
G1 X63.871 Y91.9 E11.64813
G1 X63.263 Y91.985 E11.67162
G1 X62.915 Y91.998 E11.68495
G1 X55.916 Y91.998 E11.9528
G1 X55.303 Y91.958 E11.97631
G1 X54.7 Y91.839 E11.99983
G1 X54.118 Y91.642 E12.02335
G1 X53.807 Y91.501 E12.03641
G1 X53.424 Y91.31 E12.05279
G1 X52.893 Y91.001 E12.07631
G1 X52.407 Y90.625 E12.09982
G1 X51.974 Y90.19 E12.12331
G1 X51.601 Y89.701 E12.14685
G1 X51.294 Y89.169 E12.17035
G1 X51.003 Y88.424 E12.20096
G1 X50.923 Y88.154 E12.21174
G1 X50.787 Y87.555 E12.23525
G1 X50.728 Y86.813 E12.26373
G1 X50.727 Y73.056 E12.79021
G1 X39.463 Y73.069 E13.22128
G1 X39.387 Y73.091 E13.22431
G1 X38.78 Y73.185 E13.24782
G1 X38.166 Y73.2 E13.27132
G1 X37.535 Y73.131 E13.29562
G1 X36.351 Y72.921 E13.34163
G1 X35.754 Y72.775 E13.36516
G1 X35.181 Y72.552 E13.38869
G1 X34.642 Y72.257 E13.4122
G1 X34.146 Y71.895 E13.4357
G1 X33.701 Y71.471 E13.45922
G1 X33.315 Y70.993 E13.48274
G1 X32.924 Y70.329 E13.51223
G1 X32.738 Y69.945 E13.52855
G1 X32.506 Y69.375 E13.55211
G1 X32.351 Y68.781 E13.5756
G1 X32.265 Y67.885 E13.61005
G1 X32.265 Y60.889 E13.87778
G1 X32.305 Y60.276 E13.90129
G1 X32.424 Y59.673 E13.92482
G1 X32.735 Y58.834 E13.95906
G1 X32.92 Y58.451 E13.97534
G1 X33.223 Y57.916 E13.99887
G1 X33.593 Y57.425 E14.02239
G1 X34.023 Y56.986 E14.04591
G1 X34.506 Y56.607 E14.06941
G1 X35.035 Y56.294 E14.09293
G1 X35.599 Y56.051 E14.11643
G1 X36.055 Y55.916 E14.13463
G1 X36.391 Y55.834 E14.14787
G1 X36.996 Y55.727 E14.17138
G1 X37.501 Y55.699 E14.19074
G1 X49.053 Y55.676 E14.63283
G1 X50.73 Y54.709 E14.70692
G1 X50.756 Y33.182 E15.53075
G1 X50.797 Y32.569 E15.55427
G1 X50.917 Y31.967 E15.57776
G1 X51.114 Y31.385 E15.60127
G1 X51.25 Y31.084 E15.61391
G1 X51.394 Y30.795 E15.62627
G0 F1620 X51.429 Y30.724
G0 X51.738 Y30.193
G0 F4320 X52.041 Y30.37
G1 F2400 E15.65283
G1 F1800 X52.405 Y29.904 E15.67546
G1 X52.829 Y29.492 E15.69808
G1 X53.305 Y29.141 E15.72072
G1 X53.824 Y28.857 E15.74336
G1 X54.319 Y28.664 E15.76369
G1 X54.642 Y28.56 E15.77668
G1 X55.216 Y28.417 E15.79932
G1 X55.982 Y28.349 E15.82875
G1 X63.526 Y28.348 E16.11745
G1 X64.116 Y28.388 E16.14009
G1 X64.88 Y28.562 E16.17007
G1 X65.203 Y28.667 E16.18307
G1 X65.751 Y28.888 E16.20568
G1 X66.265 Y29.18 E16.22831
G1 X66.735 Y29.539 E16.25094
G1 X67.152 Y29.958 E16.27356
G1 X67.509 Y30.43 E16.29621
G1 X67.772 Y30.889 E16.31646
G1 X67.95 Y31.249 E16.33183
G1 X68.175 Y31.795 E16.35443
G1 X68.325 Y32.367 E16.37706
G1 X68.388 Y33.032 E16.40262
G1 X86.739 Y64.821 E17.80734
G1 X86.999 Y65.352 E17.82997
G1 X87.186 Y65.913 E17.8526
G1 X87.295 Y66.494 E17.87522
G1 X87.321 Y66.825 E17.88793
G1 X87.338 Y67.232 E17.90352
G1 X87.323 Y67.823 E17.92614
G1 X87.228 Y68.407 E17.94879
G1 X87.055 Y68.973 E17.97144
G1 X86.808 Y69.51 E17.99406
G1 X86.49 Y70.008 E18.01667
G1 X86.303 Y70.246 E18.02825
G1 X86.118 Y70.464 E18.03919
G1 X85.706 Y70.888 E18.06182
G1 X85.24 Y71.252 E18.08445
G1 X84.964 Y71.425 E18.09692
G1 X74.885 Y77.224 E18.54192
G1 X74.262 Y77.52 E18.56832
G1 X72.762 Y78.092 E18.62976
G1 X72.196 Y78.265 E18.65241
G1 X71.863 Y78.329 E18.66539
G1 X70.08 Y78.601 E18.73441
G1 X69.423 Y78.651 E18.75963
G1 X67.751 Y78.652 E18.82361
G1 X67.755 Y86.81 E19.13582
G1 X67.715 Y87.4 E19.15845
G1 X67.596 Y87.979 E19.18107
G1 X67.33 Y88.693 E19.21023
G1 X67.159 Y89.052 E19.22545
G1 X66.869 Y89.568 E19.2481
G1 X66.512 Y90.039 E19.27072
G1 X66.096 Y90.459 E19.29334
G1 X65.626 Y90.818 E19.31598
G1 X65.112 Y91.11 E19.3386
G1 X64.643 Y91.304 E19.35802
G1 X64.349 Y91.406 E19.36993
G1 X63.779 Y91.562 E19.39255
G1 X62.915 Y91.648 E19.42578
G1 X55.916 Y91.648 E19.69363
G1 X55.326 Y91.608 E19.71626
G1 X54.747 Y91.489 E19.73888
G1 X53.964 Y91.188 E19.77098
G1 X53.581 Y90.997 E19.78736
G1 X53.07 Y90.698 E19.81002
G1 X52.605 Y90.333 E19.83264
G1 X52.194 Y89.909 E19.85524
G1 X51.843 Y89.433 E19.87788
G1 X51.56 Y88.914 E19.9005
G1 X51.338 Y88.325 E19.92459
G1 X51.258 Y88.055 E19.93537
G1 X51.129 Y87.478 E19.95799
G1 X51.078 Y86.812 E19.98355
G1 X51.076 Y72.706 E20.52339
G1 X39.399 Y72.719 E20.97027
G1 X39.136 Y72.785 E20.98065
G1 X38.548 Y72.85 E21.00329
G1 X37.957 Y72.835 E21.02591
G1 X37.596 Y72.787 E21.03985
G1 X36.412 Y72.577 E21.08587
G1 X35.838 Y72.434 E21.1085
G1 X35.289 Y72.216 E21.13111
G1 X34.774 Y71.925 E21.15375
G1 X34.303 Y71.568 E21.17637
G1 X33.884 Y71.151 E21.19899
G1 X33.526 Y70.68 E21.22163
G1 X33.239 Y70.176 E21.24383
G1 X33.053 Y69.792 E21.26016
G1 X32.831 Y69.244 E21.28278
G1 X32.686 Y68.671 E21.3054
G1 X32.615 Y67.885 E21.33561
G1 X32.615 Y60.889 E21.60334
G1 X32.655 Y60.299 E21.62597
G1 X32.774 Y59.72 E21.64859
G1 X33.051 Y58.986 E21.67862
G1 X33.236 Y58.603 E21.6949
G1 X33.528 Y58.089 E21.71752
G1 X33.887 Y57.62 E21.74012
G1 X34.306 Y57.203 E21.76275
G1 X34.778 Y56.846 E21.78539
G1 X35.293 Y56.556 E21.80801
G1 X35.843 Y56.339 E21.83064
G1 X36.138 Y56.256 E21.84237
G1 X36.474 Y56.174 E21.8556
G1 X37.056 Y56.073 E21.87821
G1 X37.502 Y56.049 E21.8953
G1 X49.147 Y56.025 E22.34096
G1 X51.08 Y54.911 E22.42634
G1 X51.106 Y33.183 E23.25787
G1 X51.147 Y32.593 E23.2805
G1 X51.266 Y32.014 E23.30312
G1 X51.564 Y31.24 E23.33487
G1 X51.697 Y30.973 E23.34628
G0 F1620 X51.743 Y30.88
G0 X52.041 Y30.37
G0 F4320 X52.344 Y30.547
G1 F2400 E23.37284
G1 F1800 X52.697 Y30.104 E23.39452
G1 X53.109 Y29.714 E23.41623
G1 X53.572 Y29.387 E23.43792
G1 X54.077 Y29.128 E23.45964
G1 X54.426 Y28.997 E23.47391
G1 X54.749 Y28.893 E23.48689
G1 X55.3 Y28.757 E23.50861
G1 X55.982 Y28.699 E23.53481
G1 X63.526 Y28.698 E23.82352
G1 X64.092 Y28.738 E23.84523
G1 X64.771 Y28.895 E23.8719
G1 X65.094 Y29 E23.8849
G1 X65.62 Y29.213 E23.90662
G1 X66.11 Y29.498 E23.92831
G1 X66.556 Y29.848 E23.95001
G1 X66.948 Y30.258 E23.97172
G1 X67.278 Y30.719 E23.99341
G1 X67.458 Y31.044 E24.00763
G1 X67.636 Y31.404 E24.023
G1 X67.851 Y31.929 E24.04471
G1 X67.99 Y32.479 E24.06642
G1 X68.049 Y33.145 E24.09201
G1 X86.436 Y64.996 E25.49947
G1 X86.684 Y65.506 E25.52118
G1 X86.858 Y66.045 E25.54285
G1 X86.971 Y66.84 E25.57358
G1 X86.988 Y67.247 E25.58917
G1 X86.972 Y67.814 E25.61088
G1 X86.876 Y68.373 E25.63259
G1 X86.703 Y68.913 E25.65429
G1 X86.455 Y69.423 E25.67599
G1 X86.036 Y70.019 E25.70387
G1 X85.851 Y70.237 E25.71481
G1 X85.454 Y70.643 E25.73654
G1 X84.789 Y71.122 E25.76791
G1 X74.71 Y76.921 E26.21292
G1 X74.137 Y77.193 E26.23719
G1 X72.637 Y77.765 E26.29863
G1 X72.094 Y77.929 E26.32034
G1 X71.81 Y77.983 E26.3314
G1 X70.027 Y78.255 E26.40042
G1 X69.423 Y78.301 E26.42361
G1 X67.401 Y78.302 E26.50099
G1 X67.405 Y86.81 E26.82659
G1 X67.365 Y87.376 E26.8483
G1 X67.247 Y87.93 E26.86998
G1 X67.014 Y88.543 E26.89508
G1 X66.843 Y88.902 E26.9103
G1 X66.563 Y89.395 E26.93199
G1 X66.218 Y89.845 E26.95369
G1 X65.812 Y90.241 E26.9754
G1 X65.355 Y90.576 E26.99708
G1 X64.855 Y90.844 E27.01879
G1 X64.528 Y90.974 E27.03226
G1 X64.234 Y91.076 E27.04417
G1 X63.687 Y91.223 E27.06585
G1 X62.915 Y91.298 E27.09553
G1 X55.916 Y91.298 E27.36338
G1 X55.35 Y91.258 E27.3851
G1 X54.796 Y91.139 E27.40678
G1 X54.12 Y90.875 E27.43455
G1 X53.737 Y90.684 E27.45093
G1 X53.248 Y90.396 E27.47265
G1 X52.805 Y90.042 E27.49435
G1 X52.416 Y89.629 E27.51607
G1 X52.089 Y89.166 E27.53776
G1 X51.831 Y88.661 E27.55946
G1 X51.674 Y88.225 E27.5772
G1 X51.594 Y87.955 E27.58797
G1 X51.471 Y87.402 E27.60965
G1 X51.428 Y86.812 E27.63229
G1 X51.426 Y72.355 E28.18556
G1 X39.378 Y72.369 E28.64664
G1 X38.891 Y72.469 E28.66566
G1 X38.325 Y72.504 E28.68737
G1 X37.657 Y72.442 E28.71304
G1 X36.473 Y72.232 E28.75906
G1 X35.923 Y72.094 E28.78076
G1 X35.398 Y71.88 E28.80246
G1 X34.908 Y71.594 E28.82417
G1 X34.463 Y71.242 E28.84588
G1 X34.072 Y70.832 E28.86756
G1 X33.743 Y70.37 E28.88927
G1 X33.554 Y70.024 E28.90436
G1 X33.368 Y69.64 E28.92069
G1 X33.157 Y69.113 E28.94241
G1 X33.022 Y68.562 E28.96412
G1 X32.965 Y67.885 E28.99012
G1 X32.965 Y60.889 E29.25786
G1 X33.005 Y60.323 E29.27957
G1 X33.124 Y59.769 E29.30126
G1 X33.366 Y59.138 E29.32712
G1 X33.551 Y58.755 E29.3434
G1 X33.833 Y58.263 E29.3651
G1 X34.181 Y57.816 E29.38678
G1 X34.589 Y57.422 E29.40849
G1 X35.048 Y57.089 E29.43019
G1 X35.549 Y56.824 E29.45188
G1 X36.221 Y56.596 E29.47904
G1 X36.557 Y56.514 E29.49227
G1 X37.116 Y56.418 E29.51398
G1 X37.503 Y56.399 E29.52881
G1 X49.24 Y56.375 E29.97798
G1 X51.43 Y55.113 E30.07471
G1 X51.456 Y33.183 E30.91398
G1 X51.497 Y32.618 E30.93565
G1 X51.616 Y32.063 E30.95738
G1 X51.877 Y31.396 E30.98479
G1 X52 Y31.149 E30.99535
G0 F1620 X52.056 Y31.036
G0 X52.344 Y30.547
G0 F4320 X52.646 Y30.726
G1 F2400 E31.02191
G1 F1800 X52.988 Y30.305 E31.04267
G1 X53.388 Y29.94 E31.06339
G1 X53.837 Y29.637 E31.08412
G1 X54.534 Y29.33 E31.11327
G1 X54.857 Y29.226 E31.12625
G1 X55.383 Y29.098 E31.14697
G1 X55.983 Y29.049 E31.17001
G1 X63.527 Y29.048 E31.45872
G1 X64.067 Y29.088 E31.47944
G1 X64.663 Y29.228 E31.50287
G1 X64.986 Y29.333 E31.51587
G1 X65.488 Y29.538 E31.53662
G1 X65.954 Y29.815 E31.55736
G1 X66.374 Y30.157 E31.57809
G1 X66.739 Y30.557 E31.59882
G1 X67.144 Y31.199 E31.62786
G1 X67.322 Y31.559 E31.64323
G1 X67.526 Y32.061 E31.66397
G1 X67.654 Y32.588 E31.68473
G1 X67.703 Y33.188 E31.70776
G1 X67.703 Y33.245 E31.70995
G1 X86.133 Y65.171 E33.12072
G1 X86.368 Y65.659 E33.14145
G1 X86.53 Y66.176 E33.16218
G1 X86.622 Y66.855 E33.1884
G1 X86.639 Y67.262 E33.20399
G1 X86.621 Y67.803 E33.22471
G1 X86.525 Y68.336 E33.24543
G1 X86.35 Y68.849 E33.26618
G1 X86.103 Y69.331 E33.28691
G1 X85.769 Y69.793 E33.30872
G1 X85.584 Y70.011 E33.31966
G1 X85.204 Y70.397 E33.34039
G1 X84.615 Y70.818 E33.3681
G1 X74.536 Y76.617 E33.81311
G1 X74.012 Y76.866 E33.83531
G1 X72.512 Y77.438 E33.89675
G1 X71.757 Y77.637 E33.92663
G1 X69.974 Y77.909 E33.99566
G1 X69.422 Y77.951 E34.01684
G1 X67.051 Y77.953 E34.10758
G1 X67.055 Y86.81 E34.44654
G1 X67.015 Y87.351 E34.4673
G1 X66.897 Y87.879 E34.488
G1 X66.698 Y88.392 E34.50906
G1 X66.527 Y88.751 E34.52428
G1 X66.258 Y89.222 E34.54504
G1 X65.924 Y89.648 E34.56575
G1 X65.53 Y90.02 E34.58649
G1 X65.086 Y90.331 E34.60724
G1 X64.414 Y90.643 E34.63559
G1 X64.12 Y90.745 E34.6475
G1 X63.596 Y90.884 E34.66825
G1 X62.915 Y90.948 E34.69442
G1 X55.916 Y90.948 E34.96227
G1 X55.376 Y90.908 E34.983
G1 X54.847 Y90.789 E35.00375
G1 X54.276 Y90.562 E35.02726
G1 X53.893 Y90.371 E35.04364
