;FLAVOR:Marlin
;TIME:4264
;Filament used: 5.26939m
;Layer height: 0.30625
;Generated with Cura_SteamEngine 3.6.0
M140 S65
M105
M190 S65
M104 S205
M105
M109 S205
M82 ;absolute extrusion mode
G21;(metric values)
G90;(absolute positioning)
M82;(set extruder to absolute mode)
M107;(start with the fan off)
G28;(Home the printer)
G92 E0;(Reset the extruder to 0)
G0 Z5 E5 F500;(Move up and prime the nozzle)
G0 X-1 Z0;(Move outside the printable area)
G1 Y60 E8 F500;(Draw a priming/wiping line to the rear)
G1 X-1;(Move a little closer to the print area)
G1 Y10 E16 F500;(draw more priming/wiping)
G1 E15 F250;(Small retract)
G92 E0;(Zero the extruder)
G92 E0
G1 F2400 E-2.5
;LAYER_COUNT:71
;LAYER:0
M107
G0 F4320 X29.7 Y35.158 Z0.306
;TYPE:SKIRT
G1 F2400 E0
G1 F1800 X30.446 Y34.601 E0.04145
G1 X31.449 Y33.987 E0.09382
G1 X32.165 Y33.623 E0.12958
G1 X33.254 Y33.174 E0.18203
G1 X33.998 Y32.933 E0.21686
G1 X35.142 Y32.657 E0.26926
G1 X35.941 Y32.53 E0.30528
G1 X37.106 Y32.44 E0.35731
G1 X37.496 Y32.425 E0.37469
G1 X45.999 Y32.424 E0.7533
G1 X46.635 Y32.464 E0.78168
G1 X47.261 Y32.583 E0.81005
G1 X47.866 Y32.78 E0.83838
G1 X48.443 Y33.051 E0.86676
G1 X48.981 Y33.392 E0.89513
G1 X49.472 Y33.797 E0.92347
G1 X49.908 Y34.261 E0.95182
G1 X50.283 Y34.776 E0.98018
G1 X50.59 Y35.334 E1.00854
G1 X50.825 Y35.926 E1.0369
G1 X50.829 Y35.942 E1.03764
G1 X51.7 Y35.158 E1.08982
G1 X52.446 Y34.601 E1.13127
G1 X53.449 Y33.987 E1.18364
G1 X54.165 Y33.623 E1.2194
G1 X55.254 Y33.174 E1.27185
G1 X55.998 Y32.933 E1.30667
G1 X57.142 Y32.657 E1.35907
G1 X57.941 Y32.53 E1.3951
G1 X59.106 Y32.44 E1.44713
G1 X59.496 Y32.425 E1.4645
G1 X67.999 Y32.424 E1.84312
G1 X68.635 Y32.464 E1.87149
G1 X69.261 Y32.583 E1.89987
G1 X69.866 Y32.78 E1.9282
G1 X70.443 Y33.051 E1.95658
G1 X70.981 Y33.392 E1.98494
G1 X71.472 Y33.797 E2.01328
G1 X71.908 Y34.261 E2.04164
G1 X72.283 Y34.776 E2.07
G1 X72.59 Y35.334 E2.09836
G1 X72.825 Y35.926 E2.12672
G1 X72.984 Y36.543 E2.15509
G1 X73.065 Y37.174 E2.18342
G1 X73.075 Y37.499 E2.1979
G1 X73.075 Y82.5 E4.20166
G1 X73.035 Y83.136 E4.23003
G1 X72.916 Y83.761 E4.25836
G1 X72.719 Y84.367 E4.28673
G1 X72.448 Y84.943 E4.31508
G1 X72.107 Y85.481 E4.34344
G1 X71.701 Y85.972 E4.37181
G1 X71.237 Y86.408 E4.40016
G1 X70.722 Y86.783 E4.42853
G1 X70.165 Y87.09 E4.45685
G1 X69.573 Y87.325 E4.48521
G1 X68.956 Y87.484 E4.51358
G1 X68.324 Y87.565 E4.54195
G1 X67.993 Y87.575 E4.55669
G1 X59.075 Y87.563 E4.95379
G1 X58.403 Y87.517 E4.98378
G1 X57.233 Y87.359 E5.03635
G1 X56.323 Y87.15 E5.07792
G1 X54.831 Y86.658 E5.14788
G1 X54.091 Y86.347 E5.18362
G1 X53.394 Y85.987 E5.21855
G1 X52.834 Y85.65 E5.24765
G1 X51.865 Y84.979 E5.30013
G1 X51.151 Y84.381 E5.3416
G1 X50.822 Y84.05 E5.36238
G1 X50.719 Y84.367 E5.37722
G1 X50.448 Y84.943 E5.40557
G1 X50.107 Y85.481 E5.43393
G1 X49.701 Y85.972 E5.4623
G1 X49.237 Y86.408 E5.49065
G1 X48.722 Y86.783 E5.51902
G1 X48.165 Y87.09 E5.54734
G1 X47.573 Y87.325 E5.5757
G1 X46.956 Y87.484 E5.60407
G1 X46.324 Y87.565 E5.63244
G1 X45.993 Y87.575 E5.64718
G1 X37.075 Y87.563 E6.04428
G1 X36.403 Y87.517 E6.07427
G1 X35.233 Y87.359 E6.12684
G1 X34.323 Y87.15 E6.16841
G1 X32.831 Y86.658 E6.23836
G1 X32.091 Y86.347 E6.27411
G1 X31.394 Y85.987 E6.30904
G1 X30.834 Y85.65 E6.33814
G1 X29.865 Y84.979 E6.39062
G1 X29.151 Y84.381 E6.43209
G1 X28.045 Y83.266 E6.50202
G1 X27.526 Y82.653 E6.53778
G1 X27.067 Y82.014 E6.57282
G1 X26.715 Y81.448 E6.60249
G1 X26.16 Y80.411 E6.65487
G1 X25.895 Y79.831 E6.68326
G1 X25.764 Y79.445 E6.70141
G1 X25.222 Y77.598 E6.78712
G1 X25.045 Y76.7 E6.82787
G1 X24.963 Y75.921 E6.86275
G1 X24.935 Y75.39 E6.88643
G1 X24.935 Y44.605 E8.25719
G1 X24.963 Y44.068 E8.28114
G1 X25.046 Y43.288 E8.31606
G1 X25.19 Y42.514 E8.35112
G1 X25.595 Y40.999 E8.42095
G1 X25.798 Y40.396 E8.44928
G1 X25.979 Y40 E8.46866
G1 X26.694 Y38.601 E8.53862
G1 X27.191 Y37.817 E8.57995
G1 X27.908 Y36.885 E8.63231
G1 X28.534 Y36.208 E8.67337
G1 X29.257 Y35.557 E8.71669
G0 F1620 X29.7 Y35.158
G0 F4320 X29.934 Y35.418
G1 F2400 E8.74327
G1 F1800 X30.629 Y34.899 E8.78189
G1 X31.632 Y34.285 E8.83426
G1 X32.298 Y33.947 E8.86751
G1 X33.387 Y33.498 E8.91996
G1 X34.08 Y33.273 E8.95241
G1 X35.224 Y32.997 E9.00481
G1 X35.968 Y32.879 E9.03835
G1 X37.133 Y32.789 E9.09038
G1 X37.496 Y32.775 E9.10655
G1 X45.999 Y32.774 E9.48517
G1 X46.613 Y32.814 E9.51256
G1 X47.215 Y32.933 E9.53989
G1 X47.798 Y33.129 E9.56728
G1 X48.35 Y33.4 E9.59466
G1 X48.862 Y33.739 E9.622
G1 X49.325 Y34.142 E9.64933
G1 X49.733 Y34.602 E9.67671
G1 X50.077 Y35.111 E9.70406
G1 X50.353 Y35.661 E9.73146
G1 X50.554 Y36.241 E9.7588
G1 X50.632 Y36.615 E9.77581
G1 X50.768 Y36.468 E9.78472
G1 X51.934 Y35.418 E9.85459
G1 X52.629 Y34.899 E9.89321
G1 X53.632 Y34.285 E9.94558
G1 X54.298 Y33.947 E9.97883
G1 X55.387 Y33.498 E10.03128
G1 X56.08 Y33.273 E10.06373
G1 X57.224 Y32.997 E10.11613
G1 X57.968 Y32.879 E10.14967
G1 X59.133 Y32.789 E10.2017
G1 X59.496 Y32.775 E10.21787
G1 X67.999 Y32.774 E10.59649
G1 X68.613 Y32.814 E10.62388
G1 X69.215 Y32.933 E10.65121
G1 X69.798 Y33.129 E10.6786
G1 X70.35 Y33.4 E10.70598
G1 X70.862 Y33.739 E10.73332
G1 X71.325 Y34.142 E10.76065
G1 X71.733 Y34.602 E10.78803
G1 X72.077 Y35.111 E10.81538
G1 X72.353 Y35.661 E10.84278
G1 X72.554 Y36.241 E10.87012
G1 X72.679 Y36.843 E10.89749
G1 X72.725 Y37.499 E10.92677
G1 X72.725 Y82.5 E12.93053
G1 X72.685 Y83.113 E12.95789
G1 X72.566 Y83.716 E12.98526
G1 X72.369 Y84.298 E13.01261
G1 X72.099 Y84.85 E13.03998
G1 X71.759 Y85.362 E13.06734
G1 X71.356 Y85.826 E13.09471
G1 X70.896 Y86.233 E13.12206
G1 X70.387 Y86.578 E13.14944
G1 X69.838 Y86.853 E13.17678
G1 X69.257 Y87.055 E13.20417
G1 X68.656 Y87.179 E13.23149
G1 X67.994 Y87.225 E13.26104
G1 X59.076 Y87.213 E13.65813
G1 X58.45 Y87.17 E13.68607
G1 X57.28 Y87.012 E13.73864
G1 X56.432 Y86.817 E13.77738
G1 X54.94 Y86.325 E13.84734
G1 X54.252 Y86.036 E13.88056
G1 X53.555 Y85.676 E13.9155
G1 X53.033 Y85.363 E13.9426
G1 X52.064 Y84.692 E13.99508
G1 X51.399 Y84.135 E14.0337
G1 X50.635 Y83.365 E14.082
G1 X50.566 Y83.716 E14.09793
G1 X50.369 Y84.298 E14.12529
G1 X50.099 Y84.85 E14.15265
G1 X49.759 Y85.362 E14.18002
G1 X49.356 Y85.826 E14.20738
G1 X48.896 Y86.233 E14.23473
G1 X48.387 Y86.578 E14.26211
G1 X47.838 Y86.853 E14.28945
G1 X47.257 Y87.055 E14.31684
G1 X46.656 Y87.179 E14.34417
G1 X45.994 Y87.225 E14.37371
G1 X37.076 Y87.213 E14.77081
G1 X36.45 Y87.17 E14.79875
G1 X35.28 Y87.012 E14.85131
G1 X34.432 Y86.817 E14.89006
G1 X32.94 Y86.325 E14.96001
G1 X32.252 Y86.036 E14.99324
G1 X31.555 Y85.676 E15.02817
G1 X31.033 Y85.363 E15.05527
G1 X30.064 Y84.692 E15.10775
G1 X29.399 Y84.135 E15.14638
G1 X28.293 Y83.02 E15.21631
G1 X27.81 Y82.449 E15.24961
G1 X27.351 Y81.81 E15.28464
G1 X27.023 Y81.283 E15.31228
G1 X26.468 Y80.246 E15.36465
G1 X26.214 Y79.686 E15.39203
G1 X26.1 Y79.346 E15.408
G1 X25.558 Y77.499 E15.49371
G1 X25.393 Y76.664 E15.53161
G1 X25.311 Y75.885 E15.56649
G1 X25.285 Y75.39 E15.58856
G1 X25.285 Y44.605 E16.95932
G1 X25.312 Y44.105 E16.98162
G1 X25.395 Y43.325 E17.01654
G1 X25.528 Y42.605 E17.04915
G1 X25.933 Y41.09 E17.11897
G1 X26.13 Y40.508 E17.14633
G1 X26.291 Y40.16 E17.16341
G1 X27.006 Y38.761 E17.23336
G1 X27.468 Y38.03 E17.27187
G1 X28.185 Y37.098 E17.32423
G1 X28.768 Y36.468 E17.36245
G1 X29.491 Y35.817 E17.40577
G0 F1620 X29.934 Y35.418
G0 F4320 X30.168 Y35.678
G1 F2400 E17.43235
G1 F1800 X30.812 Y35.198 E17.46811
G1 X31.815 Y34.584 E17.52048
G1 X32.431 Y34.27 E17.55127
G1 X33.52 Y33.821 E17.60372
G1 X34.162 Y33.613 E17.63376
G1 X35.306 Y33.337 E17.68617
G1 X35.995 Y33.228 E17.71723
G1 X37.16 Y33.138 E17.76925
G1 X37.496 Y33.125 E17.78423
G1 X45.999 Y33.124 E18.16284
G1 X46.589 Y33.164 E18.18917
G1 X47.169 Y33.283 E18.21553
G1 X47.726 Y33.479 E18.24183
G1 X48.253 Y33.749 E18.26819
G1 X48.738 Y34.087 E18.29452
G1 X49.173 Y34.487 E18.32083
G1 X49.55 Y34.942 E18.34714
G1 X49.862 Y35.444 E18.37346
G1 X50.104 Y35.984 E18.39981
G1 X50.271 Y36.551 E18.42613
G1 X50.36 Y37.136 E18.45247
G1 X50.372 Y37.428 E18.46549
G1 X50.462 Y37.311 E18.47206
G1 X51.002 Y36.728 E18.50744
G1 X52.168 Y35.678 E18.57731
G1 X52.812 Y35.198 E18.61307
G1 X53.815 Y34.584 E18.66544
G1 X54.431 Y34.27 E18.69623
G1 X55.52 Y33.821 E18.74867
G1 X56.162 Y33.613 E18.77872
G1 X57.306 Y33.337 E18.83112
G1 X57.995 Y33.228 E18.86219
G1 X59.16 Y33.138 E18.91421
G1 X59.496 Y33.125 E18.92919
G1 X67.999 Y33.124 E19.3078
G1 X68.589 Y33.164 E19.33413
G1 X69.169 Y33.283 E19.36049
G1 X69.726 Y33.479 E19.38679
G1 X70.253 Y33.749 E19.41315
G1 X70.738 Y34.087 E19.43947
G1 X71.173 Y34.487 E19.46579
G1 X71.55 Y34.942 E19.4921
G1 X71.862 Y35.444 E19.51842
G1 X72.104 Y35.984 E19.54477
G1 X72.271 Y36.551 E19.57108
G1 X72.36 Y37.136 E19.59743
G1 X72.375 Y37.499 E19.61361
G1 X72.375 Y82.5 E21.61737
G1 X72.335 Y83.09 E21.6437
G1 X72.216 Y83.669 E21.67002
G1 X72.02 Y84.227 E21.69636
G1 X71.75 Y84.753 E21.72268
G1 X71.412 Y85.238 E21.749
G1 X71.012 Y85.673 E21.77532
G1 X70.556 Y86.05 E21.80166
G1 X70.054 Y86.363 E21.828
G1 X69.515 Y86.604 E21.85429
G1 X68.947 Y86.771 E21.88066
G1 X68.363 Y86.86 E21.90696
G1 X67.994 Y86.875 E21.9234
G1 X59.076 Y86.863 E22.3205
G1 X58.497 Y86.824 E22.34634
G1 X57.327 Y86.666 E22.39891
G1 X56.542 Y86.485 E22.43478
G1 X55.05 Y85.993 E22.50473
G1 X54.412 Y85.725 E22.53554
G1 X53.715 Y85.365 E22.57047
G1 X53.232 Y85.075 E22.59556
G1 X52.263 Y84.404 E22.64804
G1 X51.648 Y83.888 E22.68379
G1 X50.542 Y82.773 E22.75371
G1 X50.37 Y82.57 E22.76556
G1 X50.335 Y83.09 E22.78877
G1 X50.216 Y83.669 E22.81509
G1 X50.02 Y84.227 E22.84142
G1 X49.75 Y84.753 E22.86775
G1 X49.412 Y85.238 E22.89407
G1 X49.012 Y85.673 E22.92039
G1 X48.556 Y86.05 E22.94673
G1 X48.054 Y86.363 E22.97307
G1 X47.515 Y86.604 E22.99936
G1 X46.947 Y86.771 E23.02572
G1 X46.363 Y86.86 E23.05203
G1 X45.994 Y86.875 E23.06847
G1 X37.076 Y86.863 E23.46556
G1 X36.497 Y86.824 E23.4914
G1 X35.327 Y86.666 E23.54397
G1 X34.542 Y86.485 E23.57984
G1 X33.05 Y85.993 E23.6498
G1 X32.412 Y85.725 E23.68061
G1 X31.715 Y85.365 E23.71554
G1 X31.232 Y85.075 E23.74063
G1 X30.263 Y84.404 E23.79311
G1 X29.648 Y83.888 E23.82885
G1 X28.542 Y82.773 E23.89878
G1 X28.095 Y82.244 E23.92962
G1 X27.636 Y81.605 E23.96465
G1 X27.332 Y81.117 E23.99025
G1 X26.777 Y80.08 E24.04263
G1 X26.534 Y79.541 E24.06895
G1 X26.436 Y79.248 E24.08271
G1 X25.894 Y77.401 E24.16842
G1 X25.741 Y76.627 E24.20355
G1 X25.659 Y75.848 E24.23843
G1 X25.635 Y75.39 E24.25885
G1 X25.635 Y44.605 E25.62961
G1 X25.66 Y44.142 E25.65026
G1 X25.743 Y43.362 E25.68518
G1 X25.866 Y42.695 E25.71539
G1 X26.271 Y41.18 E25.78521
G1 X26.462 Y40.621 E25.81152
G1 X26.602 Y40.319 E25.82634
G1 X27.317 Y38.92 E25.89629
G1 X27.745 Y38.243 E25.93196
G1 X28.462 Y37.311 E25.98432
G1 X29.002 Y36.728 E26.0197
G1 X29.725 Y36.077 E26.06302
G0 F1620 X30.168 Y35.678
G0 F4320 X30.403 Y35.938
G1 F2400 E26.0896
G1 F1800 X30.995 Y35.496 E26.1225
G1 X31.998 Y34.882 E26.17487
G1 X32.565 Y34.594 E26.20318
G1 X33.654 Y34.145 E26.25563
G1 X34.244 Y33.953 E26.28326
G1 X35.388 Y33.677 E26.33566
G1 X36.022 Y33.577 E26.36424
G1 X37.187 Y33.487 E26.41627
G1 X37.497 Y33.475 E26.43008
G1 X46 Y33.474 E26.80869
G1 X46.565 Y33.514 E26.83391
G1 X47.12 Y33.633 E26.85919
G1 X47.652 Y33.829 E26.88443
G1 X48.151 Y34.097 E26.90965
G1 X48.608 Y34.433 E26.93491
G1 X49.013 Y34.83 E26.96016
G1 X49.358 Y35.28 E26.98541
G1 X49.637 Y35.774 E27.01067
G1 X49.843 Y36.303 E27.03595
G1 X49.973 Y36.855 E27.0612
G1 X50.025 Y37.499 E27.08997
G1 X50.025 Y38.454 E27.1325
G1 X50.74 Y37.525 E27.18469
G1 X51.237 Y36.988 E27.21727
G1 X52.403 Y35.938 E27.28714
G1 X52.995 Y35.496 E27.32004
G1 X53.998 Y34.882 E27.3724
G1 X54.565 Y34.594 E27.40072
G1 X55.654 Y34.145 E27.45317
G1 X56.244 Y33.953 E27.4808
G1 X57.388 Y33.677 E27.5332
G1 X58.022 Y33.577 E27.56178
G1 X59.187 Y33.487 E27.6138
G1 X59.497 Y33.475 E27.62762
G1 X68 Y33.474 E28.00623
G1 X68.565 Y33.514 E28.03145
G1 X69.12 Y33.633 E28.05673
G1 X69.652 Y33.829 E28.08197
G1 X70.151 Y34.097 E28.10719
G1 X70.608 Y34.433 E28.13245
G1 X71.013 Y34.83 E28.1577
G1 X71.358 Y35.28 E28.18295
G1 X71.637 Y35.774 E28.20821
G1 X71.843 Y36.303 E28.23349
G1 X71.973 Y36.855 E28.25874
G1 X72.025 Y37.499 E28.28751
G1 X72.025 Y82.5 E30.29127
G1 X71.985 Y83.066 E30.31653
G1 X71.866 Y83.62 E30.34176
G1 X71.67 Y84.152 E30.36701
G1 X71.402 Y84.652 E30.39227
G1 X71.065 Y85.108 E30.41752
G1 X70.668 Y85.513 E30.44277
G1 X70.218 Y85.859 E30.46804
G1 X69.724 Y86.137 E30.49328
G1 X69.196 Y86.343 E30.51852
G1 X68.644 Y86.473 E30.54377
G1 X67.995 Y86.525 E30.57276
G1 X59.077 Y86.513 E30.96985
G1 X58.543 Y86.477 E30.99369
G1 X57.373 Y86.319 E31.04626
G1 X56.651 Y86.153 E31.07924
G1 X55.159 Y85.661 E31.1492
G1 X54.573 Y85.414 E31.17751
G1 X53.876 Y85.054 E31.21244
G1 X53.432 Y84.787 E31.23551
G1 X52.463 Y84.116 E31.28799
G1 X51.896 Y83.642 E31.3209
G1 X50.79 Y82.527 E31.39083
G1 X50.379 Y82.04 E31.4192
G1 X50.025 Y81.547 E31.44623
G1 X50.025 Y82.5 E31.48866
G1 X49.985 Y83.066 E31.51393
G1 X49.866 Y83.62 E31.53916
G1 X49.67 Y84.152 E31.5644
G1 X49.402 Y84.652 E31.58966
G1 X49.065 Y85.108 E31.61491
G1 X48.668 Y85.513 E31.64016
G1 X48.218 Y85.859 E31.66544
G1 X47.724 Y86.137 E31.69068
G1 X47.196 Y86.343 E31.71592
G1 X46.644 Y86.473 E31.74117
G1 X45.995 Y86.525 E31.77016
G1 X37.077 Y86.513 E32.16725
G1 X36.543 Y86.477 E32.19108
G1 X35.373 Y86.319 E32.24365
G1 X34.651 Y86.153 E32.27664
G1 X33.159 Y85.661 E32.34659
G1 X32.573 Y85.414 E32.37491
G1 X31.876 Y85.054 E32.40984
G1 X31.432 Y84.787 E32.43291
G1 X30.463 Y84.116 E32.48539
G1 X29.896 Y83.642 E32.5183
G1 X28.79 Y82.527 E32.58823
G1 X28.379 Y82.04 E32.6166
G1 X27.92 Y81.401 E32.65163
G1 X27.64 Y80.952 E32.67519
G1 X27.085 Y79.915 E32.72757
G1 X26.772 Y79.149 E32.76441
G1 X26.23 Y77.302 E32.85012
G1 X26.089 Y76.59 E32.88244
G1 X26.007 Y75.811 E32.91732
G1 X25.985 Y75.39 E32.93609
G1 X25.985 Y44.605 E34.30685
G1 X26.008 Y44.179 E34.32585
G1 X26.091 Y43.399 E34.36078
G1 X26.205 Y42.786 E34.38854
G1 X26.61 Y41.271 E34.45837
G1 X26.914 Y40.478 E34.49618
G1 X27.629 Y39.079 E34.56614
G1 X28.023 Y38.457 E34.59892
G1 X28.74 Y37.525 E34.65128
G1 X29.237 Y36.988 E34.68386
G1 X29.96 Y36.337 E34.72718
G0 F1620 X30.403 Y35.938
G0 F4320 X30.637 Y36.198
G1 F2400 E34.75377
G1 F1800 X31.177 Y35.795 E34.78377
G1 X32.18 Y35.181 E34.83613
G1 X32.698 Y34.917 E34.86202
G1 X33.787 Y34.468 E34.91447
G1 X34.326 Y34.293 E34.9397
G1 X35.47 Y34.017 E34.9921
G1 X36.049 Y33.926 E35.0182
G1 X37.214 Y33.836 E35.07023
G1 X37.497 Y33.825 E35.08284
G1 X46 Y33.824 E35.46145
G1 X46.54 Y33.864 E35.48556
G1 X47.069 Y33.983 E35.50971
G1 X47.574 Y34.178 E35.53381
G1 X48.045 Y34.446 E35.55794
G1 X48.472 Y34.78 E35.58208
G1 X48.845 Y35.173 E35.60621
G1 X49.156 Y35.616 E35.63031
G1 X49.399 Y36.101 E35.65446
G1 X49.567 Y36.616 E35.67858
G1 X49.658 Y37.15 E35.7027
G1 X49.675 Y37.499 E35.71826
G1 X49.675 Y39.759 E35.81889
G1 X49.941 Y39.239 E35.8449
G1 X50.3 Y38.67 E35.87486
G1 X51.017 Y37.738 E35.92722
G1 X51.471 Y37.248 E35.95696
G1 X52.637 Y36.198 E36.02683
G1 X53.177 Y35.795 E36.05683
G1 X54.18 Y35.181 E36.10919
G1 X54.698 Y34.917 E36.13508
G1 X55.787 Y34.468 E36.18753
G1 X56.326 Y34.293 E36.21276
G1 X57.47 Y34.017 E36.26516
G1 X58.049 Y33.926 E36.29126
G1 X59.214 Y33.836 E36.34329
G1 X59.497 Y33.825 E36.3559
G1 X68 Y33.824 E36.73451
G1 X68.54 Y33.864 E36.75862
G1 X69.069 Y33.983 E36.78277
G1 X69.574 Y34.178 E36.80687
G1 X70.045 Y34.446 E36.831
G1 X70.472 Y34.78 E36.85514
G1 X70.845 Y35.173 E36.87927
G1 X71.156 Y35.616 E36.90337
G1 X71.399 Y36.101 E36.92752
G1 X71.567 Y36.616 E36.95164
G1 X71.658 Y37.15 E36.97576
G1 X71.675 Y37.499 E36.99132
G1 X71.675 Y82.5 E38.99508
G1 X71.635 Y83.04 E39.01919
G1 X71.516 Y83.569 E39.04333
G1 X71.321 Y84.074 E39.06744
G1 X71.053 Y84.546 E39.09161
G1 X70.719 Y84.972 E39.11571
G1 X70.326 Y85.345 E39.13984
G1 X69.882 Y85.656 E39.16397
G1 X69.398 Y85.899 E39.18809
G1 X68.883 Y86.067 E39.21221
G1 X68.349 Y86.158 E39.23633
G1 X67.995 Y86.175 E39.25211
G1 X59.077 Y86.163 E39.6492
G1 X58.59 Y86.13 E39.67094
G1 X57.42 Y85.972 E39.72351
G1 X56.761 Y85.82 E39.75362
G1 X55.269 Y85.328 E39.82357
G1 X54.734 Y85.103 E39.84942
G1 X54.037 Y84.743 E39.88435
G1 X53.631 Y84.499 E39.90544
G1 X52.662 Y83.828 E39.95792
