;FLAVOR:Marlin
;TIME:3505
;Filament used: 2.29735m
;Layer height: 0.175
;Generated with Cura_SteamEngine 3.6.0
M140 S65
M105
M190 S65
M104 S205
M105
M109 S205
M82 ;absolute extrusion mode
G21;(metric values)
G90;(absolute positioning)
M82;(set extruder to absolute mode)
M107;(start with the fan off)
G28;(Home the printer)
G92 E0;(Reset the extruder to 0)
G0 Z5 E5 F500;(Move up and prime the nozzle)
G0 X-1 Z0;(Move outside the printable area)
G1 Y60 E8 F500;(Draw a priming/wiping line to the rear)
G1 X-1;(Move a little closer to the print area)
G1 Y10 E16 F500;(draw more priming/wiping)
G1 E15 F250;(Small retract)
G92 E0;(Zero the extruder)
G92 E0
G1 F2400 E-2.5
;LAYER_COUNT:26
;LAYER:0
M107
G0 F4320 X34.519 Y27.819 Z0.263
;TYPE:SKIRT
G1 F2400 E0
G1 F1800 X34.996 Y27.397 E0.02437
G1 X35.465 Y27.071 E0.04623
G1 X35.945 Y26.777 E0.06777
G1 X36.508 Y26.479 E0.09215
G1 X37.104 Y26.254 E0.11653
G1 X37.723 Y26.106 E0.14089
G1 X38.356 Y26.036 E0.16526
G1 X38.993 Y26.046 E0.18964
G1 X39.624 Y26.135 E0.21403
G1 X40.238 Y26.303 E0.23839
G1 X40.826 Y26.546 E0.26274
G1 X41.38 Y26.862 E0.28715
G1 X41.889 Y27.244 E0.3115
G1 X42.171 Y27.503 E0.32616
G1 X43.497 Y28.819 E0.39765
G1 X43.745 Y29.099 E0.41197
G1 X45.019 Y27.819 E0.48108
G1 X45.496 Y27.397 E0.50545
G1 X45.965 Y27.071 E0.52731
G1 X46.445 Y26.777 E0.54885
G1 X47.008 Y26.479 E0.57323
G1 X47.604 Y26.254 E0.59761
G1 X48.223 Y26.106 E0.62197
G1 X48.856 Y26.036 E0.64634
G1 X49.493 Y26.046 E0.67072
G1 X50.124 Y26.135 E0.69511
G1 X50.738 Y26.303 E0.71947
G1 X51.326 Y26.546 E0.74382
G1 X51.88 Y26.862 E0.76823
G1 X52.389 Y27.244 E0.79258
G1 X52.671 Y27.503 E0.80723
G1 X53.997 Y28.819 E0.87873
G1 X54.245 Y29.099 E0.89304
G1 X55.519 Y27.819 E0.96216
G1 X55.996 Y27.397 E0.98653
G1 X56.465 Y27.071 E1.00839
G1 X56.945 Y26.777 E1.02993
G1 X57.508 Y26.479 E1.05431
G1 X58.104 Y26.254 E1.07869
G1 X58.723 Y26.106 E1.10305
G1 X59.356 Y26.036 E1.12742
G1 X59.993 Y26.046 E1.1518
G1 X60.624 Y26.135 E1.17619
G1 X61.238 Y26.303 E1.20055
G1 X61.826 Y26.546 E1.2249
G1 X62.38 Y26.862 E1.24931
G1 X62.889 Y27.244 E1.27366
G1 X63.171 Y27.503 E1.28831
G1 X64.497 Y28.819 E1.35981
G1 X64.745 Y29.099 E1.37412
G1 X66.019 Y27.819 E1.44324
G1 X66.496 Y27.397 E1.46761
G1 X66.965 Y27.071 E1.48947
G1 X67.445 Y26.777 E1.51101
G1 X68.008 Y26.479 E1.53539
G1 X68.604 Y26.254 E1.55977
G1 X69.223 Y26.106 E1.58413
G1 X69.856 Y26.036 E1.6085
G1 X70.493 Y26.046 E1.63288
G1 X71.124 Y26.135 E1.65727
G1 X71.738 Y26.303 E1.68163
G1 X72.326 Y26.546 E1.70598
G1 X72.88 Y26.862 E1.73039
G1 X73.389 Y27.244 E1.75474
G1 X73.671 Y27.503 E1.76939
G1 X74.997 Y28.819 E1.84089
G1 X75.245 Y29.099 E1.8552
G1 X76.519 Y27.819 E1.92432
G1 X76.996 Y27.397 E1.94869
G1 X77.465 Y27.071 E1.97055
G1 X77.945 Y26.777 E1.99209
G1 X78.508 Y26.479 E2.01647
G1 X79.104 Y26.254 E2.04085
G1 X79.723 Y26.106 E2.06521
G1 X80.356 Y26.036 E2.08958
G1 X80.993 Y26.046 E2.11396
G1 X81.624 Y26.135 E2.13835
G1 X82.238 Y26.303 E2.16271
G1 X82.826 Y26.546 E2.18706
G1 X83.38 Y26.862 E2.21146
G1 X83.889 Y27.244 E2.23582
G1 X84.171 Y27.503 E2.25047
G1 X85.497 Y28.819 E2.32197
G1 X85.92 Y29.295 E2.34634
G1 X86.28 Y29.82 E2.3707
G1 X86.571 Y30.387 E2.39509
G1 X86.79 Y30.985 E2.41946
G1 X86.931 Y31.606 E2.44383
G1 X86.994 Y32.24 E2.46821
G1 X86.977 Y32.876 E2.49256
G1 X86.95 Y33.05 E2.4993
G1 X87.417 Y33.006 E2.51725
G1 X88.053 Y33.025 E2.5416
G1 X88.683 Y33.124 E2.56601
G1 X89.294 Y33.302 E2.59036
G1 X89.879 Y33.554 E2.61474
G1 X90.427 Y33.878 E2.6391
G1 X90.931 Y34.268 E2.66349
G1 X91.18 Y34.502 E2.67657
G1 X92.496 Y35.827 E2.74804
G1 X92.915 Y36.306 E2.77239
G1 X93.272 Y36.834 E2.79678
G1 X93.559 Y37.402 E2.82114
G1 X93.773 Y38.002 E2.84552
G1 X93.91 Y38.624 E2.86989
G1 X93.968 Y39.258 E2.89426
G1 X93.946 Y39.895 E2.91865
G1 X93.845 Y40.523 E2.94299
G1 X93.665 Y41.134 E2.96737
G1 X93.461 Y41.617 E2.98743
G1 X93.316 Y41.916 E3.00015
G1 X93.003 Y42.471 E3.02454
G1 X92.623 Y42.982 E3.04891
G1 X92.347 Y43.282 E3.06451
G1 X90.895 Y44.741 E3.14328
G1 X90.931 Y44.768 E3.145
G1 X91.18 Y45.002 E3.15808
G1 X92.496 Y46.327 E3.22955
G1 X92.915 Y46.806 E3.2539
G1 X93.272 Y47.334 E3.2783
G1 X93.559 Y47.902 E3.30265
G1 X93.773 Y48.502 E3.32703
G1 X93.91 Y49.124 E3.3514
G1 X93.968 Y49.758 E3.37577
G1 X93.946 Y50.395 E3.40016
G1 X93.845 Y51.023 E3.4245
G1 X93.665 Y51.634 E3.44888
G1 X93.461 Y52.117 E3.46894
G1 X93.316 Y52.416 E3.48166
G1 X93.003 Y52.971 E3.50605
G1 X92.623 Y53.482 E3.53042
G1 X92.347 Y53.782 E3.54602
G1 X90.895 Y55.241 E3.62479
G1 X90.931 Y55.268 E3.62651
G1 X91.18 Y55.502 E3.63959
G1 X92.496 Y56.827 E3.71106
G1 X92.915 Y57.306 E3.73541
G1 X93.272 Y57.834 E3.75981
G1 X93.559 Y58.402 E3.78416
G1 X93.773 Y59.002 E3.80854
G1 X93.91 Y59.624 E3.83291
G1 X93.968 Y60.258 E3.85728
G1 X93.946 Y60.895 E3.88167
G1 X93.845 Y61.523 E3.90601
G1 X93.665 Y62.134 E3.93039
G1 X93.461 Y62.617 E3.95046
G1 X93.316 Y62.916 E3.96317
G1 X93.003 Y63.471 E3.98756
G1 X92.623 Y63.982 E4.01193
G1 X92.347 Y64.282 E4.02753
G1 X90.895 Y65.741 E4.1063
G1 X90.931 Y65.768 E4.10803
G1 X91.18 Y66.002 E4.1211
G1 X92.496 Y67.327 E4.19257
G1 X92.915 Y67.806 E4.21693
G1 X93.272 Y68.334 E4.24132
G1 X93.559 Y68.902 E4.26567
G1 X93.773 Y69.502 E4.29005
G1 X93.91 Y70.124 E4.31443
G1 X93.968 Y70.758 E4.33879
G1 X93.946 Y71.395 E4.36318
G1 X93.845 Y72.023 E4.38752
G1 X93.665 Y72.634 E4.4119
G1 X93.461 Y73.117 E4.43197
G1 X93.316 Y73.416 E4.44468
G1 X93.003 Y73.971 E4.46907
G1 X92.623 Y74.482 E4.49344
G1 X92.347 Y74.782 E4.50904
G1 X90.895 Y76.241 E4.58781
G1 X90.931 Y76.268 E4.58954
G1 X91.18 Y76.502 E4.60261
G1 X92.496 Y77.827 E4.67408
G1 X92.915 Y78.306 E4.69844
G1 X93.272 Y78.834 E4.72283
G1 X93.559 Y79.402 E4.74718
G1 X93.773 Y80.002 E4.77156
G1 X93.91 Y80.624 E4.79594
G1 X93.968 Y81.258 E4.8203
G1 X93.946 Y81.895 E4.84469
G1 X93.845 Y82.523 E4.86904
G1 X93.665 Y83.134 E4.89341
G1 X93.461 Y83.617 E4.91348
G1 X93.316 Y83.916 E4.92619
G1 X93.003 Y84.471 E4.95058
G1 X92.623 Y84.982 E4.97495
G1 X92.347 Y85.282 E4.99055
G1 X85.481 Y92.181 E5.36305
G1 X85.004 Y92.603 E5.38742
G1 X84.535 Y92.929 E5.40928
G1 X84.055 Y93.223 E5.43082
G1 X83.492 Y93.521 E5.4552
G1 X82.896 Y93.746 E5.47958
G1 X82.277 Y93.894 E5.50393
G1 X81.644 Y93.964 E5.52831
G1 X81.007 Y93.954 E5.55269
G1 X80.376 Y93.865 E5.57707
G1 X79.762 Y93.697 E5.60144
G1 X79.174 Y93.454 E5.62578
G1 X78.62 Y93.138 E5.65019
G1 X78.111 Y92.756 E5.67455
G1 X77.829 Y92.497 E5.6892
G1 X76.503 Y91.181 E5.7607
G1 X76.255 Y90.901 E5.77501
G1 X74.981 Y92.181 E5.84412
G1 X74.504 Y92.603 E5.8685
G1 X74.035 Y92.929 E5.89036
G1 X73.555 Y93.223 E5.9119
G1 X72.992 Y93.521 E5.93628
G1 X72.396 Y93.746 E5.96066
G1 X71.777 Y93.894 E5.98501
G1 X71.144 Y93.964 E6.00939
G1 X70.507 Y93.954 E6.03377
G1 X69.876 Y93.865 E6.05815
G1 X69.262 Y93.697 E6.08252
G1 X68.674 Y93.454 E6.10686
G1 X68.12 Y93.138 E6.13127
G1 X67.611 Y92.756 E6.15563
G1 X67.329 Y92.497 E6.17028
G1 X66.003 Y91.181 E6.24178
G1 X65.755 Y90.901 E6.25609
G1 X64.481 Y92.181 E6.3252
G1 X64.004 Y92.603 E6.34958
G1 X63.535 Y92.929 E6.37144
G1 X63.055 Y93.223 E6.39298
G1 X62.492 Y93.521 E6.41736
G1 X61.896 Y93.746 E6.44174
G1 X61.277 Y93.894 E6.46609
G1 X60.644 Y93.964 E6.49047
G1 X60.007 Y93.954 E6.51485
G1 X59.376 Y93.865 E6.53923
G1 X58.762 Y93.697 E6.56359
G1 X58.174 Y93.454 E6.58794
G1 X57.62 Y93.138 E6.61235
G1 X57.111 Y92.756 E6.63671
G1 X56.829 Y92.497 E6.65136
G1 X55.503 Y91.181 E6.72286
G1 X55.255 Y90.901 E6.73717
G1 X53.981 Y92.181 E6.80628
G1 X53.504 Y92.603 E6.83066
G1 X53.035 Y92.929 E6.85252
G1 X52.555 Y93.223 E6.87406
G1 X51.992 Y93.521 E6.89844
G1 X51.396 Y93.746 E6.92282
G1 X50.777 Y93.894 E6.94717
G1 X50.144 Y93.964 E6.97154
G1 X49.507 Y93.954 E6.99593
G1 X48.876 Y93.865 E7.02031
G1 X48.262 Y93.697 E7.04467
G1 X47.674 Y93.454 E7.06902
G1 X47.12 Y93.138 E7.09343
G1 X46.611 Y92.756 E7.11779
G1 X46.329 Y92.497 E7.13244
G1 X45.003 Y91.181 E7.20393
G1 X44.755 Y90.901 E7.21825
G1 X43.481 Y92.181 E7.28736
G1 X43.004 Y92.603 E7.31174
G1 X42.535 Y92.929 E7.33359
G1 X42.055 Y93.223 E7.35514
G1 X41.492 Y93.521 E7.37951
G1 X40.896 Y93.746 E7.40389
G1 X40.277 Y93.894 E7.42825
G1 X39.644 Y93.964 E7.45262
G1 X39.007 Y93.954 E7.477
G1 X38.376 Y93.865 E7.50139
G1 X37.762 Y93.697 E7.52575
G1 X37.174 Y93.454 E7.5501
G1 X36.62 Y93.138 E7.57451
G1 X36.111 Y92.756 E7.59887
G1 X35.829 Y92.497 E7.61352
G1 X34.503 Y91.181 E7.68501
G1 X34.08 Y90.705 E7.70938
G1 X33.72 Y90.18 E7.73375
G1 X33.429 Y89.613 E7.75814
G1 X33.21 Y89.015 E7.78251
G1 X33.069 Y88.394 E7.80688
G1 X33.006 Y87.76 E7.83126
G1 X33.023 Y87.124 E7.85561
G1 X33.05 Y86.95 E7.86235
G1 X32.583 Y86.994 E7.8803
G1 X31.947 Y86.975 E7.90465
G1 X31.317 Y86.876 E7.92906
G1 X30.706 Y86.698 E7.95341
G1 X30.121 Y86.446 E7.97779
G1 X29.573 Y86.122 E8.00215
G1 X29.069 Y85.732 E8.02654
G1 X28.82 Y85.498 E8.03962
G1 X27.504 Y84.173 E8.11108
G1 X27.085 Y83.694 E8.13544
G1 X26.728 Y83.166 E8.15983
G1 X26.441 Y82.598 E8.18419
G1 X26.227 Y81.998 E8.20856
G1 X26.09 Y81.376 E8.23294
G1 X26.032 Y80.742 E8.2573
G1 X26.054 Y80.105 E8.2817
G1 X26.155 Y79.477 E8.30604
G1 X26.335 Y78.866 E8.33041
G1 X26.539 Y78.383 E8.35048
G1 X26.684 Y78.084 E8.3632
G1 X26.997 Y77.529 E8.38758
G1 X27.377 Y77.018 E8.41195
G1 X27.653 Y76.718 E8.42755
G1 X29.105 Y75.259 E8.50633
G1 X29.069 Y75.232 E8.50805
G1 X28.82 Y74.998 E8.52113
G1 X27.504 Y73.673 E8.59259
G1 X27.085 Y73.194 E8.61695
G1 X26.728 Y72.666 E8.64134
G1 X26.441 Y72.098 E8.6657
G1 X26.227 Y71.498 E8.69007
G1 X26.09 Y70.876 E8.71445
G1 X26.032 Y70.242 E8.73881
G1 X26.054 Y69.605 E8.76321
G1 X26.155 Y68.977 E8.78755
G1 X26.335 Y68.366 E8.81193
G1 X26.539 Y67.883 E8.83199
G1 X26.684 Y67.584 E8.84471
G1 X26.997 Y67.029 E8.86909
G1 X27.377 Y66.518 E8.89346
G1 X27.653 Y66.218 E8.90906
G1 X29.105 Y64.759 E8.98784
G1 X29.069 Y64.732 E8.98956
G1 X28.82 Y64.498 E9.00264
G1 X27.504 Y63.173 E9.07411
G1 X27.085 Y62.694 E9.09846
G1 X26.728 Y62.166 E9.12285
G1 X26.441 Y61.598 E9.14721
G1 X26.227 Y60.998 E9.17159
G1 X26.09 Y60.376 E9.19596
G1 X26.032 Y59.742 E9.22032
G1 X26.054 Y59.105 E9.24472
G1 X26.155 Y58.477 E9.26906
G1 X26.335 Y57.866 E9.29344
G1 X26.539 Y57.383 E9.3135
G1 X26.684 Y57.084 E9.32622
G1 X26.997 Y56.529 E9.3506
G1 X27.377 Y56.018 E9.37497
G1 X27.653 Y55.718 E9.39057
G1 X29.105 Y54.259 E9.46935
G1 X29.069 Y54.232 E9.47107
G1 X28.82 Y53.998 E9.48415
G1 X27.504 Y52.673 E9.55562
G1 X27.085 Y52.194 E9.57997
G1 X26.728 Y51.666 E9.60436
G1 X26.441 Y51.098 E9.62872
G1 X26.227 Y50.498 E9.6531
G1 X26.09 Y49.876 E9.67747
G1 X26.032 Y49.242 E9.70184
G1 X26.054 Y48.605 E9.72623
G1 X26.155 Y47.977 E9.75057
G1 X26.335 Y47.366 E9.77495
G1 X26.539 Y46.883 E9.79501
G1 X26.684 Y46.584 E9.80773
G1 X26.997 Y46.029 E9.83211
G1 X27.377 Y45.518 E9.85648
G1 X27.653 Y45.218 E9.87209
G1 X29.105 Y43.759 E9.95086
G1 X29.069 Y43.732 E9.95258
G1 X28.82 Y43.498 E9.96566
G1 X27.504 Y42.173 E10.03713
G1 X27.085 Y41.694 E10.06148
G1 X26.728 Y41.166 E10.08587
G1 X26.441 Y40.598 E10.11023
G1 X26.227 Y39.998 E10.13461
G1 X26.09 Y39.376 E10.15898
G1 X26.032 Y38.742 E10.18335
G1 X26.054 Y38.105 E10.20774
G1 X26.155 Y37.477 E10.23208
G1 X26.335 Y36.866 E10.25646
G1 X26.539 Y36.383 E10.27652
G1 X26.684 Y36.084 E10.28924
G1 X26.997 Y35.529 E10.31363
G1 X27.377 Y35.018 E10.338
G1 X27.653 Y34.718 E10.3536
G1 X34.03 Y28.31 E10.69957
G0 F1620 X34.519 Y27.819
G0 F4320 X34.767 Y28.066
G1 F2400 E10.72613
G1 F1800 X35.228 Y27.659 E10.74967
G1 X35.648 Y27.37 E10.76918
G1 X36.128 Y27.076 E10.79072
G1 X36.672 Y26.79 E10.81424
G1 X37.248 Y26.576 E10.83775
G1 X37.847 Y26.44 E10.86126
G1 X38.459 Y26.382 E10.88479
G1 X39.073 Y26.404 E10.9083
G1 X39.679 Y26.506 E10.93182
G1 X40.267 Y26.685 E10.95534
G1 X40.826 Y26.94 E10.97885
G1 X41.348 Y27.264 E11.00237
G1 X41.924 Y27.751 E11.03123
G1 X43.25 Y29.067 E11.10273
G1 X43.657 Y29.528 E11.12626
G1 X43.72 Y29.621 E11.13056
G1 X45.267 Y28.066 E11.2145
G1 X45.728 Y27.659 E11.23804
G1 X46.148 Y27.37 E11.25755
G1 X46.628 Y27.076 E11.27909
G1 X47.172 Y26.79 E11.30261
G1 X47.748 Y26.576 E11.32613
G1 X48.347 Y26.44 E11.34963
G1 X48.959 Y26.382 E11.37316
G1 X49.573 Y26.404 E11.39667
G1 X50.179 Y26.506 E11.42019
G1 X50.767 Y26.685 E11.44371
G1 X51.326 Y26.94 E11.46723
G1 X51.848 Y27.264 E11.49074
G1 X52.424 Y27.751 E11.51961
G1 X53.75 Y29.067 E11.5911
G1 X54.157 Y29.528 E11.61464
G1 X54.22 Y29.621 E11.61893
G1 X55.767 Y28.066 E11.70288
G1 X56.228 Y27.659 E11.72641
G1 X56.648 Y27.37 E11.74592
G1 X57.128 Y27.076 E11.76746
G1 X57.672 Y26.79 E11.79099
G1 X58.248 Y26.576 E11.8145
G1 X58.847 Y26.44 E11.83801
G1 X59.459 Y26.382 E11.86153
G1 X60.073 Y26.404 E11.88505
G1 X60.679 Y26.506 E11.90856
G1 X61.267 Y26.685 E11.93209
G1 X61.826 Y26.94 E11.9556
G1 X62.348 Y27.264 E11.97911
G1 X62.924 Y27.751 E12.00798
G1 X64.25 Y29.067 E12.07947
G1 X64.657 Y29.528 E12.10301
G1 X64.72 Y29.621 E12.10731
G1 X66.267 Y28.066 E12.19125
G1 X66.728 Y27.659 E12.21479
G1 X67.148 Y27.37 E12.2343
G1 X67.628 Y27.076 E12.25584
G1 X68.172 Y26.79 E12.27936
G1 X68.748 Y26.576 E12.30287
G1 X69.347 Y26.44 E12.32638
G1 X69.959 Y26.382 E12.34991
G1 X70.573 Y26.404 E12.37342
G1 X71.179 Y26.506 E12.39694
G1 X71.767 Y26.685 E12.42046
G1 X72.326 Y26.94 E12.44397
G1 X72.848 Y27.264 E12.46749
G1 X73.424 Y27.751 E12.49635
G1 X74.75 Y29.067 E12.56785
G1 X75.157 Y29.528 E12.59138
G1 X75.22 Y29.621 E12.59568
G1 X76.767 Y28.066 E12.67962
G1 X77.228 Y27.659 E12.70316
G1 X77.648 Y27.37 E12.72267
G1 X78.128 Y27.076 E12.74421
G1 X78.672 Y26.79 E12.76773
G1 X79.248 Y26.576 E12.79125
G1 X79.847 Y26.44 E12.81476
G1 X80.459 Y26.382 E12.83828
G1 X81.073 Y26.404 E12.86179
G1 X81.679 Y26.506 E12.88531
G1 X82.267 Y26.685 E12.90883
G1 X82.826 Y26.94 E12.93235
G1 X83.348 Y27.264 E12.95586
G1 X83.924 Y27.751 E12.98473
G1 X85.25 Y29.067 E13.05622
G1 X85.657 Y29.528 E13.07976
G1 X86.001 Y30.037 E13.10327
G1 X86.276 Y30.586 E13.12677
G1 X86.478 Y31.167 E13.15031
G1 X86.602 Y31.769 E13.17383
G1 X86.647 Y32.382 E13.19735
G1 X86.612 Y32.995 E13.22085
G1 X86.52 Y33.482 E13.23982
G1 X86.945 Y33.396 E13.25641
G1 X87.558 Y33.353 E13.27993
G1 X88.171 Y33.39 E13.30343
G1 X88.774 Y33.507 E13.32694
G1 X89.357 Y33.7 E13.35044
G1 X89.91 Y33.968 E13.37396
G1 X90.424 Y34.306 E13.3975
G1 X90.931 Y34.748 E13.42324
G1 X92.247 Y36.073 E13.49471
G1 X92.651 Y36.537 E13.51825
G1 X92.991 Y37.048 E13.54174
G1 X93.262 Y37.6 E13.56528
G1 X93.459 Y38.182 E13.58879
G1 X93.579 Y38.785 E13.61232
G1 X93.62 Y39.398 E13.63583
G1 X93.581 Y40.011 E13.65934
G1 X93.462 Y40.614 E13.68286
G1 X93.146 Y41.465 E13.7176
G1 X93.001 Y41.764 E13.73032
G1 X92.698 Y42.298 E13.75381
G1 X92.328 Y42.788 E13.77731
G1 X92.099 Y43.035 E13.7902
G1 X90.371 Y44.771 E13.88394
G1 X90.424 Y44.806 E13.88637
G1 X90.931 Y45.248 E13.91211
G1 X92.247 Y46.573 E13.98358
G1 X92.651 Y47.037 E14.00713
G1 X92.991 Y47.548 E14.03062
G1 X93.262 Y48.1 E14.05415
G1 X93.459 Y48.682 E14.07766
G1 X93.579 Y49.285 E14.10119
G1 X93.62 Y49.898 E14.12471
G1 X93.581 Y50.511 E14.14821
G1 X93.462 Y51.114 E14.17173
G1 X93.146 Y51.965 E14.20647
G1 X93.001 Y52.264 E14.21919
G1 X92.698 Y52.798 E14.24269
G1 X92.328 Y53.288 E14.26619
G1 X92.099 Y53.535 E14.27908
G1 X90.371 Y55.271 E14.37282
G1 X90.424 Y55.306 E14.37525
G1 X90.931 Y55.748 E14.40099
G1 X92.247 Y57.073 E14.47246
G1 X92.651 Y57.537 E14.496
G1 X92.991 Y58.048 E14.51949
G1 X93.262 Y58.6 E14.54302
G1 X93.459 Y59.182 E14.56654
G1 X93.579 Y59.785 E14.59007
G1 X93.62 Y60.398 E14.61358
G1 X93.581 Y61.011 E14.63709
G1 X93.462 Y61.614 E14.66061
G1 X93.146 Y62.465 E14.69535
G1 X93.001 Y62.764 E14.70807
G1 X92.698 Y63.298 E14.73156
G1 X92.328 Y63.788 E14.75506
G1 X92.099 Y64.035 E14.76795
G1 X90.371 Y65.771 E14.86169
G1 X90.424 Y65.806 E14.86412
G1 X90.931 Y66.248 E14.88986
G1 X92.247 Y67.573 E14.96133
G1 X92.651 Y68.037 E14.98488
G1 X92.991 Y68.548 E15.00836
G1 X93.262 Y69.1 E15.0319
G1 X93.459 Y69.682 E15.05541
G1 X93.579 Y70.285 E15.07894
G1 X93.62 Y70.898 E15.10245
G1 X93.581 Y71.511 E15.12596
G1 X93.462 Y72.114 E15.14948
G1 X93.146 Y72.965 E15.18422
G1 X93.001 Y73.264 E15.19694
G1 X92.698 Y73.798 E15.22044
G1 X92.328 Y74.288 E15.24393
G1 X92.099 Y74.535 E15.25683
G1 X90.371 Y76.271 E15.35056
G1 X90.424 Y76.306 E15.353
G1 X90.931 Y76.748 E15.37874
