;FLAVOR:Marlin
;TIME:946
;Filament used: 0.67755m
;Layer height: 0.21875
;Generated with Cura_SteamEngine 4.0.0-BETA-2
M140 S65
M105
M190 S65
M104 S205
M105
M109 S205
M82 ;absolute extrusion mode
G21;(metric values)
G90;(absolute positioning)
M82;(set extruder to absolute mode)
M107;(start with the fan off)
G28;(Home the printer)
G92 E0;(Reset the extruder to 0)
G0 Z5 E5 F500;(Move up and prime the nozzle)
G0 X-1 Z0;(Move outside the printable area)
G1 Y60 E8 F500;(Draw a priming/wiping line to the rear)
G1 X-1;(Move a little closer to the print area)
G1 Y10 E16 F500;(draw more priming/wiping)
G1 E15 F250;(Small retract)
G92 E0;(Zero the extruder)
G92 E0
G1 F2400 E-2.5
;LAYER_COUNT:14
;LAYER:0
M107
G0 F4320 X47.31 Y22.118 Z0.263
;TYPE:SKIRT
G1 F2400 E0
G1 F1800 X54.314 Y9.249 E0.56071
G1 X54.625 Y8.773 E0.58247
G1 X55.707 Y7.379 E0.65001
G1 X56.063 Y6.985 E0.67033
G1 X56.474 Y6.649 E0.69064
G1 X56.931 Y6.379 E0.71096
G1 X57.323 Y6.214 E0.72723
G1 X58.814 Y5.69 E0.78772
G1 X59.327 Y5.553 E0.80804
G1 X59.854 Y5.493 E0.82833
G1 X60.384 Y5.514 E0.84863
G1 X61.106 Y5.675 E0.87694
G1 X62.597 Y6.176 E0.93714
G1 X63.086 Y6.382 E0.95745
G1 X63.538 Y6.659 E0.97773
G1 X63.944 Y7.002 E0.99807
G1 X64.268 Y7.368 E1.01678
G1 X65.474 Y8.936 E1.09248
G1 X65.776 Y9.399 E1.11364
G1 X72.669 Y22.06 E1.66533
G1 X72.887 Y22.544 E1.68564
G1 X73.02 Y23.008 E1.70412
G1 X73.43 Y24.923 E1.77906
G1 X73.508 Y25.652 E1.80712
G1 X73.525 Y32.442 E2.06698
G1 X73.682 Y37.98 E2.279
G1 X74.142 Y43.394 E2.48694
G1 X74.914 Y48.812 E2.69638
G1 X75.983 Y54.145 E2.90453
G1 X76.63 Y56.786 E3.00859
G1 X78.159 Y62.049 E3.21834
G1 X79.974 Y67.191 E3.42702
G1 X82.087 Y72.244 E3.63662
G1 X83.84 Y75.936 E3.79304
G1 X84.002 Y76.34 E3.80969
G1 X84.204 Y76.95 E3.83428
G1 X84.343 Y77.528 E3.85703
G1 X84.449 Y78.225 E3.88402
G1 X84.488 Y78.857 E3.90825
G1 X84.467 Y79.58 E3.93593
G1 X84.395 Y80.19 E3.95944
G1 X84.264 Y80.825 E3.98425
G1 X84.098 Y81.388 E4.00671
G1 X83.852 Y82.022 E4.03274
G1 X83.541 Y82.639 E4.05918
G1 X83.024 Y83.452 E4.09605
G1 X82.846 Y83.705 E4.10789
G1 X79.35 Y88.262 E4.3277
G1 X76.249 Y92.828 E4.53893
G1 X74.848 Y95.096 E4.64095
G1 X72.156 Y99.89 E4.85136
G1 X69.758 Y104.792 E5.0602
G1 X67.557 Y109.87 E5.27201
G1 X67.223 Y110.472 E5.29835
G1 X66.727 Y111.19 E5.33175
G1 X66.33 Y111.668 E5.35553
G1 X65.724 Y112.279 E5.38846
G1 X65.254 Y112.676 E5.41201
G1 X64.546 Y113.176 E5.44518
G1 X64.021 Y113.483 E5.46845
G1 X63.237 Y113.854 E5.50165
G1 X62.66 Y114.068 E5.5252
G1 X61.816 Y114.299 E5.55869
G1 X61.208 Y114.409 E5.58233
G1 X60.349 Y114.488 E5.61534
G1 X59.738 Y114.491 E5.63873
G1 X58.871 Y114.42 E5.67202
G1 X58.267 Y114.317 E5.69547
G1 X57.43 Y114.098 E5.72858
G1 X56.847 Y113.889 E5.75228
G1 X56.055 Y113.524 E5.78565
G1 X55.522 Y113.22 E5.80914
G1 X54.815 Y112.73 E5.84206
G1 X54.345 Y112.34 E5.86543
G1 X53.727 Y111.729 E5.89869
G1 X53.378 Y111.328 E5.91903
G1 X53.201 Y111.066 E5.93113
G1 X52.447 Y109.838 E5.98628
G1 X52.205 Y109.368 E6.00651
G1 X50.808 Y106.068 E6.14365
G1 X48.479 Y101.128 E6.35266
G1 X45.859 Y96.298 E6.56295
G1 X43.007 Y91.685 E6.7705
G1 X39.865 Y87.19 E6.98039
G1 X36.942 Y83.41 E7.16325
G1 X36.644 Y82.956 E7.18404
G1 X36.257 Y82.254 E7.21471
G1 X35.997 Y81.658 E7.2396
G1 X35.795 Y81.047 E7.26423
G1 X35.657 Y80.472 E7.28686
G1 X35.551 Y79.776 E7.3138
G1 X35.512 Y79.143 E7.33807
G1 X35.533 Y78.42 E7.36575
G1 X35.605 Y77.81 E7.38926
G1 X35.736 Y77.175 E7.41407
G1 X35.882 Y76.665 E7.43437
G1 X35.985 Y76.415 E7.44472
G1 X38.001 Y72.03 E7.62942
G1 X40.1 Y66.982 E7.83864
G1 X41.912 Y61.807 E8.04848
G1 X43.42 Y56.572 E8.25697
G1 X44.646 Y51.192 E8.46814
G1 X45.121 Y48.6 E8.56899
G1 X45.882 Y43.158 E8.77928
G1 X46.331 Y37.726 E8.98787
G1 X46.475 Y32.431 E9.19058
G1 X46.484 Y25.733 E9.44691
G1 X46.556 Y25.03 E9.47396
G1 X46.953 Y23.095 E9.54955
G1 X47.049 Y22.76 E9.56289
G0 F1620 X47.098 Y22.584
G0 X47.31 Y22.118
G0 F4320 X47.617 Y22.285
G1 F2400 E9.58945
G1 F1800 X54.621 Y9.416 E10.15016
G1 X54.902 Y8.987 E10.16979
G1 X55.984 Y7.593 E10.23732
G1 X56.323 Y7.221 E10.25658
G1 X56.717 Y6.907 E10.27586
G1 X57.156 Y6.66 E10.29514
G1 X57.439 Y6.545 E10.30683
G1 X58.93 Y6.021 E10.36731
G1 X59.417 Y5.892 E10.38659
G1 X59.918 Y5.842 E10.40586
G1 X60.421 Y5.871 E10.42514
G1 X60.994 Y6.006 E10.44767
G1 X62.485 Y6.507 E10.50787
G1 X62.948 Y6.705 E10.52714
G1 X63.374 Y6.974 E10.54642
G1 X63.753 Y7.306 E10.5657
G1 X63.991 Y7.581 E10.57962
G1 X65.197 Y9.149 E10.65532
G1 X65.469 Y9.567 E10.67441
G1 X72.362 Y22.228 E11.2261
G1 X72.566 Y22.688 E11.24536
G1 X72.678 Y23.081 E11.261
G1 X73.088 Y24.996 E11.33595
G1 X73.158 Y25.653 E11.36123
G1 X73.175 Y32.453 E11.62147
G1 X73.331 Y37.985 E11.83326
G1 X73.796 Y43.454 E12.04331
G1 X74.567 Y48.861 E12.25233
G1 X75.642 Y54.224 E12.46166
G1 X76.292 Y56.877 E12.56619
G1 X77.825 Y62.153 E12.77645
G1 X79.65 Y67.321 E12.9862
G1 X81.769 Y72.389 E13.19642
G1 X83.524 Y76.087 E13.35308
G1 X83.67 Y76.45 E13.36805
G1 X83.872 Y77.06 E13.39264
G1 X83.997 Y77.581 E13.41315
G1 X84.103 Y78.278 E13.44013
G1 X84.138 Y78.847 E13.46194
G1 X84.117 Y79.57 E13.48962
G1 X84.053 Y80.119 E13.51078
G1 X83.922 Y80.754 E13.53559
G1 X83.772 Y81.262 E13.55586
G1 X83.526 Y81.896 E13.58189
G1 X83.245 Y82.451 E13.60569
G1 X82.728 Y83.264 E13.64256
G1 X82.568 Y83.492 E13.65322
G1 X79.063 Y88.062 E13.87363
G1 X75.96 Y92.631 E14.085
G1 X74.543 Y94.924 E14.18816
G1 X71.852 Y99.715 E14.39845
G1 X69.435 Y104.655 E14.60892
G1 X67.236 Y109.73 E14.82059
G1 X66.935 Y110.273 E14.84435
G1 X66.439 Y110.991 E14.87775
G1 X66.081 Y111.422 E14.89919
G1 X65.475 Y112.033 E14.93212
G1 X65.053 Y112.39 E14.95328
G1 X64.345 Y112.89 E14.98645
G1 X63.871 Y113.167 E15.00746
G1 X63.087 Y113.538 E15.04065
G1 X62.567 Y113.73 E15.06186
G1 X61.723 Y113.961 E15.09535
G1 X61.176 Y114.061 E15.11663
G1 X60.317 Y114.14 E15.14964
G1 X59.767 Y114.142 E15.17069
G1 X58.9 Y114.071 E15.20398
G1 X58.355 Y113.979 E15.22514
G1 X57.518 Y113.76 E15.25825
G1 X56.993 Y113.572 E15.27959
G1 X56.201 Y113.207 E15.31296
G1 X55.721 Y112.933 E15.33411
G1 X55.014 Y112.443 E15.36703
G1 X54.591 Y112.091 E15.38809
G1 X53.973 Y111.48 E15.42135
G1 X53.644 Y111.098 E15.44065
G1 X53.499 Y110.883 E15.45057
G1 X52.745 Y109.655 E15.50572
G1 X52.527 Y109.232 E15.52393
G1 X51.129 Y105.929 E15.66119
G1 X48.783 Y100.955 E15.87166
G1 X46.171 Y96.138 E16.08136
G1 X43.29 Y91.477 E16.29106
G1 X40.151 Y86.988 E16.50069
G1 X37.219 Y83.196 E16.68413
G1 X36.951 Y82.787 E16.70284
G1 X36.564 Y82.085 E16.73352
G1 X36.329 Y81.549 E16.75592
G1 X36.127 Y80.938 E16.78054
G1 X36.003 Y80.419 E16.80097
G1 X35.897 Y79.723 E16.82791
G1 X35.862 Y79.153 E16.84976
G1 X35.883 Y78.43 E16.87744
G1 X35.947 Y77.881 E16.8986
G1 X36.078 Y77.246 E16.92341
G1 X36.303 Y76.561 E16.951
G1 X38.319 Y72.176 E17.1357
G1 X40.427 Y67.105 E17.34587
G1 X42.245 Y61.915 E17.55632
G1 X43.759 Y56.658 E17.76569
G1 X44.989 Y51.264 E17.97741
G1 X45.469 Y48.639 E18.07954
G1 X46.23 Y43.202 E18.28964
G1 X46.681 Y37.745 E18.49919
G1 X46.825 Y32.442 E18.70221
G1 X46.834 Y25.734 E18.95893
G1 X46.899 Y25.1 E18.98332
G1 X47.296 Y23.165 E19.05891
G1 X47.364 Y22.93 E19.06827
G0 F1620 X47.436 Y22.681
G0 X47.617 Y22.285
G1 F2400 E16.56827
;MESH:Bookmark - Sword Edition.stl
G0 F4320 X49.835 Y23.495
G0 X49.874 Y23.516
G0 X53.723 Y25.614
G0 X53.762 Y25.635
G0 X53.795 Y25.653
G0 X52.296 Y24.838
G0 X60 Y11.614
;TYPE:WALL-INNER
G1 F2400 E19.09483
G1 F1800 X59.863 Y11.79 E19.10337
G1 X58.974 Y12.931 E19.15872
G1 X52.333 Y25.119 E19.6899
G1 X52.125 Y26.114 E19.72881
G1 X52.125 Y76.022 E21.63878
G1 X55.875 Y76.022 E21.78229
G1 X55.878 Y26.749 E23.66797
G1 X59.819 Y19.518 E23.98313
G1 X59.87 Y19.424 E23.98722
G1 X59.915 Y19.363 E23.99012
G1 X59.952 Y19.334 E23.99192
G1 X59.977 Y19.327 E23.99292
G1 X60.027 Y19.33 E23.99483
G1 X60.059 Y19.342 E23.99614
G1 X60.097 Y19.372 E23.99799
G1 X60.148 Y19.466 E24.00209
G1 X64.125 Y26.758 E24.31996
G1 X64.125 Y76.022 E26.20529
G1 X67.875 Y76.022 E26.3488
G1 X67.875 Y26.114 E28.25878
G1 X67.667 Y25.119 E28.29768
G1 X61.026 Y12.931 E28.82886
G1 X60.137 Y11.79 E28.88422
G1 X60 Y11.614 E28.88938
G1 F2400 E26.38938
G0 F4320 X67.23 Y25.28
G0 X67.414 Y26.162
G0 X67.379 Y75.56
G0 X67.375 Y75.522
G0 X68.94 Y75.522
G0 X69.125 Y77.875
G1 F2400 E28.88938
G1 F1800 X74.002 Y77.875 E29.07603
G1 X74.621 Y76.991 E29.11733
G1 X74.993 Y76.619 E29.13746
G1 X75.446 Y76.302 E29.15862
G1 X75.935 Y76.074 E29.17927
G1 X76.456 Y75.935 E29.1999
G1 X77 Y75.887 E29.2208
G1 X77.544 Y75.935 E29.2417
G1 X78.064 Y76.074 E29.2623
G1 X78.551 Y76.301 E29.28286
G1 X79.001 Y76.617 E29.30391
G1 X79.385 Y77.001 E29.32469
G1 X79.697 Y77.445 E29.34546
G1 X79.926 Y77.936 E29.36619
G1 X80.065 Y78.456 E29.38679
G1 X80.113 Y79 E29.40769
G1 X80.065 Y79.544 E29.42859
G1 X79.926 Y80.065 E29.44923
G1 X79.698 Y80.554 E29.46987
G1 X79.381 Y81.007 E29.49103
G1 X79.007 Y81.381 E29.51127
G1 X78.554 Y81.698 E29.53243
G1 X78.065 Y81.926 E29.55308
G1 X77.544 Y82.065 E29.57372
G1 X77 Y82.113 E29.59462
G1 X76.456 Y82.065 E29.61552
G1 X75.936 Y81.926 E29.63612
G1 X75.449 Y81.699 E29.65668
G1 X74.999 Y81.383 E29.67772
G1 X74.616 Y81.001 E29.69842
G1 X74 Y80.125 E29.73941
G1 X63.996 Y80.125 E30.12226
G1 X63.563 Y81.053 E30.16145
G1 X63.148 Y81.645 E30.18912
G1 X62.644 Y82.148 E30.21637
G1 X62.115 Y82.519 E30.2411
G1 X62.115 Y101.752 E30.97714
G1 X61.927 Y102.345 E31.00095
G1 X62.642 Y102.85 E31.03445
G1 X63.148 Y103.355 E31.06181
G1 X63.563 Y103.947 E31.08948
G1 X63.864 Y104.593 E31.11675
G1 X64.048 Y105.284 E31.14412
G1 X64.112 Y106 E31.17163
G1 X64.048 Y106.716 E31.19914
G1 X63.864 Y107.407 E31.2265
G1 X63.563 Y108.053 E31.25378
G1 X63.146 Y108.649 E31.28162
G1 X62.649 Y109.146 E31.30851
G1 X62.053 Y109.563 E31.33635
G1 X61.407 Y109.864 E31.36363
G1 X60.716 Y110.048 E31.39099
G1 X60 Y110.112 E31.4185
G1 X59.284 Y110.048 E31.44601
G1 X58.593 Y109.864 E31.47338
G1 X57.947 Y109.563 E31.50065
G1 X57.355 Y109.148 E31.52832
G1 X56.852 Y108.644 E31.55557
G1 X56.438 Y108.054 E31.58316
G1 X56.136 Y107.407 E31.61048
G1 X55.952 Y106.716 E31.63785
G1 X55.888 Y106 E31.66536
G1 X55.952 Y105.284 E31.69287
G1 X56.136 Y104.593 E31.72023
G1 X56.437 Y103.947 E31.74751
G1 X56.852 Y103.355 E31.77518
G1 X57.354 Y102.854 E31.80232
G1 X58.074 Y102.345 E31.83606
G1 X57.884 Y101.745 E31.86015
G1 X57.885 Y82.52 E32.59589
G1 X57.36 Y82.152 E32.62042
G1 X56.852 Y81.645 E32.64789
G1 X56.437 Y81.053 E32.67556
G1 X56.004 Y80.125 E32.71475
G1 X45.999 Y80.125 E33.09764
G1 X45.381 Y81.007 E33.13886
G1 X45.007 Y81.381 E33.1591
G1 X44.554 Y81.698 E33.18026
G1 X44.065 Y81.926 E33.2009
G1 X43.544 Y82.065 E33.22154
G1 X43 Y82.113 E33.24244
G1 X42.456 Y82.065 E33.26334
G1 X41.936 Y81.926 E33.28394
G1 X41.449 Y81.699 E33.3045
G1 X40.999 Y81.383 E33.32555
G1 X40.615 Y80.999 E33.34633
G1 X40.303 Y80.555 E33.3671
G1 X40.074 Y80.064 E33.38783
G1 X39.935 Y79.544 E33.40843
G1 X39.887 Y79 E33.42933
G1 X39.935 Y78.456 E33.45023
G1 X40.074 Y77.936 E33.47083
G1 X40.301 Y77.449 E33.49139
G1 X40.617 Y76.999 E33.51243
G1 X41.001 Y76.615 E33.53322
G1 X41.445 Y76.303 E33.55398
G1 X41.936 Y76.074 E33.57472
G1 X42.456 Y75.935 E33.59532
G1 X43 Y75.887 E33.61622
G1 X43.544 Y75.935 E33.63712
G1 X44.064 Y76.074 E33.65771
G1 X44.551 Y76.301 E33.67828
G1 X45.001 Y76.617 E33.69932
G1 X45.385 Y77.001 E33.7201
G1 X45.999 Y77.875 E33.76098
G1 X50.875 Y77.875 E33.94758
G1 X50.875 Y25.789 E35.94091
G1 X51.233 Y24.075 E36.00792
G1 X58.133 Y11.413 E36.55978
G1 X59.033 Y10.257 E36.61584
G1 X60 Y9.924 E36.65498
G1 X60.967 Y10.257 E36.69412
G1 X61.867 Y11.413 E36.75019
G1 X68.767 Y24.075 E37.30204
G1 X69.125 Y25.789 E37.36905
G1 X69.125 Y77.181 E39.33582
G0 F1620 X69.125 Y77.875
G0 F4320 X69.475 Y77.525
G1 F2400 E39.36238
G1 F1800 X73.82 Y77.525 E39.52866
G1 X74.348 Y76.77 E39.56392
G1 X74.772 Y76.346 E39.58687
G1 X75.268 Y75.999 E39.61003
G1 X75.815 Y75.744 E39.63313
G1 X76.398 Y75.588 E39.65623
G1 X77 Y75.535 E39.67936
G1 X77.602 Y75.588 E39.70248
G1 X78.185 Y75.744 E39.72558
G1 X78.729 Y75.998 E39.74856
G1 X79.226 Y76.346 E39.77178
G1 X79.652 Y76.773 E39.79486
G1 X80.002 Y77.271 E39.81815
G1 X80.256 Y77.815 E39.84113
G1 X80.412 Y78.398 E39.86423
G1 X80.465 Y79 E39.88735
G1 X80.412 Y79.602 E39.91048
G1 X80.256 Y80.185 E39.93358
G1 X80.001 Y80.732 E39.95667
G1 X79.654 Y81.228 E39.97984
G1 X79.228 Y81.654 E40.0029
G1 X78.732 Y82.001 E40.02606
G1 X78.185 Y82.256 E40.04916
G1 X77.602 Y82.412 E40.07225
G1 X77 Y82.465 E40.09538
G1 X76.398 Y82.412 E40.11851
G1 X75.815 Y82.256 E40.14161
G1 X75.271 Y82.002 E40.16458
G1 X74.774 Y81.654 E40.1878
G1 X74.347 Y81.226 E40.21094
G1 X73.818 Y80.475 E40.24609
G1 X64.219 Y80.475 E40.61345
G1 X63.866 Y81.231 E40.64538
G1 X63.419 Y81.87 E40.67522
G1 X62.872 Y82.415 E40.70477
G1 X62.465 Y82.701 E40.72381
G1 X62.465 Y101.808 E41.45503
G1 X62.338 Y102.207 E41.47106
G1 X62.868 Y102.581 E41.49588
G1 X63.418 Y103.13 E41.52562
G1 X63.866 Y103.769 E41.55549
G1 X64.194 Y104.473 E41.58521
G1 X64.395 Y105.226 E41.61504
G1 X64.464 Y106 E41.64478
G1 X64.395 Y106.774 E41.67451
G1 X64.194 Y107.527 E41.70434
G1 X63.866 Y108.231 E41.73406
G1 X63.419 Y108.87 E41.76391
G1 X62.87 Y109.419 E41.79362
G1 X62.231 Y109.866 E41.82346
G1 X61.527 Y110.194 E41.85319
G1 X60.774 Y110.395 E41.88301
G1 X60 Y110.464 E41.91275
G1 X59.226 Y110.395 E41.94249
G1 X58.473 Y110.194 E41.97232
G1 X57.769 Y109.866 E42.00204
G1 X57.13 Y109.418 E42.0319
G1 X56.585 Y108.872 E42.06143
G1 X56.133 Y108.228 E42.09154
G1 X55.806 Y107.527 E42.12114
G1 X55.605 Y106.774 E42.15097
G1 X55.536 Y106 E42.18071
G1 X55.605 Y105.226 E42.21044
G1 X55.806 Y104.473 E42.24027
G1 X56.134 Y103.769 E42.26999
G1 X56.582 Y103.13 E42.29986
G1 X57.128 Y102.585 E42.32938
G1 X57.663 Y102.207 E42.35445
G1 X57.534 Y101.801 E42.37075
G1 X57.535 Y82.702 E43.10167
G1 X57.132 Y82.419 E43.12052
G1 X56.581 Y81.87 E43.15028
G1 X56.134 Y81.231 E43.18013
G1 X55.781 Y80.475 E43.21206
G1 X46.181 Y80.475 E43.57945
G1 X45.654 Y81.228 E43.61462
G1 X45.228 Y81.654 E43.63768
G1 X44.732 Y82.001 E43.66085
G1 X44.185 Y82.256 E43.68394
G1 X43.602 Y82.412 E43.70704
G1 X43 Y82.465 E43.73017
G1 X42.398 Y82.412 E43.75329
G1 X41.815 Y82.256 E43.77639
G1 X41.271 Y82.002 E43.79937
G1 X40.774 Y81.654 E43.82259
G1 X40.348 Y81.227 E43.84567
G1 X39.998 Y80.729 E43.86896
G1 X39.744 Y80.185 E43.89194
G1 X39.588 Y79.602 E43.91504
G1 X39.535 Y79 E43.93816
G1 X39.588 Y78.398 E43.96129
G1 X39.744 Y77.815 E43.98439
G1 X39.998 Y77.271 E44.00736
G1 X40.346 Y76.774 E44.03058
G1 X40.773 Y76.348 E44.05367
G1 X41.271 Y75.998 E44.07696
G1 X41.815 Y75.744 E44.09994
G1 X42.398 Y75.588 E44.12303
G1 X43 Y75.535 E44.14616
G1 X43.602 Y75.588 E44.16929
G1 X44.185 Y75.744 E44.19239
G1 X44.729 Y75.998 E44.21536
G1 X45.226 Y76.346 E44.23858
G1 X45.652 Y76.773 E44.26166
G1 X46.181 Y77.525 E44.29685
G1 X50.525 Y77.525 E44.4631
G1 X50.525 Y25.751 E46.44448
G1 X50.9 Y23.956 E46.51466
G1 X57.841 Y11.219 E47.06978
G1 X58.821 Y9.96 E47.13084
G1 X60 Y9.554 E47.17856
G1 X61.179 Y9.96 E47.22628
G1 X62.159 Y11.219 E47.28734
G1 X69.1 Y23.956 E47.84247
G1 X69.475 Y25.751 E47.91264
G1 X69.475 Y76.831 E49.86747
G0 F1620 X69.475 Y77.525
G1 F2400 E47.36747
G0 F4320 X68.94 Y25.808
G0 X67.825 Y25.06
G0 X60 Y12.184
G1 F2400 E49.89403
G1 F1800 X59.863 Y12.36 E49.90257
G1 X59.268 Y13.124 E49.93963
G1 X52.665 Y25.241 E50.46772
G1 X52.475 Y26.15 E50.50326
G1 X52.475 Y75.672 E52.39847
G1 X55.525 Y75.672 E52.51519
G1 X55.528 Y26.661 E54.39084
G1 X59.576 Y19.233 E54.71458
G1 X59.662 Y19.115 E54.72017
G1 X59.768 Y19.034 E54.72527
G1 X59.836 Y19.003 E54.72813
G1 X59.897 Y18.985 E54.73057
G1 X59.967 Y18.975 E54.73327
G1 X60.103 Y18.985 E54.73849
G1 X60.232 Y19.034 E54.74377
G1 X60.338 Y19.115 E54.74888
G1 X60.379 Y19.163 E54.75129
G1 X60.428 Y19.24 E54.75479
G1 X64.475 Y26.67 E55.07858
G1 X64.475 Y75.672 E56.95388
G1 X67.525 Y75.672 E57.0706
G1 X67.525 Y26.15 E58.96581
G1 X67.335 Y25.241 E59.00135
G1 X60.732 Y13.124 E59.52945
G1 X60.137 Y12.36 E59.56651
G1 X60 Y12.184 E59.57167
G0 F4320 X60 Y12.713
;TYPE:WALL-OUTER
G1 F1800 X59.863 Y12.889 E59.58021
G1 X59.541 Y13.303 E59.60028
G1 X52.973 Y25.354 E60.12552
G1 X52.8 Y26.184 E60.15797
G1 X52.8 Y75.347 E62.03943
G1 X55.2 Y75.347 E62.13128
