;FLAVOR:Marlin
;TIME:9127
;Filament used: 6.96371m
;Layer height: 0.175
;Generated with Cura_SteamEngine 3.6.0
M140 S60
M105
M190 S60
M104 S210
M105
M109 S210
M82 ;absolute extrusion mode
G21;(metric values)
G90;(absolute positioning)
M82;(set extruder to absolute mode)
M107;(start with the fan off)
G28;(Home the printer)
G92 E0;(Reset the extruder to 0)
G92 E0
G1 F2400 E-2.5
;LAYER_COUNT:114
;LAYER:0
M107
G0 F4320 X19.826 Y25.794 Z0.263
;TYPE:SKIRT
G1 F2400 E0
G1 F1980 X20.359 Y25.445 E0.02438
G1 X20.931 Y25.165 E0.04875
G1 X21.533 Y24.959 E0.0731
G1 X22.157 Y24.83 E0.09749
G1 X22.872 Y24.779 E0.12492
G1 X49.197 Y24.779 E1.13238
G1 X49.833 Y24.819 E1.15677
G1 X50.458 Y24.938 E1.18111
G1 X51.064 Y25.135 E1.2055
G1 X51.64 Y25.406 E1.22986
G1 X52.178 Y25.747 E1.25424
G1 X52.786 Y26.265 E1.28481
G1 X52.889 Y26.368 E1.29038
G1 X53.31 Y26.846 E1.31476
G1 X53.668 Y27.373 E1.33914
G1 X53.957 Y27.94 E1.36349
G1 X54.173 Y28.539 E1.38786
G1 X54.312 Y29.161 E1.41225
G1 X54.36 Y29.767 E1.43552
G1 X54.36 Y28.459 E1.48558
G1 X54.4 Y27.823 E1.50996
G1 X54.519 Y27.198 E1.53431
G1 X54.716 Y26.592 E1.5587
G1 X54.987 Y26.016 E1.58306
G1 X55.328 Y25.478 E1.60744
G1 X55.864 Y24.853 E1.63895
G1 X55.967 Y24.751 E1.64449
G1 X56.447 Y24.332 E1.66888
G1 X56.975 Y23.977 E1.69323
G1 X57.544 Y23.69 E1.71761
G1 X58.144 Y23.477 E1.74198
G1 X58.766 Y23.341 E1.76635
G1 X59.55 Y23.282 E1.79644
G1 X87.009 Y23.345 E2.84729
G1 X87.919 Y23.43 E2.88227
G1 X88.709 Y23.576 E2.91302
G1 X89.476 Y23.78 E2.94339
G1 X90.391 Y24.103 E2.98052
G1 X90.965 Y24.346 E3.00438
G1 X93.145 Y25.432 E3.09759
G1 X101.276 Y25.432 E3.40876
G1 X101.912 Y25.472 E3.43315
G1 X102.537 Y25.591 E3.45749
G1 X103.143 Y25.788 E3.48188
G1 X103.719 Y26.059 E3.50624
G1 X104.257 Y26.4 E3.53062
G1 X104.865 Y26.918 E3.56119
G1 X104.968 Y27.021 E3.56676
G1 X105.389 Y27.499 E3.59114
G1 X105.747 Y28.026 E3.61552
G1 X106.036 Y28.593 E3.63987
G1 X106.252 Y29.192 E3.66424
G1 X106.391 Y29.814 E3.68863
G1 X106.454 Y30.61 E3.71919
G1 X106.455 Y41.304 E4.12845
G1 X106.415 Y41.939 E4.1528
G1 X106.296 Y42.565 E4.17719
G1 X106.099 Y43.171 E4.20157
G1 X105.828 Y43.747 E4.22593
G1 X105.487 Y44.285 E4.25031
G1 X104.969 Y44.893 E4.28088
G1 X104.866 Y44.996 E4.28645
G1 X104.388 Y45.417 E4.31083
G1 X103.861 Y45.775 E4.33521
G1 X103.294 Y46.064 E4.35957
G1 X102.695 Y46.28 E4.38394
G1 X102.073 Y46.419 E4.40833
G1 X101.277 Y46.482 E4.43888
G1 X94.314 Y46.482 E4.70536
G1 X95.024 Y46.65 E4.73328
G1 X95.773 Y46.89 E4.76338
G1 X97.197 Y47.471 E4.82224
G1 X97.893 Y47.82 E4.85203
G1 X99.208 Y48.61 E4.91074
G1 X99.849 Y49.066 E4.94085
G1 X101.036 Y50.058 E5.00005
G1 X101.643 Y50.658 E5.03271
G1 X102.649 Y51.837 E5.09203
G1 X103.031 Y52.346 E5.11638
G1 X103.346 Y52.9 E5.14077
G1 X103.59 Y53.488 E5.16513
G1 X103.758 Y54.102 E5.18949
G1 X103.847 Y54.733 E5.21388
G1 X103.863 Y55.133 E5.2292
G1 X103.845 Y96.68 E6.8192
G1 X103.805 Y97.316 E6.84359
G1 X103.67 Y98.001 E6.87031
G1 X103.538 Y98.49 E6.88969
G1 X103.333 Y99.093 E6.91407
G1 X103.022 Y99.724 E6.94099
G1 X102.759 Y100.175 E6.96097
G1 X102.404 Y100.703 E6.98532
G1 X101.954 Y101.216 E7.01143
G1 X101.585 Y101.583 E7.03135
G1 X101.106 Y102.003 E7.05573
G1 X100.532 Y102.386 E7.08214
G1 X100.086 Y102.642 E7.10182
G1 X99.515 Y102.924 E7.12619
G1 X98.833 Y103.154 E7.15374
G1 X98.335 Y103.283 E7.17342
G1 X97.709 Y103.404 E7.19782
G1 X97.069 Y103.445 E7.22237
G1 X84.821 Y103.462 E7.6911
G1 X84.134 Y103.416 E7.71745
G1 X83.609 Y103.345 E7.73772
G1 X82.984 Y103.22 E7.76212
G1 X82.331 Y102.998 E7.78851
G1 X81.86 Y102.801 E7.80805
G1 X81.289 Y102.519 E7.83242
G1 X80.702 Y102.125 E7.85948
G1 X80.297 Y101.81 E7.87911
G1 X79.82 Y101.388 E7.90348
G1 X79.374 Y100.877 E7.92944
G1 X79.059 Y100.463 E7.94935
G1 X78.706 Y99.933 E7.97372
G1 X78.406 Y99.325 E7.99967
G1 X78.213 Y98.857 E8.01904
G1 X78.008 Y98.254 E8.04341
G1 X77.849 Y97.365 E8.07798
G1 X77.782 Y96.601 E8.10733
G1 X77.763 Y96.155 E8.12441
G1 X77.786 Y55.068 E9.69681
G1 X77.826 Y54.433 E9.72116
G1 X77.946 Y53.807 E9.74555
G1 X78.143 Y53.201 E9.76994
G1 X78.414 Y52.625 E9.7943
G1 X78.756 Y52.088 E9.81866
G1 X79.051 Y51.718 E9.83677
G1 X80.042 Y50.592 E9.89418
G1 X80.6 Y50.048 E9.924
G1 X81.79 Y49.055 E9.98331
G1 X82.422 Y48.606 E10.01298
G1 X59.544 Y48.632 E10.88852
G1 X58.908 Y48.593 E10.91291
G1 X58.282 Y48.474 E10.9373
G1 X57.676 Y48.278 E10.96167
G1 X57.1 Y48.008 E10.98601
G1 X56.562 Y47.668 E11.01037
G1 X55.949 Y47.146 E11.04118
G1 X55.846 Y47.043 E11.04676
G1 X55.425 Y46.565 E11.07113
G1 X55.067 Y46.038 E11.09552
G1 X54.778 Y45.471 E11.11987
G1 X54.562 Y44.872 E11.14424
G1 X54.423 Y44.25 E11.16863
G1 X54.36 Y43.454 E11.19919
G1 X54.36 Y41.61 E11.26976
G1 X54.4 Y40.974 E11.29415
G1 X54.519 Y40.349 E11.3185
G1 X54.716 Y39.743 E11.34288
G1 X54.987 Y39.167 E11.36724
G1 X55.328 Y38.629 E11.39162
G1 X55.846 Y38.021 E11.42219
G1 X55.949 Y37.918 E11.42776
G1 X56.427 Y37.497 E11.45214
G1 X56.954 Y37.139 E11.47652
G1 X57.521 Y36.85 E11.50088
G1 X58.12 Y36.634 E11.52524
G1 X58.742 Y36.495 E11.54964
G1 X59.515 Y36.432 E11.57932
G1 X65.334 Y36.405 E11.80201
G1 X65.339 Y35.509 E11.8363
G1 X59.515 Y35.482 E12.05919
G1 X58.879 Y35.439 E12.08358
G1 X58.254 Y35.317 E12.10795
G1 X57.649 Y35.117 E12.13234
G1 X57.074 Y34.844 E12.1567
G1 X56.538 Y34.5 E12.18107
G1 X55.949 Y33.996 E12.21074
G1 X55.846 Y33.893 E12.21631
G1 X55.425 Y33.415 E12.24069
G1 X55.067 Y32.888 E12.26507
G1 X54.778 Y32.321 E12.28943
G1 X54.562 Y31.722 E12.3138
G1 X54.423 Y31.1 E12.33819
G1 X54.375 Y30.494 E12.36145
G1 X54.375 Y33.701 E12.48418
G1 X54.335 Y34.337 E12.50857
G1 X54.216 Y34.962 E12.53292
G1 X54.019 Y35.568 E12.55731
G1 X53.748 Y36.144 E12.58167
G1 X53.407 Y36.682 E12.60604
G1 X52.889 Y37.29 E12.63661
G1 X52.786 Y37.393 E12.64219
G1 X52.308 Y37.814 E12.66656
G1 X51.781 Y38.172 E12.69094
G1 X51.214 Y38.461 E12.7153
G1 X50.615 Y38.677 E12.73967
G1 X49.993 Y38.816 E12.76406
G1 X49.208 Y38.879 E12.7942
G1 X32.905 Y38.914 E13.41811
G1 X32.875 Y47.22 E13.73599
G1 X32.833 Y47.855 E13.76034
G1 X32.795 Y48.051 E13.76798
G1 X39.776 Y48.051 E14.03514
G1 X40.412 Y48.091 E14.05953
G1 X41.037 Y48.21 E14.08388
G1 X41.643 Y48.407 E14.10827
G1 X42.219 Y48.678 E14.13263
G1 X42.757 Y49.019 E14.157
G1 X43.365 Y49.537 E14.18757
G1 X43.468 Y49.64 E14.19315
G1 X43.889 Y50.118 E14.21752
G1 X44.247 Y50.645 E14.2419
G1 X44.536 Y51.212 E14.26626
G1 X44.752 Y51.811 E14.29063
G1 X44.891 Y52.433 E14.31502
G1 X44.954 Y53.229 E14.34558
G1 X44.954 Y68.207 E14.91878
G1 X44.914 Y68.843 E14.94317
G1 X44.795 Y69.468 E14.96752
G1 X44.598 Y70.074 E14.99191
G1 X44.327 Y70.65 E15.01627
G1 X43.986 Y71.188 E15.04064
G1 X43.848 Y71.35 E15.04879
G1 X67.222 Y71.35 E15.94331
G1 X67.858 Y71.39 E15.9677
G1 X68.483 Y71.509 E15.99205
G1 X69.089 Y71.706 E16.01643
G1 X69.665 Y71.977 E16.04079
G1 X70.203 Y72.318 E16.06517
G1 X70.811 Y72.836 E16.09574
G1 X70.914 Y72.939 E16.10131
G1 X71.335 Y73.417 E16.12569
G1 X71.693 Y73.944 E16.15007
G1 X71.982 Y74.511 E16.17443
G1 X72.198 Y75.11 E16.1988
G1 X72.337 Y75.732 E16.22319
G1 X72.4 Y76.528 E16.25374
G1 X72.4 Y95.472 E16.97873
G1 X72.36 Y96.108 E17.00312
G1 X72.241 Y96.733 E17.02747
G1 X72.044 Y97.339 E17.05185
G1 X71.773 Y97.915 E17.07621
G1 X71.432 Y98.453 E17.10059
G1 X70.914 Y99.061 E17.13116
G1 X70.811 Y99.164 E17.13673
G1 X70.333 Y99.585 E17.16111
G1 X69.806 Y99.943 E17.18549
G1 X69.239 Y100.232 E17.20985
G1 X68.64 Y100.448 E17.23422
G1 X68.018 Y100.587 E17.25861
G1 X67.222 Y100.65 E17.28916
G1 X20.778 Y100.65 E19.06657
G1 X20.142 Y100.61 E19.09096
G1 X19.517 Y100.491 E19.11531
G1 X18.911 Y100.294 E19.1397
G1 X18.335 Y100.023 E19.16406
G1 X17.797 Y99.682 E19.18843
G1 X17.189 Y99.164 E19.219
G1 X17.086 Y99.061 E19.22458
G1 X16.665 Y98.583 E19.24895
G1 X16.307 Y98.056 E19.27333
G1 X16.018 Y97.489 E19.29769
G1 X15.802 Y96.89 E19.32206
G1 X15.663 Y96.268 E19.34645
G1 X15.6 Y95.472 E19.37701
G1 X15.6 Y76.528 E20.10199
G1 X15.64 Y75.892 E20.12638
G1 X15.759 Y75.267 E20.15073
G1 X15.956 Y74.661 E20.17512
G1 X16.227 Y74.085 E20.19948
G1 X16.568 Y73.547 E20.22385
G1 X17.086 Y72.939 E20.25442
G1 X17.189 Y72.836 E20.26
G1 X17.667 Y72.415 E20.28437
G1 X18.194 Y72.057 E20.30875
G1 X18.761 Y71.768 E20.33311
G1 X19.249 Y71.592 E20.35296
G1 X19.037 Y71.354 E20.36516
G1 X18.677 Y70.829 E20.38952
G1 X18.385 Y70.263 E20.4139
G1 X18.166 Y69.665 E20.43827
G1 X18.024 Y69.045 E20.46261
G1 X17.957 Y68.224 E20.49413
G1 X17.957 Y66.379 E20.56474
G1 X17.997 Y65.743 E20.58913
G1 X18.116 Y65.118 E20.61348
G1 X18.313 Y64.512 E20.63786
G1 X18.584 Y63.936 E20.66223
G1 X18.925 Y63.398 E20.6866
G1 X19.443 Y62.79 E20.71717
G1 X19.546 Y62.687 E20.72274
G1 X20.024 Y62.266 E20.74712
G1 X20.551 Y61.908 E20.7715
G1 X21.118 Y61.619 E20.79586
G1 X21.717 Y61.403 E20.82023
G1 X22.339 Y61.264 E20.84462
G1 X23.11 Y61.201 E20.87422
G1 X28.931 Y61.172 E21.09699
G1 X28.936 Y60.251 E21.13224
G1 X23.133 Y60.251 E21.35432
G1 X22.497 Y60.211 E21.37871
G1 X21.872 Y60.092 E21.40306
G1 X21.266 Y59.895 E21.42744
G1 X20.69 Y59.624 E21.45181
G1 X20.152 Y59.283 E21.47618
G1 X19.527 Y58.747 E21.50769
G1 X19.425 Y58.644 E21.51324
G1 X19.006 Y58.164 E21.53762
G1 X18.651 Y57.636 E21.56197
G1 X18.364 Y57.067 E21.58636
G1 X18.151 Y56.467 E21.61073
G1 X18.015 Y55.845 E21.63509
G1 X17.956 Y55.07 E21.66484
G1 X17.957 Y53.225 E21.73545
G1 X17.997 Y52.59 E21.7598
G1 X18.117 Y51.964 E21.78419
G1 X18.314 Y51.358 E21.80858
G1 X18.585 Y50.782 E21.83294
G1 X18.799 Y50.446 E21.84818
G1 X18.086 Y49.733 E21.88677
G1 X17.613 Y49.186 E21.91445
G1 X16.62 Y47.86 E21.97784
G1 X16.228 Y47.25 E22.00559
G1 X15.438 Y45.803 E22.06869
G1 X15.137 Y45.145 E22.09638
G1 X14.561 Y43.601 E22.15944
G1 X14.356 Y42.901 E22.18736
G1 X14.007 Y41.289 E22.25048
G1 X13.905 Y40.576 E22.27804
G1 X13.788 Y38.935 E22.341
G1 X13.788 Y38.208 E22.36882
G1 X13.907 Y36.563 E22.43194
G1 X14.011 Y35.847 E22.45963
G1 X14.362 Y34.238 E22.52266
G1 X14.565 Y33.545 E22.55029
G1 X15.142 Y31.999 E22.61344
G1 X15.447 Y31.335 E22.64141
G1 X16.239 Y29.89 E22.70447
G1 X16.629 Y29.284 E22.73205
G1 X17.618 Y27.965 E22.79514
G1 X18.148 Y27.364 E22.82581
G1 X19.301 Y26.248 E22.88722
G0 F1782 X19.342 Y26.208
G0 X19.826 Y25.794
G0 F4320 X20.054 Y26.062
G1 F2400 E22.91377
G1 F1980 X20.57 Y25.728 E22.9373
G1 X21.125 Y25.464 E22.96082
G1 X21.709 Y25.274 E22.98432
G1 X22.313 Y25.162 E23.00783
G1 X22.872 Y25.129 E23.02926
G1 X49.197 Y25.129 E24.03672
G1 X49.81 Y25.169 E24.06023
G1 X50.413 Y25.288 E24.08375
G1 X50.995 Y25.485 E24.10726
G1 X51.547 Y25.755 E24.13078
G1 X52.059 Y26.095 E24.1543
G1 X52.538 Y26.513 E24.17863
G1 X52.641 Y26.616 E24.1842
G1 X53.046 Y27.078 E24.20772
G1 X53.388 Y27.588 E24.23122
G1 X53.661 Y28.139 E24.25475
G1 X53.86 Y28.72 E24.27825
G1 X53.982 Y29.323 E24.3018
G1 X54.025 Y29.957 E24.32612
G1 X54.025 Y33.701 E24.4694
G1 X53.985 Y34.314 E24.49291
G1 X53.866 Y34.917 E24.51643
G1 X53.669 Y35.499 E24.53994
G1 X53.399 Y36.051 E24.56346
G1 X53.059 Y36.563 E24.58698
G1 X52.641 Y37.042 E24.61131
G1 X52.538 Y37.145 E24.61689
G1 X52.076 Y37.55 E24.6404
G1 X51.566 Y37.892 E24.6639
G1 X51.015 Y38.165 E24.68743
G1 X50.434 Y38.364 E24.71093
G1 X49.831 Y38.486 E24.73448
G1 X49.207 Y38.529 E24.75842
G1 X32.557 Y38.565 E25.39561
G1 X32.525 Y47.218 E25.72676
G1 X32.483 Y47.831 E25.75028
G1 X32.368 Y48.401 E25.77253
G1 X39.776 Y48.401 E26.05604
G1 X40.389 Y48.441 E26.07955
G1 X40.992 Y48.56 E26.10307
G1 X41.574 Y48.757 E26.12658
G1 X42.126 Y49.027 E26.1501
G1 X42.638 Y49.367 E26.17362
G1 X43.117 Y49.785 E26.19795
G1 X43.22 Y49.888 E26.20352
G1 X43.625 Y50.35 E26.22704
G1 X43.967 Y50.86 E26.25054
G1 X44.24 Y51.411 E26.27407
G1 X44.439 Y51.992 E26.29757
G1 X44.561 Y52.595 E26.32112
G1 X44.604 Y53.229 E26.34544
G1 X44.604 Y68.207 E26.91864
G1 X44.564 Y68.82 E26.94215
G1 X44.445 Y69.423 E26.96567
G1 X44.248 Y70.005 E26.98919
G1 X43.978 Y70.557 E27.0127
G1 X43.638 Y71.069 E27.03623
G1 X43.236 Y71.532 E27.05969
G1 X43.134 Y71.635 E27.06524
G1 X43.061 Y71.7 E27.06898
G1 X67.222 Y71.7 E27.99362
G1 X67.835 Y71.74 E28.01713
G1 X68.438 Y71.859 E28.04065
G1 X69.02 Y72.056 E28.06417
G1 X69.572 Y72.326 E28.08768
G1 X70.084 Y72.666 E28.1112
G1 X70.563 Y73.084 E28.13553
G1 X70.666 Y73.187 E28.14111
G1 X71.071 Y73.649 E28.16462
G1 X71.413 Y74.159 E28.18812
G1 X71.686 Y74.71 E28.21165
G1 X71.885 Y75.291 E28.23516
G1 X72.007 Y75.894 E28.2587
G1 X72.05 Y76.528 E28.28302
G1 X72.05 Y95.472 E29.008
G1 X72.01 Y96.085 E29.03151
G1 X71.891 Y96.688 E29.05504
G1 X71.694 Y97.27 E29.07855
G1 X71.424 Y97.822 E29.10207
G1 X71.084 Y98.334 E29.12559
G1 X70.666 Y98.813 E29.14992
G1 X70.563 Y98.916 E29.15549
G1 X70.101 Y99.321 E29.17901
G1 X69.591 Y99.663 E29.2025
G1 X69.04 Y99.936 E29.22604
G1 X68.459 Y100.135 E29.24954
G1 X67.856 Y100.257 E29.27309
G1 X67.222 Y100.3 E29.2974
G1 X20.778 Y100.3 E31.07481
G1 X20.165 Y100.26 E31.09832
G1 X19.562 Y100.141 E31.12184
G1 X18.98 Y99.944 E31.14536
G1 X18.428 Y99.674 E31.16888
G1 X17.916 Y99.334 E31.1924
G1 X17.437 Y98.916 E31.21673
G1 X17.334 Y98.813 E31.2223
G1 X16.929 Y98.351 E31.24581
G1 X16.587 Y97.841 E31.26931
G1 X16.314 Y97.29 E31.29285
G1 X16.115 Y96.709 E31.31635
G1 X15.993 Y96.106 E31.33989
G1 X15.95 Y95.472 E31.36421
G1 X15.95 Y76.528 E32.0892
G1 X15.99 Y75.915 E32.11271
G1 X16.109 Y75.312 E32.13623
G1 X16.306 Y74.73 E32.15974
G1 X16.576 Y74.178 E32.18326
G1 X16.916 Y73.666 E32.20678
G1 X17.334 Y73.187 E32.23111
G1 X17.437 Y73.084 E32.23669
G1 X17.899 Y72.679 E32.2602
G1 X18.409 Y72.337 E32.2837
G1 X18.96 Y72.064 E32.30723
G1 X19.541 Y71.865 E32.33073
G1 X19.929 Y71.786 E32.34589
G1 X19.81 Y71.683 E32.35191
G1 X19.707 Y71.581 E32.35746
G1 X19.3 Y71.121 E32.38096
G1 X18.955 Y70.613 E32.40446
G1 X18.68 Y70.063 E32.428
G1 X18.478 Y69.483 E32.4515
G1 X18.353 Y68.881 E32.47503
G1 X18.307 Y68.224 E32.50024
G1 X18.307 Y66.379 E32.57084
G1 X18.347 Y65.766 E32.59435
G1 X18.466 Y65.163 E32.61788
G1 X18.663 Y64.581 E32.64139
G1 X18.933 Y64.029 E32.66491
G1 X19.273 Y63.517 E32.68843
G1 X19.691 Y63.038 E32.71276
G1 X19.794 Y62.935 E32.71833
G1 X20.256 Y62.53 E32.74184
G1 X20.766 Y62.188 E32.76534
G1 X21.317 Y61.915 E32.78888
G1 X21.898 Y61.716 E32.81238
G1 X22.501 Y61.594 E32.83593
G1 X23.112 Y61.551 E32.85937
G1 X29.279 Y61.521 E33.09538
G1 X29.288 Y59.901 E33.15738
G1 X23.133 Y59.901 E33.39293
G1 X22.52 Y59.861 E33.41644
G1 X21.917 Y59.742 E33.43996
G1 X21.335 Y59.545 E33.46347
G1 X20.783 Y59.275 E33.48699
G1 X20.271 Y58.935 E33.51051
G1 X19.776 Y58.501 E33.53571
G1 X19.674 Y58.398 E33.54125
G1 X19.271 Y57.934 E33.56477
G1 X18.931 Y57.422 E33.58829
G1 X18.661 Y56.87 E33.61181
G1 X18.465 Y56.287 E33.63535
G1 X18.346 Y55.685 E33.65883
G1 X18.306 Y55.07 E33.68242
G1 X18.307 Y53.225 E33.75303
G1 X18.347 Y52.612 E33.77654
G1 X18.467 Y52.01 E33.80003
G1 X18.664 Y51.427 E33.82358
G1 X18.934 Y50.876 E33.84706
G1 X19.25 Y50.401 E33.8689
G1 X18.334 Y49.485 E33.91847
G1 X17.893 Y48.976 E33.94424
G1 X16.9 Y47.65 E34.00764
G1 X16.535 Y47.082 E34.03348
G1 X15.745 Y45.635 E34.09657
G1 X15.465 Y45.023 E34.12233
G1 X14.889 Y43.479 E34.1854
G1 X14.698 Y42.827 E34.2114
G1 X14.349 Y41.215 E34.27452
G1 X14.254 Y40.551 E34.30019
G1 X14.137 Y38.91 E34.36315
G1 X14.137 Y38.233 E34.38906
G1 X14.256 Y36.588 E34.45218
G1 X14.353 Y35.922 E34.47793
G1 X14.704 Y34.313 E34.54096
G1 X14.893 Y33.668 E34.56668
G1 X15.47 Y32.122 E34.62983
G1 X15.754 Y31.503 E34.65589
G1 X16.546 Y30.058 E34.71896
G1 X16.909 Y29.494 E34.74462
G1 X17.898 Y28.175 E34.80772
G1 X18.391 Y27.615 E34.83627
G1 X19.528 Y26.514 E34.89684
G0 F1782 X19.585 Y26.459
G0 X20.054 Y26.062
G0 F4320 X20.28 Y26.329
G1 F2400 E34.9234
G1 F1980 X20.779 Y26.012 E34.94602
G1 X21.317 Y25.765 E34.96868
G1 X21.882 Y25.592 E34.99129
G1 X22.466 Y25.498 E35.01393
G1 X22.872 Y25.479 E35.02948
G1 X49.197 Y25.479 E36.03694
G1 X49.787 Y25.519 E36.05957
G1 X50.366 Y25.638 E36.08219
G1 X50.924 Y25.834 E36.10483
G1 X51.45 Y26.104 E36.12745
G1 X51.935 Y26.442 E36.15008
G1 X52.291 Y26.76 E36.16834
G1 X52.394 Y26.863 E36.17392
G1 X52.782 Y27.309 E36.19654
G1 X53.108 Y27.803 E36.21919
G1 X53.363 Y28.336 E36.2418
G1 X53.545 Y28.898 E36.26441
G1 X53.649 Y29.48 E36.28704
G1 X53.675 Y29.957 E36.30532
G1 X53.675 Y33.701 E36.4486
G1 X53.635 Y34.291 E36.47123
