;FLAVOR:Marlin
;TIME:2400
;Filament used: 1.24174m
;Layer height: 0.175
;Generated with Cura_SteamEngine 3.6.0
M140 S65
M105
M190 S65
M104 S205
M105
M109 S205
M82 ;absolute extrusion mode
G21;(metric values)
G90;(absolute positioning)
M82;(set extruder to absolute mode)
M107;(start with the fan off)
G28;(Home the printer)
G92 E0;(Reset the extruder to 0)
G0 Z5 E5 F500;(Move up and prime the nozzle)
G0 X-1 Z0;(Move outside the printable area)
G1 Y60 E8 F500;(Draw a priming/wiping line to the rear)
G1 X-1;(Move a little closer to the print area)
G1 Y10 E16 F500;(draw more priming/wiping)
G1 E15 F250;(Small retract)
G92 E0;(Zero the extruder)
G92 E0
G1 F2400 E-2.5
;LAYER_COUNT:207
;LAYER:0
M107
G0 F4320 X45.859 Y45.966 Z0.263
;TYPE:SKIRT
G1 F2400 E0
G1 F1620 X46.325 Y45.532 E0.02437
G1 X46.841 Y45.158 E0.04876
G1 X47.399 Y44.853 E0.0731
G1 X47.992 Y44.619 E0.09749
G1 X48.609 Y44.462 E0.12186
G1 X49.387 Y44.377 E0.15181
G1 X69.168 Y43.737 E0.90922
G1 X69.804 Y43.756 E0.93357
G1 X70.434 Y43.855 E0.95798
G1 X71.045 Y44.032 E0.98232
G1 X71.63 Y44.284 E1.0067
G1 X72.179 Y44.608 E1.0311
G1 X72.815 Y45.117 E1.06227
G1 X72.921 Y45.217 E1.06785
G1 X73.355 Y45.683 E1.09222
G1 X73.729 Y46.199 E1.11661
G1 X74.034 Y46.757 E1.14094
G1 X74.268 Y47.35 E1.16534
G1 X74.425 Y47.967 E1.18971
G1 X74.51 Y48.745 E1.21966
G1 X75.15 Y68.526 E1.97707
G1 X75.131 Y69.162 E2.00142
G1 X75.032 Y69.792 E2.02583
G1 X74.855 Y70.403 E2.05017
G1 X74.603 Y70.988 E2.07455
G1 X74.279 Y71.537 E2.09894
G1 X73.77 Y72.173 E2.13012
G1 X73.67 Y72.279 E2.1357
G1 X73.204 Y72.713 E2.16007
G1 X72.688 Y73.087 E2.18446
G1 X72.13 Y73.392 E2.20879
G1 X71.537 Y73.626 E2.23319
G1 X70.92 Y73.783 E2.25755
G1 X70.142 Y73.868 E2.28751
G1 X50.359 Y74.508 E3.045
G1 X49.723 Y74.489 E3.06935
G1 X49.093 Y74.39 E3.09375
G1 X48.482 Y74.213 E3.1181
G1 X47.897 Y73.961 E3.14247
G1 X47.348 Y73.637 E3.16687
G1 X46.712 Y73.128 E3.19804
G1 X46.606 Y73.028 E3.20362
G1 X46.172 Y72.562 E3.22799
G1 X45.798 Y72.046 E3.25238
G1 X45.493 Y71.488 E3.27672
G1 X45.259 Y70.895 E3.30111
G1 X45.102 Y70.278 E3.32548
G1 X45.017 Y69.5 E3.35543
G1 X44.379 Y49.719 E4.11284
G1 X44.398 Y49.082 E4.13723
G1 X44.497 Y48.453 E4.1616
G1 X44.674 Y47.841 E4.18598
G1 X44.926 Y47.256 E4.21036
G1 X45.25 Y46.708 E4.23472
G1 X45.416 Y46.5 E4.2449
G0 F1458 X45.759 Y46.072
G0 X45.859 Y45.966
G0 F4320 X46.114 Y46.207
G1 F2400 E4.27146
G1 F1620 X46.564 Y45.788 E4.29499
G1 X47.064 Y45.431 E4.31851
G1 X47.607 Y45.143 E4.34203
G1 X48.182 Y44.927 E4.36553
G1 X48.78 Y44.787 E4.38904
G1 X49.398 Y44.726 E4.4128
G1 X69.179 Y44.086 E5.17022
G1 X69.793 Y44.107 E5.19373
G1 X70.4 Y44.206 E5.21727
G1 X70.988 Y44.384 E5.24078
G1 X71.548 Y44.636 E5.26428
G1 X72.071 Y44.959 E5.2878
G1 X72.574 Y45.372 E5.31271
G1 X72.68 Y45.472 E5.31829
G1 X73.099 Y45.922 E5.34182
G1 X73.456 Y46.422 E5.36533
G1 X73.744 Y46.965 E5.38885
G1 X73.96 Y47.54 E5.41236
G1 X74.1 Y48.138 E5.43586
G1 X74.161 Y48.756 E5.45963
G1 X74.801 Y68.537 E6.21704
G1 X74.78 Y69.151 E6.24056
G1 X74.681 Y69.758 E6.26409
G1 X74.503 Y70.346 E6.2876
G1 X74.251 Y70.906 E6.3111
G1 X73.928 Y71.429 E6.33463
G1 X73.515 Y71.932 E6.35954
G1 X73.415 Y72.038 E6.36511
G1 X72.965 Y72.457 E6.38864
G1 X72.465 Y72.814 E6.41216
G1 X71.922 Y73.102 E6.43568
G1 X71.347 Y73.318 E6.45918
G1 X70.749 Y73.458 E6.48269
G1 X70.131 Y73.519 E6.50645
G1 X50.348 Y74.159 E7.26395
G1 X49.734 Y74.138 E7.28746
G1 X49.127 Y74.039 E7.31099
G1 X48.539 Y73.861 E7.3345
G1 X47.979 Y73.609 E7.35801
G1 X47.456 Y73.286 E7.38153
G1 X46.953 Y72.873 E7.40644
G1 X46.847 Y72.773 E7.41201
G1 X46.428 Y72.323 E7.43555
G1 X46.071 Y71.823 E7.45906
G1 X45.783 Y71.28 E7.48258
G1 X45.567 Y70.705 E7.50609
G1 X45.427 Y70.107 E7.52959
G1 X45.366 Y69.488 E7.55339
G1 X44.728 Y49.707 E8.31081
G1 X44.749 Y49.093 E8.33432
G1 X44.848 Y48.487 E8.35782
G1 X45.026 Y47.899 E8.38133
G1 X45.278 Y47.338 E8.40486
G1 X45.601 Y46.815 E8.42839
G1 X45.666 Y46.736 E8.4323
G0 F1458 X46.014 Y46.313
G0 X46.114 Y46.207
G0 F4320 X46.369 Y46.447
G1 F2400 E8.45886
G1 F1620 X46.803 Y46.045 E8.4815
G1 X47.287 Y45.706 E8.50412
G1 X47.812 Y45.434 E8.52674
G1 X48.369 Y45.237 E8.54935
G1 X48.948 Y45.116 E8.57199
G1 X49.41 Y45.076 E8.58974
G1 X69.191 Y44.436 E9.34715
G1 X69.781 Y44.457 E9.36975
G1 X70.364 Y44.557 E9.39238
G1 X70.928 Y44.735 E9.41502
G1 X71.463 Y44.988 E9.43767
G1 X71.958 Y45.31 E9.46026
G1 X72.334 Y45.627 E9.47909
G1 X72.44 Y45.727 E9.48466
G1 X72.842 Y46.161 E9.5073
G1 X73.181 Y46.645 E9.52992
G1 X73.453 Y47.17 E9.55254
G1 X73.65 Y47.727 E9.57515
G1 X73.771 Y48.306 E9.59779
G1 X73.811 Y48.768 E9.61554
G1 X74.451 Y68.549 E10.37295
G1 X74.43 Y69.139 E10.39555
G1 X74.33 Y69.722 E10.41818
G1 X74.152 Y70.286 E10.44082
G1 X73.899 Y70.821 E10.46347
G1 X73.577 Y71.316 E10.48606
G1 X73.26 Y71.692 E10.50489
G1 X73.16 Y71.798 E10.51046
G1 X72.726 Y72.2 E10.5331
G1 X72.242 Y72.539 E10.55572
G1 X71.717 Y72.811 E10.57834
G1 X71.16 Y73.008 E10.60095
G1 X70.581 Y73.129 E10.62359
G1 X70.119 Y73.169 E10.64134
G1 X50.336 Y73.809 E11.39883
G1 X49.746 Y73.788 E11.42142
G1 X49.163 Y73.688 E11.44406
G1 X48.599 Y73.51 E11.46669
G1 X48.064 Y73.257 E11.48934
G1 X47.569 Y72.935 E11.51194
G1 X47.193 Y72.618 E11.53076
G1 X47.087 Y72.518 E11.53634
G1 X46.685 Y72.084 E11.55898
G1 X46.346 Y71.6 E11.58159
G1 X46.074 Y71.075 E11.60422
G1 X45.877 Y70.518 E11.62683
G1 X45.756 Y69.939 E11.64947
G1 X45.716 Y69.477 E11.66721
G1 X45.078 Y49.696 E12.42463
G1 X45.099 Y49.105 E12.44726
G1 X45.2 Y48.522 E12.4699
G1 X45.378 Y47.959 E12.4925
G1 X45.63 Y47.424 E12.51513
G1 X45.921 Y46.976 E12.53557
G0 F1458 X45.952 Y46.928
G0 X46.269 Y46.553
G0 X46.369 Y46.447
G0 F4320 X46.623 Y46.687
G1 F2400 E12.56213
G1 F1620 X47.04 Y46.303 E12.58383
G1 X47.508 Y45.981 E12.60557
G1 X48.015 Y45.729 E12.62724
G1 X48.553 Y45.55 E12.64893
G1 X49.111 Y45.448 E12.67064
G1 X49.421 Y45.426 E12.68254
G1 X69.202 Y44.786 E13.43995
G1 X69.769 Y44.808 E13.46167
G1 X70.327 Y44.909 E13.48337
G1 X70.865 Y45.087 E13.50505
G1 X71.373 Y45.34 E13.52677
G1 X71.84 Y45.661 E13.54846
G1 X72.094 Y45.881 E13.56132
G1 X72.2 Y45.981 E13.5669
G1 X72.584 Y46.398 E13.58859
G1 X72.906 Y46.866 E13.61033
G1 X73.158 Y47.373 E13.632
G1 X73.337 Y47.911 E13.6537
G1 X73.439 Y48.469 E13.67541
G1 X73.461 Y48.779 E13.6873
G1 X74.101 Y68.56 E14.44471
G1 X74.079 Y69.127 E14.46643
G1 X73.978 Y69.685 E14.48813
G1 X73.8 Y70.223 E14.50982
G1 X73.547 Y70.731 E14.53154
G1 X73.226 Y71.198 E14.55322
G1 X73.006 Y71.452 E14.56608
G1 X72.906 Y71.558 E14.57166
G1 X72.489 Y71.942 E14.59335
G1 X72.021 Y72.264 E14.61509
G1 X71.514 Y72.516 E14.63676
G1 X70.976 Y72.695 E14.65846
G1 X70.418 Y72.797 E14.68017
G1 X70.108 Y72.819 E14.69206
G1 X50.325 Y73.459 E15.44955
G1 X49.758 Y73.437 E15.47127
G1 X49.2 Y73.336 E15.49297
G1 X48.662 Y73.158 E15.51466
G1 X48.154 Y72.905 E15.53638
G1 X47.687 Y72.584 E15.55806
G1 X47.433 Y72.364 E15.57092
G1 X47.327 Y72.264 E15.5765
G1 X46.943 Y71.847 E15.59819
G1 X46.621 Y71.379 E15.61993
G1 X46.369 Y70.872 E15.6416
G1 X46.19 Y70.334 E15.6633
G1 X46.088 Y69.776 E15.68501
G1 X46.066 Y69.466 E15.6969
G1 X45.428 Y49.685 E16.45431
G1 X45.45 Y49.118 E16.47603
G1 X45.551 Y48.56 E16.49773
G1 X45.729 Y48.022 E16.51942
G1 X45.982 Y47.514 E16.54114
G1 X46.183 Y47.222 E16.5547
G0 F1458 X46.303 Y47.047
G0 X46.523 Y46.793
G0 X46.623 Y46.687
G0 F4320 X46.878 Y46.927
G1 F2400 E16.58126
G1 F1620 X47.278 Y46.561 E16.60201
G1 X47.727 Y46.259 E16.62272
G1 X48.216 Y46.025 E16.64347
G1 X48.734 Y45.866 E16.6642
G1 X49.432 Y45.776 E16.69114
G1 X69.213 Y45.136 E17.44855
G1 X69.755 Y45.158 E17.46931
G1 X70.287 Y45.26 E17.49004
G1 X70.798 Y45.439 E17.51076
G1 X71.278 Y45.691 E17.53151
G1 X71.854 Y46.136 E17.55936
G1 X71.96 Y46.236 E17.56494
G1 X72.326 Y46.636 E17.58569
G1 X72.628 Y47.085 E17.6064
G1 X72.862 Y47.574 E17.62714
G1 X73.021 Y48.092 E17.64788
G1 X73.111 Y48.79 E17.67481
G1 X73.751 Y68.571 E18.43223
G1 X73.729 Y69.113 E18.45299
G1 X73.627 Y69.645 E18.47372
G1 X73.448 Y70.156 E18.49444
G1 X73.196 Y70.636 E18.51519
G1 X72.751 Y71.212 E18.54304
G1 X72.651 Y71.318 E18.54862
G1 X72.251 Y71.684 E18.56937
G1 X71.802 Y71.986 E18.59008
G1 X71.313 Y72.22 E18.61082
G1 X70.795 Y72.379 E18.63156
G1 X70.097 Y72.469 E18.65849
G1 X50.314 Y73.109 E19.41598
G1 X49.772 Y73.087 E19.43674
G1 X49.24 Y72.985 E19.45747
G1 X48.729 Y72.806 E19.47819
G1 X48.249 Y72.554 E19.49894
G1 X47.673 Y72.109 E19.5268
G1 X47.567 Y72.009 E19.53237
G1 X47.201 Y71.609 E19.55312
G1 X46.899 Y71.16 E19.57383
G1 X46.665 Y70.671 E19.59458
G1 X46.506 Y70.153 E19.61531
G1 X46.416 Y69.454 E19.64229
G1 X45.778 Y49.673 E20.3997
G1 X45.8 Y49.132 E20.42042
G1 X45.902 Y48.6 E20.44115
G1 X46.081 Y48.088 E20.46191
G1 X46.334 Y47.609 E20.48264
G1 X46.443 Y47.467 E20.48949
G0 F1458 X46.778 Y47.033
G0 X46.878 Y46.927
G0 F4320 X47.132 Y47.167
G1 F2400 E20.51605
G1 F1620 X47.514 Y46.821 E20.53577
G1 X47.945 Y46.538 E20.5555
G1 X48.414 Y46.325 E20.57522
G1 X48.91 Y46.186 E20.59493
G1 X49.443 Y46.126 E20.61546
G1 X69.224 Y45.486 E21.37287
G1 X69.739 Y45.509 E21.3926
G1 X70.244 Y45.612 E21.41232
G1 X70.727 Y45.791 E21.43204
G1 X71.177 Y46.043 E21.45177
G1 X71.614 Y46.39 E21.47313
G1 X71.72 Y46.49 E21.47871
G1 X72.066 Y46.872 E21.49843
G1 X72.349 Y47.303 E21.51816
G1 X72.562 Y47.772 E21.53788
G1 X72.701 Y48.268 E21.55759
G1 X72.761 Y48.801 E21.57812
G1 X73.401 Y68.582 E22.33553
G1 X73.378 Y69.097 E22.35526
G1 X73.275 Y69.602 E22.37498
G1 X73.096 Y70.085 E22.3947
G1 X72.844 Y70.535 E22.41443
G1 X72.497 Y70.972 E22.43579
G1 X72.397 Y71.078 E22.44137
G1 X72.015 Y71.424 E22.46109
G1 X71.584 Y71.707 E22.48082
G1 X71.115 Y71.92 E22.50054
G1 X70.619 Y72.059 E22.52025
G1 X70.086 Y72.119 E22.54078
G1 X50.303 Y72.759 E23.29827
G1 X49.788 Y72.736 E23.31799
G1 X49.283 Y72.633 E23.33772
G1 X48.799 Y72.454 E23.35747
G1 X48.35 Y72.202 E23.37717
G1 X47.913 Y71.855 E23.39853
G1 X47.807 Y71.755 E23.4041
G1 X47.461 Y71.373 E23.42383
G1 X47.178 Y70.942 E23.44356
G1 X46.965 Y70.473 E23.46327
G1 X46.826 Y69.977 E23.48299
G1 X46.766 Y69.443 E23.50355
G1 X46.128 Y49.662 E24.26096
G1 X46.151 Y49.147 E24.28069
G1 X46.254 Y48.642 E24.30042
G1 X46.433 Y48.159 E24.32013
G1 X46.685 Y47.71 E24.33983
G1 X46.691 Y47.702 E24.34022
G0 F1458 X47.032 Y47.273
G0 X47.132 Y47.167
G0 F4320 X47.387 Y47.407
G1 F2400 E24.36678
G1 F1620 X47.749 Y47.082 E24.38539
G1 X48.16 Y46.819 E24.40407
G1 X48.608 Y46.627 E24.42272
G1 X49.082 Y46.511 E24.4414
G1 X49.455 Y46.476 E24.45573
G1 X69.236 Y45.836 E25.21315
G1 X69.723 Y45.86 E25.23181
G1 X70.199 Y45.963 E25.25044
G1 X70.652 Y46.143 E25.2691
G1 X71.07 Y46.394 E25.28776
G1 X71.374 Y46.645 E25.30285
G1 X71.48 Y46.745 E25.30842
G1 X71.805 Y47.107 E25.32704
G1 X72.068 Y47.518 E25.34571
G1 X72.26 Y47.966 E25.36437
G1 X72.376 Y48.44 E25.38304
G1 X72.411 Y48.813 E25.39738
G1 X73.051 Y68.594 E26.15479
G1 X73.027 Y69.081 E26.17345
G1 X72.924 Y69.557 E26.19209
G1 X72.744 Y70.01 E26.21075
G1 X72.493 Y70.428 E26.22941
G1 X72.242 Y70.732 E26.24449
G1 X72.142 Y70.838 E26.25007
G1 X71.78 Y71.163 E26.26869
G1 X71.369 Y71.426 E26.28736
G1 X70.921 Y71.618 E26.30601
G1 X70.447 Y71.734 E26.32469
G1 X70.074 Y71.769 E26.33903
G1 X50.291 Y72.409 E27.09652
G1 X49.804 Y72.385 E27.11518
G1 X49.328 Y72.282 E27.13382
G1 X48.875 Y72.102 E27.15247
G1 X48.457 Y71.851 E27.17113
G1 X48.153 Y71.6 E27.18622
G1 X48.047 Y71.5 E27.19179
G1 X47.722 Y71.138 E27.21041
G1 X47.459 Y70.727 E27.22909
G1 X47.267 Y70.279 E27.24774
G1 X47.151 Y69.805 E27.26641
G1 X47.116 Y69.432 E27.28075
G1 X46.478 Y49.651 E28.03816
G1 X46.502 Y49.164 E28.05682
G1 X46.605 Y48.688 E28.07546
G1 X46.785 Y48.235 E28.09412
G1 X46.957 Y47.95 E28.10685
G0 F1458 X47.036 Y47.817
G0 X47.287 Y47.513
G0 X47.387 Y47.407
G0 F4320 X47.642 Y47.648
G1 F2400 E28.13341
G1 F1620 X47.984 Y47.343 E28.15095
G1 X48.373 Y47.103 E28.16844
G1 X48.799 Y46.934 E28.18598
G1 X49.466 Y46.825 E28.21185
G1 X69.247 Y46.185 E28.96926
G1 X69.704 Y46.211 E28.98678
G1 X70.15 Y46.315 E29.00431
G1 X70.571 Y46.495 E29.02183
G1 X70.954 Y46.745 E29.03933
G1 X71.133 Y46.9 E29.04839
G1 X71.239 Y47 E29.05397
G1 X71.544 Y47.342 E29.07151
G1 X71.784 Y47.731 E29.089
G1 X71.953 Y48.157 E29.10654
G1 X72.062 Y48.824 E29.1324
G1 X72.702 Y68.605 E29.88982
G1 X72.676 Y69.062 E29.90733
G1 X72.572 Y69.508 E29.92486
G1 X72.392 Y69.929 E29.94238
G1 X72.142 Y70.312 E29.95989
G1 X71.987 Y70.491 E29.96895
G1 X71.887 Y70.597 E29.97453
G1 X71.545 Y70.902 E29.99206
G1 X71.156 Y71.142 E30.00955
G1 X70.73 Y71.311 E30.02709
G1 X70.063 Y71.42 E30.05296
G1 X50.28 Y72.06 E30.81045
G1 X49.823 Y72.034 E30.82797
G1 X49.377 Y71.93 E30.84549
G1 X48.956 Y71.75 E30.86302
G1 X48.573 Y71.5 E30.88052
G1 X48.394 Y71.345 E30.88958
G1 X48.288 Y71.245 E30.89516
G1 X47.983 Y70.903 E30.91269
G1 X47.743 Y70.514 E30.93019
G1 X47.574 Y70.088 E30.94773
G1 X47.465 Y69.421 E30.97359
G1 X46.827 Y49.64 E31.731
G1 X46.853 Y49.182 E31.74856
G1 X46.957 Y48.737 E31.76605
G1 X47.137 Y48.316 E31.78357
G1 X47.216 Y48.195 E31.7891
G0 F1458 X47.387 Y47.933
G0 X47.542 Y47.754
G0 X47.642 Y47.648
G0 F4320 X47.896 Y47.888
G1 F2400 E31.81566
G1 F1620 X48.216 Y47.607 E31.83196
G1 X48.583 Y47.39 E31.84827
G1 X48.984 Y47.246 E31.86458
G1 X49.477 Y47.175 E31.88364
G1 X69.258 Y46.535 E32.64105
G1 X69.684 Y46.561 E32.65739
G1 X70.097 Y46.666 E32.6737
G1 X70.483 Y46.847 E32.69001
G1 X70.893 Y47.154 E32.70961
G1 X70.999 Y47.254 E32.71519
G1 X71.28 Y47.574 E32.73149
G1 X71.497 Y47.941 E32.7478
G1 X71.641 Y48.342 E32.76411
G1 X71.712 Y48.835 E32.78317
G1 X72.352 Y68.616 E33.54059
G1 X72.326 Y69.042 E33.55692
G1 X72.221 Y69.455 E33.57323
G1 X72.04 Y69.841 E33.58954
G1 X71.733 Y70.251 E33.60915
G1 X71.633 Y70.357 E33.61472
G1 X71.313 Y70.638 E33.63102
G1 X70.946 Y70.855 E33.64734
G1 X70.545 Y70.999 E33.66364
G1 X70.052 Y71.07 E33.6827
G1 X50.269 Y71.71 E34.44019
G1 X49.843 Y71.684 E34.45653
G1 X49.43 Y71.579 E34.47284
G1 X49.044 Y71.398 E34.48915
G1 X48.634 Y71.091 E34.50875
G1 X48.528 Y70.991 E34.51433
G1 X48.247 Y70.671 E34.53063
G1 X48.03 Y70.304 E34.54694
G1 X47.886 Y69.903 E34.56325
G1 X47.815 Y69.409 E34.58235
G1 X47.177 Y49.628 E35.33976
G1 X47.203 Y49.203 E35.35606
G1 X47.308 Y48.79 E35.37237
G1 X47.474 Y48.437 E35.38729
G0 F1458 X47.489 Y48.404
G0 X47.796 Y47.994
G0 X47.896 Y47.888
G0 F4320 X48.151 Y48.128
G1 F2400 E35.41385
G1 F1620 X48.447 Y47.872 E35.42883
G1 X48.79 Y47.681 E35.44385
G1 X49.164 Y47.563 E35.45886
G1 X49.489 Y47.525 E35.47139
G1 X69.27 Y46.885 E36.2288
G1 X69.661 Y46.912 E36.2438
G1 X70.038 Y47.018 E36.25879
G1 X70.386 Y47.198 E36.27378
G1 X70.653 Y47.409 E36.2868
G1 X70.759 Y47.509 E36.29238
G1 X71.015 Y47.805 E36.30736
G1 X71.206 Y48.148 E36.32238
G1 X71.324 Y48.522 E36.33739
G1 X71.362 Y48.847 E36.34991
G1 X72.002 Y68.628 E37.10733
G1 X71.975 Y69.019 E37.12233
G1 X71.869 Y69.396 E37.13731
G1 X71.689 Y69.744 E37.15231
G1 X71.478 Y70.011 E37.16533
G1 X71.378 Y70.117 E37.17091
G1 X71.082 Y70.373 E37.18588
G1 X70.739 Y70.564 E37.20091
G1 X70.365 Y70.682 E37.21592
G1 X70.04 Y70.72 E37.22844
G1 X50.257 Y71.36 E37.98593
G1 X49.866 Y71.333 E38.00093
G1 X49.489 Y71.227 E38.01592
G1 X49.141 Y71.047 E38.03091
G1 X48.874 Y70.836 E38.04393
G1 X48.768 Y70.736 E38.04951
G1 X48.512 Y70.44 E38.06449
G1 X48.321 Y70.097 E38.07951
G1 X48.203 Y69.723 E38.09452
G1 X48.165 Y69.398 E38.10704
G1 X47.527 Y49.617 E38.86445
G1 X47.554 Y49.226 E38.87945
G1 X47.66 Y48.849 E38.89444
G1 X47.744 Y48.687 E38.90142
G0 F1458 X47.84 Y48.501
G0 X48.051 Y48.234
G0 X48.151 Y48.128
G0 F4320 X48.405 Y48.368
G1 F2400 E38.92798
G1 F1620 X48.676 Y48.139 E38.94156
G1 X48.991 Y47.977 E38.95512
G1 X49.5 Y47.875 E38.97498
G1 X69.281 Y47.235 E39.7324
G1 X69.634 Y47.263 E39.74595
G1 X69.972 Y47.37 E39.75952
G1 X70.413 Y47.663 E39.77978
G1 X70.519 Y47.763 E39.78536
G1 X70.748 Y48.034 E39.79894
G1 X70.91 Y48.349 E39.81249
G1 X71.012 Y48.858 E39.83236
G1 X71.652 Y68.639 E40.58977
G1 X71.624 Y68.992 E40.60332
G1 X71.517 Y69.33 E40.61689
G1 X71.224 Y69.771 E40.63715
G1 X71.124 Y69.877 E40.64273
G1 X70.853 Y70.106 E40.65631
G1 X70.538 Y70.268 E40.66986
G1 X70.029 Y70.37 E40.68973
G1 X50.246 Y71.01 E41.44722
G1 X49.893 Y70.982 E41.46077
G1 X49.555 Y70.875 E41.47434
G1 X49.114 Y70.582 E41.4946
