;FLAVOR:Marlin
;TIME:3352
;Filament used: 0.896666m
;Layer height: 0.175
;Generated with Cura_SteamEngine 3.6.0
M140 S60
M105
M190 S60
M104 S200
M105
M109 S200
M82 ;absolute extrusion mode
G21;(metric values)
G90;(absolute positioning)
M82;(set extruder to absolute mode)
M107;(start with the fan off)
G28;(Home the printer)
G92 E0;(Reset the extruder to 0)
G92 E0
G1 F2400 E-2.5
;LAYER_COUNT:213
;LAYER:0
M107
G0 F4320 X47.747 Y47.133 Z0.2
;TYPE:SKIRT
G1 F2400 E0
G1 F720 X48.155 Y46.751 E0.01627
G1 X49.022 Y46.024 E0.04919
G1 X49.394 Y45.74 E0.06282
G1 X50.382 Y45.056 E0.09779
G1 X50.844 Y44.772 E0.11357
G1 X52.183 Y44.043 E0.15794
G1 X52.657 Y43.816 E0.17323
G1 X53.679 Y43.39 E0.20546
G1 X54.128 Y43.227 E0.21936
G1 X55.324 Y42.856 E0.2558
G1 X55.922 Y42.71 E0.27372
G1 X57.74 Y42.38 E0.32749
G1 X58.305 Y42.309 E0.34406
G1 X59.345 Y42.239 E0.3744
G1 X59.803 Y42.229 E0.38773
G1 X60.977 Y42.256 E0.4219
G1 X61.479 Y42.293 E0.43655
G1 X62.871 Y42.464 E0.47737
G1 X63.522 Y42.587 E0.49665
G1 X65.333 Y43.055 E0.55109
G1 X65.976 Y43.268 E0.5708
G1 X67.421 Y43.856 E0.6162
G1 X67.983 Y44.126 E0.63435
G1 X69.34 Y44.884 E0.67958
G1 X69.835 Y45.2 E0.69667
G1 X70.952 Y46.006 E0.73676
G1 X71.368 Y46.34 E0.75229
G1 X72.316 Y47.189 E0.78932
G1 X72.708 Y47.582 E0.80548
G1 X73.717 Y48.707 E0.84946
G1 X74.067 Y49.143 E0.86573
G1 X74.832 Y50.213 E0.90401
G1 X75.097 Y50.624 E0.91824
G1 X75.662 Y51.601 E0.95108
G1 X75.872 Y52.005 E0.96434
G1 X76.332 Y52.996 E0.99613
G1 X76.564 Y53.591 E1.01472
G1 X77.216 Y55.635 E1.07716
G1 X77.384 Y56.325 E1.09782
G1 X77.624 Y57.735 E1.13945
G1 X77.684 Y58.245 E1.15439
G1 X77.76 Y59.369 E1.18718
G1 X77.77 Y59.838 E1.20083
G1 X77.74 Y61.039 E1.23579
G1 X77.68 Y61.701 E1.25514
G1 X77.347 Y63.818 E1.31751
G1 X77.14 Y64.658 E1.34268
G1 X76.438 Y66.729 E1.40632
G1 X76.108 Y67.491 E1.43049
G1 X75.192 Y69.206 E1.48708
G1 X74.841 Y69.771 E1.50643
G1 X74.014 Y70.925 E1.54775
G1 X73.553 Y71.481 E1.56877
G1 X72.048 Y73.051 E1.63206
G1 X71.48 Y73.56 E1.65426
G1 X70.171 Y74.568 E1.70234
G1 X69.596 Y74.952 E1.72246
G1 X68.048 Y75.838 E1.77437
G1 X67.495 Y76.111 E1.79232
G1 X66.242 Y76.638 E1.83188
G1 X65.611 Y76.856 E1.85131
G1 X63.747 Y77.365 E1.90754
G1 X63.194 Y77.483 E1.924
G1 X62.311 Y77.621 E1.95001
G1 X61.78 Y77.676 E1.96554
G1 X59.978 Y77.766 E2.01805
G1 X59.255 Y77.75 E2.0391
G1 X57.469 Y77.584 E2.0913
G1 X56.934 Y77.505 E2.10704
G1 X56.053 Y77.327 E2.1332
G1 X55.488 Y77.179 E2.15019
G1 X53.536 Y76.544 E2.20993
G1 X52.912 Y76.294 E2.2295
G1 X51.727 Y75.726 E2.26774
G1 X51.199 Y75.433 E2.28531
G1 X49.764 Y74.521 E2.3348
G1 X49.218 Y74.121 E2.35449
G1 X47.931 Y73.038 E2.40345
G1 X47.363 Y72.478 E2.42666
G1 X45.943 Y70.839 E2.48977
G1 X45.558 Y70.333 E2.50827
G1 X44.926 Y69.386 E2.54141
G1 X44.659 Y68.939 E2.55656
G1 X43.87 Y67.445 E2.60573
G1 X43.544 Y66.681 E2.6299
G1 X42.828 Y64.534 E2.69577
G1 X42.615 Y63.627 E2.72289
G1 X42.287 Y61.267 E2.79223
G1 X42.239 Y60.582 E2.81221
G1 X42.236 Y59.476 E2.8444
G1 X42.274 Y58.845 E2.8628
G1 X42.519 Y56.844 E2.92147
G1 X42.691 Y56.015 E2.94611
G1 X43.324 Y53.885 E3.01077
G1 X43.603 Y53.157 E3.03346
G1 X44.322 Y51.64 E3.08232
G1 X44.581 Y51.161 E3.09817
G1 X45.123 Y50.277 E3.12834
G1 X45.392 Y49.883 E3.14223
G1 X46.209 Y48.795 E3.18183
G1 X46.598 Y48.335 E3.19936
G1 X47.116 Y47.794 E3.22116
G0 F648 X47.747 Y47.133
G0 F4320 X48 Y47.375
G1 F2400 E3.24776
G1 F720 X48.38 Y47.019 E3.26291
G1 X49.247 Y46.292 E3.29584
G1 X49.593 Y46.028 E3.3085
G1 X50.581 Y45.344 E3.34348
G1 X51.012 Y45.079 E3.3582
G1 X52.351 Y44.35 E3.40257
G1 X52.792 Y44.139 E3.4168
G1 X53.814 Y43.713 E3.44902
G1 X54.232 Y43.561 E3.46196
G1 X55.428 Y43.19 E3.49841
G1 X55.984 Y43.054 E3.51507
G1 X57.802 Y42.724 E3.56884
G1 X58.329 Y42.659 E3.58429
G1 X59.369 Y42.589 E3.61463
G1 X59.795 Y42.579 E3.62703
G1 X60.969 Y42.606 E3.6612
G1 X61.436 Y42.64 E3.67483
G1 X62.828 Y42.811 E3.71565
G1 X63.434 Y42.926 E3.7336
G1 X65.245 Y43.394 E3.78803
G1 X65.844 Y43.592 E3.80639
G1 X67.289 Y44.18 E3.85179
G1 X67.812 Y44.432 E3.86869
G1 X69.169 Y45.19 E3.91393
G1 X69.63 Y45.483 E3.92982
G1 X70.747 Y46.289 E3.96991
G1 X71.134 Y46.601 E3.98438
G1 X72.082 Y47.45 E4.02141
G1 X72.448 Y47.815 E4.03646
G1 X73.457 Y48.94 E4.08044
G1 X73.783 Y49.347 E4.09561
G1 X74.548 Y50.417 E4.13389
G1 X74.794 Y50.8 E4.14714
G1 X75.359 Y51.777 E4.17998
G1 X75.555 Y52.153 E4.19232
G1 X76.015 Y53.144 E4.22412
G1 X76.231 Y53.697 E4.2414
G1 X76.883 Y55.741 E4.30384
G1 X77.039 Y56.384 E4.32309
G1 X77.279 Y57.794 E4.36472
G1 X77.335 Y58.268 E4.37861
G1 X77.411 Y59.392 E4.41139
G1 X77.421 Y59.829 E4.42412
G1 X77.391 Y61.03 E4.45908
G1 X77.335 Y61.646 E4.47708
G1 X77.002 Y63.763 E4.53945
G1 X76.809 Y64.546 E4.56292
G1 X76.107 Y66.617 E4.62656
G1 X75.8 Y67.326 E4.64904
G1 X74.884 Y69.041 E4.70563
G1 X74.557 Y69.567 E4.72365
G1 X73.73 Y70.721 E4.76497
G1 X73.3 Y71.239 E4.78456
G1 X71.795 Y72.809 E4.84786
G1 X71.267 Y73.283 E4.8685
G1 X69.958 Y74.291 E4.91659
G1 X69.422 Y74.648 E4.93533
G1 X67.874 Y75.534 E4.98724
G1 X67.359 Y75.788 E5.00395
G1 X66.106 Y76.315 E5.04351
G1 X65.519 Y76.518 E5.06158
G1 X63.655 Y77.027 E5.11782
G1 X63.14 Y77.137 E5.13314
G1 X62.257 Y77.275 E5.15915
G1 X61.763 Y77.326 E5.17361
G1 X59.961 Y77.416 E5.22611
G1 X59.288 Y77.402 E5.2457
G1 X57.502 Y77.236 E5.29791
G1 X57.003 Y77.162 E5.31259
G1 X56.122 Y76.984 E5.33874
G1 X55.596 Y76.846 E5.35457
G1 X53.644 Y76.211 E5.41431
G1 X53.064 Y75.979 E5.43249
G1 X51.879 Y75.411 E5.47073
G1 X51.387 Y75.138 E5.48711
G1 X49.952 Y74.226 E5.53659
G1 X49.444 Y73.853 E5.55493
G1 X48.157 Y72.77 E5.60388
G1 X47.628 Y72.249 E5.62549
G1 X46.208 Y70.61 E5.6886
G1 X45.849 Y70.139 E5.70584
G1 X45.217 Y69.192 E5.73897
G1 X44.969 Y68.776 E5.75307
G1 X44.18 Y67.282 E5.80224
G1 X43.876 Y66.57 E5.82477
G1 X43.16 Y64.423 E5.89063
G1 X42.962 Y63.578 E5.91589
G1 X42.634 Y61.218 E5.98523
G1 X42.589 Y60.581 E6.00382
G1 X42.586 Y59.475 E6.03601
G1 X42.621 Y58.888 E6.05312
G1 X42.866 Y56.887 E6.11179
G1 X43.027 Y56.115 E6.13474
G1 X43.66 Y53.985 E6.19941
G1 X43.919 Y53.307 E6.22053
G1 X44.638 Y51.79 E6.26939
G1 X44.88 Y51.344 E6.28415
G1 X45.422 Y50.46 E6.31433
G1 X45.672 Y50.093 E6.32725
G1 X46.489 Y49.005 E6.36685
G1 X46.851 Y48.577 E6.38316
G1 X47.369 Y48.036 E6.40496
G0 F648 X48 Y47.375
G0 F4320 X48.253 Y47.617
G1 F2400 E6.43156
G1 F720 X48.605 Y47.288 E6.44558
G1 X49.472 Y46.561 E6.47851
G1 X49.793 Y46.316 E6.49027
G1 X50.781 Y45.632 E6.52524
G1 X51.179 Y45.387 E6.53884
G1 X52.518 Y44.658 E6.58321
G1 X52.927 Y44.462 E6.59641
G1 X53.949 Y44.036 E6.62863
G1 X54.336 Y43.895 E6.64062
G1 X55.532 Y43.524 E6.67706
G1 X56.047 Y43.398 E6.69249
G1 X57.865 Y43.068 E6.74626
G1 X58.352 Y43.008 E6.76054
G1 X59.392 Y42.938 E6.79088
G1 X59.787 Y42.929 E6.80238
G1 X60.961 Y42.956 E6.83655
G1 X61.393 Y42.988 E6.84916
G1 X62.785 Y43.159 E6.88997
G1 X63.347 Y43.265 E6.90662
G1 X65.158 Y43.733 E6.96106
G1 X65.712 Y43.917 E6.97804
G1 X67.157 Y44.505 E7.02345
G1 X67.642 Y44.737 E7.03909
G1 X68.999 Y45.495 E7.08433
G1 X69.425 Y45.767 E7.09904
G1 X70.542 Y46.573 E7.13912
G1 X70.901 Y46.862 E7.15254
G1 X71.849 Y47.711 E7.18957
G1 X72.187 Y48.049 E7.20348
G1 X73.196 Y49.174 E7.24746
G1 X73.498 Y49.551 E7.26152
G1 X74.263 Y50.621 E7.2998
G1 X74.491 Y50.975 E7.31206
G1 X75.056 Y51.952 E7.3449
G1 X75.237 Y52.3 E7.35632
G1 X75.697 Y53.291 E7.38811
G1 X75.897 Y53.803 E7.40411
G1 X76.549 Y55.847 E7.46655
G1 X76.694 Y56.443 E7.4844
G1 X76.934 Y57.853 E7.52602
G1 X76.986 Y58.292 E7.53889
G1 X77.062 Y59.416 E7.57168
G1 X77.071 Y59.82 E7.58344
G1 X77.041 Y61.021 E7.6184
G1 X76.989 Y61.592 E7.63509
G1 X76.656 Y63.709 E7.69745
G1 X76.477 Y64.433 E7.71916
G1 X75.775 Y66.504 E7.7828
G1 X75.491 Y67.161 E7.80363
G1 X74.575 Y68.876 E7.86021
G1 X74.272 Y69.363 E7.87691
G1 X73.445 Y70.517 E7.91822
G1 X73.047 Y70.997 E7.93637
G1 X71.542 Y72.567 E7.99966
G1 X71.053 Y73.005 E8.01877
G1 X69.744 Y74.013 E8.06685
G1 X69.248 Y74.344 E8.0842
G1 X67.7 Y75.23 E8.13611
G1 X67.223 Y75.466 E8.1516
G1 X65.97 Y75.993 E8.19116
G1 X65.426 Y76.18 E8.2079
G1 X63.562 Y76.689 E8.26413
G1 X63.086 Y76.792 E8.27831
G1 X62.203 Y76.93 E8.30432
G1 X61.745 Y76.977 E8.31772
G1 X59.943 Y77.067 E8.37022
G1 X59.32 Y77.053 E8.38836
G1 X57.534 Y76.887 E8.44056
G1 X57.073 Y76.819 E8.45412
G1 X56.192 Y76.641 E8.48028
G1 X55.705 Y76.513 E8.49493
G1 X53.753 Y75.878 E8.55467
G1 X53.215 Y75.663 E8.57153
G1 X52.03 Y75.095 E8.60978
G1 X51.574 Y74.842 E8.62495
G1 X50.139 Y73.93 E8.67444
G1 X49.669 Y73.585 E8.69141
G1 X48.382 Y72.502 E8.74036
G1 X47.892 Y72.02 E8.76036
G1 X46.472 Y70.381 E8.82347
G1 X46.14 Y69.945 E8.83942
G1 X45.508 Y68.998 E8.87255
G1 X45.278 Y68.612 E8.88563
G1 X44.489 Y67.118 E8.9348
G1 X44.208 Y66.459 E8.95565
G1 X43.492 Y64.312 E9.02152
G1 X43.309 Y63.53 E9.04489
G1 X42.981 Y61.17 E9.11423
G1 X42.939 Y60.58 E9.13145
G1 X42.936 Y59.474 E9.16363
G1 X42.968 Y58.93 E9.17949
G1 X43.213 Y56.929 E9.23816
G1 X43.362 Y56.215 E9.25939
G1 X43.995 Y54.085 E9.32406
G1 X44.236 Y53.457 E9.34363
G1 X44.955 Y51.94 E9.39249
G1 X45.178 Y51.527 E9.40615
G1 X45.72 Y50.643 E9.43633
G1 X45.952 Y50.303 E9.44831
G1 X46.769 Y49.215 E9.4879
G1 X47.104 Y48.819 E9.503
G1 X47.622 Y48.278 E9.5248
G0 F648 X48.253 Y47.617
G0 F4320 X48.506 Y47.859
G1 F2400 E9.5514
G1 F720 X48.83 Y47.556 E9.56431
G1 X49.697 Y46.829 E9.59723
G1 X49.992 Y46.604 E9.60803
G1 X50.98 Y45.92 E9.643
G1 X51.346 Y45.694 E9.65552
G1 X52.685 Y44.965 E9.69989
G1 X53.061 Y44.785 E9.71202
G1 X54.083 Y44.359 E9.74425
G1 X54.439 Y44.23 E9.75527
G1 X55.635 Y43.859 E9.79171
G1 X56.109 Y43.743 E9.80591
G1 X57.927 Y43.413 E9.85968
G1 X58.376 Y43.357 E9.87285
G1 X59.416 Y43.287 E9.90319
G1 X59.779 Y43.279 E9.91375
G1 X60.953 Y43.306 E9.94793
G1 X61.351 Y43.335 E9.95954
G1 X62.743 Y43.506 E10.00036
G1 X63.259 Y43.604 E10.01564
G1 X65.07 Y44.072 E10.07008
G1 X65.58 Y44.241 E10.08572
G1 X67.025 Y44.829 E10.13112
G1 X67.471 Y45.043 E10.14551
G1 X68.828 Y45.801 E10.19075
G1 X69.22 Y46.051 E10.20428
G1 X70.337 Y46.857 E10.24437
G1 X70.667 Y47.123 E10.2567
G1 X71.615 Y47.972 E10.29374
G1 X71.926 Y48.283 E10.30654
G1 X72.935 Y49.408 E10.35052
G1 X73.213 Y49.754 E10.36344
G1 X73.978 Y50.824 E10.40172
G1 X74.188 Y51.15 E10.413
G1 X74.753 Y52.127 E10.44585
G1 X74.92 Y52.447 E10.45635
G1 X75.38 Y53.438 E10.48815
G1 X75.564 Y53.91 E10.50289
G1 X76.216 Y55.954 E10.56533
G1 X76.349 Y56.502 E10.58174
G1 X76.589 Y57.912 E10.62337
G1 X76.637 Y58.315 E10.63518
G1 X76.713 Y59.439 E10.66796
G1 X76.721 Y59.812 E10.67882
G1 X76.691 Y61.013 E10.71378
G1 X76.643 Y61.537 E10.7291
G1 X76.31 Y63.654 E10.79147
G1 X76.146 Y64.321 E10.81145
G1 X75.444 Y66.392 E10.87509
G1 X75.182 Y66.996 E10.89426
G1 X74.266 Y68.711 E10.95084
G1 X73.988 Y69.16 E10.96621
G1 X73.161 Y70.314 E11.00753
G1 X72.795 Y70.754 E11.02418
G1 X71.29 Y72.324 E11.08748
G1 X70.84 Y72.728 E11.10508
G1 X69.531 Y73.736 E11.15316
G1 X69.074 Y74.04 E11.16913
G1 X67.526 Y74.926 E11.22104
G1 X67.087 Y75.143 E11.23529
G1 X65.834 Y75.67 E11.27485
G1 X65.334 Y75.843 E11.29025
G1 X63.47 Y76.352 E11.34648
G1 X63.032 Y76.446 E11.35952
G1 X62.149 Y76.584 E11.38553
G1 X61.728 Y76.627 E11.39784
G1 X59.926 Y76.717 E11.45035
G1 X59.353 Y76.705 E11.46703
G1 X57.567 Y76.539 E11.51923
G1 X57.142 Y76.476 E11.53174
G1 X56.261 Y76.298 E11.55789
G1 X55.813 Y76.181 E11.57137
G1 X53.861 Y75.546 E11.63111
G1 X53.366 Y75.348 E11.64662
G1 X52.181 Y74.78 E11.68487
G1 X51.762 Y74.547 E11.69882
G1 X50.327 Y73.635 E11.7483
G1 X49.894 Y73.318 E11.76392
G1 X48.607 Y72.235 E11.81287
G1 X48.157 Y71.791 E11.83127
G1 X46.737 Y70.152 E11.89438
G1 X46.431 Y69.75 E11.90908
G1 X45.799 Y68.803 E11.94222
G1 X45.588 Y68.449 E11.95421
G1 X44.799 Y66.955 E12.00338
G1 X44.54 Y66.348 E12.02259
G1 X43.824 Y64.201 E12.08845
G1 X43.655 Y63.482 E12.10995
G1 X43.327 Y61.122 E12.17929
G1 X43.289 Y60.579 E12.19513
G1 X43.286 Y59.473 E12.22732
G1 X43.316 Y58.973 E12.2419
G1 X43.561 Y56.972 E12.30057
G1 X43.698 Y56.314 E12.32013
G1 X44.331 Y54.184 E12.3848
G1 X44.552 Y53.607 E12.40278
G1 X45.271 Y52.09 E12.45163
G1 X45.477 Y51.71 E12.46421
G1 X46.019 Y50.826 E12.49439
G1 X46.231 Y50.513 E12.50539
G1 X47.048 Y49.425 E12.54499
G1 X47.357 Y49.061 E12.55888
G1 X47.875 Y48.52 E12.58068
G0 F648 X48.506 Y47.859
G0 F4320 X48.759 Y48.101
G1 F2400 E12.60728
G1 F720 X49.055 Y47.824 E12.61908
G1 X49.922 Y47.097 E12.65201
G1 X50.191 Y46.891 E12.66187
G1 X51.179 Y46.207 E12.69684
G1 X51.514 Y46.001 E12.70829
G1 X52.853 Y45.272 E12.75266
G1 X53.196 Y45.108 E12.76372
G1 X54.218 Y44.682 E12.79594
G1 X54.543 Y44.564 E12.80601
G1 X55.739 Y44.193 E12.84245
G1 X56.172 Y44.087 E12.85542
G1 X57.99 Y43.757 E12.9092
G1 X58.399 Y43.706 E12.92119
G1 X59.439 Y43.636 E12.95153
G1 X59.77 Y43.629 E12.96116
G1 X60.944 Y43.656 E12.99534
G1 X61.308 Y43.682 E13.00596
G1 X62.7 Y43.853 E13.04677
G1 X63.171 Y43.943 E13.06073
G1 X64.982 Y44.411 E13.11516
G1 X65.448 Y44.565 E13.12945
G1 X66.893 Y45.153 E13.17485
G1 X67.3 Y45.349 E13.188
G1 X68.657 Y46.107 E13.23323
G1 X69.015 Y46.335 E13.24558
G1 X70.132 Y47.141 E13.28567
G1 X70.434 Y47.383 E13.29693
G1 X71.382 Y48.232 E13.33397
G1 X71.666 Y48.516 E13.34566
G1 X72.675 Y49.641 E13.38964
G1 X72.929 Y49.958 E13.40146
G1 X73.694 Y51.028 E13.43974
G1 X73.885 Y51.325 E13.45002
G1 X74.45 Y52.302 E13.48286
G1 X74.602 Y52.595 E13.49247
G1 X75.062 Y53.586 E13.52426
G1 X75.23 Y54.016 E13.5377
G1 X75.882 Y56.06 E13.60014
G1 X76.004 Y56.56 E13.61512
G1 X76.244 Y57.97 E13.65674
G1 X76.288 Y58.339 E13.66756
G1 X76.364 Y59.463 E13.70034
G1 X76.371 Y59.803 E13.71024
G1 X76.341 Y61.004 E13.7452
G1 X76.297 Y61.483 E13.7592
G1 X75.964 Y63.6 E13.82157
G1 X75.814 Y64.209 E13.83982
G1 X75.112 Y66.28 E13.90346
G1 X74.874 Y66.831 E13.92093
G1 X73.958 Y68.546 E13.97751
G1 X73.703 Y68.956 E13.99157
G1 X72.876 Y70.11 E14.03288
G1 X72.542 Y70.512 E14.04809
G1 X71.037 Y72.082 E14.11139
G1 X70.626 Y72.451 E14.12746
G1 X69.317 Y73.459 E14.17554
G1 X68.901 Y73.737 E14.1901
G1 X67.353 Y74.623 E14.24201
G1 X66.952 Y74.821 E14.25503
G1 X65.699 Y75.348 E14.29459
G1 X65.242 Y75.505 E14.30865
G1 X63.378 Y76.014 E14.36488
G1 X62.977 Y76.1 E14.37682
G1 X62.094 Y76.238 E14.40283
G1 X61.71 Y76.277 E14.41406
G1 X59.908 Y76.367 E14.46657
G1 X59.385 Y76.356 E14.48179
G1 X57.599 Y76.19 E14.53399
G1 X57.211 Y76.133 E14.54541
G1 X56.33 Y75.955 E14.57157
G1 X55.921 Y75.848 E14.58387
G1 X53.969 Y75.213 E14.64361
G1 X53.518 Y75.032 E14.65775
G1 X52.333 Y74.464 E14.69599
G1 X51.95 Y74.252 E14.70873
G1 X50.515 Y73.34 E14.75822
G1 X50.12 Y73.05 E14.77248
G1 X48.833 Y71.967 E14.82143
G1 X48.421 Y71.561 E14.83826
G1 X47.001 Y69.922 E14.90137
G1 X46.722 Y69.556 E14.91477
G1 X46.09 Y68.609 E14.9479
G1 X45.897 Y68.285 E14.95888
G1 X45.108 Y66.791 E15.00805
G1 X44.872 Y66.238 E15.02555
G1 X44.156 Y64.091 E15.09141
G1 X44.002 Y63.434 E15.11105
G1 X43.674 Y61.074 E15.18039
G1 X43.639 Y60.578 E15.19486
G1 X43.636 Y59.472 E15.22705
G1 X43.663 Y59.015 E15.24037
G1 X43.908 Y57.014 E15.29904
G1 X44.033 Y56.414 E15.31688
G1 X44.666 Y54.284 E15.38155
G1 X44.868 Y53.757 E15.39797
G1 X45.587 Y52.24 E15.44683
G1 X45.775 Y51.893 E15.45832
G1 X46.317 Y51.009 E15.48849
G1 X46.511 Y50.723 E15.49855
G1 X47.328 Y49.635 E15.53815
G1 X47.61 Y49.303 E15.55082
G1 X48.128 Y48.762 E15.57262
G0 F648 X48.759 Y48.101
G0 F4320 X49.012 Y48.342
G1 F2400 E15.59922
G1 F720 X49.28 Y48.092 E15.60989
G1 X50.147 Y47.365 E15.64282
G1 X50.39 Y47.179 E15.65172
G1 X51.378 Y46.495 E15.68669
G1 X51.681 Y46.309 E15.69704
G1 X53.02 Y45.58 E15.74141
G1 X53.331 Y45.431 E15.75145
G1 X54.353 Y45.005 E15.78367
G1 X54.647 Y44.898 E15.79278
G1 X55.843 Y44.527 E15.82922
G1 X56.234 Y44.431 E15.84094
G1 X58.052 Y44.101 E15.89471
G1 X58.423 Y44.056 E15.90558
G1 X59.463 Y43.986 E15.93592
G1 X59.762 Y43.979 E15.94462
G1 X60.936 Y44.006 E15.9788
G1 X61.265 Y44.03 E15.9884
G1 X62.657 Y44.201 E16.02921
G1 X63.084 Y44.282 E16.04186
G1 X64.895 Y44.75 E16.0963
G1 X65.316 Y44.889 E16.1092
G1 X66.761 Y45.477 E16.1546
G1 X67.129 Y45.654 E16.16649
G1 X68.486 Y46.412 E16.21172
G1 X68.811 Y46.619 E16.22294
G1 X69.928 Y47.425 E16.26302
G1 X70.2 Y47.644 E16.27319
G1 X71.148 Y48.493 E16.31022
G1 X71.405 Y48.75 E16.3208
G1 X72.414 Y49.875 E16.36478
