;FLAVOR:Marlin
;TIME:14164
;Filament used: 9.9267m
;Layer height: 0.175
;Generated with Cura_SteamEngine 3.6.0
M140 S65
M105
M190 S65
M104 S205
M105
M109 S205
M82 ;absolute extrusion mode
G21;(metric values)
G90;(absolute positioning)
M82;(set extruder to absolute mode)
M107;(start with the fan off)
G28;(Home the printer)
G92 E0;(Reset the extruder to 0)
G0 Z5 E5 F500;(Move up and prime the nozzle)
G0 X-1 Z0;(Move outside the printable area)
G1 Y60 E8 F500;(Draw a priming/wiping line to the rear)
G1 X-1;(Move a little closer to the print area)
G1 Y10 E16 F500;(draw more priming/wiping)
G1 E15 F250;(Small retract)
G92 E0;(Zero the extruder)
G92 E0
G1 F2400 E-2.5
;LAYER_COUNT:572
;LAYER:0
M107
G0 F4320 X26.897 Y29.082 Z0.263
;TYPE:SKIRT
G1 F2400 E0
G1 F1620 X27.37 Y28.656 E0.02436
G1 X27.893 Y28.292 E0.04875
G1 X28.457 Y27.997 E0.07311
G1 X29.054 Y27.775 E0.09748
G1 X29.674 Y27.629 E0.12186
G1 X30.472 Y27.558 E0.15252
G1 X36.177 Y27.502 E0.37086
G1 X36.813 Y27.536 E0.39523
G1 X37.44 Y27.649 E0.41961
G1 X38.048 Y27.84 E0.444
G1 X38.627 Y28.105 E0.46837
G1 X39.168 Y28.441 E0.49274
G1 X39.663 Y28.842 E0.51712
G1 X40.103 Y29.301 E0.54146
G1 X40.483 Y29.813 E0.56586
G1 X40.706 Y30.192 E0.58269
G1 X43.998 Y36.373 E0.85069
G1 X45.891 Y32.136 E1.02829
G1 X46.187 Y31.572 E1.05267
G1 X46.551 Y31.049 E1.07705
G1 X46.978 Y30.576 E1.10144
G1 X47.46 Y30.161 E1.12578
G1 X47.991 Y29.809 E1.15016
G1 X48.589 Y29.515 E1.17566
G1 X58.062 Y25.606 E1.56785
G1 X58.665 Y25.4 E1.59223
G1 X59.289 Y25.272 E1.61661
G1 X59.924 Y25.223 E1.64098
G1 X60.56 Y25.253 E1.66535
G1 X61.187 Y25.363 E1.68971
G1 X61.934 Y25.606 E1.71977
G1 X71.406 Y29.515 E2.11192
G1 X71.978 Y29.794 E2.13628
G1 X72.511 Y30.143 E2.16066
G1 X72.996 Y30.556 E2.18504
G1 X73.425 Y31.026 E2.20939
G1 X73.792 Y31.547 E2.23378
G1 X74.102 Y32.133 E2.25915
G1 X76 Y36.375 E2.437
G1 X79.292 Y30.192 E2.70507
G1 X79.626 Y29.65 E2.72944
G1 X80.026 Y29.154 E2.75382
G1 X80.484 Y28.711 E2.77821
G1 X80.994 Y28.33 E2.80257
G1 X81.548 Y28.015 E2.82696
G1 X82.137 Y27.773 E2.85133
G1 X82.751 Y27.606 E2.87568
G1 X83.382 Y27.517 E2.90007
G1 X83.823 Y27.502 E2.91695
G1 X89.524 Y27.559 E3.13514
G1 X90.159 Y27.606 E3.15951
G1 X90.783 Y27.731 E3.18387
G1 X91.387 Y27.934 E3.20825
G1 X91.961 Y28.211 E3.23264
G1 X92.495 Y28.557 E3.25699
G1 X92.982 Y28.968 E3.28138
G1 X93.413 Y29.436 E3.30573
G1 X93.867 Y30.095 E3.33635
G1 X101.163 Y42.719 E3.89436
G1 X101.446 Y43.289 E3.91871
G1 X101.656 Y43.89 E3.94308
G1 X101.789 Y44.513 E3.96745
G1 X101.843 Y45.148 E3.99184
G1 X101.817 Y45.784 E4.0162
G1 X101.711 Y46.412 E4.04058
G1 X101.528 Y47.022 E4.06495
G1 X101.269 Y47.604 E4.08933
G1 X101.099 Y47.904 E4.10253
G1 X93.789 Y59.865 E4.63899
G1 X93.424 Y60.387 E4.66337
G1 X92.996 Y60.859 E4.68775
G1 X92.512 Y61.273 E4.71212
G1 X91.98 Y61.623 E4.73649
G1 X91.409 Y61.904 E4.76085
G1 X90.807 Y62.112 E4.78522
G1 X90.183 Y62.242 E4.80962
G1 X89.487 Y62.294 E4.83633
G1 X82.044 Y62.335 E5.12118
G1 X81.408 Y62.298 E5.14556
G1 X80.782 Y62.183 E5.16991
G1 X80.175 Y61.989 E5.1943
G1 X79.597 Y61.722 E5.21867
G1 X79.058 Y61.383 E5.24304
G1 X78.564 Y60.98 E5.26743
G1 X78.126 Y60.519 E5.29177
G1 X77.748 Y60.006 E5.31616
G1 X77.334 Y59.219 E5.35019
G1 X76.093 Y56.255 E5.47316
G1 X71.848 Y72.309 E6.10866
G1 X69.457 Y87.645 E6.70266
G1 X69.32 Y88.267 E6.72703
G1 X69.106 Y88.867 E6.75141
G1 X68.818 Y89.435 E6.77579
G1 X68.645 Y89.709 E6.78819
G1 X64.2 Y96.273 E7.09157
G1 X63.811 Y96.776 E7.1159
G1 X63.361 Y97.228 E7.14031
G1 X62.859 Y97.619 E7.16466
G1 X62.311 Y97.944 E7.18905
G1 X61.727 Y98.198 E7.21342
G1 X61.116 Y98.377 E7.23778
G1 X60.487 Y98.478 E7.26216
G1 X59.851 Y98.5 E7.28652
G1 X59.216 Y98.441 E7.31092
G1 X58.595 Y98.304 E7.33526
G1 X57.995 Y98.09 E7.35964
G1 X57.427 Y97.802 E7.38401
G1 X56.899 Y97.446 E7.40838
G1 X56.42 Y97.026 E7.43276
G1 X55.997 Y96.55 E7.45713
G1 X55.796 Y96.273 E7.47023
G1 X51.351 Y89.709 E7.77361
G1 X51.028 Y89.16 E7.79799
G1 X50.775 Y88.575 E7.82238
G1 X50.599 Y87.963 E7.84675
G1 X50.539 Y87.646 E7.8591
G1 X48.142 Y72.294 E8.45374
G1 X43.903 Y56.254 E9.08866
G1 X42.66 Y59.222 E9.21181
G1 X42.377 Y59.793 E9.23619
G1 X42.025 Y60.324 E9.26058
G1 X41.61 Y60.807 E9.28495
G1 X41.137 Y61.234 E9.30933
G1 X40.615 Y61.598 E9.33369
G1 X40.051 Y61.894 E9.35806
G1 X39.454 Y62.117 E9.38245
G1 X38.835 Y62.263 E9.40679
G1 X37.951 Y62.336 E9.44074
G1 X30.508 Y62.295 E9.72558
G1 X29.873 Y62.251 E9.74994
G1 X29.248 Y62.129 E9.77431
G1 X28.643 Y61.929 E9.7987
G1 X28.068 Y61.655 E9.82308
G1 X27.532 Y61.311 E9.84745
G1 X27.044 Y60.902 E9.87182
G1 X26.61 Y60.436 E9.89619
G1 X26.206 Y59.867 E9.92289
G1 X18.896 Y47.907 E10.45933
G1 X18.598 Y47.343 E10.48374
G1 X18.374 Y46.747 E10.5081
G1 X18.226 Y46.128 E10.53246
G1 X18.156 Y45.495 E10.55683
G1 X18.167 Y44.858 E10.58122
G1 X18.257 Y44.228 E10.60557
G1 X18.425 Y43.614 E10.62993
G1 X18.669 Y43.025 E10.65433
G1 X18.832 Y42.721 E10.66753
G1 X26.128 Y30.094 E11.22563
G1 X26.449 Y29.611 E11.24783
G0 F1458 X26.48 Y29.564
G0 X26.897 Y29.082
G0 F4320 X27.177 Y29.296
G1 F2400 E11.27439
G1 F1620 X27.638 Y28.89 E11.2979
G1 X28.149 Y28.547 E11.32145
G1 X28.699 Y28.274 E11.34495
G1 X29.28 Y28.074 E11.36846
G1 X29.882 Y27.952 E11.39197
G1 X30.476 Y27.908 E11.41476
G1 X36.181 Y27.852 E11.6331
G1 X36.794 Y27.886 E11.6566
G1 X37.398 Y27.999 E11.68012
G1 X37.982 Y28.19 E11.70363
G1 X38.537 Y28.455 E11.72717
G1 X39.052 Y28.79 E11.75068
G1 X39.52 Y29.188 E11.77419
G1 X39.932 Y29.644 E11.79771
G1 X40.398 Y30.356 E11.83028
G1 X44.026 Y37.169 E12.12567
G1 X46.211 Y32.279 E12.33064
G1 X46.498 Y31.735 E12.35418
G1 X46.852 Y31.233 E12.37769
G1 X47.269 Y30.782 E12.4012
G1 X47.741 Y30.388 E12.42473
G1 X48.26 Y30.059 E12.44824
G1 X48.723 Y29.838 E12.46788
G1 X58.196 Y25.929 E12.86006
G1 X58.778 Y25.732 E12.88358
G1 X59.38 Y25.613 E12.90706
G1 X59.994 Y25.572 E12.93061
G1 X60.607 Y25.611 E12.95412
G1 X61.21 Y25.73 E12.97764
G1 X61.8 Y25.929 E13.00147
G1 X71.272 Y29.838 E13.39362
G1 X71.824 Y30.109 E13.41715
G1 X72.336 Y30.449 E13.44067
G1 X72.799 Y30.853 E13.46419
G1 X73.206 Y31.313 E13.48769
G1 X73.55 Y31.823 E13.51124
G1 X73.783 Y32.276 E13.53073
G1 X75.973 Y37.171 E13.73596
G1 X79.601 Y30.356 E14.03142
G1 X79.925 Y29.834 E14.05493
G1 X80.313 Y29.358 E14.07843
G1 X80.76 Y28.936 E14.10196
G1 X81.258 Y28.576 E14.12548
G1 X81.799 Y28.284 E14.149
G1 X82.373 Y28.064 E14.17253
G1 X82.97 Y27.921 E14.19602
G1 X83.819 Y27.852 E14.22862
G1 X89.52 Y27.909 E14.44681
G1 X90.133 Y27.955 E14.47033
G1 X90.735 Y28.081 E14.49387
G1 X91.315 Y28.283 E14.51738
G1 X91.864 Y28.559 E14.54089
G1 X92.373 Y28.903 E14.5644
G1 X92.832 Y29.311 E14.58791
G1 X93.235 Y29.775 E14.61142
G1 X93.564 Y30.27 E14.63417
G1 X100.86 Y42.894 E15.19217
G1 X101.132 Y43.445 E15.21569
G1 X101.331 Y44.026 E15.23919
G1 X101.452 Y44.629 E15.26273
G1 X101.494 Y45.242 E15.28624
G1 X101.456 Y45.855 E15.30975
G1 X101.339 Y46.458 E15.33326
G1 X101.145 Y47.041 E15.35677
G1 X100.801 Y47.722 E15.38597
G1 X93.491 Y59.683 E15.92243
G1 X93.137 Y60.185 E15.94594
G1 X92.721 Y60.638 E15.96948
G1 X92.25 Y61.032 E15.99298
G1 X91.731 Y61.362 E16.01652
G1 X91.174 Y61.622 E16.04004
G1 X90.588 Y61.807 E16.06356
G1 X89.983 Y61.915 E16.08708
G1 X89.485 Y61.944 E16.10617
G1 X82.042 Y61.985 E16.39101
G1 X81.429 Y61.948 E16.41452
G1 X80.825 Y61.832 E16.43805
G1 X80.242 Y61.639 E16.46156
G1 X79.689 Y61.372 E16.48506
G1 X79.175 Y61.035 E16.50858
G1 X78.709 Y60.634 E16.53211
G1 X78.299 Y60.177 E16.5556
G1 X77.952 Y59.67 E16.57911
G1 X77.657 Y59.084 E16.60422
G1 X76.019 Y55.17 E16.7666
G1 X71.507 Y72.234 E17.44208
G1 X69.112 Y87.591 E18.0369
G1 X68.978 Y88.191 E18.06042
G1 X68.767 Y88.768 E18.08394
G1 X68.355 Y89.512 E18.11648
G1 X63.91 Y96.076 E18.41986
G1 X63.533 Y96.562 E18.4434
G1 X63.097 Y96.994 E18.46689
G1 X62.608 Y97.366 E18.49041
G1 X62.074 Y97.671 E18.51394
G1 X61.506 Y97.905 E18.53745
G1 X60.912 Y98.063 E18.56097
G1 X60.303 Y98.142 E18.58448
G1 X59.688 Y98.142 E18.60801
G1 X59.079 Y98.062 E18.63152
G1 X58.485 Y97.903 E18.65505
G1 X57.917 Y97.669 E18.67856
G1 X57.384 Y97.363 E18.70208
G1 X56.896 Y96.991 E18.72556
G1 X56.459 Y96.558 E18.74911
G1 X56.086 Y96.076 E18.77243
G1 X51.641 Y89.512 E19.07581
G1 X51.33 Y88.982 E19.09933
G1 X51.091 Y88.416 E19.12284
G1 X50.885 Y87.592 E19.15535
G1 X48.484 Y72.216 E19.75092
G1 X43.979 Y55.168 E20.42574
G1 X42.337 Y59.087 E20.58835
G1 X42.063 Y59.637 E20.61187
G1 X41.72 Y60.147 E20.63539
G1 X41.314 Y60.608 E20.6589
G1 X40.851 Y61.013 E20.68244
G1 X40.34 Y61.354 E20.70595
G1 X39.789 Y61.626 E20.72947
G1 X39.207 Y61.824 E20.75299
G1 X38.605 Y61.944 E20.77648
G1 X37.953 Y61.986 E20.80149
G1 X30.51 Y61.945 E21.08634
G1 X29.897 Y61.902 E21.10985
G1 X29.295 Y61.779 E21.13337
G1 X28.714 Y61.579 E21.15688
G1 X28.163 Y61.306 E21.18042
G1 X27.653 Y60.964 E21.20392
G1 X27.192 Y60.558 E21.22742
G1 X26.787 Y60.096 E21.25094
G1 X26.504 Y59.684 E21.27007
G1 X19.194 Y47.724 E21.8065
G1 X18.909 Y47.18 E21.83
G1 X18.696 Y46.604 E21.8535
G1 X18.56 Y46.004 E21.87705
G1 X18.503 Y45.392 E21.90057
G1 X18.526 Y44.778 E21.92408
G1 X18.628 Y44.173 E21.94756
G1 X18.808 Y43.585 E21.9711
G1 X19.135 Y42.896 E22.00028
G1 X26.431 Y30.269 E22.55839
G1 X26.728 Y29.824 E22.57886
G0 F1458 X26.772 Y29.758
G0 X27.177 Y29.296
G0 F4320 X27.457 Y29.512
G1 F2400 E22.60542
G1 F1620 X27.905 Y29.127 E22.62803
G1 X28.402 Y28.806 E22.65067
G1 X28.937 Y28.555 E22.67328
G1 X29.502 Y28.379 E22.69593
G1 X30.085 Y28.28 E22.71856
G1 X30.479 Y28.258 E22.73366
G1 X36.184 Y28.202 E22.95201
G1 X36.774 Y28.236 E22.97462
G1 X37.355 Y28.35 E22.99728
G1 X37.914 Y28.54 E23.01988
G1 X38.443 Y28.805 E23.04252
G1 X38.932 Y29.138 E23.06516
G1 X39.371 Y29.534 E23.08779
G1 X39.752 Y29.986 E23.11041
G1 X40.089 Y30.521 E23.13461
G1 X44.054 Y37.966 E23.45741
G1 X46.531 Y32.421 E23.68983
G1 X46.808 Y31.899 E23.71245
G1 X47.153 Y31.419 E23.73507
G1 X47.559 Y30.99 E23.75767
G1 X48.02 Y30.619 E23.78032
G1 X48.527 Y30.314 E23.80296
G1 X48.856 Y30.162 E23.81683
G1 X58.329 Y26.253 E24.20902
G1 X58.89 Y26.065 E24.23166
G1 X59.471 Y25.954 E24.2543
G1 X60.061 Y25.922 E24.27691
G1 X60.65 Y25.971 E24.29953
G1 X61.228 Y26.098 E24.32217
G1 X61.667 Y26.253 E24.33999
G1 X71.139 Y30.162 E24.73214
G1 X71.669 Y30.424 E24.75477
G1 X72.159 Y30.755 E24.7774
G1 X72.6 Y31.149 E24.80003
G1 X72.983 Y31.599 E24.82264
G1 X73.303 Y32.096 E24.84526
G1 X73.464 Y32.419 E24.85908
G1 X75.946 Y37.966 E25.09164
G1 X79.91 Y30.521 E25.41443
G1 X80.223 Y30.019 E25.43707
G1 X80.6 Y29.564 E25.45968
G1 X81.035 Y29.164 E25.4823
G1 X81.521 Y28.826 E25.50495
G1 X82.047 Y28.556 E25.52758
G1 X82.605 Y28.361 E25.5502
G1 X83.184 Y28.242 E25.57282
G1 X83.816 Y28.202 E25.59706
G1 X89.517 Y28.259 E25.81525
G1 X90.106 Y28.305 E25.83786
G1 X90.684 Y28.43 E25.86049
G1 X91.24 Y28.632 E25.88313
G1 X91.763 Y28.906 E25.90572
G1 X92.245 Y29.249 E25.92836
G1 X92.676 Y29.654 E25.951
G1 X93.049 Y30.113 E25.97363
G1 X93.261 Y30.445 E25.98871
G1 X100.557 Y43.069 E26.54671
G1 X100.817 Y43.6 E26.56933
G1 X101.004 Y44.161 E26.59197
G1 X101.113 Y44.742 E26.61459
G1 X101.143 Y45.332 E26.6372
G1 X101.093 Y45.921 E26.65982
G1 X100.964 Y46.498 E26.68245
G1 X100.759 Y47.053 E26.70509
G1 X100.502 Y47.539 E26.72613
G1 X93.192 Y59.5 E27.26259
G1 X92.85 Y59.983 E27.28524
G1 X92.447 Y60.415 E27.30785
G1 X91.988 Y60.789 E27.33051
G1 X91.484 Y61.097 E27.35311
G1 X90.943 Y61.335 E27.37573
G1 X90.374 Y61.497 E27.39837
G1 X89.789 Y61.582 E27.421
G1 X89.483 Y61.594 E27.43272
G1 X82.04 Y61.635 E27.71756
G1 X81.45 Y61.598 E27.74019
G1 X80.87 Y61.482 E27.76282
G1 X80.311 Y61.289 E27.78546
G1 X79.784 Y61.023 E27.80805
G1 X79.297 Y60.687 E27.83069
G1 X78.859 Y60.289 E27.85334
G1 X78.48 Y59.836 E27.87594
G1 X78.165 Y59.336 E27.89856
G1 X77.98 Y58.949 E27.91497
G1 X75.944 Y54.084 E28.1168
G1 X71.163 Y72.166 E28.83258
G1 X68.766 Y87.537 E29.42794
G1 X68.635 Y88.114 E29.45058
G1 X68.428 Y88.668 E29.47322
G1 X68.066 Y89.316 E29.50162
G1 X63.621 Y95.88 E29.805
G1 X63.257 Y96.346 E29.82763
G1 X62.833 Y96.759 E29.85029
G1 X62.358 Y97.111 E29.87291
G1 X61.84 Y97.395 E29.89552
G1 X61.288 Y97.608 E29.91816
G1 X60.712 Y97.743 E29.9408
G1 X60.124 Y97.8 E29.96341
G1 X59.533 Y97.777 E29.98605
G1 X58.951 Y97.675 E30.00866
G1 X58.388 Y97.495 E30.03128
G1 X57.854 Y97.241 E30.05391
G1 X57.359 Y96.917 E30.07655
G1 X56.913 Y96.529 E30.09917
G1 X56.375 Y95.88 E30.13143
G1 X51.93 Y89.316 E30.43482
G1 X51.633 Y88.805 E30.45744
G1 X51.407 Y88.259 E30.48005
G1 X51.23 Y87.538 E30.50846
G1 X48.826 Y72.142 E31.10481
G1 X44.054 Y54.083 E31.81964
G1 X42.014 Y58.952 E32.02167
G1 X41.749 Y59.48 E32.04428
G1 X41.416 Y59.969 E32.06692
G1 X41.019 Y60.407 E32.08955
G1 X40.567 Y60.788 E32.11217
G1 X40.068 Y61.105 E32.1348
G1 X39.53 Y61.352 E32.15745
G1 X38.965 Y61.524 E32.18005
G1 X38.381 Y61.618 E32.20269
G1 X37.955 Y61.636 E32.21901
G1 X30.512 Y61.595 E32.50386
G1 X29.922 Y61.552 E32.52649
G1 X29.344 Y61.429 E32.54911
G1 X28.787 Y61.23 E32.57175
G1 X28.262 Y60.958 E32.59437
G1 X27.779 Y60.617 E32.617
G1 X27.346 Y60.214 E32.63964
G1 X26.972 Y59.757 E32.66224
G1 X26.803 Y59.502 E32.67395
G1 X19.493 Y47.542 E33.21038
G1 X19.219 Y47.017 E33.23304
G1 X19.019 Y46.461 E33.25565
G1 X18.896 Y45.883 E33.27827
G1 X18.851 Y45.293 E33.30091
G1 X18.887 Y44.703 E33.32354
G1 X19.001 Y44.123 E33.34616
G1 X19.193 Y43.564 E33.36878
G1 X19.438 Y43.071 E33.38984
G1 X26.734 Y30.444 E33.94795
G1 X27.006 Y30.039 E33.96662
G0 F1458 X27.064 Y29.953
G0 X27.457 Y29.512
G0 F4320 X27.735 Y29.729
G1 F2400 E33.99318
G1 F1620 X28.171 Y29.366 E34.01489
G1 X28.653 Y29.068 E34.03658
G1 X29.173 Y28.841 E34.05829
G1 X29.719 Y28.689 E34.07998
G1 X30.482 Y28.608 E34.10934
G1 X36.187 Y28.552 E34.32768
G1 X36.754 Y28.587 E34.34942
G1 X37.309 Y28.7 E34.3711
G1 X37.843 Y28.891 E34.3928
G1 X38.345 Y29.155 E34.41451
G1 X38.805 Y29.486 E34.4362
G1 X39.214 Y29.879 E34.4579
G1 X39.564 Y30.326 E34.47963
G1 X39.78 Y30.685 E34.49567
G1 X44.081 Y38.762 E34.84586
G1 X46.85 Y32.564 E35.10566
G1 X47.117 Y32.064 E35.12735
G1 X47.452 Y31.606 E35.14907
G1 X47.848 Y31.2 E35.17077
G1 X48.297 Y30.854 E35.19246
G1 X48.99 Y30.485 E35.22251
G1 X58.463 Y26.576 E35.61469
G1 X59.001 Y26.397 E35.63639
G1 X59.559 Y26.296 E35.65809
G1 X60.125 Y26.274 E35.67977
G1 X60.69 Y26.332 E35.70151
G1 X61.24 Y26.468 E35.72319
G1 X61.533 Y26.576 E35.73514
G1 X71.005 Y30.485 E36.12729
G1 X71.513 Y30.738 E36.14901
G1 X71.98 Y31.06 E36.17072
G1 X72.398 Y31.444 E36.19244
G1 X72.757 Y31.883 E36.21414
G1 X73.144 Y32.562 E36.24405
G1 X75.918 Y38.763 E36.50403
G1 X80.219 Y30.685 E36.85426
G1 X80.52 Y30.205 E36.87594
G1 X80.886 Y29.771 E36.89767
G1 X81.309 Y29.394 E36.91935
G1 X81.781 Y29.079 E36.94107
G1 X82.292 Y28.834 E36.96276
G1 X82.833 Y28.663 E36.98447
G1 X83.392 Y28.57 E37.00616
G1 X83.812 Y28.552 E37.02225
G1 X89.513 Y28.609 E37.24043
G1 X90.079 Y28.655 E37.26217
G1 X90.632 Y28.779 E37.28385
G1 X91.162 Y28.981 E37.30556
G1 X91.659 Y29.254 E37.32726
G1 X92.112 Y29.595 E37.34896
G1 X92.513 Y29.996 E37.37066
G1 X92.958 Y30.62 E37.39999
G1 X100.254 Y43.244 E37.958
G1 X100.502 Y43.754 E37.9797
G1 X100.677 Y44.293 E38.00139
G1 X100.773 Y44.852 E38.02309
G1 X100.791 Y45.419 E38.0448
G1 X100.728 Y45.983 E38.06652
G1 X100.587 Y46.532 E38.08821
G1 X100.37 Y47.056 E38.10992
G1 X100.203 Y47.357 E38.12309
G1 X92.893 Y59.318 E38.65956
G1 X92.564 Y59.78 E38.68126
G1 X92.174 Y60.191 E38.70295
G1 X91.729 Y60.543 E38.72466
G1 X91.239 Y60.829 E38.74637
G1 X90.714 Y61.043 E38.76807
G1 X90.164 Y61.182 E38.78978
G1 X89.481 Y61.244 E38.81603
G1 X82.038 Y61.285 E39.10087
G1 X81.472 Y61.248 E39.12258
G1 X80.917 Y61.132 E39.14428
G1 X80.384 Y60.939 E39.16597
G1 X79.883 Y60.673 E39.18768
G1 X79.424 Y60.34 E39.20938
G1 X79.017 Y59.945 E39.23109
G1 X78.67 Y59.497 E39.25277
G1 X78.303 Y58.814 E39.28245
G1 X75.869 Y52.998 E39.52373
G1 X70.82 Y72.091 E40.27954
G1 X68.42 Y87.483 E40.8757
G1 X68.293 Y88.036 E40.89742
G1 X68.09 Y88.565 E40.9191
G1 X67.776 Y89.12 E40.94351
G1 X63.331 Y95.684 E41.24689
G1 X62.98 Y96.13 E41.26861
G1 X62.571 Y96.522 E41.29029
G1 X62.11 Y96.853 E41.31201
G1 X61.608 Y97.116 E41.3337
G1 X61.074 Y97.306 E41.35539
G1 X60.518 Y97.418 E41.37709
G1 X59.952 Y97.452 E41.39879
G1 X59.386 Y97.405 E41.42053
