;FLAVOR:Marlin
;TIME:1993
;Filament used: 1.514m
;Layer height: 0.21875
;Generated with Cura_SteamEngine 3.6.0
M140 S60
M105
M190 S60
M104 S210
M105
M109 S210
M82 ;absolute extrusion mode
G21;(metric values)
G90;(absolute positioning)
M82;(set extruder to absolute mode)
M107;(start with the fan off)
G28;(Home the printer)
G92 E0;(Reset the extruder to 0)

G92 E0
G1 F2400 E-2.5
;LAYER_COUNT:65
;LAYER:0
M107
G0 F4320 X47.531 Y43.348 Z0.263
;TYPE:SKIRT
G1 F2400 E0
G1 F1980 X48.004 Y42.85 E0.02628
G1 X48.896 Y42.03 E0.07265
G1 X49.402 Y41.622 E0.09753
G1 X50.333 Y40.964 E0.14116
G1 X50.901 Y40.616 E0.16665
G1 X52.149 Y39.96 E0.22061
G1 X53.01 Y39.604 E0.25627
G1 X54.594 Y39.114 E0.31972
G1 X55.11 Y38.983 E0.34009
G1 X55.955 Y38.816 E0.37306
G1 X56.61 Y38.731 E0.39833
G1 X57.796 Y38.654 E0.44382
G1 X58.462 Y38.654 E0.4693
G1 X59.515 Y38.724 E0.50969
G1 X60.191 Y38.815 E0.5358
G1 X61.874 Y39.158 E0.60153
G1 X62.602 Y39.364 E0.63048
G1 X63.481 Y39.685 E0.66629
G1 X64.235 Y40.032 E0.69806
G1 X65.879 Y40.96 E0.77031
G1 X66.59 Y41.446 E0.80327
G1 X67.616 Y42.282 E0.85392
G1 X68.172 Y42.809 E0.88323
G1 X69.275 Y44.027 E0.94612
G1 X69.762 Y44.659 E0.97665
G1 X70.351 Y45.561 E1.01788
G1 X70.665 Y46.115 E1.04225
G1 X71.232 Y47.28 E1.09183
G1 X71.501 Y47.951 E1.1195
G1 X71.909 Y49.223 E1.17062
G1 X72.082 Y49.931 E1.19851
G1 X72.313 Y51.304 E1.2518
G1 X72.382 Y52.074 E1.28138
G1 X72.4 Y53.339 E1.3298
G1 X72.338 Y54.21 E1.36322
G1 X71.953 Y56.627 E1.45688
G1 X71.981 Y61.027 E1.62527
G1 X72.207 Y61.066 E1.63405
G1 X72.826 Y61.214 E1.65841
G1 X73.422 Y61.439 E1.68279
G1 X73.985 Y61.737 E1.70717
G1 X74.506 Y62.103 E1.73153
G1 X74.837 Y62.393 E1.74837
G1 X75.248 Y62.785 E1.77011
G1 X75.68 Y63.252 E1.79446
G1 X76.05 Y63.77 E1.81882
G1 X76.353 Y64.331 E1.84322
G1 X76.663 Y65.203 E1.87864
G1 X76.793 Y65.713 E1.89878
G1 X76.911 Y66.339 E1.92316
G1 X76.95 Y66.967 E1.94724
G1 X76.95 Y67.947 E1.98474
G1 X76.91 Y68.583 E2.00913
G1 X76.791 Y69.208 E2.03348
G1 X76.594 Y69.814 E2.05786
G1 X76.323 Y70.39 E2.08222
G1 X75.982 Y70.928 E2.1066
G1 X75.576 Y71.419 E2.13098
G1 X75.112 Y71.855 E2.15535
G1 X74.597 Y72.23 E2.17973
G1 X74.04 Y72.537 E2.20407
G1 X73.448 Y72.772 E2.22845
G1 X72.831 Y72.931 E2.25283
G1 X72.199 Y73.012 E2.27721
G1 X71.875 Y73.022 E2.28962
G1 X49.375 Y73.021 E3.15069
G1 X48.739 Y72.981 E3.17508
G1 X48.114 Y72.862 E3.19943
G1 X47.508 Y72.665 E3.22382
G1 X46.932 Y72.394 E3.24818
G1 X46.394 Y72.053 E3.27255
G1 X45.903 Y71.647 E3.29694
G1 X45.467 Y71.183 E3.3213
G1 X45.092 Y70.668 E3.34568
G1 X44.785 Y70.11 E3.37006
G1 X44.55 Y69.518 E3.39443
G1 X44.391 Y68.902 E3.41878
G1 X44.31 Y68.27 E3.44316
G1 X44.3 Y67.948 E3.45549
G1 X44.295 Y56.662 E3.88741
G1 X44.119 Y55.761 E3.92254
G1 X44.082 Y55.543 E3.931
G1 X43.933 Y54.554 E3.96928
G1 X43.876 Y53.786 E3.99875
G1 X43.88 Y52.13 E4.06213
G1 X43.94 Y51.363 E4.09157
G1 X44.159 Y49.954 E4.14614
G1 X44.33 Y49.219 E4.17502
G1 X44.637 Y48.237 E4.21439
G1 X44.863 Y47.647 E4.23857
G1 X45.438 Y46.385 E4.29164
G1 X45.771 Y45.77 E4.31841
G1 X46.405 Y44.771 E4.36369
G1 X46.782 Y44.252 E4.38824
G1 X47.088 Y43.882 E4.40661
G0 F1782 X47.531 Y43.348
G0 F4320 X47.801 Y43.571
G1 F2400 E4.43317
G1 F1980 X48.241 Y43.107 E4.45765
G1 X49.133 Y42.287 E4.50401
G1 X49.604 Y41.907 E4.52718
G1 X50.535 Y41.249 E4.5708
G1 X51.064 Y40.926 E4.59453
G1 X52.312 Y40.27 E4.64848
G1 X53.114 Y39.938 E4.6817
G1 X54.698 Y39.448 E4.74515
G1 X55.178 Y39.327 E4.7641
G1 X56.023 Y39.16 E4.79706
G1 X56.633 Y39.08 E4.82061
G1 X57.819 Y39.003 E4.86609
G1 X58.438 Y39.003 E4.88978
G1 X59.491 Y39.073 E4.93017
G1 X60.122 Y39.158 E4.95453
G1 X61.805 Y39.501 E5.02027
G1 X62.482 Y39.693 E5.0472
G1 X63.361 Y40.014 E5.08301
G1 X64.063 Y40.337 E5.11258
G1 X65.707 Y41.265 E5.18483
G1 X66.369 Y41.717 E5.21551
G1 X67.395 Y42.553 E5.26615
G1 X67.912 Y43.044 E5.29344
G1 X69.015 Y44.262 E5.35633
G1 X69.469 Y44.851 E5.38479
G1 X70.058 Y45.753 E5.42601
G1 X70.351 Y46.268 E5.44869
G1 X70.918 Y47.433 E5.49827
G1 X71.168 Y48.058 E5.52404
G1 X71.576 Y49.33 E5.57516
G1 X71.737 Y49.989 E5.60112
G1 X71.968 Y51.362 E5.6544
G1 X72.033 Y52.079 E5.68195
G1 X72.051 Y53.344 E5.73037
G1 X71.992 Y54.155 E5.76149
G1 X71.603 Y56.598 E5.85616
G1 X71.633 Y61.32 E6.03688
G1 X72.147 Y61.41 E6.05685
G1 X72.744 Y61.555 E6.08036
G1 X73.317 Y61.776 E6.10386
G1 X73.857 Y62.07 E6.12739
G1 X74.354 Y62.431 E6.1509
G1 X74.595 Y62.646 E6.16326
G1 X75.006 Y63.038 E6.18499
G1 X75.422 Y63.49 E6.2085
G1 X75.776 Y63.992 E6.23201
G1 X76.062 Y64.536 E6.25553
G1 X76.324 Y65.29 E6.28608
G1 X76.454 Y65.8 E6.30622
G1 X76.566 Y66.404 E6.32973
G1 X76.6 Y66.967 E6.35132
G1 X76.6 Y67.947 E6.38882
G1 X76.56 Y68.56 E6.41233
G1 X76.441 Y69.163 E6.43585
G1 X76.244 Y69.745 E6.45937
G1 X75.974 Y70.297 E6.48288
G1 X75.634 Y70.809 E6.5064
G1 X75.231 Y71.273 E6.52992
G1 X74.771 Y71.68 E6.55343
G1 X74.262 Y72.025 E6.57696
G1 X73.713 Y72.3 E6.60046
G1 X73.132 Y72.502 E6.624
G1 X72.531 Y72.626 E6.64748
G1 X71.875 Y72.672 E6.67265
G1 X49.375 Y72.671 E7.53373
G1 X48.762 Y72.631 E7.55723
G1 X48.159 Y72.512 E7.58076
G1 X47.577 Y72.315 E7.60427
G1 X47.025 Y72.045 E7.62779
G1 X46.513 Y71.705 E7.65131
G1 X46.049 Y71.302 E7.67483
G1 X45.642 Y70.842 E7.69833
G1 X45.297 Y70.333 E7.72187
G1 X45.022 Y69.784 E7.74537
G1 X44.82 Y69.203 E7.76891
G1 X44.696 Y68.602 E7.79239
G1 X44.65 Y67.948 E7.81748
G1 X44.645 Y56.625 E8.25081
G1 X44.463 Y55.694 E8.28711
G1 X44.428 Y55.491 E8.295
G1 X44.279 Y54.502 E8.33327
G1 X44.226 Y53.787 E8.36071
G1 X44.23 Y52.131 E8.42409
G1 X44.286 Y51.416 E8.45153
G1 X44.505 Y50.007 E8.5061
G1 X44.664 Y49.323 E8.53298
G1 X44.971 Y48.341 E8.57235
G1 X45.181 Y47.792 E8.59485
G1 X45.756 Y46.53 E8.64792
G1 X46.067 Y45.957 E8.67287
G1 X46.701 Y44.958 E8.71815
G1 X47.052 Y44.475 E8.741
G1 X47.358 Y44.105 E8.75938
G0 F1782 X47.801 Y43.571
G0 F4320 X48.07 Y43.795
G1 F2400 E8.78594
G1 F1980 X48.478 Y43.365 E8.80862
G1 X49.37 Y42.545 E8.85499
G1 X49.806 Y42.193 E8.87644
G1 X50.737 Y41.535 E8.92007
G1 X51.226 Y41.235 E8.94202
G1 X52.474 Y40.579 E8.99598
G1 X53.217 Y40.272 E9.02674
G1 X54.801 Y39.782 E9.0902
G1 X55.246 Y39.67 E9.10776
G1 X56.091 Y39.503 E9.14072
G1 X56.656 Y39.429 E9.16253
G1 X57.842 Y39.352 E9.20801
G1 X58.415 Y39.353 E9.22994
G1 X59.468 Y39.423 E9.27033
G1 X60.052 Y39.501 E9.29288
G1 X61.735 Y39.844 E9.35861
G1 X62.362 Y40.021 E9.38354
G1 X63.241 Y40.342 E9.41936
G1 X63.891 Y40.642 E9.44675
G1 X65.535 Y41.57 E9.519
G1 X66.148 Y41.988 E9.54739
G1 X67.174 Y42.824 E9.59804
G1 X67.653 Y43.279 E9.62333
G1 X68.756 Y44.497 E9.68621
G1 X69.176 Y45.042 E9.71254
G1 X69.765 Y45.944 E9.75377
G1 X70.036 Y46.421 E9.77477
G1 X70.603 Y47.586 E9.82435
G1 X70.835 Y48.165 E9.84822
G1 X71.243 Y49.437 E9.89934
G1 X71.391 Y50.047 E9.92337
G1 X71.622 Y51.42 E9.97665
G1 X71.683 Y52.084 E10.00217
G1 X71.701 Y53.349 E10.05058
G1 X71.646 Y54.1 E10.0794
G1 X71.252 Y56.569 E10.17509
G1 X71.285 Y61.615 E10.3682
G1 X72.087 Y61.755 E10.39936
G1 X72.661 Y61.896 E10.42198
G1 X73.211 Y62.113 E10.4446
G1 X73.727 Y62.402 E10.46724
G1 X74.354 Y62.899 E10.49786
G1 X74.765 Y63.291 E10.51959
G1 X75.164 Y63.727 E10.54221
G1 X75.501 Y64.213 E10.56484
G1 X75.769 Y64.74 E10.58747
G1 X75.984 Y65.376 E10.61316
G1 X76.114 Y65.886 E10.63331
G1 X76.221 Y66.468 E10.65595
G1 X76.25 Y66.967 E10.67508
G1 X76.25 Y67.947 E10.71259
G1 X76.21 Y68.537 E10.73522
G1 X76.091 Y69.116 E10.75784
G1 X75.895 Y69.674 E10.78047
G1 X75.625 Y70.2 E10.8031
G1 X75.287 Y70.685 E10.82572
G1 X74.887 Y71.12 E10.84834
G1 X74.431 Y71.497 E10.87098
G1 X73.929 Y71.81 E10.89362
G1 X73.39 Y72.051 E10.91622
G1 X72.822 Y72.218 E10.93887
G1 X72.238 Y72.307 E10.96148
G1 X71.875 Y72.322 E10.97539
G1 X49.375 Y72.321 E11.83646
G1 X48.785 Y72.281 E11.85909
G1 X48.206 Y72.162 E11.88171
G1 X47.648 Y71.966 E11.90435
G1 X47.122 Y71.696 E11.92697
G1 X46.637 Y71.358 E11.9496
G1 X46.202 Y70.958 E11.97221
G1 X45.824 Y70.502 E11.99488
G1 X45.512 Y70 E12.0175
G1 X45.271 Y69.461 E12.04009
G1 X45.104 Y68.893 E12.06275
G1 X45.015 Y68.309 E12.08536
G1 X45 Y67.948 E12.09919
G1 X44.995 Y56.594 E12.5337
G1 X44.806 Y55.627 E12.57141
G1 X44.774 Y55.439 E12.57871
G1 X44.625 Y54.45 E12.61699
G1 X44.576 Y53.787 E12.64243
G1 X44.58 Y52.131 E12.7058
G1 X44.632 Y51.47 E12.73118
G1 X44.851 Y50.061 E12.78575
G1 X44.998 Y49.428 E12.81062
G1 X45.305 Y48.446 E12.84999
G1 X45.5 Y47.937 E12.87085
G1 X46.075 Y46.675 E12.92392
G1 X46.362 Y46.145 E12.94699
G1 X46.996 Y45.146 E12.99227
G1 X47.321 Y44.699 E13.01342
G1 X47.627 Y44.329 E13.0318
G0 F1782 X48.07 Y43.795
G0 F4320 X48.34 Y44.018
G1 F2400 E13.05836
G1 F1980 X48.715 Y43.623 E13.0792
G1 X49.607 Y42.803 E13.12557
G1 X50.008 Y42.479 E13.1453
G1 X50.939 Y41.821 E13.18893
G1 X51.389 Y41.545 E13.20913
G1 X52.637 Y40.889 E13.26309
G1 X53.321 Y40.607 E13.2914
G1 X54.905 Y40.117 E13.35486
G1 X55.314 Y40.013 E13.37101
G1 X56.159 Y39.846 E13.40397
G1 X56.678 Y39.778 E13.424
G1 X57.864 Y39.701 E13.46949
G1 X58.392 Y39.702 E13.48969
G1 X59.445 Y39.772 E13.53008
G1 X59.982 Y39.844 E13.55081
G1 X61.665 Y40.187 E13.61655
G1 X62.242 Y40.35 E13.63949
G1 X63.121 Y40.671 E13.67531
G1 X63.719 Y40.947 E13.70051
G1 X65.363 Y41.875 E13.77276
G1 X65.926 Y42.26 E13.79886
G1 X66.952 Y43.096 E13.84951
G1 X67.393 Y43.514 E13.87276
G1 X68.496 Y44.732 E13.93565
G1 X68.883 Y45.233 E13.95988
G1 X69.472 Y46.135 E14.0011
G1 X69.721 Y46.575 E14.02045
G1 X70.288 Y47.74 E14.07004
G1 X70.502 Y48.272 E14.09198
G1 X70.91 Y49.544 E14.1431
G1 X71.046 Y50.105 E14.16519
G1 X71.277 Y51.478 E14.21848
G1 X71.333 Y52.089 E14.24196
G1 X71.351 Y53.354 E14.29037
G1 X71.301 Y54.045 E14.31689
G1 X70.902 Y56.547 E14.41385
G1 X70.937 Y61.898 E14.61864
G1 X70.98 Y61.917 E14.62044
G1 X72.026 Y62.1 E14.66107
G1 X72.577 Y62.237 E14.6828
G1 X73.102 Y62.449 E14.70447
G1 X73.593 Y62.734 E14.7262
G1 X74.112 Y63.152 E14.7517
G1 X74.523 Y63.544 E14.77344
G1 X74.905 Y63.964 E14.79516
G1 X75.224 Y64.433 E14.81687
G1 X75.474 Y64.942 E14.83857
G1 X75.645 Y65.463 E14.85956
G1 X75.775 Y65.973 E14.8797
G1 X75.876 Y66.531 E14.9014
G1 X75.9 Y66.967 E14.91811
G1 X75.9 Y67.947 E14.95562
G1 X75.86 Y68.513 E14.97733
G1 X75.741 Y69.067 E14.99902
G1 X75.545 Y69.599 E15.02071
G1 X75.277 Y70.099 E15.04242
G1 X74.94 Y70.555 E15.06412
G1 X74.543 Y70.96 E15.08583
G1 X74.093 Y71.306 E15.10755
G1 X73.599 Y71.584 E15.12924
G1 X73.071 Y71.79 E15.15093
G1 X72.519 Y71.92 E15.17264
G1 X71.875 Y71.972 E15.19736
G1 X49.375 Y71.971 E16.05844
G1 X48.809 Y71.931 E16.08015
G1 X48.255 Y71.812 E16.10184
G1 X47.722 Y71.616 E16.12357
G1 X47.223 Y71.347 E16.14527
G1 X46.766 Y71.011 E16.16697
G1 X46.361 Y70.614 E16.18868
G1 X46.016 Y70.164 E16.21038
G1 X45.738 Y69.67 E16.23207
G1 X45.532 Y69.142 E16.25376
G1 X45.402 Y68.59 E16.27546
G1 X45.35 Y67.948 E16.30011
G1 X45.345 Y56.558 E16.73601
G1 X45.15 Y55.56 E16.77492
G1 X45.12 Y55.387 E16.78164
G1 X44.971 Y54.398 E16.81992
G1 X44.926 Y53.788 E16.84333
G1 X44.93 Y52.132 E16.9067
G1 X44.978 Y51.524 E16.93004
G1 X45.197 Y50.115 E16.98461
G1 X45.332 Y49.532 E17.00751
G1 X45.639 Y48.55 E17.04689
G1 X45.818 Y48.082 E17.06607
G1 X46.393 Y46.82 E17.11914
G1 X46.658 Y46.332 E17.14039
G1 X47.292 Y45.333 E17.18567
G1 X47.591 Y44.922 E17.20512
G1 X47.897 Y44.552 E17.2235
G0 F1782 X48.34 Y44.018
G0 F4320 X48.609 Y44.241
G1 F2400 E17.25006
G1 F1980 X48.952 Y43.88 E17.26911
G1 X49.844 Y43.06 E17.31548
G1 X50.21 Y42.765 E17.33347
G1 X51.141 Y42.107 E17.3771
G1 X51.552 Y41.855 E17.39555
G1 X52.8 Y41.199 E17.44951
G1 X53.424 Y40.941 E17.47535
G1 X55.008 Y40.451 E17.53881
G1 X55.381 Y40.357 E17.55353
G1 X56.226 Y40.19 E17.58649
G1 X56.701 Y40.128 E17.60482
G1 X57.887 Y40.051 E17.65031
G1 X58.369 Y40.051 E17.66875
G1 X59.422 Y40.121 E17.70914
G1 X59.912 Y40.187 E17.72806
G1 X61.595 Y40.53 E17.79379
G1 X62.122 Y40.679 E17.81475
G1 X63.001 Y41 E17.85056
G1 X63.547 Y41.252 E17.87358
G1 X65.191 Y42.18 E17.94583
G1 X65.705 Y42.531 E17.96964
G1 X66.731 Y43.367 E18.02029
G1 X67.134 Y43.749 E18.04154
G1 X68.237 Y44.967 E18.10443
G1 X68.59 Y45.425 E18.12656
G1 X69.179 Y46.327 E18.16779
G1 X69.406 Y46.728 E18.18542
G1 X69.973 Y47.893 E18.23501
G1 X70.168 Y48.379 E18.25505
G1 X70.576 Y49.651 E18.30617
G1 X70.701 Y50.163 E18.32634
G1 X70.932 Y51.536 E18.37962
G1 X70.983 Y52.094 E18.40106
G1 X71.001 Y53.359 E18.44948
G1 X70.955 Y53.99 E18.47369
G1 X70.552 Y56.518 E18.57166
G1 X70.588 Y61.975 E18.78051
G1 X70.614 Y62.065 E18.78409
G1 X70.657 Y62.132 E18.78714
G1 X70.714 Y62.181 E18.79001
G1 X70.876 Y62.255 E18.79683
G1 X71.966 Y62.445 E18.83917
G1 X72.492 Y62.577 E18.85993
G1 X72.992 Y62.785 E18.88065
G1 X73.456 Y63.065 E18.90139
G1 X73.87 Y63.406 E18.92192
G1 X74.281 Y63.798 E18.94365
G1 X74.645 Y64.2 E18.96441
G1 X74.945 Y64.65 E18.98511
G1 X75.176 Y65.141 E19.00587
G1 X75.306 Y65.549 E19.02226
G1 X75.436 Y66.059 E19.0424
G1 X75.531 Y66.593 E19.06316
G1 X75.55 Y66.967 E19.07749
G1 X75.55 Y67.947 E19.11499
G1 X75.51 Y68.487 E19.13572
G1 X75.391 Y69.016 E19.15647
G1 X75.196 Y69.521 E19.17718
G1 X74.928 Y69.993 E19.19796
G1 X74.594 Y70.419 E19.21867
G1 X74.201 Y70.792 E19.23941
G1 X73.757 Y71.103 E19.26015
G1 X73.273 Y71.346 E19.28088
G1 X72.758 Y71.514 E19.30161
G1 X72.224 Y71.605 E19.32234
G1 X71.875 Y71.622 E19.33571
G1 X49.375 Y71.621 E20.19679
G1 X48.834 Y71.581 E20.21755
G1 X48.306 Y71.462 E20.23826
G1 X47.8 Y71.267 E20.25901
G1 X47.329 Y70.999 E20.27975
G1 X46.903 Y70.665 E20.30047
G1 X46.53 Y70.272 E20.32121
G1 X46.219 Y69.828 E20.34195
G1 X45.976 Y69.344 E20.36268
G1 X45.808 Y68.829 E20.38341
G1 X45.717 Y68.295 E20.40414
G1 X45.7 Y67.948 E20.41744
G1 X45.695 Y56.526 E20.85455
G1 X45.493 Y55.493 E20.89484
G1 X45.466 Y55.334 E20.90101
G1 X45.317 Y54.345 E20.93928
G1 X45.276 Y53.789 E20.96062
G1 X45.28 Y52.133 E21.024
G1 X45.324 Y51.578 E21.0453
G1 X45.543 Y50.169 E21.09987
G1 X45.666 Y49.636 E21.12081
G1 X45.973 Y48.654 E21.16018
G1 X46.137 Y48.227 E21.17769
G1 X46.712 Y46.965 E21.23076
G1 X46.953 Y46.52 E21.25013
G1 X47.587 Y45.521 E21.29541
G1 X47.86 Y45.145 E21.31319
G1 X48.166 Y44.775 E21.33156
G0 F1782 X48.609 Y44.241
G0 F4320 X48.879 Y44.465
G1 F2400 E21.35812
G1 F1980 X49.189 Y44.138 E21.37537
G1 X50.081 Y43.318 E21.42174
G1 X50.412 Y43.051 E21.43801
G1 X51.343 Y42.393 E21.48164
G1 X51.715 Y42.165 E21.49834
G1 X52.963 Y41.509 E21.5523
G1 X53.527 Y41.276 E21.57565
G1 X55.111 Y40.786 E21.6391
G1 X55.449 Y40.7 E21.65245
G1 X56.294 Y40.533 E21.68541
G1 X56.724 Y40.477 E21.70201
G1 X57.91 Y40.4 E21.74749
G1 X58.346 Y40.4 E21.76418
G1 X59.399 Y40.47 E21.80457
G1 X59.842 Y40.53 E21.82167
G1 X61.525 Y40.873 E21.88741
G1 X62.002 Y41.008 E21.90638
G1 X62.881 Y41.329 E21.94219
G1 X63.374 Y41.556 E21.96296
G1 X65.018 Y42.484 E22.03521
G1 X65.484 Y42.802 E22.0568
G1 X66.51 Y43.638 E22.10745
G1 X66.875 Y43.984 E22.1267
G1 X67.978 Y45.202 E22.18958
G1 X68.297 Y45.616 E22.20958
G1 X68.886 Y46.518 E22.25081
G1 X69.092 Y46.881 E22.26678
G1 X69.659 Y48.046 E22.31637
G1 X69.835 Y48.485 E22.33447
G1 X70.243 Y49.757 E22.38559
G1 X70.356 Y50.221 E22.40387
G1 X70.587 Y51.594 E22.45715
G1 X70.633 Y52.099 E22.47656
G1 X70.651 Y53.364 E22.52497
G1 X70.61 Y53.934 E22.54684
G1 X70.202 Y56.494 E22.64605
G1 X70.238 Y62.027 E22.8578
G1 X70.292 Y62.212 E22.86518
G1 X70.389 Y62.363 E22.87205
G1 X70.524 Y62.479 E22.87886
G1 X70.771 Y62.592 E22.88925
G1 X71.906 Y62.79 E22.93335
G1 X72.405 Y62.917 E22.95305
G1 X72.879 Y63.121 E22.9728
G1 X73.315 Y63.395 E22.99251
G1 X73.629 Y63.659 E23.00821
G1 X74.04 Y64.051 E23.02994
G1 X74.384 Y64.434 E23.04964
G1 X74.665 Y64.867 E23.0694
G1 X74.876 Y65.337 E23.08911
G1 X74.967 Y65.636 E23.10108
G1 X75.097 Y66.146 E23.12122
G1 X75.185 Y66.653 E23.14091
G1 X75.2 Y66.967 E23.15294
G1 X75.2 Y67.947 E23.19045
G1 X75.16 Y68.461 E23.21018
G1 X75.041 Y68.962 E23.22988
G1 X74.846 Y69.439 E23.2496
G1 X74.58 Y69.881 E23.26935
G1 X74.249 Y70.275 E23.28904
G1 X73.86 Y70.614 E23.30879
G1 X73.424 Y70.889 E23.32851
G1 X72.951 Y71.093 E23.34823
G1 X72.452 Y71.222 E23.36795
G1 X71.875 Y71.272 E23.39012
G1 X49.375 Y71.271 E24.25119
G1 X48.861 Y71.231 E24.27092
G1 X48.36 Y71.112 E24.29063
G1 X47.883 Y70.917 E24.31035
G1 X47.441 Y70.651 E24.33009
G1 X47.047 Y70.32 E24.34978
G1 X46.708 Y69.931 E24.36953
G1 X46.433 Y69.495 E24.38926
