;FLAVOR:Marlin
;TIME:2234
;Filament used: 1.00102m
;Layer height: 0.175
;Generated with Cura_SteamEngine 3.6.0
M140 S65
M105
M190 S65
M104 S205
M105
M109 S205
M82 ;absolute extrusion mode
G21;(metric values)
G90;(absolute positioning)
M82;(set extruder to absolute mode)
M107;(start with the fan off)
G28;(Home the printer)
G92 E0;(Reset the extruder to 0)
G0 Z5 E5 F500;(Move up and prime the nozzle)
G0 X-1 Z0;(Move outside the printable area)
G1 Y60 E8 F500;(Draw a priming/wiping line to the rear)
G1 X-1;(Move a little closer to the print area)
G1 Y10 E16 F500;(draw more priming/wiping)
G1 E15 F250;(Small retract)
G92 E0;(Zero the extruder)
G92 E0
G1 F2400 E-2.5
;LAYER_COUNT:105
;LAYER:0
M107
G0 F4320 X46.741 Y46.299 Z0.263
;TYPE:SKIRT
G1 F2400 E0
G1 F1080 X47.204 Y45.865 E0.02429
G1 X48.556 Y44.749 E0.09138
G1 X49.072 Y44.375 E0.11577
G1 X50.558 Y43.434 E0.18308
G1 X51.117 Y43.128 E0.20747
G1 X52.69 Y42.39 E0.27396
G1 X53.293 Y42.153 E0.29876
G1 X55.016 Y41.599 E0.36802
G1 X55.621 Y41.444 E0.39192
G1 X57.272 Y41.13 E0.45624
G1 X57.9 Y41.051 E0.48046
G1 X59.706 Y40.937 E0.54971
G1 X60.357 Y40.938 E0.57463
G1 X62.116 Y41.053 E0.64209
G1 X62.737 Y41.132 E0.66605
G1 X64.433 Y41.456 E0.73213
G1 X65.057 Y41.617 E0.75679
G1 X66.75 Y42.17 E0.82495
G1 X67.338 Y42.404 E0.84917
G1 X68.931 Y43.155 E0.91657
G1 X69.49 Y43.462 E0.94097
G1 X70.951 Y44.391 E1.00723
G1 X71.459 Y44.761 E1.03128
G1 X72.802 Y45.87 E1.09794
G1 X73.268 Y46.307 E1.12239
G1 X74.479 Y47.595 E1.19004
G1 X74.887 Y48.087 E1.2145
G1 X75.91 Y49.494 E1.28108
G1 X76.251 Y50.03 E1.30539
G1 X77.122 Y51.612 E1.3745
G1 X77.396 Y52.194 E1.39912
G1 X78.025 Y53.785 E1.46459
G1 X78.219 Y54.381 E1.48858
G1 X78.658 Y56.08 E1.55574
G1 X78.778 Y56.704 E1.58005
G1 X79.005 Y58.472 E1.64827
G1 X79.046 Y59.112 E1.67281
G1 X79.048 Y60.844 E1.7391
G1 X79.007 Y61.49 E1.76387
G1 X78.777 Y63.299 E1.83366
G1 X78.659 Y63.92 E1.85785
G1 X78.238 Y65.561 E1.92268
G1 X78.043 Y66.162 E1.94686
G1 X77.391 Y67.815 E2.01487
G1 X77.116 Y68.401 E2.03964
G1 X76.25 Y69.974 E2.10836
G1 X75.906 Y70.514 E2.13286
G1 X74.881 Y71.921 E2.19948
G1 X74.479 Y72.406 E2.22359
G1 X73.303 Y73.659 E2.28935
G1 X72.843 Y74.092 E2.31353
G1 X71.47 Y75.231 E2.3818
G1 X70.951 Y75.609 E2.40637
G1 X69.485 Y76.54 E2.47283
G1 X68.919 Y76.851 E2.49755
G1 X67.26 Y77.629 E2.56767
G1 X66.667 Y77.863 E2.59207
G1 X65.05 Y78.386 E2.65711
G1 X64.422 Y78.545 E2.6819
G1 X62.595 Y78.887 E2.75303
G1 X61.969 Y78.965 E2.77718
G1 X60.323 Y79.065 E2.84029
G1 X59.7 Y79.064 E2.86413
G1 X57.93 Y78.954 E2.932
G1 X57.298 Y78.875 E2.95637
G1 X55.597 Y78.552 E3.02263
G1 X54.983 Y78.395 E3.04688
G1 X53.285 Y77.846 E3.11518
G1 X52.688 Y77.611 E3.13973
G1 X51.121 Y76.875 E3.20599
G1 X50.563 Y76.568 E3.23036
G1 X49.054 Y75.612 E3.29872
G1 X48.525 Y75.227 E3.32376
G1 X47.137 Y74.073 E3.39284
G1 X46.676 Y73.638 E3.4171
G1 X45.49 Y72.37 E3.48354
G1 X45.089 Y71.885 E3.50763
G1 X44.087 Y70.505 E3.57289
G1 X43.752 Y69.977 E3.59682
G1 X42.902 Y68.438 E3.66411
G1 X42.627 Y67.857 E3.68871
G1 X41.968 Y66.197 E3.75706
G1 X41.77 Y65.587 E3.7816
G1 X41.336 Y63.898 E3.84834
G1 X41.217 Y63.276 E3.87257
G1 X40.993 Y61.516 E3.94047
G1 X40.952 Y60.872 E3.96517
G1 X40.953 Y59.12 E4.03222
G1 X40.992 Y58.491 E4.05634
G1 X41.21 Y56.753 E4.12337
G1 X41.331 Y56.122 E4.14796
G1 X41.77 Y54.413 E4.21549
G1 X41.965 Y53.811 E4.2397
G1 X42.612 Y52.174 E4.30707
G1 X42.89 Y51.585 E4.33199
G1 X43.754 Y50.021 E4.40037
G1 X44.091 Y49.491 E4.42441
G1 X45.108 Y48.092 E4.4906
G1 X45.519 Y47.596 E4.51525
G1 X46.265 Y46.804 E4.55689
G0 F972 X46.741 Y46.299
G0 F4320 X46.996 Y46.539
G1 F2400 E4.58345
G1 F1080 X47.427 Y46.135 E4.60606
G1 X48.779 Y45.019 E4.67315
G1 X49.259 Y44.671 E4.69584
G1 X50.745 Y43.73 E4.76315
G1 X51.266 Y43.444 E4.78589
G1 X52.839 Y42.706 E4.85239
G1 X53.4 Y42.486 E4.87545
G1 X55.123 Y41.932 E4.94471
G1 X55.686 Y41.788 E4.96695
G1 X57.337 Y41.474 E5.03127
G1 X57.922 Y41.4 E5.05384
G1 X59.728 Y41.286 E5.12309
G1 X60.334 Y41.287 E5.14628
G1 X62.093 Y41.402 E5.21374
G1 X62.672 Y41.476 E5.23608
G1 X64.368 Y41.8 E5.30216
G1 X64.948 Y41.95 E5.32509
G1 X66.641 Y42.503 E5.39325
G1 X67.189 Y42.72 E5.4158
G1 X68.782 Y43.471 E5.4832
G1 X69.302 Y43.758 E5.50593
G1 X70.763 Y44.687 E5.57219
G1 X71.237 Y45.031 E5.5946
G1 X72.58 Y46.14 E5.66126
G1 X73.013 Y46.546 E5.68397
G1 X74.224 Y47.834 E5.75163
G1 X74.604 Y48.292 E5.77441
G1 X75.627 Y49.699 E5.84098
G1 X75.944 Y50.199 E5.86364
G1 X76.815 Y51.781 E5.93275
G1 X77.07 Y52.323 E5.95567
G1 X77.699 Y53.914 E6.02115
G1 X77.88 Y54.469 E6.04349
G1 X78.319 Y56.168 E6.11064
G1 X78.431 Y56.748 E6.13325
G1 X78.658 Y58.516 E6.20147
G1 X78.696 Y59.113 E6.22436
G1 X78.698 Y60.845 E6.29064
G1 X78.66 Y61.446 E6.31369
G1 X78.43 Y63.255 E6.38348
G1 X78.32 Y63.833 E6.406
G1 X77.899 Y65.474 E6.47083
G1 X77.717 Y66.034 E6.49336
G1 X77.065 Y67.687 E6.56137
G1 X76.809 Y68.232 E6.58441
G1 X75.943 Y69.805 E6.65313
G1 X75.623 Y70.308 E6.67595
G1 X74.598 Y71.715 E6.74256
G1 X74.224 Y72.167 E6.76502
G1 X73.048 Y73.42 E6.83078
G1 X72.62 Y73.823 E6.85328
G1 X71.247 Y74.962 E6.92155
G1 X70.763 Y75.314 E6.94445
G1 X69.297 Y76.245 E7.01091
G1 X68.77 Y76.534 E7.03392
G1 X67.111 Y77.312 E7.10404
G1 X66.559 Y77.53 E7.12675
G1 X64.942 Y78.053 E7.19179
G1 X64.357 Y78.201 E7.21488
G1 X62.53 Y78.543 E7.28602
G1 X61.948 Y78.615 E7.30846
G1 X60.302 Y78.715 E7.37157
G1 X59.722 Y78.715 E7.39377
G1 X57.952 Y78.605 E7.46163
G1 X57.364 Y78.531 E7.48432
G1 X55.663 Y78.208 E7.55058
G1 X55.09 Y78.062 E7.5732
G1 X53.392 Y77.513 E7.6415
G1 X52.837 Y77.294 E7.66433
G1 X51.27 Y76.558 E7.73059
G1 X50.75 Y76.272 E7.7533
G1 X49.241 Y75.316 E7.82166
G1 X48.749 Y74.958 E7.84495
G1 X47.361 Y73.804 E7.91403
G1 X46.931 Y73.399 E7.93663
G1 X45.745 Y72.131 E8.00308
G1 X45.373 Y71.679 E8.02548
G1 X44.371 Y70.299 E8.09075
G1 X44.058 Y69.807 E8.11306
G1 X43.208 Y68.268 E8.18035
G1 X42.952 Y67.727 E8.20325
G1 X42.293 Y66.067 E8.2716
G1 X42.109 Y65.5 E8.29442
G1 X41.675 Y63.811 E8.36115
G1 X41.564 Y63.232 E8.38372
G1 X41.34 Y61.472 E8.45161
G1 X41.302 Y60.872 E8.47462
G1 X41.303 Y59.12 E8.54167
G1 X41.34 Y58.535 E8.5641
G1 X41.558 Y56.797 E8.63114
G1 X41.67 Y56.209 E8.65405
G1 X42.109 Y54.5 E8.72157
G1 X42.291 Y53.939 E8.74414
G1 X42.938 Y52.302 E8.81151
G1 X43.196 Y51.754 E8.83469
G1 X44.06 Y50.19 E8.90307
G1 X44.374 Y49.697 E8.92544
G1 X45.391 Y48.298 E8.99163
G1 X45.774 Y47.836 E9.01459
G1 X46.52 Y47.044 E9.05623
G0 F972 X46.996 Y46.539
G0 F4320 X47.251 Y46.779
G1 F2400 E9.08279
G1 F1080 X47.65 Y46.405 E9.10372
G1 X49.002 Y45.289 E9.17081
G1 X49.446 Y44.967 E9.1918
G1 X50.932 Y44.026 E9.25911
G1 X51.415 Y43.761 E9.2802
G1 X52.988 Y43.023 E9.34669
G1 X53.507 Y42.819 E9.36803
G1 X55.23 Y42.265 E9.4373
G1 X55.752 Y42.132 E9.45791
G1 X57.403 Y41.818 E9.52223
G1 X57.944 Y41.75 E9.54309
G1 X59.75 Y41.636 E9.61235
G1 X60.311 Y41.636 E9.63382
G1 X62.07 Y41.751 E9.70128
G1 X62.606 Y41.82 E9.72196
G1 X64.302 Y42.144 E9.78804
G1 X64.839 Y42.282 E9.80926
G1 X66.532 Y42.835 E9.87742
G1 X67.04 Y43.037 E9.89834
G1 X68.633 Y43.788 E9.96574
G1 X69.115 Y44.053 E9.98679
G1 X70.576 Y44.982 E10.05305
G1 X71.014 Y45.301 E10.07378
G1 X72.357 Y46.41 E10.14044
G1 X72.758 Y46.786 E10.16148
G1 X73.969 Y48.074 E10.22913
G1 X74.321 Y48.498 E10.25022
G1 X75.344 Y49.905 E10.3168
G1 X75.638 Y50.368 E10.33779
G1 X76.509 Y51.95 E10.4069
G1 X76.745 Y52.451 E10.42809
G1 X77.374 Y54.042 E10.49357
G1 X77.541 Y54.557 E10.51429
G1 X77.98 Y56.256 E10.58144
G1 X78.083 Y56.793 E10.60237
G1 X78.31 Y58.561 E10.67058
G1 X78.346 Y59.113 E10.69175
G1 X78.348 Y60.845 E10.75804
G1 X78.313 Y61.402 E10.7794
G1 X78.083 Y63.211 E10.84918
G1 X77.981 Y63.746 E10.87003
G1 X77.56 Y65.387 E10.93486
G1 X77.392 Y65.905 E10.9557
G1 X76.74 Y67.558 E11.02371
G1 X76.503 Y68.063 E11.04505
G1 X75.637 Y69.636 E11.11377
G1 X75.34 Y70.102 E11.13492
G1 X74.315 Y71.509 E11.20154
G1 X73.969 Y71.927 E11.22231
G1 X72.793 Y73.18 E11.28807
G1 X72.396 Y73.553 E11.30892
G1 X71.023 Y74.692 E11.37719
G1 X70.575 Y75.018 E11.39839
G1 X69.109 Y75.949 E11.46485
G1 X68.622 Y76.217 E11.48613
G1 X66.963 Y76.995 E11.55625
G1 X66.451 Y77.197 E11.57732
G1 X64.834 Y77.72 E11.64235
G1 X64.293 Y77.857 E11.66371
G1 X62.466 Y78.199 E11.73485
G1 X61.926 Y78.266 E11.75567
G1 X60.28 Y78.366 E11.81878
G1 X59.744 Y78.366 E11.83929
G1 X57.974 Y78.256 E11.90716
G1 X57.429 Y78.187 E11.92818
G1 X55.728 Y77.864 E11.99444
G1 X55.198 Y77.729 E12.01537
G1 X53.5 Y77.18 E12.08367
G1 X52.986 Y76.977 E12.10482
G1 X51.419 Y76.241 E12.17107
G1 X50.938 Y75.977 E12.19207
G1 X49.429 Y75.021 E12.26043
G1 X48.973 Y74.689 E12.28202
G1 X47.585 Y73.535 E12.3511
G1 X47.187 Y73.16 E12.37203
G1 X46.001 Y71.892 E12.43847
G1 X45.656 Y71.474 E12.45921
G1 X44.654 Y70.094 E12.52448
G1 X44.364 Y69.638 E12.54516
G1 X43.514 Y68.099 E12.61244
G1 X43.278 Y67.598 E12.63364
G1 X42.619 Y65.938 E12.70199
G1 X42.448 Y65.413 E12.72312
G1 X42.014 Y63.724 E12.78986
G1 X41.911 Y63.187 E12.81078
G1 X41.687 Y61.427 E12.87868
G1 X41.652 Y60.873 E12.89992
G1 X41.653 Y59.121 E12.96697
G1 X41.687 Y58.579 E12.98776
G1 X41.905 Y56.841 E13.05479
G1 X42.009 Y56.297 E13.07599
G1 X42.448 Y54.588 E13.14351
G1 X42.616 Y54.068 E13.16443
G1 X43.263 Y52.431 E13.23179
G1 X43.502 Y51.923 E13.25328
G1 X44.366 Y50.359 E13.32166
G1 X44.657 Y49.903 E13.34236
G1 X45.674 Y48.504 E13.40855
G1 X46.029 Y48.076 E13.42983
G1 X46.775 Y47.284 E13.47147
G0 F972 X47.251 Y46.779
G0 F4320 X47.505 Y47.019
G1 F2400 E13.49803
G1 F1080 X47.873 Y46.675 E13.51731
G1 X49.225 Y45.559 E13.5844
G1 X49.634 Y45.262 E13.60374
G1 X51.12 Y44.321 E13.67105
G1 X51.563 Y44.078 E13.69039
G1 X53.136 Y43.34 E13.75688
G1 X53.614 Y43.152 E13.77654
G1 X55.337 Y42.598 E13.84581
G1 X55.817 Y42.476 E13.86476
G1 X57.468 Y42.162 E13.92908
G1 X57.966 Y42.099 E13.94829
G1 X59.772 Y41.985 E14.01754
G1 X60.289 Y41.986 E14.03732
G1 X62.048 Y42.101 E14.10478
G1 X62.54 Y42.163 E14.12376
G1 X64.236 Y42.487 E14.18984
G1 X64.731 Y42.615 E14.20941
G1 X66.424 Y43.168 E14.27757
G1 X66.89 Y43.353 E14.29676
G1 X68.483 Y44.104 E14.36416
G1 X68.927 Y44.348 E14.38354
G1 X70.388 Y45.277 E14.4498
G1 X70.791 Y45.57 E14.46887
G1 X72.134 Y46.679 E14.53553
G1 X72.503 Y47.026 E14.55491
G1 X73.714 Y48.314 E14.62257
G1 X74.037 Y48.704 E14.64195
G1 X75.06 Y50.111 E14.70852
G1 X75.331 Y50.537 E14.72784
G1 X76.202 Y52.119 E14.79696
G1 X76.419 Y52.58 E14.81646
G1 X77.048 Y54.171 E14.88193
G1 X77.202 Y54.644 E14.90097
G1 X77.641 Y56.343 E14.96812
G1 X77.736 Y56.837 E14.98737
G1 X77.963 Y58.605 E15.05559
G1 X77.996 Y59.113 E15.07507
G1 X77.998 Y60.845 E15.14136
G1 X77.966 Y61.358 E15.16103
G1 X77.736 Y63.167 E15.23081
G1 X77.642 Y63.659 E15.24998
G1 X77.221 Y65.3 E15.31482
G1 X77.066 Y65.777 E15.33401
G1 X76.414 Y67.43 E15.40202
G1 X76.196 Y67.894 E15.42164
G1 X75.33 Y69.467 E15.49035
G1 X75.057 Y69.896 E15.50981
G1 X74.032 Y71.303 E15.57643
G1 X73.714 Y71.687 E15.59551
G1 X72.538 Y72.94 E15.66128
G1 X72.173 Y73.284 E15.68047
G1 X70.8 Y74.423 E15.74874
G1 X70.388 Y74.723 E15.76825
G1 X68.922 Y75.654 E15.83471
G1 X68.473 Y75.9 E15.8543
G1 X66.814 Y76.678 E15.92443
G1 X66.344 Y76.864 E15.94377
G1 X64.727 Y77.387 E16.00881
G1 X64.229 Y77.513 E16.02847
G1 X62.402 Y77.855 E16.0996
G1 X61.905 Y77.917 E16.11877
G1 X60.259 Y78.017 E16.18188
G1 X59.765 Y78.016 E16.20078
G1 X57.995 Y77.906 E16.26865
G1 X57.494 Y77.843 E16.28798
G1 X55.793 Y77.52 E16.35424
G1 X55.306 Y77.396 E16.37347
G1 X53.608 Y76.847 E16.44176
G1 X53.135 Y76.66 E16.46123
G1 X51.568 Y75.924 E16.52748
G1 X51.125 Y75.681 E16.54682
G1 X49.616 Y74.725 E16.61518
G1 X49.197 Y74.42 E16.63502
G1 X47.809 Y73.266 E16.7041
G1 X47.442 Y72.92 E16.7234
G1 X46.256 Y71.652 E16.78984
G1 X45.939 Y71.268 E16.8089
G1 X44.937 Y69.888 E16.87417
G1 X44.671 Y69.469 E16.89316
G1 X43.821 Y67.93 E16.96044
G1 X43.603 Y67.469 E16.97996
G1 X42.944 Y65.809 E17.04831
G1 X42.787 Y65.326 E17.06775
G1 X42.353 Y63.637 E17.13448
G1 X42.258 Y63.143 E17.15374
G1 X42.034 Y61.383 E17.22163
G1 X42.002 Y60.873 E17.24119
G1 X42.003 Y59.121 E17.30824
G1 X42.034 Y58.622 E17.32737
G1 X42.252 Y56.884 E17.39441
G1 X42.348 Y56.384 E17.41389
G1 X42.787 Y54.675 E17.48142
G1 X42.942 Y54.197 E17.50065
G1 X43.589 Y52.56 E17.56801
G1 X43.809 Y52.093 E17.58777
G1 X44.673 Y50.529 E17.65615
G1 X44.94 Y50.108 E17.67523
G1 X45.957 Y48.709 E17.74142
G1 X46.283 Y48.316 E17.76096
G1 X47.029 Y47.524 E17.8026
G0 F972 X47.505 Y47.019
G0 F4320 X47.76 Y47.259
G1 F2400 E17.82916
G1 F1080 X48.096 Y46.945 E17.84676
G1 X49.448 Y45.829 E17.91385
G1 X49.821 Y45.558 E17.93149
G1 X51.307 Y44.617 E17.9988
G1 X51.712 Y44.395 E18.01648
G1 X53.285 Y43.657 E18.08297
G1 X53.721 Y43.485 E18.10091
G1 X55.444 Y42.931 E18.17018
G1 X55.882 Y42.82 E18.18747
G1 X57.533 Y42.506 E18.25178
G1 X57.988 Y42.448 E18.26934
G1 X59.794 Y42.334 E18.33859
G1 X60.266 Y42.335 E18.35665
G1 X62.025 Y42.45 E18.42411
G1 X62.475 Y42.507 E18.44147
G1 X64.171 Y42.831 E18.50755
G1 X64.622 Y42.948 E18.52538
G1 X66.315 Y43.501 E18.59354
G1 X66.741 Y43.67 E18.61108
G1 X68.334 Y44.421 E18.67848
G1 X68.739 Y44.644 E18.69618
G1 X70.2 Y45.573 E18.76243
G1 X70.568 Y45.84 E18.77983
G1 X71.911 Y46.949 E18.84649
G1 X72.248 Y47.266 E18.8642
G1 X73.459 Y48.554 E18.93185
G1 X73.754 Y48.91 E18.94955
G1 X74.777 Y50.317 E19.01612
G1 X75.024 Y50.706 E19.03375
G1 X75.895 Y52.288 E19.10287
G1 X76.094 Y52.709 E19.12069
G1 X76.723 Y54.3 E19.18616
G1 X76.863 Y54.732 E19.20354
G1 X77.302 Y56.431 E19.2707
G1 X77.389 Y56.882 E19.28827
G1 X77.616 Y58.65 E19.35649
G1 X77.646 Y59.114 E19.37429
G1 X77.648 Y60.846 E19.44057
G1 X77.619 Y61.314 E19.45851
G1 X77.389 Y63.123 E19.5283
G1 X77.303 Y63.572 E19.5458
G1 X76.882 Y65.213 E19.61063
G1 X76.741 Y65.648 E19.62813
G1 X76.089 Y67.301 E19.69614
G1 X75.889 Y67.725 E19.71408
G1 X75.023 Y69.298 E19.7828
G1 X74.774 Y69.69 E19.80057
G1 X73.749 Y71.097 E19.86719
G1 X73.459 Y71.448 E19.88461
G1 X72.283 Y72.701 E19.95038
G1 X71.949 Y73.014 E19.96789
G1 X70.576 Y74.153 E20.03616
G1 X70.2 Y74.427 E20.05397
G1 X68.734 Y75.358 E20.12043
G1 X68.324 Y75.583 E20.13833
G1 X66.665 Y76.361 E20.20845
G1 X66.236 Y76.531 E20.22611
G1 X64.619 Y77.054 E20.29115
G1 X64.164 Y77.169 E20.30911
G1 X62.337 Y77.511 E20.38025
G1 X61.884 Y77.567 E20.39771
G1 X60.238 Y77.667 E20.46082
G1 X59.787 Y77.667 E20.47808
G1 X58.017 Y77.557 E20.54595
G1 X57.559 Y77.499 E20.56362
G1 X55.858 Y77.176 E20.62988
G1 X55.413 Y77.063 E20.64745
G1 X53.715 Y76.514 E20.71574
G1 X53.284 Y76.343 E20.73349
G1 X51.717 Y75.607 E20.79974
G1 X51.312 Y75.385 E20.81742
G1 X49.803 Y74.429 E20.88578
G1 X49.421 Y74.151 E20.90386
G1 X48.033 Y72.997 E20.97294
G1 X47.698 Y72.681 E20.99057
G1 X46.512 Y71.413 E21.05701
G1 X46.222 Y71.062 E21.07443
G1 X45.22 Y69.682 E21.1397
G1 X44.977 Y69.3 E21.15703
G1 X44.127 Y67.761 E21.22431
G1 X43.928 Y67.34 E21.24213
G1 X43.269 Y65.68 E21.31048
G1 X43.126 Y65.239 E21.32822
G1 X42.692 Y63.55 E21.39496
G1 X42.605 Y63.099 E21.41254
G1 X42.381 Y61.339 E21.48044
G1 X42.352 Y60.873 E21.49831
G1 X42.353 Y59.121 E21.56536
G1 X42.382 Y58.666 E21.5828
G1 X42.6 Y56.928 E21.64984
G1 X42.687 Y56.471 E21.66764
G1 X43.126 Y54.762 E21.73517
G1 X43.267 Y54.325 E21.75274
G1 X43.914 Y52.688 E21.82011
G1 X44.115 Y52.262 E21.83813
G1 X44.979 Y50.698 E21.90651
G1 X45.223 Y50.314 E21.92392
G1 X46.24 Y48.915 E21.99011
G1 X46.538 Y48.556 E22.00797
G1 X47.284 Y47.764 E22.04961
G0 F972 X47.76 Y47.259
G0 F4320 X48.015 Y47.499
G1 F2400 E22.07617
G1 F1080 X48.318 Y47.215 E22.09206
G1 X49.67 Y46.099 E22.15915
G1 X50.008 Y45.854 E22.17513
G1 X51.494 Y44.913 E22.24244
G1 X51.861 Y44.712 E22.25845
G1 X53.434 Y43.974 E22.32495
G1 X53.828 Y43.819 E22.34115
G1 X55.551 Y43.265 E22.41042
G1 X55.948 Y43.164 E22.42609
G1 X57.599 Y42.85 E22.49041
G1 X58.011 Y42.798 E22.5063
G1 X59.817 Y42.684 E22.57555
G1 X60.243 Y42.684 E22.59186
G1 X62.002 Y42.799 E22.65932
G1 X62.409 Y42.851 E22.67502
G1 X64.105 Y43.175 E22.7411
G1 X64.513 Y43.28 E22.75722
G1 X66.206 Y43.833 E22.82538
G1 X66.592 Y43.986 E22.84127
G1 X68.185 Y44.737 E22.90867
G1 X68.551 Y44.939 E22.92467
G1 X70.012 Y45.868 E22.99093
G1 X70.345 Y46.11 E23.00668
G1 X71.688 Y47.219 E23.07334
G1 X71.993 Y47.505 E23.08934
G1 X73.204 Y48.793 E23.157
