;FLAVOR:Marlin
;TIME:20270
;Filament used: 14.2323m
;Layer height: 0.21875
;Generated with Cura_SteamEngine 3.6.0
M140 S65
M105
M190 S65
M104 S205
M105
M109 S205
M82 ;absolute extrusion mode
G21;(metric values)
G90;(absolute positioning)
M82;(set extruder to absolute mode)
M107;(start with the fan off)
G28;(Home the printer)
G92 E0;(Reset the extruder to 0)
G0 Z5 E5 F500;(Move up and prime the nozzle)
G0 X-1 Z0;(Move outside the printable area)
G1 Y60 E8 F500;(Draw a priming/wiping line to the rear)
G1 X-1;(Move a little closer to the print area)
G1 Y10 E16 F500;(draw more priming/wiping)
G1 E15 F250;(Small retract)
G92 E0;(Zero the extruder)
G92 E0
G1 F2400 E-2.5
;LAYER_COUNT:332
;LAYER:0
M107
G0 F4320 X54.113 Y15.447 Z0.263
;TYPE:SKIRT
G1 F2400 E0
G1 F1080 X54.31 Y14.841 E0.02439
G1 X54.581 Y14.265 E0.04875
G1 X54.922 Y13.727 E0.07312
G1 X55.328 Y13.236 E0.09751
G1 X55.792 Y12.8 E0.12187
G1 X56.307 Y12.425 E0.14625
G1 X56.864 Y12.118 E0.17059
G1 X57.456 Y11.883 E0.19497
G1 X58.073 Y11.724 E0.21935
G1 X58.705 Y11.643 E0.24374
G1 X59.029 Y11.633 E0.25614
G1 X98.392 Y11.634 E1.76256
G1 X99.028 Y11.674 E1.78695
G1 X99.653 Y11.793 E1.8113
G1 X100.259 Y11.99 E1.83568
G1 X100.835 Y12.261 E1.86005
G1 X101.373 Y12.602 E1.88442
G1 X101.864 Y13.008 E1.90881
G1 X102.3 Y13.472 E1.93317
G1 X102.675 Y13.987 E1.95755
G1 X102.982 Y14.545 E1.98193
G1 X103.217 Y15.137 E2.0063
G1 X103.376 Y15.753 E2.03065
G1 X103.457 Y16.385 E2.05503
G1 X103.467 Y16.708 E2.0674
G1 X103.468 Y24.468 E2.36437
G1 X103.428 Y25.104 E2.38876
G1 X103.309 Y25.73 E2.41315
G1 X103.112 Y26.335 E2.4375
G1 X102.841 Y26.912 E2.46189
G1 X102.5 Y27.45 E2.48627
G1 X102.095 Y27.941 E2.51063
G1 X101.631 Y28.377 E2.535
G1 X101.116 Y28.752 E2.55938
G1 X100.558 Y29.059 E2.58375
G1 X99.966 Y29.294 E2.60812
G1 X99.35 Y29.453 E2.63247
G1 X98.718 Y29.534 E2.65686
G1 X98.393 Y29.544 E2.6693
G1 X96.218 Y29.544 E2.75254
G1 X96.218 Y31.53 E2.82854
G1 X98.393 Y31.53 E2.91178
G1 X99.029 Y31.57 E2.93617
G1 X99.654 Y31.689 E2.96051
G1 X100.26 Y31.886 E2.9849
G1 X100.836 Y32.157 E3.00926
G1 X101.374 Y32.498 E3.03364
G1 X101.865 Y32.904 E3.05802
G1 X102.301 Y33.368 E3.08239
G1 X102.676 Y33.883 E3.10677
G1 X102.983 Y34.44 E3.13111
G1 X103.218 Y35.032 E3.15548
G1 X103.377 Y35.649 E3.17987
G1 X103.458 Y36.281 E3.20425
G1 X103.468 Y36.605 E3.21666
G1 X103.468 Y44.366 E3.51367
G1 X103.428 Y45.002 E3.53806
G1 X103.309 Y45.627 E3.56241
G1 X103.112 Y46.233 E3.58679
G1 X102.841 Y46.809 E3.61115
G1 X102.5 Y47.347 E3.63553
G1 X102.094 Y47.838 E3.65991
G1 X101.63 Y48.274 E3.68428
G1 X101.115 Y48.649 E3.70866
G1 X100.558 Y48.956 E3.733
G1 X99.966 Y49.191 E3.75737
G1 X99.349 Y49.35 E3.78176
G1 X98.717 Y49.431 E3.80614
G1 X98.393 Y49.441 E3.81855
G1 X59.03 Y49.44 E5.32497
G1 X58.394 Y49.4 E5.34936
G1 X57.769 Y49.281 E5.3737
G1 X57.163 Y49.084 E5.39809
G1 X56.587 Y48.813 E5.42245
G1 X56.049 Y48.472 E5.44683
G1 X55.558 Y48.066 E5.47121
G1 X55.122 Y47.602 E5.49558
G1 X54.747 Y47.087 E5.51996
G1 X54.44 Y46.529 E5.54433
G1 X54.205 Y45.937 E5.56871
G1 X54.046 Y45.321 E5.59305
G1 X53.965 Y44.689 E5.61744
G1 X53.955 Y44.366 E5.62981
G1 X53.954 Y36.606 E5.92678
G1 X53.994 Y35.97 E5.95117
G1 X54.113 Y35.344 E5.97555
G1 X54.31 Y34.739 E5.9999
G1 X54.581 Y34.162 E6.0243
G1 X54.922 Y33.624 E6.04868
G1 X55.327 Y33.133 E6.07303
G1 X55.791 Y32.697 E6.0974
G1 X56.306 Y32.322 E6.12178
G1 X56.864 Y32.015 E6.14615
G1 X57.456 Y31.78 E6.17053
G1 X58.072 Y31.621 E6.19488
G1 X58.704 Y31.54 E6.21926
G1 X59.029 Y31.53 E6.23171
G1 X61.204 Y31.53 E6.31494
G1 X61.204 Y29.544 E6.39095
G1 X59.029 Y29.544 E6.47418
G1 X58.393 Y29.504 E6.49857
G1 X57.768 Y29.385 E6.52292
G1 X57.162 Y29.188 E6.54731
G1 X56.586 Y28.917 E6.57167
G1 X56.048 Y28.576 E6.59604
G1 X55.557 Y28.17 E6.62043
G1 X55.121 Y27.706 E6.64479
G1 X54.746 Y27.191 E6.66917
G1 X54.439 Y26.634 E6.69351
G1 X54.204 Y26.042 E6.71789
G1 X54.045 Y25.425 E6.74227
G1 X53.964 Y24.793 E6.76666
G1 X53.954 Y24.469 E6.77906
G1 X53.954 Y16.708 E7.07608
G1 X53.991 Y16.129 E7.09828
G0 F972 X53.994 Y16.072
G0 X54.113 Y15.447
G0 F4320 X54.463 Y15.492
G1 F2400 E7.12484
G1 F1080 X54.66 Y14.91 E7.14835
G1 X54.93 Y14.358 E7.17187
G1 X55.27 Y13.846 E7.19539
G1 X55.673 Y13.382 E7.21891
G1 X56.133 Y12.975 E7.24242
G1 X56.642 Y12.63 E7.26595
G1 X57.191 Y12.355 E7.28945
G1 X57.772 Y12.153 E7.31299
G1 X58.373 Y12.029 E7.33647
G1 X59.029 Y11.983 E7.36164
G1 X98.392 Y11.984 E8.86806
G1 X99.005 Y12.024 E8.89157
G1 X99.608 Y12.143 E8.91509
G1 X100.19 Y12.34 E8.9386
G1 X100.742 Y12.61 E8.96212
G1 X101.254 Y12.95 E8.98564
G1 X101.718 Y13.353 E9.00916
G1 X102.125 Y13.813 E9.03267
G1 X102.47 Y14.322 E9.0562
G1 X102.745 Y14.871 E9.0797
G1 X102.947 Y15.452 E9.10324
G1 X103.071 Y16.053 E9.12672
G1 X103.117 Y16.708 E9.15185
G1 X103.118 Y24.468 E9.44883
G1 X103.078 Y25.082 E9.47237
G1 X102.959 Y25.684 E9.49586
G1 X102.763 Y26.267 E9.5194
G1 X102.492 Y26.819 E9.54293
G1 X102.153 Y27.331 E9.56643
G1 X101.75 Y27.794 E9.58992
G1 X101.29 Y28.202 E9.61345
G1 X100.781 Y28.546 E9.63696
G1 X100.231 Y28.822 E9.66051
G1 X99.651 Y29.023 E9.68401
G1 X99.049 Y29.148 E9.70754
G1 X98.393 Y29.194 E9.7327
G1 X95.868 Y29.194 E9.82933
G1 X95.868 Y31.88 E9.93213
G1 X98.393 Y31.88 E10.02876
G1 X99.006 Y31.92 E10.05227
G1 X99.609 Y32.039 E10.07579
G1 X100.191 Y32.236 E10.0993
G1 X100.743 Y32.506 E10.12282
G1 X101.255 Y32.846 E10.14634
G1 X101.719 Y33.249 E10.16986
G1 X102.126 Y33.709 E10.19337
G1 X102.471 Y34.218 E10.2169
G1 X102.746 Y34.767 E10.2404
G1 X102.948 Y35.348 E10.26394
G1 X103.072 Y35.949 E10.28742
G1 X103.118 Y36.605 E10.31259
G1 X103.118 Y44.366 E10.6096
G1 X103.078 Y44.979 E10.63311
G1 X102.959 Y45.582 E10.65663
G1 X102.762 Y46.164 E10.68015
G1 X102.492 Y46.716 E10.70367
G1 X102.152 Y47.228 E10.72719
G1 X101.749 Y47.692 E10.75071
G1 X101.289 Y48.099 E10.77421
G1 X100.78 Y48.444 E10.79774
G1 X100.231 Y48.719 E10.82124
G1 X99.65 Y48.921 E10.84478
G1 X99.049 Y49.045 E10.86827
G1 X98.393 Y49.091 E10.89343
G1 X59.03 Y49.09 E12.39985
G1 X58.417 Y49.05 E12.42336
G1 X57.814 Y48.931 E12.44689
G1 X57.232 Y48.734 E12.4704
G1 X56.68 Y48.464 E12.49392
G1 X56.168 Y48.124 E12.51744
G1 X55.704 Y47.721 E12.54096
G1 X55.297 Y47.261 E12.56446
G1 X54.952 Y46.752 E12.588
G1 X54.677 Y46.203 E12.61149
G1 X54.475 Y45.622 E12.63503
G1 X54.351 Y45.021 E12.65852
G1 X54.305 Y44.366 E12.68365
G1 X54.304 Y36.606 E12.98062
G1 X54.344 Y35.992 E13.00417
G1 X54.463 Y35.39 E13.02765
G1 X54.659 Y34.807 E13.05119
G1 X54.93 Y34.255 E13.07473
G1 X55.269 Y33.743 E13.09823
G1 X55.672 Y33.28 E13.12172
G1 X56.132 Y32.872 E13.14525
G1 X56.641 Y32.528 E13.16876
G1 X57.191 Y32.252 E13.19231
G1 X57.771 Y32.051 E13.2158
G1 X58.373 Y31.926 E13.23933
G1 X59.029 Y31.88 E13.2645
G1 X61.554 Y31.88 E13.36113
G1 X61.554 Y29.194 E13.46392
G1 X59.029 Y29.194 E13.56055
G1 X58.416 Y29.154 E13.58406
G1 X57.813 Y29.035 E13.60759
G1 X57.231 Y28.838 E13.6311
G1 X56.679 Y28.568 E13.65462
G1 X56.167 Y28.228 E13.67814
G1 X55.703 Y27.825 E13.70166
G1 X55.296 Y27.365 E13.72516
G1 X54.951 Y26.856 E13.7487
G1 X54.676 Y26.307 E13.77219
G1 X54.474 Y25.726 E13.79573
G1 X54.35 Y25.125 E13.81922
G1 X54.304 Y24.469 E13.84439
G1 X54.304 Y16.708 E14.1414
G1 X54.339 Y16.174 E14.16188
G0 F972 X54.344 Y16.095
G0 X54.463 Y15.492
G0 F4320 X54.813 Y15.539
G1 F2400 E14.18844
G1 F1080 X55.009 Y14.981 E14.21107
G1 X55.279 Y14.455 E14.2337
G1 X55.617 Y13.97 E14.25632
G1 X56.017 Y13.535 E14.27894
G1 X56.473 Y13.158 E14.30158
G1 X56.975 Y12.845 E14.32422
G1 X57.514 Y12.604 E14.34682
G1 X58.082 Y12.437 E14.36947
G1 X58.666 Y12.348 E14.39208
G1 X59.029 Y12.333 E14.40599
G1 X98.392 Y12.334 E15.91241
G1 X98.982 Y12.374 E15.93504
G1 X99.561 Y12.493 E15.95766
G1 X100.119 Y12.689 E15.98029
G1 X100.645 Y12.959 E16.00292
G1 X101.13 Y13.297 E16.02554
G1 X101.565 Y13.697 E16.04816
G1 X101.942 Y14.153 E16.0708
G1 X102.255 Y14.655 E16.09344
G1 X102.496 Y15.194 E16.11604
G1 X102.663 Y15.762 E16.13869
G1 X102.752 Y16.346 E16.1613
G1 X102.767 Y16.708 E16.17517
G1 X102.768 Y24.468 E16.47214
G1 X102.728 Y25.058 E16.49477
G1 X102.609 Y25.638 E16.51743
G1 X102.413 Y26.195 E16.54003
G1 X102.144 Y26.722 E16.56267
G1 X101.806 Y27.207 E16.5853
G1 X101.405 Y27.642 E16.60794
G1 X100.95 Y28.019 E16.63055
G1 X100.448 Y28.331 E16.65317
G1 X99.908 Y28.573 E16.67582
G1 X99.341 Y28.74 E16.69844
G1 X98.756 Y28.829 E16.72108
G1 X98.393 Y28.844 E16.73499
G1 X95.518 Y28.844 E16.84501
G1 X95.518 Y32.23 E16.9746
G1 X98.393 Y32.23 E17.08462
G1 X98.983 Y32.27 E17.10725
G1 X99.562 Y32.389 E17.12987
G1 X100.12 Y32.585 E17.15251
G1 X100.646 Y32.855 E17.17514
G1 X101.131 Y33.193 E17.19776
G1 X101.566 Y33.593 E17.22037
G1 X101.943 Y34.049 E17.24302
G1 X102.256 Y34.551 E17.26566
G1 X102.497 Y35.09 E17.28825
G1 X102.664 Y35.658 E17.31091
G1 X102.753 Y36.242 E17.33352
G1 X102.768 Y36.605 E17.34742
G1 X102.768 Y44.366 E17.64443
G1 X102.728 Y44.956 E17.66707
G1 X102.609 Y45.535 E17.68969
G1 X102.413 Y46.093 E17.71232
G1 X102.143 Y46.619 E17.73495
G1 X101.805 Y47.104 E17.75757
G1 X101.405 Y47.539 E17.78019
G1 X100.949 Y47.916 E17.80283
G1 X100.447 Y48.229 E17.82547
G1 X99.908 Y48.47 E17.84807
G1 X99.34 Y48.637 E17.87072
G1 X98.756 Y48.726 E17.89333
G1 X98.393 Y48.741 E17.90723
G1 X59.03 Y48.74 E19.41365
G1 X58.44 Y48.7 E19.43629
G1 X57.861 Y48.581 E19.45891
G1 X57.303 Y48.385 E19.48154
G1 X56.777 Y48.115 E19.50417
G1 X56.292 Y47.777 E19.52679
G1 X55.857 Y47.377 E19.54941
G1 X55.48 Y46.921 E19.57205
G1 X55.167 Y46.419 E19.59469
G1 X54.926 Y45.88 E19.61729
G1 X54.759 Y45.312 E19.63994
G1 X54.67 Y44.728 E19.66255
G1 X54.655 Y44.366 E19.67642
G1 X54.654 Y36.606 E19.97339
G1 X54.694 Y36.016 E19.99602
G1 X54.813 Y35.436 E20.01868
G1 X55.009 Y34.879 E20.04128
G1 X55.278 Y34.352 E20.06392
G1 X55.616 Y33.867 E20.08655
G1 X56.017 Y33.432 E20.10919
G1 X56.472 Y33.055 E20.1318
G1 X56.974 Y32.743 E20.15442
G1 X57.514 Y32.501 E20.17707
G1 X58.081 Y32.334 E20.19969
G1 X58.666 Y32.245 E20.22233
G1 X59.029 Y32.23 E20.23624
G1 X61.904 Y32.23 E20.34626
G1 X61.904 Y28.844 E20.47584
G1 X59.029 Y28.844 E20.58587
G1 X58.439 Y28.804 E20.6085
G1 X57.86 Y28.685 E20.63112
G1 X57.302 Y28.489 E20.65376
G1 X56.776 Y28.219 E20.67638
G1 X56.291 Y27.881 E20.69901
G1 X55.856 Y27.481 E20.72162
G1 X55.479 Y27.025 E20.74427
G1 X55.166 Y26.523 E20.76691
G1 X54.925 Y25.984 E20.7895
G1 X54.758 Y25.416 E20.81216
G1 X54.669 Y24.832 E20.83477
G1 X54.654 Y24.469 E20.84867
G1 X54.654 Y16.708 E21.14568
G1 X54.688 Y16.22 E21.16441
G0 F972 X54.694 Y16.118
G0 X54.813 Y15.539
G0 F4320 X55.163 Y15.588
G1 F2400 E21.19096
G1 F1080 X55.359 Y15.056 E21.21266
G1 X55.627 Y14.556 E21.23437
G1 X55.964 Y14.1 E21.25607
G1 X56.361 Y13.695 E21.27778
G1 X56.811 Y13.349 E21.2995
G1 X57.305 Y13.071 E21.32119
G1 X57.833 Y12.865 E21.34288
G1 X58.385 Y12.735 E21.36459
G1 X59.029 Y12.683 E21.38931
G1 X98.392 Y12.684 E22.89573
G1 X98.958 Y12.724 E22.91745
G1 X99.512 Y12.843 E22.93913
G1 X100.044 Y13.039 E22.96083
G1 X100.544 Y13.308 E22.98256
G1 X101.001 Y13.644 E23.00426
G1 X101.405 Y14.041 E23.02594
G1 X101.751 Y14.491 E23.04767
G1 X102.029 Y14.985 E23.06936
G1 X102.235 Y15.513 E23.09105
G1 X102.365 Y16.065 E23.11275
G1 X102.417 Y16.708 E23.13744
G1 X102.418 Y24.468 E23.43441
G1 X102.378 Y25.034 E23.45613
G1 X102.259 Y25.589 E23.47785
G1 X102.063 Y26.121 E23.49955
G1 X101.795 Y26.62 E23.52123
G1 X101.459 Y27.077 E23.54293
G1 X101.062 Y27.482 E23.56464
G1 X100.612 Y27.827 E23.58634
G1 X100.118 Y28.106 E23.60805
G1 X99.59 Y28.312 E23.62974
G1 X99.038 Y28.442 E23.65144
G1 X98.393 Y28.494 E23.67621
G1 X95.168 Y28.494 E23.79963
G1 X95.168 Y32.58 E23.956
G1 X98.393 Y32.58 E24.07942
G1 X98.959 Y32.62 E24.10113
G1 X99.513 Y32.739 E24.12282
G1 X100.045 Y32.935 E24.14452
G1 X100.545 Y33.203 E24.16623
G1 X101.001 Y33.54 E24.18793
G1 X101.406 Y33.937 E24.20963
G1 X101.752 Y34.387 E24.23135
G1 X102.03 Y34.881 E24.25305
G1 X102.236 Y35.409 E24.27474
G1 X102.366 Y35.961 E24.29644
G1 X102.418 Y36.605 E24.32117
G1 X102.418 Y44.366 E24.61818
G1 X102.378 Y44.932 E24.63989
G1 X102.259 Y45.486 E24.66158
G1 X102.063 Y46.018 E24.68328
G1 X101.795 Y46.518 E24.70499
G1 X101.458 Y46.974 E24.72669
G1 X101.061 Y47.379 E24.74839
G1 X100.611 Y47.725 E24.77011
G1 X100.117 Y48.003 E24.79181
G1 X99.589 Y48.209 E24.8135
G1 X99.037 Y48.339 E24.8352
G1 X98.393 Y48.391 E24.85993
G1 X59.03 Y48.39 E26.36635
G1 X58.464 Y48.35 E26.38806
G1 X57.91 Y48.231 E26.40975
G1 X57.378 Y48.035 E26.43144
G1 X56.878 Y47.766 E26.45317
G1 X56.421 Y47.43 E26.47488
G1 X56.017 Y47.033 E26.49656
G1 X55.671 Y46.583 E26.51828
G1 X55.393 Y46.089 E26.53997
G1 X55.187 Y45.561 E26.56166
G1 X55.057 Y45.009 E26.58337
G1 X55.005 Y44.366 E26.60805
G1 X55.004 Y36.606 E26.90503
G1 X55.044 Y36.04 E26.92674
G1 X55.163 Y35.485 E26.94847
G1 X55.359 Y34.953 E26.97016
G1 X55.627 Y34.454 E26.99184
G1 X55.963 Y33.997 E27.01355
G1 X56.36 Y33.592 E27.03525
G1 X56.81 Y33.247 E27.05695
G1 X57.304 Y32.968 E27.07866
G1 X57.832 Y32.762 E27.10035
G1 X58.384 Y32.632 E27.12206
G1 X59.029 Y32.58 E27.14682
G1 X62.254 Y32.58 E27.27024
G1 X62.254 Y28.494 E27.42661
G1 X59.029 Y28.494 E27.55003
G1 X58.463 Y28.454 E27.57175
G1 X57.909 Y28.335 E27.59343
G1 X57.377 Y28.139 E27.61513
G1 X56.877 Y27.871 E27.63684
G1 X56.421 Y27.534 E27.65854
G1 X56.016 Y27.137 E27.68024
G1 X55.67 Y26.687 E27.70197
G1 X55.392 Y26.193 E27.72366
G1 X55.186 Y25.665 E27.74535
G1 X55.056 Y25.113 E27.76705
G1 X55.004 Y24.469 E27.79178
G1 X55.004 Y16.708 E28.08879
G1 X55.035 Y16.269 E28.10564
G0 F972 X55.044 Y16.142
G0 X55.163 Y15.588
G0 F4320 X55.513 Y15.639
G1 F2400 E28.1322
G1 F1080 X55.708 Y15.134 E28.15291
G1 X55.976 Y14.662 E28.17368
G1 X56.31 Y14.236 E28.1944
G1 X56.703 Y13.863 E28.21514
G1 X57.147 Y13.552 E28.23588
G1 X57.631 Y13.309 E28.25661
G1 X58.146 Y13.141 E28.27734
G1 X58.68 Y13.05 E28.29807
G1 X59.029 Y13.033 E28.31144
G1 X98.392 Y13.034 E29.81786
G1 X98.932 Y13.074 E29.83858
G1 X99.461 Y13.193 E29.85934
G1 X99.966 Y13.388 E29.88005
G1 X100.438 Y13.656 E29.90082
G1 X100.864 Y13.99 E29.92154
G1 X101.237 Y14.383 E29.94228
G1 X101.548 Y14.827 E29.96302
G1 X101.791 Y15.311 E29.98375
G1 X101.959 Y15.826 E30.00448
G1 X102.05 Y16.36 E30.02521
G1 X102.067 Y16.709 E30.03858
G1 X102.068 Y24.469 E30.33556
G1 X102.028 Y25.009 E30.35628
G1 X101.909 Y25.538 E30.37703
G1 X101.714 Y26.043 E30.39775
G1 X101.446 Y26.514 E30.41849
G1 X101.112 Y26.941 E30.43923
G1 X100.719 Y27.314 E30.45997
G1 X100.276 Y27.625 E30.48068
G1 X99.791 Y27.868 E30.50144
G1 X99.276 Y28.036 E30.52217
G1 X98.742 Y28.127 E30.5429
G1 X98.393 Y28.144 E30.55628
G1 X94.818 Y28.144 E30.69309
G1 X94.818 Y32.93 E30.87625
G1 X98.393 Y32.93 E31.01307
G1 X98.933 Y32.97 E31.03379
G1 X99.462 Y33.089 E31.05454
G1 X99.967 Y33.284 E31.07526
G1 X100.439 Y33.552 E31.09603
G1 X100.865 Y33.886 E31.11675
G1 X101.238 Y34.279 E31.13748
G1 X101.549 Y34.723 E31.15823
G1 X101.792 Y35.207 E31.17895
G1 X101.96 Y35.722 E31.19968
G1 X102.051 Y36.256 E31.22041
G1 X102.068 Y36.605 E31.23379
G1 X102.068 Y44.366 E31.5308
G1 X102.028 Y44.906 E31.55152
G1 X101.909 Y45.435 E31.57227
G1 X101.714 Y45.94 E31.59299
G1 X101.446 Y46.412 E31.61376
G1 X101.112 Y46.838 E31.63448
G1 X100.719 Y47.211 E31.65521
G1 X100.275 Y47.522 E31.67596
G1 X99.791 Y47.765 E31.69669
G1 X99.276 Y47.933 E31.71742
G1 X98.742 Y48.024 E31.73815
G1 X98.393 Y48.041 E31.75152
G1 X59.03 Y48.04 E33.25794
G1 X58.49 Y48 E33.27866
G1 X57.961 Y47.881 E33.29941
G1 X57.456 Y47.686 E33.32013
G1 X56.984 Y47.418 E33.3409
G1 X56.558 Y47.084 E33.36162
G1 X56.185 Y46.691 E33.38235
G1 X55.874 Y46.247 E33.4031
G1 X55.631 Y45.763 E33.42383
G1 X55.463 Y45.248 E33.44456
G1 X55.372 Y44.714 E33.46529
G1 X55.355 Y44.365 E33.47866
G1 X55.354 Y36.605 E33.77563
G1 X55.394 Y36.065 E33.79636
G1 X55.513 Y35.536 E33.81711
G1 X55.708 Y35.031 E33.83782
G1 X55.976 Y34.56 E33.85856
G1 X56.31 Y34.133 E33.87931
G1 X56.703 Y33.76 E33.90005
G1 X57.146 Y33.449 E33.92076
G1 X57.631 Y33.206 E33.94152
G1 X58.146 Y33.038 E33.96225
G1 X58.68 Y32.947 E33.98298
G1 X59.029 Y32.93 E33.99635
G1 X62.604 Y32.93 E34.13317
G1 X62.604 Y28.144 E34.31633
G1 X59.029 Y28.144 E34.45314
G1 X58.489 Y28.104 E34.47387
G1 X57.96 Y27.985 E34.49462
G1 X57.455 Y27.79 E34.51533
