;FLAVOR:Marlin
;TIME:1290
;Filament used: 0.403358m
;Layer height: 0.13125
;Generated with Cura_SteamEngine 3.6.0
M140 S60
M105
M190 S60
M104 S210
M105
M109 S210
M82 ;absolute extrusion mode
G21;(metric values)
G90;(absolute positioning)
M82;(set extruder to absolute mode)
M107;(start with the fan off)
G28;(Home the printer)
G92 E0;(Reset the extruder to 0)
G0 Z5 E5 F500;(Move up and prime the nozzle)
G0 X-1 Z0;(Move outside the printable area)
G1 Y60 E8 F500;(Draw a priming/wiping line to the rear)
G1 X-1;(Move a little closer to the print area)
G1 Y10 E16 F500;(draw more priming/wiping)
G1 E15 F250;(Small retract)
G92 E0;(Zero the extruder)
G92 E0
G1 F2400 E-2.5
;LAYER_COUNT:119
;LAYER:0
M107
G0 F4320 X58.892 Y48.977 Z0.263
;TYPE:SUPPORT
G1 F2400 E0
G1 F1260 X59.119 Y48.993 E0.00871
G1 X59.883 Y48.529 E0.04292
G1 X59.937 Y48.514 E0.04506
G1 X60.038 Y48.507 E0.04894
G1 X60.208 Y48.553 E0.05568
G1 X60.974 Y49.121 E0.09217
G1 X61.305 Y49.145 E0.10487
G1 X61.353 Y50.558 E0.15898
G1 X61.263 Y51.34 E0.1891
G1 X61.284 Y51.424 E0.19242
G1 X60.458 Y51.341 E0.22419
G1 X59.998 Y51.33 E0.2418
G1 X59.548 Y51.341 E0.25902
G1 X59.114 Y51.373 E0.27568
G1 X58.636 Y51.435 E0.29412
G1 X58.637 Y50.344 E0.33588
G1 X58.765 Y49.659 E0.36254
G0 F1134 X58.892 Y48.977
G0 F4320 X59.391 Y48.993
G1 F2400 E0.3891
G1 F1260 X60.568 Y48.993 E0.43415
G0 F4320 X60.658 Y49.061
G1 F1260 X60.658 Y51.22 E0.51677
G1 F2400 E-1.98323
G0 F4320 X63.379 Y52.213
G0 X64.154 Y52.579
G0 X64.897 Y53.023
G0 X65.601 Y53.545
G0 X66.235 Y54.12
G0 X66.817 Y54.761
G0 X67.566 Y55.823
G0 X68.151 Y56.981
G0 X68.558 Y58.215
G0 X68.783 Y59.503
G0 X68.814 Y60.811
G0 X68.729 Y61.663
G0 X68.445 Y62.932
G0 X68.153 Y63.745
G0 X67.787 Y64.52
G0 X67.343 Y65.263
G0 X66.821 Y65.967
G0 X66.246 Y66.601
G0 X65.605 Y67.183
G0 X64.528 Y67.941
G0 X63.376 Y68.521
G0 X63.147 Y68.602
G0 X60.574 Y69.382
G1 F2400 E0.51677
G1 F1260 X60.544 Y69.469 E0.52029
G1 X60.048 Y69.506 E0.53933
G1 X59.763 Y69.559 E0.55042
G1 X59.663 Y69.557 E0.55425
G1 X59.617 Y69.543 E0.55609
G1 X59.528 Y69.476 E0.56035
G1 X59.479 Y69.385 E0.56431
G1 X60.002 Y69.402 E0.58433
G1 X60.409 Y69.387 E0.59992
G0 F1134 X60.574 Y69.382
G1 F2400 E-1.90008
;MESH:Corginpc.stl.stl
G0 F4320 X60.485 Y68.159
G0 X60.724 Y67.641
;TYPE:WALL-INNER
G1 F2400 E0.60624
G1 F1260 X60.371 Y67.667 E0.61978
G1 X60 Y67.677 E0.63398
G1 X59.632 Y67.667 E0.64807
G1 X59.289 Y67.641 E0.66124
G1 X58.921 Y67.596 E0.67543
G1 X58.568 Y67.535 E0.68914
G1 X58.22 Y67.457 E0.70278
G1 X57.89 Y67.365 E0.71589
G1 X57.541 Y67.25 E0.72996
G1 X57.193 Y67.116 E0.74423
G1 X56.86 Y66.968 E0.75817
G1 X56.559 Y66.816 E0.77108
G1 X56.23 Y66.63 E0.78554
G1 X55.942 Y66.447 E0.7986
G1 X55.641 Y66.235 E0.81269
G1 X55.346 Y66.004 E0.82703
G1 X55.081 Y65.775 E0.84043
G1 X54.833 Y65.538 E0.85356
G1 X54.576 Y65.267 E0.86785
G1 X54.348 Y65.003 E0.8812
G1 X54.124 Y64.715 E0.89517
G1 X53.917 Y64.423 E0.90886
G1 X53.734 Y64.132 E0.92202
G1 X53.543 Y63.794 E0.93688
G1 X53.389 Y63.486 E0.95006
G1 X53.241 Y63.152 E0.96404
G1 X53.114 Y62.825 E0.97746
G1 X53.002 Y62.479 E0.99138
G1 X52.906 Y62.134 E1.00508
G1 X52.825 Y61.771 E1.01932
G1 X52.767 Y61.43 E1.03256
G1 X52.725 Y61.091 E1.04563
G1 X52.699 Y60.737 E1.05921
G1 X52.689 Y60.388 E1.07257
G1 X52.699 Y59.986 E1.08796
G1 X52.725 Y59.655 E1.10067
G1 X52.77 Y59.287 E1.11486
G1 X52.825 Y58.961 E1.12751
G1 X52.907 Y58.595 E1.14186
G1 X53.002 Y58.254 E1.15541
G1 X53.121 Y57.89 E1.17007
G1 X53.241 Y57.579 E1.18282
G1 X53.389 Y57.245 E1.19681
G1 X53.543 Y56.938 E1.20995
G1 X53.736 Y56.597 E1.22495
G1 X53.923 Y56.301 E1.23834
G1 X54.134 Y56.003 E1.25232
G1 X54.351 Y55.725 E1.26581
G1 X54.58 Y55.46 E1.27922
G1 X54.834 Y55.193 E1.29332
G1 X55.081 Y54.957 E1.30639
G1 X55.346 Y54.728 E1.3198
G1 X55.641 Y54.497 E1.33414
G1 X55.942 Y54.285 E1.34823
G1 X56.23 Y54.102 E1.36129
G1 X56.563 Y53.914 E1.37592
G1 X56.864 Y53.762 E1.38883
G1 X57.201 Y53.613 E1.40293
G1 X57.541 Y53.482 E1.41687
G1 X57.89 Y53.367 E1.43093
G1 X58.22 Y53.275 E1.44404
G1 X58.569 Y53.197 E1.45773
G1 X58.933 Y53.134 E1.47187
G1 X59.279 Y53.091 E1.48521
G1 X59.629 Y53.065 E1.49864
G1 X60 Y53.055 E1.51284
G1 X60.367 Y53.065 E1.5269
G1 X60.71 Y53.091 E1.54006
G1 X61.078 Y53.136 E1.55425
G1 X61.432 Y53.197 E1.56799
G1 X61.78 Y53.275 E1.58164
G1 X62.121 Y53.37 E1.59519
G1 X62.442 Y53.476 E1.60813
G1 X62.806 Y53.616 E1.62305
G1 X63.145 Y53.766 E1.63724
G1 X63.428 Y53.909 E1.64937
G1 X63.748 Y54.09 E1.66344
G1 X64.064 Y54.29 E1.67776
G1 X64.372 Y54.507 E1.69217
G1 X64.628 Y54.707 E1.70461
G1 X64.917 Y54.957 E1.71923
G1 X65.165 Y55.193 E1.73233
G1 X65.409 Y55.449 E1.74587
G1 X65.659 Y55.738 E1.76049
G1 X65.859 Y55.994 E1.77292
G1 X66.076 Y56.302 E1.78734
G1 X66.276 Y56.618 E1.80165
G1 X66.453 Y56.93 E1.81538
G1 X66.604 Y57.23 E1.82823
G1 X66.759 Y57.579 E1.84285
G1 X66.881 Y57.898 E1.85592
G1 X66.994 Y58.239 E1.86967
G1 X67.091 Y58.586 E1.88346
G1 X67.166 Y58.919 E1.89652
G1 X67.233 Y59.305 E1.91151
G1 X67.275 Y59.638 E1.92436
G1 X67.301 Y59.986 E1.93771
G1 X67.311 Y60.344 E1.95142
G1 X67.301 Y60.733 E1.96631
G1 X67.275 Y61.076 E1.97947
G1 X67.23 Y61.444 E1.99366
G1 X67.174 Y61.772 E2.0064
G1 X67.089 Y62.152 E2.0213
G1 X66.998 Y62.479 E2.03429
G1 X66.884 Y62.825 E2.04823
G1 X66.759 Y63.152 E2.06163
G1 X66.611 Y63.486 E2.07561
G1 X66.457 Y63.794 E2.08879
G1 X66.276 Y64.114 E2.10286
G1 X66.081 Y64.423 E2.11684
G1 X65.874 Y64.717 E2.1306
G1 X65.659 Y64.994 E2.14402
G1 X65.423 Y65.267 E2.15783
G1 X65.166 Y65.537 E2.1721
G1 X64.917 Y65.775 E2.18528
G1 X64.634 Y66.02 E2.1996
G1 X64.372 Y66.225 E2.21233
G1 X64.064 Y66.442 E2.22675
G1 X63.751 Y66.64 E2.24093
G1 X63.44 Y66.816 E2.2546
G1 X63.14 Y66.968 E2.26747
G1 X62.806 Y67.116 E2.28145
G1 X62.443 Y67.256 E2.29634
G1 X62.122 Y67.362 E2.30928
G1 X61.78 Y67.457 E2.32286
G1 X61.431 Y67.535 E2.33655
G1 X61.411 Y67.539 E2.33733
G0 F1134 X61.065 Y67.599
G0 X60.724 Y67.641
G0 F4320 X64.574 Y66.511
G1 F2400 E2.36389
G1 F1260 X64.259 Y66.733 E2.37864
G1 X63.928 Y66.942 E2.39362
G1 X63.608 Y67.123 E2.40769
G1 X63.282 Y67.288 E2.42167
G1 X62.932 Y67.443 E2.43632
G1 X62.569 Y67.583 E2.45121
G1 X62.226 Y67.696 E2.46503
G1 X61.865 Y67.796 E2.47937
G1 X61.491 Y67.88 E2.49404
G1 X61.125 Y67.944 E2.50826
G1 X60.754 Y67.99 E2.52256
G1 X60.384 Y68.017 E2.53676
G1 X60 Y68.027 E2.55146
G1 X59.617 Y68.017 E2.56612
G1 X59.261 Y67.99 E2.57979
G1 X58.863 Y67.941 E2.59513
G1 X58.509 Y67.88 E2.60888
G1 X58.135 Y67.796 E2.62355
G1 X57.785 Y67.699 E2.63745
G1 X57.415 Y67.577 E2.65236
G1 X57.067 Y67.443 E2.66663
G1 X56.718 Y67.288 E2.68124
G1 X56.387 Y67.121 E2.69543
G1 X56.058 Y66.935 E2.7099
G1 X55.754 Y66.742 E2.72368
G1 X55.425 Y66.511 E2.73906
G1 X55.13 Y66.28 E2.7534
G1 X54.852 Y66.04 E2.76745
G1 X54.585 Y65.785 E2.78158
G1 X54.315 Y65.501 E2.79658
G1 X54.083 Y65.232 E2.81018
G1 X53.839 Y64.919 E2.82536
G1 X53.631 Y64.625 E2.83915
G1 X53.429 Y64.304 E2.85366
G1 X53.238 Y63.966 E2.86852
G1 X53.076 Y63.643 E2.88235
G1 X52.921 Y63.294 E2.89696
G1 X52.785 Y62.944 E2.91133
G1 X52.669 Y62.587 E2.9257
G1 X52.565 Y62.214 E2.94052
G1 X52.483 Y61.848 E2.95487
G1 X52.422 Y61.488 E2.96884
G1 X52.376 Y61.119 E2.98307
G1 X52.349 Y60.751 E2.9972
G1 X52.339 Y60.379 E3.01144
G1 X52.349 Y59.977 E3.02683
G1 X52.376 Y59.628 E3.04022
G1 X52.425 Y59.229 E3.05561
G1 X52.483 Y58.884 E3.069
G1 X52.565 Y58.518 E3.08335
G1 X52.669 Y58.145 E3.09817
G1 X52.788 Y57.781 E3.11282
G1 X52.921 Y57.437 E3.12694
G1 X53.076 Y57.088 E3.14155
G1 X53.238 Y56.766 E3.15535
G1 X53.431 Y56.425 E3.17034
G1 X53.632 Y56.106 E3.18477
G1 X53.848 Y55.801 E3.19908
G1 X54.086 Y55.496 E3.21388
G1 X54.315 Y55.231 E3.22728
G1 X54.585 Y54.947 E3.24228
G1 X54.852 Y54.692 E3.25641
G1 X55.13 Y54.452 E3.27047
G1 X55.425 Y54.221 E3.28481
G1 X55.754 Y53.99 E3.30019
G1 X56.058 Y53.797 E3.31397
G1 X56.391 Y53.609 E3.3286
G1 X56.722 Y53.442 E3.34279
G1 X57.067 Y53.289 E3.35724
G1 X57.416 Y53.155 E3.37154
G1 X57.785 Y53.033 E3.38642
G1 X58.135 Y52.936 E3.40032
G1 X58.509 Y52.852 E3.41499
G1 X58.873 Y52.789 E3.42912
G1 X59.248 Y52.742 E3.44359
G1 X59.615 Y52.715 E3.45767
G1 X60 Y52.705 E3.47241
G1 X60.382 Y52.715 E3.48703
G1 X60.738 Y52.742 E3.5007
G1 X61.137 Y52.791 E3.51608
G1 X61.491 Y52.852 E3.52983
G1 X61.865 Y52.936 E3.5445
G1 X62.226 Y53.036 E3.55883
G1 X62.568 Y53.149 E3.57262
G1 X62.932 Y53.289 E3.58754
G1 X63.287 Y53.446 E3.6024
G1 X63.6 Y53.604 E3.61582
G1 X63.927 Y53.789 E3.63019
G1 X64.259 Y53.999 E3.64523
G1 X64.574 Y54.221 E3.65998
G1 X64.857 Y54.442 E3.67372
G1 X65.146 Y54.692 E3.68834
G1 X65.419 Y54.952 E3.70277
G1 X65.674 Y55.22 E3.71693
G1 X65.924 Y55.509 E3.73155
G1 X66.145 Y55.792 E3.74529
G1 X66.367 Y56.107 E3.76004
G1 X66.572 Y56.431 E3.77471
G1 X66.757 Y56.757 E3.78906
G1 X66.924 Y57.088 E3.80325
G1 X67.079 Y57.437 E3.81786
G1 X67.208 Y57.773 E3.83163
G1 X67.331 Y58.145 E3.84663
G1 X67.428 Y58.492 E3.86042
G1 X67.511 Y58.859 E3.87482
G1 X67.578 Y59.245 E3.88981
G1 X67.624 Y59.612 E3.90396
G1 X67.651 Y59.977 E3.91797
G1 X67.661 Y60.353 E3.93237
G1 X67.651 Y60.749 E3.94753
G1 X67.624 Y61.104 E3.96115
G1 X67.575 Y61.503 E3.97654
G1 X67.516 Y61.848 E3.98993
G1 X67.431 Y62.228 E4.00483
G1 X67.333 Y62.581 E4.01885
G1 X67.211 Y62.95 E4.03373
G1 X67.079 Y63.294 E4.04783
G1 X66.924 Y63.643 E4.06244
G1 X66.762 Y63.966 E4.07627
G1 X66.577 Y64.293 E4.09065
G1 X66.371 Y64.619 E4.10541
G1 X66.152 Y64.93 E4.11996
G1 X65.924 Y65.223 E4.13417
G1 X65.684 Y65.501 E4.14823
G1 X65.414 Y65.785 E4.16322
G1 X65.146 Y66.04 E4.17738
G1 X65.111 Y66.071 E4.17917
G0 F1134 X64.862 Y66.286
G0 X64.574 Y66.511
G0 F4320 X62.597 Y67.626
G0 X62.685 Y67.886
;TYPE:WALL-OUTER
G1 F2400 E4.20573
G1 F1260 X62.317 Y68.008 E4.22057
G1 X61.936 Y68.113 E4.23569
G1 X61.558 Y68.198 E4.25052
G1 X61.177 Y68.264 E4.26531
G1 X60.778 Y68.314 E4.2807
G1 X60.396 Y68.342 E4.29536
G1 X60 Y68.352 E4.31052
G1 X59.603 Y68.342 E4.32572
G1 X59.221 Y68.313 E4.34038
G1 X58.823 Y68.264 E4.35573
G1 X58.442 Y68.198 E4.37053
G1 X58.064 Y68.113 E4.38535
G1 X57.683 Y68.008 E4.40048
G1 X57.313 Y67.886 E4.41539
G1 X56.939 Y67.742 E4.43072
G1 X56.586 Y67.585 E4.44551
G1 X56.231 Y67.406 E4.46072
G1 X55.898 Y67.218 E4.47536
G1 X55.567 Y67.008 E4.49036
G1 X55.238 Y66.777 E4.50575
G1 X54.93 Y66.536 E4.52071
G1 X54.64 Y66.286 E4.53537
G1 X54.349 Y66.009 E4.55074
G1 X54.079 Y65.725 E4.56574
G1 X53.83 Y65.436 E4.58034
G1 X53.583 Y65.119 E4.59572
G1 X53.362 Y64.807 E4.61035
G1 X53.148 Y64.467 E4.62572
G1 X52.955 Y64.126 E4.64072
G1 X52.779 Y63.776 E4.65571
G1 X52.62 Y63.417 E4.67074
G1 X52.482 Y63.062 E4.68531
G1 X52.36 Y62.688 E4.70037
G1 X52.252 Y62.301 E4.71574
G1 X52.166 Y61.919 E4.73073
G1 X52.102 Y61.543 E4.74533
G1 X52.052 Y61.144 E4.76071
G1 X52.024 Y60.763 E4.77533
G1 X52.014 Y60.371 E4.79034
G1 X52.024 Y59.969 E4.80573
G1 X52.053 Y59.588 E4.82035
G1 X52.102 Y59.189 E4.83574
G1 X52.166 Y58.813 E4.85033
G1 X52.252 Y58.431 E4.86532
G1 X52.36 Y58.044 E4.8807
G1 X52.479 Y57.68 E4.89535
G1 X52.624 Y57.305 E4.91074
G1 X52.779 Y56.956 E4.92535
G1 X52.955 Y56.606 E4.94035
G1 X53.148 Y56.265 E4.95534
G1 X53.362 Y55.925 E4.97072
G1 X53.583 Y55.613 E4.98535
G1 X53.83 Y55.296 E5.00073
G1 X54.079 Y55.007 E5.01533
G1 X54.349 Y54.723 E5.03032
G1 X54.64 Y54.446 E5.0457
G1 X54.93 Y54.196 E5.06035
G1 X55.238 Y53.955 E5.07532
G1 X55.567 Y53.724 E5.0907
G1 X55.898 Y53.514 E5.1057
G1 X56.231 Y53.326 E5.12034
G1 X56.59 Y53.145 E5.13572
G1 X56.939 Y52.99 E5.15034
G1 X57.314 Y52.846 E5.16571
G1 X57.683 Y52.724 E5.18058
G1 X58.064 Y52.619 E5.19571
G1 X58.442 Y52.534 E5.21054
G1 X58.823 Y52.468 E5.22533
G1 X59.221 Y52.418 E5.24069
G1 X59.603 Y52.39 E5.25534
G1 X60 Y52.38 E5.27054
G1 X60.396 Y52.39 E5.2857
G1 X60.778 Y52.419 E5.30036
G1 X61.177 Y52.468 E5.31575
G1 X61.558 Y52.534 E5.33055
G1 X61.936 Y52.619 E5.34537
G1 X62.317 Y52.724 E5.3605
G1 X62.685 Y52.846 E5.37533
G1 X63.06 Y52.99 E5.39071
G1 X63.419 Y53.149 E5.40573
G1 X63.76 Y53.321 E5.42035
G1 X64.101 Y53.514 E5.43534
G1 X64.433 Y53.724 E5.45038
G1 X64.761 Y53.955 E5.46573
G1 X65.07 Y54.196 E5.48073
G1 X65.359 Y54.446 E5.49535
G1 X65.643 Y54.716 E5.51035
G1 X65.92 Y55.007 E5.52572
G1 X66.17 Y55.296 E5.54035
G1 X66.411 Y55.605 E5.55535
G1 X66.642 Y55.933 E5.5707
G1 X66.847 Y56.257 E5.58537
G1 X67.04 Y56.597 E5.60033
G1 X67.221 Y56.956 E5.61572
G1 X67.376 Y57.305 E5.63033
G1 X67.517 Y57.671 E5.64534
G1 X67.64 Y58.043 E5.66034
G1 X67.745 Y58.421 E5.67535
G1 X67.831 Y58.803 E5.69034
G1 X67.898 Y59.189 E5.70533
G1 X67.948 Y59.588 E5.72072
G1 X67.976 Y59.969 E5.73534
G1 X67.986 Y60.361 E5.75035
G1 X67.976 Y60.763 E5.76574
G1 X67.947 Y61.144 E5.78036
G1 X67.898 Y61.543 E5.79574
G1 X67.833 Y61.919 E5.81035
G1 X67.747 Y62.302 E5.82537
G1 X67.642 Y62.683 E5.84049
G1 X67.52 Y63.052 E5.85537
G1 X67.376 Y63.426 E5.8707
G1 X67.221 Y63.776 E5.88535
G1 X67.045 Y64.126 E5.90035
G1 X66.852 Y64.467 E5.91534
G1 X66.642 Y64.799 E5.93037
G1 X66.417 Y65.119 E5.94535
G1 X66.17 Y65.436 E5.96072
G1 X65.92 Y65.725 E5.97535
G1 X65.65 Y66.009 E5.99035
G1 X65.359 Y66.286 E6.00572
G1 X65.07 Y66.536 E6.02034
G1 X64.761 Y66.777 E6.03534
G1 X64.433 Y67.008 E6.05069
G1 X64.101 Y67.218 E6.06573
G1 X63.759 Y67.411 E6.08076
G1 X63.419 Y67.583 E6.09534
G1 X63.328 Y67.624 E6.09916
G0 F1134 X63.06 Y67.742
G0 X62.685 Y67.886
G0 F4320 X62.495 Y67.949
G0 X62.41 Y67.688
G0 X62.101 Y67.279
G0 X62.023 Y67.036
;TYPE:SKIN
G1 F2400 E6.12572
G1 F1260 X61.693 Y67.128 E6.13883
G1 X61.365 Y67.201 E6.15169
G1 X61.016 Y67.262 E6.16525
G1 X60.699 Y67.301 E6.17747
G1 X60.346 Y67.327 E6.19102
G1 X60 Y67.337 E6.20426
G1 X59.649 Y67.327 E6.2177
G1 X59.338 Y67.304 E6.22964
G1 X58.97 Y67.259 E6.24382
G1 X58.634 Y67.201 E6.25687
G1 X58.307 Y67.128 E6.2697
G1 X57.987 Y67.039 E6.28241
G1 X57.647 Y66.927 E6.29611
G1 X57.331 Y66.805 E6.30907
G1 X56.998 Y66.657 E6.32302
G1 X56.719 Y66.516 E6.33498
G1 X56.405 Y66.338 E6.34879
G1 X56.131 Y66.164 E6.36121
G1 X55.849 Y65.965 E6.37442
G1 X55.556 Y65.736 E6.38865
G1 X55.339 Y65.551 E6.39957
G1 X55.074 Y65.297 E6.41361
G1 X54.823 Y65.033 E6.42756
G1 X54.611 Y64.787 E6.43998
G1 X54.399 Y64.515 E6.45318
G1 X54.2 Y64.234 E6.46636
G1 X54.022 Y63.951 E6.47915
G1 X53.844 Y63.635 E6.49303
G1 X53.694 Y63.334 E6.5059
G1 X53.552 Y63.014 E6.5193
G1 X53.431 Y62.702 E6.53211
G1 X53.334 Y62.402 E6.54417
G1 X53.234 Y62.043 E6.55844
G1 X53.161 Y61.714 E6.57133
G1 X53.103 Y61.373 E6.58457
G1 X53.063 Y61.049 E6.59706
G1 X53.039 Y60.712 E6.60999
G1 X53.029 Y60.396 E6.62209
G1 X53.039 Y60.003 E6.63714
G1 X53.062 Y59.703 E6.64865
G1 X53.106 Y59.343 E6.66253
G1 X53.157 Y59.035 E6.67448
G1 X53.235 Y58.686 E6.68817
G1 X53.334 Y58.33 E6.70231
G1 X53.438 Y58.012 E6.71511
G1 X53.552 Y57.717 E6.72721
G1 X53.697 Y57.39 E6.7409
G1 X53.843 Y57.098 E6.7534
G1 X54.028 Y56.771 E6.76778
G1 X54.201 Y56.497 E6.78018
G1 X54.402 Y56.213 E6.79349
G1 X54.619 Y55.935 E6.80699
G1 X54.805 Y55.717 E6.81796
G1 X55.075 Y55.434 E6.83292
G1 X55.339 Y55.181 E6.84692
G1 X55.556 Y54.996 E6.85783
G1 X55.851 Y54.765 E6.87217
G1 X56.131 Y54.568 E6.88527
G1 X56.405 Y54.394 E6.89769
G1 X56.723 Y54.214 E6.91168
G1 X57.002 Y54.073 E6.92364
G1 X57.339 Y53.924 E6.93774
G1 X57.647 Y53.805 E6.95038
G1 X57.988 Y53.693 E6.96411
G1 X58.307 Y53.604 E6.97679
G1 X58.635 Y53.531 E6.98965
G1 X58.962 Y53.474 E7.00235
G1 X59.306 Y53.431 E7.01562
G1 X59.654 Y53.405 E7.02897
G1 X60 Y53.395 E7.04222
G1 X60.35 Y53.405 E7.05562
G1 X60.661 Y53.428 E7.06756
G1 X61.029 Y53.473 E7.08174
G1 X61.366 Y53.531 E7.09483
G1 X61.693 Y53.604 E7.10765
G1 X62.022 Y53.696 E7.12073
G1 X62.335 Y53.799 E7.13334
G1 X62.668 Y53.927 E7.14699
G1 X63.007 Y54.077 E7.16118
G1 X63.268 Y54.209 E7.17237
G1 X63.573 Y54.382 E7.18579
G1 X63.875 Y54.573 E7.19946
G1 X64.162 Y54.775 E7.2129
G1 X64.412 Y54.97 E7.22503
G1 X64.668 Y55.19 E7.23795
G1 X64.924 Y55.434 E7.25148
G1 X65.175 Y55.697 E7.26539
G1 X65.391 Y55.948 E7.27807
G1 X65.581 Y56.19 E7.28984
G1 X65.793 Y56.491 E7.30393
G1 X65.985 Y56.794 E7.31766
G1 X66.154 Y57.091 E7.33074
G1 X66.293 Y57.368 E7.3426
G1 X66.448 Y57.717 E7.35721
G1 X66.558 Y58.005 E7.36901
G1 X66.668 Y58.338 E7.38243
G1 X66.761 Y58.669 E7.39559
G1 X66.832 Y58.986 E7.40802
G1 X66.895 Y59.343 E7.42189
G1 X66.935 Y59.663 E7.43424
