;FLAVOR:Marlin
;TIME:9073
;Filament used: 9.23373m
;Layer height: 0.21875
;Generated with Cura_SteamEngine 3.6.0
M140 S65
M105
M190 S65
M104 S205
M105
M109 S205
M82 ;absolute extrusion mode
G21;(metric values)
G90;(absolute positioning)
M82;(set extruder to absolute mode)
M107;(start with the fan off)
G28;(Home the printer)
G92 E0;(Reset the extruder to 0)
G0 Z5 E5 F500;(Move up and prime the nozzle)
G0 X-1 Z0;(Move outside the printable area)
G1 Y60 E8 F500;(Draw a priming/wiping line to the rear)
G1 X-1;(Move a little closer to the print area)
G1 Y10 E16 F500;(draw more priming/wiping)
G1 E15 F250;(Small retract)
G92 E0;(Zero the extruder)
G92 E0
G1 F2400 E-2.5
;LAYER_COUNT:479
;LAYER:0
M107
G0 F4320 X70.774 Y26.845 Z0.263
;TYPE:SKIRT
G1 F2400 E0
G1 F2160 X75.696 Y14.963 E0.49219
G1 X75.977 Y14.391 E0.51658
G1 X76.326 Y13.859 E0.54093
G1 X76.74 Y13.374 E0.56534
G1 X77.211 Y12.945 E0.58972
G1 X77.731 Y12.579 E0.61405
G1 X78.442 Y12.217 E0.64459
G1 X90.326 Y7.293 E1.13688
G1 X90.929 Y7.086 E1.16128
G1 X91.552 Y6.957 E1.18563
G1 X92.187 Y6.907 E1.21
G1 X92.824 Y6.936 E1.23441
G1 X93.451 Y7.046 E1.25877
G1 X94.211 Y7.292 E1.28934
G1 X106.096 Y12.215 E1.78165
G1 X106.668 Y12.495 E1.80603
G1 X107.2 Y12.845 E1.8304
G1 X107.685 Y13.259 E1.8548
G1 X108.114 Y13.729 E1.87915
G1 X108.48 Y14.25 E1.90352
G1 X108.843 Y14.962 E1.93411
G1 X113.766 Y26.846 E2.42638
G1 X113.972 Y27.448 E2.45073
G1 X114.101 Y28.072 E2.47512
G1 X114.151 Y28.707 E2.4995
G1 X114.122 Y29.343 E2.52386
G1 X114.012 Y29.97 E2.54822
G1 X113.783 Y30.687 E2.57703
G1 X108.859 Y42.889 E3.08059
G1 X108.584 Y43.464 E3.10498
G1 X108.24 Y43.999 E3.12932
G1 X107.831 Y44.487 E3.15369
G1 X107.364 Y44.92 E3.17806
G1 X106.846 Y45.292 E3.20247
G1 X106.096 Y45.678 E3.23475
G1 X94.212 Y50.602 E3.72704
G1 X93.609 Y50.809 E3.75144
G1 X92.986 Y50.938 E3.77579
G1 X92.351 Y50.988 E3.80016
G1 X91.714 Y50.959 E3.82457
G1 X91.087 Y50.849 E3.84893
G1 X90.326 Y50.602 E3.87955
G1 X78.443 Y45.677 E4.37182
G1 X77.871 Y45.397 E4.39619
G1 X77.339 Y45.047 E4.42056
G1 X76.854 Y44.634 E4.44494
G1 X76.426 Y44.163 E4.4693
G1 X76.059 Y43.642 E4.49369
G1 X75.68 Y42.888 E4.52598
G1 X70.757 Y30.686 E5.02953
G1 X70.556 Y30.081 E5.05392
G1 X70.432 Y29.457 E5.07827
G1 X70.388 Y28.821 E5.10267
G1 X70.424 Y28.185 E5.12705
G1 X70.539 Y27.559 E5.15141
G1 X70.557 Y27.504 E5.15362
G0 F1944 X70.774 Y26.845
G0 F4320 X71.098 Y26.979
G1 F2400 E5.18018
G1 F2160 X76.02 Y15.097 E5.67237
G1 X76.291 Y14.546 E5.69587
G1 X76.632 Y14.034 E5.71942
G1 X77.036 Y13.571 E5.74293
G1 X77.497 Y13.165 E5.76644
G1 X78.007 Y12.822 E5.78996
G1 X78.576 Y12.54 E5.81427
G1 X90.46 Y7.616 E6.30656
G1 X91.042 Y7.418 E6.33009
G1 X91.645 Y7.297 E6.35362
G1 X92.258 Y7.256 E6.37713
G1 X92.871 Y7.295 E6.40064
G1 X93.474 Y7.412 E6.42415
G1 X94.077 Y7.616 E6.44851
G1 X105.962 Y12.539 E6.94082
G1 X106.513 Y12.81 E6.96432
G1 X107.025 Y13.151 E6.98787
G1 X107.488 Y13.555 E7.01138
G1 X107.894 Y14.016 E7.03489
G1 X108.237 Y14.526 E7.05841
G1 X108.519 Y15.096 E7.08275
G1 X113.442 Y26.98 E7.57503
G1 X113.64 Y27.561 E7.59852
G1 X113.761 Y28.164 E7.62206
G1 X113.802 Y28.777 E7.64557
G1 X113.763 Y29.39 E7.66907
G1 X113.646 Y29.993 E7.69258
G1 X113.459 Y30.556 E7.71529
G1 X108.535 Y42.758 E8.21884
G1 X108.268 Y43.312 E8.24238
G1 X107.932 Y43.826 E8.26588
G1 X107.532 Y44.293 E8.28941
G1 X107.075 Y44.703 E8.31291
G1 X106.568 Y45.051 E8.33644
G1 X105.962 Y45.355 E8.36239
G1 X94.078 Y50.279 E8.85468
G1 X93.496 Y50.477 E8.87821
G1 X92.893 Y50.598 E8.90175
G1 X92.28 Y50.639 E8.92526
G1 X91.667 Y50.6 E8.94876
G1 X91.064 Y50.483 E8.97227
G1 X90.46 Y50.279 E8.99667
G1 X78.577 Y45.354 E9.48894
G1 X78.026 Y45.082 E9.51246
G1 X77.514 Y44.741 E9.536
G1 X77.052 Y44.337 E9.55949
G1 X76.646 Y43.876 E9.583
G1 X76.303 Y43.366 E9.60652
G1 X76.004 Y42.757 E9.63248
G1 X71.081 Y30.555 E10.13603
G1 X70.889 Y29.971 E10.15955
G1 X70.774 Y29.368 E10.18304
G1 X70.738 Y28.754 E10.20658
G1 X70.782 Y28.141 E10.2301
G1 X70.886 Y27.639 E10.24972
G0 F1944 X70.906 Y27.539
G0 X71.098 Y26.979
G0 F4320 X71.421 Y27.113
G1 F2400 E10.27628
G1 F2160 X76.343 Y15.231 E10.76848
G1 X76.606 Y14.701 E10.79112
G1 X76.937 Y14.211 E10.81375
G1 X77.332 Y13.771 E10.83638
G1 X77.783 Y13.388 E10.85902
G1 X78.281 Y13.069 E10.88165
G1 X78.71 Y12.863 E10.89987
G1 X90.594 Y7.939 E11.39216
G1 X91.155 Y7.75 E11.41482
G1 X91.735 Y7.639 E11.43741
G1 X92.326 Y7.606 E11.46007
G1 X92.915 Y7.654 E11.48268
G1 X93.493 Y7.781 E11.50533
G1 X93.943 Y7.939 E11.52358
G1 X105.828 Y12.862 E12.0159
G1 X106.358 Y13.125 E12.03854
G1 X106.847 Y13.456 E12.06114
G1 X107.288 Y13.851 E12.0838
G1 X107.671 Y14.301 E12.10641
G1 X107.99 Y14.799 E12.12904
G1 X108.196 Y15.23 E12.14732
G1 X113.119 Y27.114 E12.6396
G1 X113.308 Y27.674 E12.66222
G1 X113.419 Y28.255 E12.68486
G1 X113.452 Y28.845 E12.70747
G1 X113.404 Y29.434 E12.73009
G1 X113.277 Y30.012 E12.75274
G1 X113.134 Y30.425 E12.76946
G1 X108.21 Y42.627 E13.27302
G1 X107.952 Y43.159 E13.29565
G1 X107.625 Y43.652 E13.31829
G1 X107.234 Y44.096 E13.34093
G1 X106.788 Y44.483 E13.36353
G1 X106.293 Y44.806 E13.38615
G1 X105.828 Y45.032 E13.40594
G1 X93.944 Y49.956 E13.89823
G1 X93.383 Y50.145 E13.92088
G1 X92.803 Y50.256 E13.94348
G1 X92.212 Y50.289 E13.96614
G1 X91.623 Y50.241 E13.98875
G1 X91.045 Y50.114 E14.0114
G1 X90.594 Y49.956 E14.02969
G1 X78.711 Y45.031 E14.52196
G1 X78.181 Y44.768 E14.5446
G1 X77.692 Y44.436 E14.56722
G1 X77.252 Y44.041 E14.58985
G1 X76.869 Y43.591 E14.61247
G1 X76.55 Y43.093 E14.6351
G1 X76.329 Y42.626 E14.65487
G1 X71.406 Y30.424 E15.15842
G1 X71.222 Y29.862 E15.18105
G1 X71.116 Y29.28 E15.20369
G1 X71.089 Y28.69 E15.22629
G1 X71.142 Y28.101 E15.24892
G1 X71.217 Y27.775 E15.26172
G0 F1944 X71.274 Y27.524
G0 X71.421 Y27.113
G0 F4320 X71.744 Y27.247
G1 F2400 E15.28828
G1 F2160 X76.666 Y15.365 E15.78048
G1 X76.92 Y14.857 E15.80221
G1 X77.242 Y14.391 E15.82389
G1 X77.627 Y13.974 E15.84561
G1 X78.066 Y13.615 E15.86731
G1 X78.551 Y13.322 E15.889
G1 X78.844 Y13.187 E15.90134
G1 X90.728 Y8.263 E16.39364
G1 X91.266 Y8.083 E16.41535
G1 X91.824 Y7.981 E16.43706
G1 X92.391 Y7.958 E16.45877
G1 X92.955 Y8.015 E16.48047
G1 X93.505 Y8.151 E16.50215
G1 X93.809 Y8.262 E16.51454
G1 X105.694 Y13.185 E17.00685
G1 X106.202 Y13.439 E17.02859
G1 X106.668 Y13.761 E17.05026
G1 X107.085 Y14.146 E17.07198
G1 X107.444 Y14.585 E17.09369
G1 X107.737 Y15.07 E17.11537
G1 X107.873 Y15.364 E17.12777
G1 X112.796 Y27.248 E17.62005
G1 X112.975 Y27.785 E17.64171
G1 X113.077 Y28.343 E17.66342
G1 X113.1 Y28.91 E17.68514
G1 X113.043 Y29.474 E17.70683
G1 X112.907 Y30.025 E17.72855
G1 X112.81 Y30.294 E17.73949
G1 X107.886 Y42.496 E18.24305
G1 X107.637 Y43.006 E18.26477
G1 X107.319 Y43.475 E18.28646
G1 X106.938 Y43.896 E18.30819
G1 X106.502 Y44.258 E18.32987
G1 X106.019 Y44.556 E18.35159
G1 X105.694 Y44.708 E18.36532
G1 X93.81 Y49.632 E18.85762
G1 X93.272 Y49.812 E18.87933
G1 X92.714 Y49.914 E18.90104
G1 X92.147 Y49.937 E18.92275
G1 X91.583 Y49.88 E18.94445
G1 X91.033 Y49.744 E18.96613
G1 X90.728 Y49.632 E18.97856
G1 X78.845 Y44.707 E19.47084
G1 X78.338 Y44.454 E19.49252
G1 X77.871 Y44.132 E19.51423
G1 X77.454 Y43.747 E19.53595
G1 X77.096 Y43.307 E19.55766
G1 X76.803 Y42.822 E19.57934
G1 X76.653 Y42.495 E19.59311
G1 X71.73 Y30.293 E20.09666
G1 X71.556 Y29.753 E20.11837
G1 X71.459 Y29.195 E20.14004
G1 X71.441 Y28.628 E20.16175
G1 X71.503 Y28.064 E20.18347
G1 X71.543 Y27.91 E20.18956
G0 F1944 X71.644 Y27.515
G0 X71.744 Y27.247
G0 F4320 X72.068 Y27.381
G1 F2400 E20.21612
G1 F2160 X76.99 Y15.499 E20.70831
G1 X77.233 Y15.015 E20.72904
G1 X77.546 Y14.572 E20.74979
G1 X77.92 Y14.18 E20.77053
G1 X78.347 Y13.847 E20.79125
G1 X78.978 Y13.51 E20.81863
G1 X90.862 Y8.586 E21.31092
G1 X91.377 Y8.416 E21.33168
G1 X91.911 Y8.324 E21.35241
G1 X92.452 Y8.311 E21.37312
G1 X92.99 Y8.377 E21.39387
G1 X93.675 Y8.586 E21.42128
G1 X105.56 Y13.509 E21.91359
G1 X106.044 Y13.752 E21.93432
G1 X106.487 Y14.065 E21.95507
G1 X106.879 Y14.439 E21.97581
G1 X107.212 Y14.866 E21.99653
G1 X107.549 Y15.498 E22.02394
G1 X112.472 Y27.382 E22.51622
G1 X112.642 Y27.896 E22.53694
G1 X112.735 Y28.43 E22.55768
G1 X112.747 Y28.972 E22.57843
G1 X112.681 Y29.509 E22.59914
G1 X112.485 Y30.163 E22.62527
G1 X107.561 Y42.365 E23.12882
G1 X107.322 Y42.851 E23.14955
G1 X107.014 Y43.297 E23.17029
G1 X106.643 Y43.693 E23.19106
G1 X106.219 Y44.029 E23.21176
G1 X105.56 Y44.385 E23.24043
G1 X93.676 Y49.309 E23.73272
G1 X93.161 Y49.479 E23.75348
G1 X92.627 Y49.571 E23.77421
G1 X92.086 Y49.584 E23.79492
G1 X91.548 Y49.518 E23.81567
G1 X90.862 Y49.309 E23.84311
G1 X78.979 Y44.384 E24.33539
G1 X78.495 Y44.14 E24.35613
G1 X78.052 Y43.828 E24.37686
G1 X77.66 Y43.454 E24.3976
G1 X77.327 Y43.026 E24.41835
G1 X76.978 Y42.364 E24.44699
G1 X72.055 Y30.162 E24.95054
G1 X71.89 Y29.646 E24.97127
G1 X71.802 Y29.111 E24.99202
G1 X71.794 Y28.569 E25.01276
G1 X71.865 Y28.044 E25.03304
G0 F1944 X71.866 Y28.032
G0 X72.068 Y27.381
G0 F4320 X72.391 Y27.515
G1 F2400 E25.0596
G1 F2160 X77.313 Y15.633 E25.55179
G1 X77.547 Y15.173 E25.57154
G1 X77.848 Y14.755 E25.59125
G1 X78.211 Y14.389 E25.61098
G1 X78.626 Y14.083 E25.63071
G1 X79.112 Y13.833 E25.65163
G1 X90.996 Y8.909 E26.14392
G1 X91.486 Y8.749 E26.16365
G1 X91.995 Y8.667 E26.18338
G1 X92.51 Y8.665 E26.20309
G1 X93.02 Y8.742 E26.22283
G1 X93.541 Y8.909 E26.24377
G1 X105.426 Y13.832 E26.73608
G1 X105.886 Y14.066 E26.75583
G1 X106.304 Y14.367 E26.77554
G1 X106.67 Y14.73 E26.79527
G1 X106.976 Y15.145 E26.81501
G1 X107.226 Y15.631 E26.83592
G1 X112.149 Y27.515 E27.3282
G1 X112.309 Y28.005 E27.34793
G1 X112.391 Y28.514 E27.36766
G1 X112.393 Y29.03 E27.3874
G1 X112.316 Y29.539 E27.40711
G1 X112.16 Y30.032 E27.42689
G1 X107.236 Y42.234 E27.93045
G1 X107.007 Y42.696 E27.95019
G1 X106.709 Y43.116 E27.96989
G1 X106.35 Y43.486 E27.98962
G1 X105.938 Y43.795 E28.00933
G1 X105.426 Y44.062 E28.03143
G1 X93.542 Y48.986 E28.52373
G1 X93.052 Y49.146 E28.54345
G1 X92.543 Y49.228 E28.56318
G1 X92.028 Y49.23 E28.58289
G1 X91.518 Y49.153 E28.60263
G1 X90.996 Y48.986 E28.62361
G1 X79.113 Y44.061 E29.11588
G1 X78.654 Y43.827 E29.1356
G1 X78.236 Y43.525 E29.15533
G1 X77.87 Y43.162 E29.17506
G1 X77.564 Y42.748 E29.19476
G1 X77.303 Y42.233 E29.21686
G1 X72.38 Y30.031 E29.7204
G1 X72.224 Y29.54 E29.74012
G1 X72.147 Y29.03 E29.75985
G1 X72.149 Y28.515 E29.77956
G1 X72.203 Y28.181 E29.79251
G0 F1944 X72.231 Y28.006
G0 X72.391 Y27.515
G0 F4320 X72.714 Y27.648
G1 F2400 E29.81907
G1 F2160 X77.636 Y15.766 E30.31126
G1 X77.859 Y15.333 E30.3299
G1 X78.15 Y14.942 E30.34856
G1 X78.501 Y14.603 E30.36723
G1 X78.902 Y14.326 E30.38588
G1 X79.246 Y14.157 E30.40055
G1 X91.13 Y9.233 E30.89285
G1 X91.594 Y9.084 E30.9115
G1 X92.077 Y9.012 E30.93018
G1 X92.564 Y9.021 E30.94882
G1 X93.043 Y9.109 E30.96746
G1 X93.407 Y9.232 E30.98217
G1 X105.292 Y14.155 E31.47448
G1 X105.726 Y14.378 E31.49315
G1 X106.117 Y14.669 E31.51181
G1 X106.456 Y15.019 E31.53045
G1 X106.733 Y15.421 E31.54914
G1 X106.903 Y15.765 E31.56382
G1 X111.826 Y27.649 E32.0561
G1 X111.975 Y28.114 E32.07479
G1 X112.046 Y28.596 E32.09343
G1 X112.037 Y29.083 E32.11207
G1 X111.949 Y29.563 E32.13075
G1 X111.836 Y29.901 E32.14439
G1 X106.912 Y42.103 E32.64795
G1 X106.693 Y42.539 E32.66662
G1 X106.406 Y42.933 E32.68527
G1 X106.058 Y43.275 E32.70395
G1 X105.66 Y43.555 E32.72257
G1 X105.292 Y43.738 E32.7383
G1 X93.408 Y48.662 E33.23059
G1 X92.944 Y48.811 E33.24924
G1 X92.461 Y48.883 E33.26793
G1 X91.974 Y48.874 E33.28657
G1 X91.495 Y48.786 E33.30521
G1 X91.13 Y48.662 E33.31996
G1 X79.247 Y43.737 E33.81224
G1 X78.813 Y43.514 E33.83091
G1 X78.422 Y43.224 E33.84954
G1 X78.084 Y42.873 E33.86819
G1 X77.807 Y42.472 E33.88684
G1 X77.627 Y42.102 E33.90259
G1 X72.704 Y29.9 E34.40613
G1 X72.559 Y29.435 E34.42477
G1 X72.493 Y28.952 E34.44343
G1 X72.506 Y28.465 E34.46207
G1 X72.535 Y28.317 E34.46784
G0 F1944 X72.598 Y27.986
G0 X72.714 Y27.648
G0 F4320 X73.038 Y27.782
G1 F2400 E34.4944
G1 F2160 X77.96 Y15.9 E34.9866
G1 X78.171 Y15.494 E35.00411
G1 X78.45 Y15.131 E35.02163
G1 X78.788 Y14.822 E35.03915
G1 X79.38 Y14.48 E35.06532
G1 X91.264 Y9.556 E35.55761
G1 X91.701 Y9.418 E35.57515
G1 X92.155 Y9.358 E35.59268
G1 X92.612 Y9.379 E35.61018
G1 X93.274 Y9.556 E35.63641
G1 X105.159 Y14.479 E36.12872
G1 X105.565 Y14.69 E36.14623
G1 X105.928 Y14.969 E36.16375
G1 X106.237 Y15.307 E36.18128
G1 X106.579 Y15.899 E36.20744
G1 X111.502 Y27.783 E36.69972
G1 X111.64 Y28.22 E36.71726
G1 X111.7 Y28.674 E36.73479
G1 X111.679 Y29.131 E36.7523
G1 X111.511 Y29.77 E36.77758
G1 X106.587 Y41.972 E37.28114
G1 X106.38 Y42.38 E37.29865
G1 X106.104 Y42.746 E37.31619
G1 X105.769 Y43.058 E37.33371
G1 X105.385 Y43.308 E37.35125
G1 X105.158 Y43.415 E37.36085
G1 X93.274 Y48.339 E37.85314
G1 X92.837 Y48.477 E37.87068
G1 X92.383 Y48.537 E37.88821
G1 X91.926 Y48.516 E37.90572
G1 X91.264 Y48.339 E37.93194
G1 X79.381 Y43.414 E38.42421
G1 X78.975 Y43.202 E38.44174
G1 X78.612 Y42.924 E38.45924
G1 X78.303 Y42.586 E38.47677
G1 X78.057 Y42.2 E38.49428
G1 X77.952 Y41.971 E38.50392
G1 X73.029 Y29.769 E39.00747
G1 X72.895 Y29.331 E39.025
G1 X72.84 Y28.877 E39.0425
G1 X72.863 Y28.453 E39.05875
G0 F1944 X72.864 Y28.42
G0 X73.038 Y27.782
G0 F4320 X73.361 Y27.916
G1 F2400 E39.08531
G1 F2160 X78.283 Y16.034 E39.5775
G1 X78.482 Y15.658 E39.59378
G1 X78.748 Y15.325 E39.61009
G1 X79.072 Y15.047 E39.62643
G1 X79.514 Y14.803 E39.64575
G1 X91.398 Y9.879 E40.13805
G1 X91.805 Y9.754 E40.15434
G1 X92.229 Y9.706 E40.17067
G1 X92.654 Y9.739 E40.18698
G1 X93.14 Y9.879 E40.20634
G1 X105.025 Y14.802 E40.69865
G1 X105.401 Y15.001 E40.71493
G1 X105.734 Y15.267 E40.73124
G1 X106.012 Y15.591 E40.74758
G1 X106.256 Y16.033 E40.7669
G1 X111.179 Y27.917 E41.25918
G1 X111.304 Y28.325 E41.27551
G1 X111.352 Y28.748 E41.29181
G1 X111.319 Y29.173 E41.30812
G1 X111.187 Y29.639 E41.32666
G1 X106.263 Y41.841 E41.83021
G1 X106.067 Y42.22 E41.84654
G1 X105.804 Y42.555 E41.86284
G1 X105.483 Y42.836 E41.87917
G1 X105.024 Y43.092 E41.89928
G1 X93.14 Y48.016 E42.39158
G1 X92.733 Y48.141 E42.40787
G1 X92.309 Y48.189 E42.4242
G1 X91.884 Y48.156 E42.44051
G1 X91.398 Y48.016 E42.45987
G1 X79.515 Y43.091 E42.95214
G1 X79.138 Y42.891 E42.96847
G1 X78.805 Y42.625 E42.98478
G1 X78.528 Y42.302 E43.00107
G1 X78.276 Y41.84 E43.02121
G1 X73.353 Y29.638 E43.52475
G1 X73.232 Y29.23 E43.54104
G1 X73.188 Y28.806 E43.55735
G1 X73.207 Y28.59 E43.56565
G0 F1944 X73.224 Y28.381
G0 X73.361 Y27.916
G0 F4320 X73.685 Y28.05
G1 F2400 E43.59221
G1 F2160 X78.607 Y16.168 E44.0844
G1 X78.793 Y15.823 E44.0994
G1 X79.045 Y15.523 E44.1144
G1 X79.352 Y15.28 E44.12938
G1 X79.648 Y15.127 E44.14213
G1 X91.532 Y10.203 E44.63443
G1 X91.908 Y10.09 E44.64945
G1 X92.298 Y10.056 E44.66443
G1 X92.687 Y10.102 E44.67943
G1 X93.006 Y10.203 E44.69223
G1 X104.891 Y15.126 E45.18454
G1 X105.236 Y15.312 E45.19954
G1 X105.536 Y15.564 E45.21454
G1 X105.779 Y15.871 E45.22952
G1 X105.932 Y16.167 E45.24227
G1 X110.855 Y28.051 E45.73455
G1 X110.968 Y28.427 E45.74958
G1 X111.002 Y28.817 E45.76456
G1 X110.956 Y29.206 E45.77955
G1 X110.862 Y29.508 E45.79166
G1 X105.938 Y41.71 E46.29521
G1 X105.755 Y42.057 E46.31023
G1 X105.506 Y42.359 E46.32521
G1 X105.201 Y42.605 E46.3402
G1 X104.89 Y42.768 E46.35364
G1 X93.006 Y47.692 E46.84593
G1 X92.63 Y47.805 E46.86096
G1 X92.24 Y47.839 E46.87594
G1 X91.851 Y47.793 E46.89093
G1 X91.532 Y47.692 E46.90374
G1 X79.649 Y42.767 E47.39601
G1 X79.304 Y42.581 E47.41101
G1 X79.004 Y42.329 E47.426
G1 X78.761 Y42.021 E47.44102
G1 X78.601 Y41.709 E47.45444
G1 X73.678 Y29.507 E47.95798
G1 X73.569 Y29.131 E47.97296
G1 X73.539 Y28.74 E47.98797
G1 X73.541 Y28.726 E47.98851
G0 F1944 X73.588 Y28.351
G0 X73.685 Y28.05
G0 F4320 X74.008 Y28.184
G1 F2400 E48.01507
G1 F2160 X78.93 Y16.302 E48.50726
G1 X79.102 Y15.992 E48.52083
G1 X79.338 Y15.728 E48.53438
G1 X79.782 Y15.45 E48.55443
G1 X91.666 Y10.526 E49.04672
G1 X92.007 Y10.428 E49.0603
G1 X92.361 Y10.409 E49.07387
G1 X92.872 Y10.526 E49.09393
G1 X104.757 Y15.449 E49.58625
G1 X105.067 Y15.62 E49.5998
G1 X105.331 Y15.857 E49.61337
G1 X105.609 Y16.301 E49.63342
G1 X110.532 Y28.185 E50.1257
G1 X110.63 Y28.526 E50.13928
G1 X110.649 Y28.88 E50.15284
G1 X110.538 Y29.377 E50.17233
