;FLAVOR:Marlin
;TIME:4437
;Filament used: 0.530272m
;Layer height: 0.08
;Generated with Cura_SteamEngine 3.6.0
M140 S60
M105
M190 S60
M104 S200
M105
M109 S200
M82 ;absolute extrusion mode
G21;(metric values)
G90;(absolute positioning)
M82;(set extruder to absolute mode)
M107;(start with the fan off)
G28;(Home the printer)
G92 E0;(Reset the extruder to 0)
G0 Z5 E5 F500;(Move up and prime the nozzle)
G0 X-1 Z0;(Move outside the printable area)
G1 Y60 E8 F500;(Draw a priming/wiping line to the rear)
G1 X-1;(Move a little closer to the print area)
G1 Y10 E16 F500;(draw more priming/wiping)
G1 E15 F250;(Small retract)
G92 E0;(Zero the extruder)
G92 E0
G1 F2400 E-2.5
;LAYER_COUNT:133
;LAYER:0
M107
G0 F4320 X48.553 Y47.656 Z0.2
;TYPE:SKIRT
G1 F2400 E0
G1 F720 X48.821 Y47.419 E0.01041
G1 X50.676 Y45.895 E0.08028
G1 X51.193 Y45.522 E0.09883
G1 X51.507 Y45.34 E0.1094
G1 X53.626 Y44.208 E0.17931
G1 X54.205 Y43.943 E0.19784
G1 X54.546 Y43.827 E0.20833
G1 X56.84 Y43.132 E0.27808
G1 X57.459 Y42.986 E0.29659
G1 X57.816 Y42.938 E0.30708
G1 X60.205 Y42.704 E0.37693
G1 X60.842 Y42.682 E0.39548
G1 X61.195 Y42.704 E0.40578
G1 X63.584 Y42.938 E0.47564
G1 X64.212 Y43.04 E0.49415
G1 X64.56 Y43.132 E0.50463
G1 X66.854 Y43.827 E0.57439
G1 X67.451 Y44.05 E0.59293
G1 X67.773 Y44.207 E0.60336
G1 X69.894 Y45.339 E0.67333
G1 X70.435 Y45.673 E0.69183
G1 X70.727 Y45.896 E0.70252
G1 X72.578 Y47.418 E0.77226
G1 X73.044 Y47.853 E0.79082
G1 X73.277 Y48.117 E0.80106
G1 X74.799 Y49.97 E0.87085
G1 X75.171 Y50.486 E0.88936
G1 X75.352 Y50.796 E0.89981
G1 X76.486 Y52.915 E0.96975
G1 X76.75 Y53.495 E0.9883
G1 X76.869 Y53.842 E0.99897
G1 X77.565 Y56.146 E1.06902
G1 X77.711 Y56.766 E1.08756
G1 X77.757 Y57.115 E1.0978
G1 X77.992 Y59.494 E1.16737
G1 X78.015 Y60.131 E1.18592
G1 X77.992 Y60.491 E1.19642
G1 X77.756 Y62.883 E1.26637
G1 X77.654 Y63.512 E1.28492
G1 X77.561 Y63.861 E1.29543
G1 X76.861 Y66.163 E1.36545
G1 X76.638 Y66.76 E1.384
G1 X76.482 Y67.08 E1.39436
G1 X75.353 Y69.192 E1.46406
G1 X75.018 Y69.733 E1.48257
G1 X74.797 Y70.023 E1.49319
G1 X73.269 Y71.881 E1.5632
G1 X72.834 Y72.346 E1.58173
G1 X72.566 Y72.582 E1.59212
G1 X70.72 Y74.095 E1.66158
G1 X70.203 Y74.467 E1.68012
G1 X69.9 Y74.643 E1.69032
G1 X67.78 Y75.779 E1.76031
G1 X67.201 Y76.044 E1.77884
G1 X66.851 Y76.164 E1.78961
G1 X64.557 Y76.857 E1.85935
G1 X63.937 Y77.003 E1.87789
G1 X63.592 Y77.049 E1.88802
G1 X61.203 Y77.287 E1.95789
G1 X60.567 Y77.31 E1.97641
G1 X60.197 Y77.287 E1.9872
G1 X57.806 Y77.049 E2.05713
G1 X57.178 Y76.946 E2.07565
G1 X56.836 Y76.855 E2.08595
G1 X54.535 Y76.157 E2.15593
G1 X53.938 Y75.935 E2.17446
G1 X53.61 Y75.774 E2.1851
G1 X51.499 Y74.642 E2.25481
G1 X50.957 Y74.306 E2.27337
G1 X50.678 Y74.092 E2.2836
G1 X48.817 Y72.565 E2.35366
G1 X48.351 Y72.131 E2.37219
G1 X48.112 Y71.861 E2.38268
G1 X46.6 Y70.018 E2.45206
G1 X46.228 Y69.501 E2.4706
G1 X46.049 Y69.193 E2.48096
G1 X44.914 Y67.072 E2.55097
G1 X44.65 Y66.493 E2.56949
G1 X44.532 Y66.149 E2.58008
G1 X43.837 Y63.855 E2.64984
G1 X43.691 Y63.236 E2.66834
G1 X43.643 Y62.875 E2.67894
G1 X43.411 Y60.488 E2.74874
G1 X43.389 Y59.851 E2.76729
G1 X43.411 Y59.507 E2.77732
G1 X43.643 Y57.113 E2.84732
G1 X43.744 Y56.485 E2.86583
G1 X43.837 Y56.131 E2.87648
G1 X44.532 Y53.838 E2.94621
G1 X44.755 Y53.241 E2.96476
G1 X44.916 Y52.912 E2.97542
G1 X46.052 Y50.793 E3.04539
G1 X46.388 Y50.252 E3.06392
G1 X46.601 Y49.973 E3.07414
G1 X47.943 Y48.337 E3.13572
G0 F648 X48.119 Y48.122
G0 X48.553 Y47.656
G0 F4320 X48.809 Y47.895
G1 F2400 E3.16232
G1 F720 X49.044 Y47.689 E3.17141
G1 X50.899 Y46.165 E3.24128
G1 X51.398 Y45.807 E3.25915
G1 X51.672 Y45.648 E3.26837
G1 X53.791 Y44.516 E3.33829
G1 X54.35 Y44.263 E3.35615
G1 X54.647 Y44.162 E3.36528
G1 X56.941 Y43.467 E3.43504
G1 X57.539 Y43.327 E3.45291
G1 X57.85 Y43.287 E3.46203
G1 X60.239 Y43.053 E3.53189
G1 X60.854 Y43.032 E3.5498
G1 X61.161 Y43.053 E3.55876
G1 X63.55 Y43.287 E3.62862
G1 X64.156 Y43.386 E3.64649
G1 X64.459 Y43.467 E3.65561
G1 X66.753 Y44.162 E3.72537
G1 X67.328 Y44.378 E3.74325
G1 X67.608 Y44.516 E3.75233
G1 X69.729 Y45.648 E3.8223
G1 X70.251 Y45.972 E3.84018
G1 X70.505 Y46.166 E3.84948
G1 X72.356 Y47.688 E3.91922
G1 X73.006 Y48.339 E3.946
G1 X74.528 Y50.192 E4.01578
G1 X74.887 Y50.691 E4.03367
G1 X75.043 Y50.962 E4.04277
G1 X76.177 Y53.081 E4.11272
G1 X76.431 Y53.64 E4.13059
G1 X76.534 Y53.944 E4.13993
G1 X77.23 Y56.248 E4.20997
G1 X77.409 Y57.15 E4.23673
G1 X77.644 Y59.529 E4.30631
G1 X77.665 Y60.143 E4.32419
G1 X77.644 Y60.457 E4.33334
G1 X77.408 Y62.849 E4.4033
G1 X77.308 Y63.455 E4.42117
G1 X77.227 Y63.76 E4.43035
G1 X76.527 Y66.062 E4.50038
G1 X76.31 Y66.637 E4.51826
G1 X76.173 Y66.915 E4.52728
G1 X75.044 Y69.027 E4.59698
G1 X74.72 Y69.548 E4.61483
G1 X74.526 Y69.8 E4.62409
G1 X72.998 Y71.658 E4.6941
G1 X72.578 Y72.106 E4.71197
G1 X72.344 Y72.311 E4.72102
G1 X70.498 Y73.824 E4.79049
G1 X69.735 Y74.335 E4.81721
G1 X67.615 Y75.471 E4.88721
G1 X67.055 Y75.725 E4.9051
G1 X66.749 Y75.829 E4.91451
G1 X64.455 Y76.522 E4.98425
G1 X63.557 Y76.701 E5.0109
G1 X61.168 Y76.939 E5.08077
G1 X60.554 Y76.96 E5.09865
G1 X60.232 Y76.939 E5.10804
G1 X57.841 Y76.701 E5.17797
G1 X57.235 Y76.6 E5.19585
G1 X56.937 Y76.521 E5.20482
G1 X54.636 Y75.823 E5.2748
G1 X54.061 Y75.606 E5.29268
G1 X53.775 Y75.465 E5.30196
G1 X51.664 Y74.333 E5.37168
G1 X50.9 Y73.822 E5.39843
G1 X49.039 Y72.295 E5.46848
G1 X48.59 Y71.875 E5.48638
G1 X48.383 Y71.639 E5.49551
G1 X46.871 Y69.796 E5.56489
G1 X46.513 Y69.296 E5.58279
G1 X46.358 Y69.028 E5.5918
G1 X45.223 Y66.907 E5.6618
G1 X44.969 Y66.348 E5.67967
G1 X44.867 Y66.048 E5.6889
G1 X44.172 Y63.754 E5.75865
G1 X44.032 Y63.156 E5.77653
G1 X43.991 Y62.841 E5.78577
G1 X43.759 Y60.454 E5.85557
G1 X43.759 Y59.541 E5.88214
G1 X43.991 Y57.147 E5.95214
G1 X44.09 Y56.541 E5.97001
G1 X44.172 Y56.232 E5.97931
G1 X44.867 Y53.939 E6.04904
G1 X45.083 Y53.364 E6.06692
G1 X45.225 Y53.077 E6.07623
G1 X46.361 Y50.958 E6.14621
G1 X46.871 Y50.195 E6.17292
G1 X48.199 Y48.576 E6.23386
G0 F648 X48.389 Y48.344
G0 X48.809 Y47.895
G0 F4320 X49.266 Y47.96
G1 F2400 E6.26046
G1 F720 X51.121 Y46.436 E6.33032
G1 X51.837 Y45.957 E6.35539
G1 X53.956 Y44.825 E6.42531
G1 X54.748 Y44.497 E6.45026
G1 X57.042 Y43.802 E6.52002
G1 X57.885 Y43.635 E6.54503
G1 X60.274 Y43.401 E6.61489
G1 X61.126 Y43.401 E6.63968
G1 X63.515 Y43.635 E6.70954
G1 X64.358 Y43.802 E6.73455
G1 X66.652 Y44.497 E6.80431
G1 X67.443 Y44.824 E6.82922
G1 X69.564 Y45.956 E6.89919
G1 X70.283 Y46.437 E6.92436
G1 X72.134 Y47.959 E6.9941
G1 X72.736 Y48.561 E7.01888
G1 X74.258 Y50.414 E7.08866
G1 X74.734 Y51.127 E7.11361
G1 X75.868 Y53.246 E7.18356
G1 X76.199 Y54.045 E7.20873
G1 X76.895 Y56.349 E7.27877
G1 X77.061 Y57.184 E7.30355
G1 X77.296 Y59.563 E7.37312
G1 X77.296 Y60.423 E7.39815
G1 X77.06 Y62.815 E7.4681
G1 X76.892 Y63.658 E7.49312
G1 X76.192 Y65.96 E7.56314
G1 X75.864 Y66.75 E7.58803
G1 X74.735 Y68.862 E7.65773
G1 X74.256 Y69.578 E7.6828
G1 X72.728 Y71.436 E7.75281
G1 X72.122 Y72.041 E7.77773
G1 X70.276 Y73.554 E7.84719
G1 X69.569 Y74.026 E7.87193
G1 X67.449 Y75.162 E7.94193
G1 X66.648 Y75.494 E7.96716
G1 X64.354 Y76.187 E8.0369
G1 X63.523 Y76.352 E8.06156
G1 X61.134 Y76.59 E8.13143
G1 X60.267 Y76.59 E8.15666
G1 X57.876 Y76.352 E8.22659
G1 X57.039 Y76.186 E8.25142
G1 X54.738 Y75.488 E8.3214
G1 X53.94 Y75.157 E8.34655
G1 X51.829 Y74.025 E8.41626
G1 X51.122 Y73.551 E8.44103
G1 X49.261 Y72.024 E8.51109
G1 X48.654 Y71.417 E8.53607
G1 X47.142 Y69.574 E8.60545
G1 X46.667 Y68.863 E8.63033
G1 X45.532 Y66.742 E8.70034
G1 X45.202 Y65.947 E8.72539
G1 X44.507 Y63.653 E8.79515
G1 X44.34 Y62.807 E8.82024
G1 X44.108 Y60.42 E8.89004
G1 X44.107 Y59.575 E8.91463
G1 X44.339 Y57.181 E8.98463
G1 X44.507 Y56.334 E9.00976
G1 X45.202 Y54.041 E9.07949
G1 X45.533 Y53.243 E9.10463
G1 X46.669 Y51.124 E9.1746
G1 X47.142 Y50.417 E9.19936
G1 X48.624 Y48.61 E9.26737
G0 F648 X48.66 Y48.566
G0 X49.266 Y47.96
G0 F4320 X49.488 Y48.23
G1 F2400 E9.29397
G1 F720 X51.343 Y46.706 E9.36384
G1 X52.001 Y46.266 E9.38688
G1 X54.12 Y45.134 E9.45679
G1 X54.85 Y44.832 E9.47978
G1 X57.144 Y44.137 E9.54954
G1 X57.919 Y43.983 E9.57254
G1 X60.308 Y43.749 E9.6424
G1 X61.092 Y43.749 E9.66521
G1 X63.481 Y43.983 E9.73507
G1 X64.256 Y44.137 E9.75807
G1 X66.55 Y44.832 E9.82783
G1 X67.278 Y45.133 E9.85075
G1 X69.399 Y46.265 E9.92072
G1 X70.06 Y46.707 E9.94386
G1 X71.911 Y48.229 E10.0136
G1 X72.465 Y48.783 E10.0364
G1 X73.987 Y50.636 E10.10619
G1 X74.426 Y51.292 E10.12916
G1 X75.56 Y53.411 E10.19911
G1 X75.864 Y54.146 E10.22225
G1 X76.56 Y56.45 E10.2923
G1 X76.713 Y57.218 E10.31509
G1 X76.948 Y59.597 E10.38466
G1 X76.948 Y60.388 E10.40768
G1 X76.712 Y62.78 E10.47763
G1 X76.557 Y63.556 E10.50066
G1 X75.857 Y65.858 E10.57069
G1 X75.556 Y66.585 E10.59358
G1 X74.427 Y68.697 E10.66328
G1 X73.986 Y69.356 E10.68636
G1 X72.458 Y71.214 E10.75637
G1 X71.9 Y71.77 E10.77929
G1 X70.054 Y73.283 E10.84875
G1 X69.404 Y73.718 E10.87152
G1 X67.284 Y74.854 E10.94151
G1 X66.547 Y75.159 E10.96473
G1 X64.253 Y75.852 E11.03447
G1 X63.488 Y76.004 E11.05717
G1 X61.099 Y76.242 E11.12704
G1 X60.301 Y76.242 E11.15026
G1 X57.91 Y76.004 E11.22019
G1 X57.141 Y75.851 E11.24301
G1 X54.84 Y75.153 E11.31298
G1 X54.106 Y74.848 E11.33612
G1 X51.995 Y73.716 E11.40583
G1 X51.344 Y73.281 E11.42861
G1 X49.483 Y71.754 E11.49867
G1 X48.924 Y71.195 E11.52168
G1 X47.412 Y69.352 E11.59106
G1 X46.975 Y68.698 E11.61395
G1 X45.84 Y66.577 E11.68396
G1 X45.537 Y65.845 E11.70701
G1 X44.842 Y63.551 E11.77677
G1 X44.688 Y62.773 E11.79985
G1 X44.456 Y60.386 E11.86965
G1 X44.456 Y59.609 E11.89226
G1 X44.688 Y57.215 E11.96226
G1 X44.842 Y56.435 E11.9854
G1 X45.537 Y54.142 E12.05513
G1 X45.842 Y53.408 E12.07826
G1 X46.978 Y51.289 E12.14823
G1 X47.413 Y50.639 E12.17099
G1 X48.852 Y48.885 E12.23702
G0 F648 X48.931 Y48.788
G0 X49.488 Y48.23
G0 F4320 X49.71 Y48.5
G1 F2400 E12.26362
G1 F720 X51.565 Y46.976 E12.33349
G1 X52.166 Y46.575 E12.35451
G1 X54.285 Y45.443 E12.42443
G1 X54.951 Y45.167 E12.44541
G1 X57.245 Y44.472 E12.51517
G1 X57.953 Y44.332 E12.53617
G1 X60.342 Y44.098 E12.60603
G1 X61.058 Y44.098 E12.62687
G1 X63.447 Y44.332 E12.69673
G1 X64.155 Y44.472 E12.71773
G1 X66.449 Y45.167 E12.78749
G1 X67.113 Y45.442 E12.8084
G1 X69.234 Y46.574 E12.87837
G1 X69.838 Y46.977 E12.8995
G1 X71.689 Y48.499 E12.96925
G1 X72.195 Y49.005 E12.99007
G1 X73.717 Y50.858 E13.05986
G1 X74.117 Y51.457 E13.08082
G1 X75.251 Y53.576 E13.15076
G1 X75.529 Y54.247 E13.1719
G1 X76.225 Y56.551 E13.24195
G1 X76.364 Y57.253 E13.26277
G1 X76.599 Y59.632 E13.33234
G1 X76.599 Y60.354 E13.35336
G1 X76.363 Y62.746 E13.42331
G1 X76.222 Y63.454 E13.44432
G1 X75.522 Y65.756 E13.51434
G1 X75.247 Y66.42 E13.53526
G1 X74.118 Y68.532 E13.60495
G1 X73.715 Y69.133 E13.62601
G1 X72.187 Y70.991 E13.69602
G1 X71.679 Y71.499 E13.71693
G1 X69.833 Y73.012 E13.78639
G1 X69.239 Y73.409 E13.80718
G1 X67.119 Y74.545 E13.87718
G1 X66.446 Y74.824 E13.89838
G1 X64.152 Y75.517 E13.96812
G1 X63.453 Y75.656 E13.98886
G1 X61.064 Y75.894 E14.05874
G1 X60.336 Y75.894 E14.07992
G1 X57.945 Y75.656 E14.14985
G1 X57.242 Y75.516 E14.17071
G1 X54.941 Y74.818 E14.24069
G1 X54.271 Y74.54 E14.2618
G1 X52.16 Y73.408 E14.33151
G1 X51.566 Y73.01 E14.35232
G1 X49.705 Y71.483 E14.42238
G1 X49.195 Y70.973 E14.44337
G1 X47.683 Y69.13 E14.51275
G1 X47.284 Y68.533 E14.53364
G1 X46.149 Y66.412 E14.60365
G1 X45.872 Y65.744 E14.6247
G1 X45.177 Y63.45 E14.69446
G1 X45.036 Y62.74 E14.71552
G1 X44.804 Y60.353 E14.78532
G1 X44.804 Y59.643 E14.80598
G1 X45.036 Y57.249 E14.87598
G1 X45.177 Y56.537 E14.8971
G1 X45.872 Y54.244 E14.96683
G1 X46.15 Y53.574 E14.98794
G1 X47.286 Y51.455 E15.05791
G1 X47.683 Y50.861 E15.07871
G1 X49.078 Y49.16 E15.14273
G0 F648 X49.201 Y49.01
G0 X49.71 Y48.5
G0 F4320 X49.932 Y48.771
G1 F2400 E15.16933
G1 F720 X51.787 Y47.247 E15.2392
G1 X52.331 Y46.883 E15.25825
G1 X54.45 Y45.751 E15.32816
G1 X55.053 Y45.502 E15.34715
G1 X57.347 Y44.807 E15.41691
G1 X57.987 Y44.68 E15.43589
G1 X60.376 Y44.446 E15.50575
G1 X61.024 Y44.446 E15.52461
G1 X63.413 Y44.68 E15.59447
G1 X64.053 Y44.807 E15.61346
G1 X66.347 Y45.502 E15.68322
G1 X66.949 Y45.751 E15.70218
G1 X69.07 Y46.883 E15.77215
G1 X69.616 Y47.248 E15.79126
G1 X71.467 Y48.77 E15.861
G1 X71.924 Y49.228 E15.87983
G1 X73.446 Y51.081 E15.94962
G1 X73.809 Y51.622 E15.96858
G1 X74.943 Y53.741 E16.03852
G1 X75.194 Y54.348 E16.05764
G1 X75.89 Y56.652 E16.12768
G1 X76.016 Y57.287 E16.14652
G1 X76.251 Y59.666 E16.21609
G1 X76.251 Y60.319 E16.2351
G1 X76.015 Y62.711 E16.30505
G1 X75.887 Y63.352 E16.32407
G1 X75.187 Y65.654 E16.3941
G1 X74.938 Y66.255 E16.41303
G1 X73.809 Y68.367 E16.48272
G1 X73.445 Y68.911 E16.50177
G1 X71.917 Y70.769 E16.57178
G1 X71.457 Y71.229 E16.59071
G1 X69.611 Y72.742 E16.66018
G1 X69.073 Y73.101 E16.679
G1 X66.953 Y74.237 E16.749
G1 X66.345 Y74.489 E16.76815
G1 X64.051 Y75.182 E16.83789
G1 X63.419 Y75.308 E16.85665
G1 X61.03 Y75.546 E16.92652
G1 X60.371 Y75.546 E16.9457
G1 X57.98 Y75.308 E17.01562
G1 X57.344 Y75.181 E17.0345
G1 X55.043 Y74.483 E17.10448
G1 X54.437 Y74.231 E17.12358
G1 X52.326 Y73.099 E17.19329
G1 X51.788 Y72.739 E17.21213
G1 X49.927 Y71.212 E17.28219
G1 X49.465 Y70.751 E17.30118
G1 X47.953 Y68.908 E17.37056
G1 X47.592 Y68.368 E17.38946
G1 X46.457 Y66.247 E17.45947
G1 X46.207 Y65.642 E17.47852
G1 X45.512 Y63.348 E17.54828
G1 X45.385 Y62.706 E17.56732
G1 X45.153 Y60.319 E17.63712
G1 X45.153 Y59.676 E17.65583
G1 X45.385 Y57.282 E17.72583
G1 X45.512 Y56.639 E17.74491
G1 X46.207 Y54.346 E17.81464
G1 X46.459 Y53.739 E17.83376
G1 X47.595 Y51.62 E17.90373
G1 X47.954 Y51.083 E17.92253
G1 X49.306 Y49.435 E17.98457
G0 F648 X49.472 Y49.232
G0 X49.932 Y48.771
G0 F4320 X50.154 Y49.041
G1 F2400 E18.01117
G1 F720 X52.009 Y47.517 E18.08104
G1 X52.496 Y47.192 E18.09808
G1 X54.615 Y46.06 E18.16799
G1 X55.154 Y45.837 E18.18497
G1 X57.448 Y45.142 E18.25473
G1 X58.021 Y45.028 E18.27173
G1 X60.41 Y44.794 E18.34159
G1 X60.99 Y44.794 E18.35847
G1 X63.379 Y45.028 E18.42833
G1 X63.952 Y45.142 E18.44533
G1 X66.246 Y45.837 E18.51509
G1 X66.784 Y46.059 E18.53202
G1 X68.905 Y47.191 E18.60199
G1 X69.393 Y47.518 E18.61909
G1 X71.244 Y49.04 E18.68883
G1 X71.654 Y49.45 E18.7057
G1 X73.176 Y51.303 E18.77549
G1 X73.5 Y51.787 E18.79244
G1 X74.634 Y53.906 E18.86238
G1 X74.859 Y54.45 E18.87952
G1 X75.555 Y56.754 E18.94956
G1 X75.668 Y57.322 E18.96642
G1 X75.903 Y59.701 E19.03599
G1 X75.903 Y60.285 E19.05298
G1 X75.667 Y62.677 E19.12294
G1 X75.552 Y63.251 E19.13997
G1 X74.852 Y65.553 E19.21
G1 X74.63 Y66.09 E19.22691
G1 X73.501 Y68.202 E19.2966
G1 X73.175 Y68.689 E19.31366
G1 X71.647 Y70.547 E19.38367
G1 X71.235 Y70.958 E19.4006
G1 X69.389 Y72.471 E19.47007
G1 X68.908 Y72.792 E19.4869
G1 X66.788 Y73.928 E19.55689
G1 X66.243 Y74.154 E19.57406
G1 X63.949 Y74.847 E19.6438
G1 X63.384 Y74.959 E19.66057
G1 X60.995 Y75.197 E19.73044
G1 X60.405 Y75.197 E19.74761
G1 X58.014 Y74.959 E19.81754
G1 X57.445 Y74.846 E19.83442
G1 X55.144 Y74.148 E19.9044
G1 X54.602 Y73.923 E19.92148
G1 X52.491 Y72.791 E19.99119
G1 X52.01 Y72.469 E20.00803
G1 X50.149 Y70.942 E20.07809
G1 X49.736 Y70.529 E20.09509
G1 X48.224 Y68.686 E20.16447
G1 X47.901 Y68.203 E20.18138
G1 X46.766 Y66.082 E20.25139
G1 X46.542 Y65.541 E20.26843
G1 X45.847 Y63.247 E20.33818
G1 X45.733 Y62.672 E20.35524
G1 X45.501 Y60.285 E20.42504
G1 X45.501 Y59.71 E20.44177
G1 X45.733 Y57.316 E20.51177
G1 X45.847 Y56.74 E20.52886
G1 X46.542 Y54.447 E20.59859
G1 X46.767 Y53.904 E20.6157
G1 X47.903 Y51.785 E20.68567
G1 X48.225 Y51.304 E20.70251
G1 X49.532 Y49.71 E20.7625
G0 F648 X49.743 Y49.453
G0 X50.154 Y49.041
G0 F4320 X50.377 Y49.312
G1 F2400 E20.7891
G1 F720 X52.232 Y47.788 E20.85897
G1 X52.661 Y47.501 E20.87399
G1 X54.78 Y46.369 E20.94391
G1 X55.256 Y46.172 E20.9589
G1 X57.55 Y45.477 E21.02866
G1 X58.055 Y45.377 E21.04364
G1 X60.444 Y45.143 E21.1135
G1 X60.956 Y45.143 E21.1284
G1 X63.345 Y45.377 E21.19826
G1 X63.85 Y45.477 E21.21324
G1 X66.144 Y46.172 E21.283
G1 X66.619 Y46.368 E21.29795
G1 X68.74 Y47.5 E21.36792
G1 X69.171 Y47.788 E21.38301
G1 X71.022 Y49.31 E21.45275
G1 X71.383 Y49.672 E21.46763
G1 X72.905 Y51.525 E21.53741
G1 X73.191 Y51.952 E21.55237
G1 X74.325 Y54.071 E21.62231
G1 X74.524 Y54.551 E21.63744
