;FLAVOR:Marlin
;TIME:21863
;Filament used: 13.7093m
;Layer height: 0.21875
;Generated with Cura_SteamEngine 3.6.0
M140 S65
M105
M190 S65
M104 S205
M105
M109 S205
M82 ;absolute extrusion mode
G21;(metric values)
G90;(absolute positioning)
M82;(set extruder to absolute mode)
M107;(start with the fan off)
G28;(Home the printer)
G92 E0;(Reset the extruder to 0)
G0 Z5 E5 F500;(Move up and prime the nozzle)
G0 X-1 Z0;(Move outside the printable area)
G1 Y60 E8 F500;(Draw a priming/wiping line to the rear)
G1 X-1;(Move a little closer to the print area)
G1 Y10 E16 F500;(draw more priming/wiping)
G1 E15 F250;(Small retract)
G92 E0;(Zero the extruder)
G92 E0
G1 F2400 E-2.5
;LAYER_COUNT:233
;LAYER:0
M107
G0 F4320 X36.957 Y31.039 Z0.263
;TYPE:SKIRT
G1 F2400 E0
G1 F1620 X37.06 Y30.936 E0.00557
G1 X37.538 Y30.515 E0.02995
G1 X38.065 Y30.157 E0.05433
G1 X38.632 Y29.868 E0.07869
G1 X39.231 Y29.652 E0.10306
G1 X39.853 Y29.513 E0.12745
G1 X40.649 Y29.45 E0.15801
G1 X99.393 Y29.45 E2.40614
G1 X100.029 Y29.49 E2.43052
G1 X100.654 Y29.609 E2.45487
G1 X101.26 Y29.806 E2.47926
G1 X101.836 Y30.077 E2.50362
G1 X102.374 Y30.418 E2.528
G1 X102.982 Y30.936 E2.55856
G1 X103.085 Y31.039 E2.56414
G1 X103.506 Y31.517 E2.58851
G1 X103.864 Y32.044 E2.6129
G1 X104.153 Y32.611 E2.63725
G1 X104.369 Y33.21 E2.66162
G1 X104.508 Y33.832 E2.68601
G1 X104.571 Y34.628 E2.71657
G1 X104.571 Y85.372 E4.65854
G1 X104.531 Y86.008 E4.68293
G1 X104.412 Y86.633 E4.70728
G1 X104.215 Y87.239 E4.73166
G1 X103.944 Y87.815 E4.75602
G1 X103.603 Y88.353 E4.7804
G1 X103.085 Y88.961 E4.81097
G1 X102.982 Y89.064 E4.81654
G1 X102.504 Y89.485 E4.84092
G1 X101.977 Y89.843 E4.8653
G1 X101.41 Y90.132 E4.88966
G1 X100.811 Y90.348 E4.91402
G1 X100.189 Y90.487 E4.93842
G1 X99.393 Y90.55 E4.96897
G1 X40.649 Y90.55 E7.2171
G1 X40.013 Y90.51 E7.24149
G1 X39.388 Y90.391 E7.26584
G1 X38.782 Y90.194 E7.29023
G1 X38.206 Y89.923 E7.31459
G1 X37.668 Y89.582 E7.33896
G1 X37.06 Y89.064 E7.36953
G1 X36.957 Y88.961 E7.37511
G1 X36.536 Y88.483 E7.39948
G1 X36.178 Y87.956 E7.42386
G1 X35.889 Y87.389 E7.44822
G1 X35.673 Y86.79 E7.47259
G1 X35.534 Y86.168 E7.49698
G1 X35.471 Y85.372 E7.52754
G1 X35.471 Y70.618 E8.09217
G1 X35.27 Y70.644 E8.09993
G1 X34.946 Y70.654 E8.11233
G1 X29.193 Y70.654 E8.3325
G1 X28.98 Y70.719 E8.34102
G1 X28.353 Y70.827 E8.36537
G1 X27.716 Y70.855 E8.38977
G1 X27.082 Y70.804 E8.41411
G1 X26.458 Y70.674 E8.43851
G1 X26.081 Y70.544 E8.45377
G1 X20.448 Y70.444 E8.66938
G1 X19.813 Y70.393 E8.69376
G1 X19.19 Y70.263 E8.71811
G1 X18.588 Y70.055 E8.74249
G1 X18.016 Y69.774 E8.76688
G1 X17.484 Y69.424 E8.79125
G1 X16.838 Y68.843 E8.8245
G1 X16.624 Y68.615 E8.83647
G1 X16.218 Y68.124 E8.86085
G1 X15.877 Y67.587 E8.88519
G1 X15.605 Y67.01 E8.9096
G1 X15.409 Y66.405 E8.93394
G1 X15.289 Y65.779 E8.95834
G1 X15.25 Y65.046 E8.98643
G1 X15.302 Y62.294 E9.09176
G1 X15.354 Y61.659 E9.11615
G1 X15.485 Y61.036 E9.14051
G1 X15.693 Y60.434 E9.16489
G1 X15.975 Y59.863 E9.18926
G1 X16.326 Y59.332 E9.21362
G1 X16.805 Y58.784 E9.24147
G1 X17.012 Y58.579 E9.25262
G1 X17.492 Y58.16 E9.277
G1 X18.02 Y57.805 E9.30135
G1 X18.589 Y57.518 E9.32574
G1 X19.189 Y57.305 E9.35011
G1 X19.811 Y57.169 E9.37447
G1 X20.67 Y57.111 E9.40742
G1 X26.278 Y57.207 E9.62207
G1 X26.523 Y57.122 E9.632
G1 X27.146 Y56.99 E9.65637
G1 X27.781 Y56.938 E9.68075
G1 X28.417 Y56.965 E9.70511
G1 X28.9 Y57.047 E9.72386
G1 X29.281 Y57.026 E9.73846
G1 X29.918 Y57.03 E9.76284
G1 X30.415 Y57.096 E9.78203
G1 X34.947 Y57.097 E9.95547
G1 X35.471 Y57.13 E9.97556
G1 X35.471 Y34.628 E10.83671
G1 X35.511 Y33.992 E10.8611
G1 X35.63 Y33.367 E10.88545
G1 X35.827 Y32.761 E10.90984
G1 X36.098 Y32.185 E10.9342
G1 X36.439 Y31.647 E10.95857
G1 X36.507 Y31.567 E10.96259
G0 F1458 X36.957 Y31.039
G0 F4320 X37.205 Y31.287
G1 F2400 E10.98915
G1 F1620 X37.308 Y31.184 E10.99473
G1 X37.77 Y30.779 E11.01824
G1 X38.28 Y30.437 E11.04174
G1 X38.831 Y30.164 E11.06527
G1 X39.412 Y29.965 E11.08877
G1 X40.015 Y29.843 E11.11232
G1 X40.649 Y29.8 E11.13664
G1 X99.393 Y29.8 E13.38477
G1 X100.006 Y29.84 E13.40828
G1 X100.609 Y29.959 E13.4318
G1 X101.191 Y30.156 E13.45531
G1 X101.743 Y30.426 E13.47883
G1 X102.255 Y30.766 E13.50235
G1 X102.734 Y31.184 E13.52668
G1 X102.837 Y31.287 E13.53225
G1 X103.242 Y31.749 E13.55577
G1 X103.584 Y32.259 E13.57927
G1 X103.857 Y32.81 E13.6028
G1 X104.056 Y33.391 E13.6263
G1 X104.178 Y33.994 E13.64985
G1 X104.221 Y34.628 E13.67417
G1 X104.221 Y85.372 E15.61614
G1 X104.181 Y85.985 E15.63965
G1 X104.062 Y86.588 E15.66317
G1 X103.865 Y87.17 E15.68668
G1 X103.595 Y87.722 E15.7102
G1 X103.255 Y88.234 E15.73372
G1 X102.837 Y88.713 E15.75805
G1 X102.734 Y88.816 E15.76362
G1 X102.272 Y89.221 E15.78714
G1 X101.762 Y89.563 E15.81064
G1 X101.211 Y89.836 E15.83417
G1 X100.63 Y90.035 E15.85767
G1 X100.027 Y90.157 E15.88122
G1 X99.393 Y90.2 E15.90554
G1 X40.649 Y90.2 E18.15366
G1 X40.036 Y90.16 E18.17717
G1 X39.433 Y90.041 E18.2007
G1 X38.851 Y89.844 E18.22421
G1 X38.299 Y89.574 E18.24773
G1 X37.787 Y89.234 E18.27125
G1 X37.308 Y88.816 E18.29558
G1 X37.205 Y88.713 E18.30115
G1 X36.8 Y88.251 E18.32466
G1 X36.458 Y87.741 E18.34816
G1 X36.185 Y87.19 E18.3717
G1 X35.986 Y86.609 E18.3952
G1 X35.864 Y86.006 E18.41874
G1 X35.821 Y85.372 E18.44306
G1 X35.821 Y70.213 E19.0232
G1 X35.602 Y70.258 E19.03175
G1 X34.946 Y70.304 E19.05692
G1 X29.14 Y70.304 E19.27912
G1 X28.836 Y70.393 E19.29124
G1 X28.229 Y70.487 E19.31475
G1 X27.615 Y70.502 E19.33825
G1 X27.004 Y70.437 E19.36176
G1 X26.406 Y70.294 E19.3853
G1 X26.148 Y70.195 E19.39587
G1 X20.454 Y70.094 E19.61381
G1 X19.842 Y70.043 E19.63732
G1 X19.241 Y69.914 E19.66084
G1 X18.663 Y69.707 E19.68434
G1 X18.116 Y69.427 E19.70785
G1 X17.61 Y69.078 E19.73138
G1 X17.093 Y68.604 E19.75822
G1 X16.879 Y68.376 E19.77019
G1 X16.488 Y67.901 E19.79373
G1 X16.163 Y67.38 E19.81723
G1 X15.907 Y66.821 E19.84076
G1 X15.727 Y66.234 E19.86426
G1 X15.624 Y65.628 E19.88778
G1 X15.6 Y65.053 E19.90981
G1 X15.652 Y62.301 E20.01514
G1 X15.703 Y61.688 E20.03869
G1 X15.834 Y61.088 E20.06219
G1 X16.041 Y60.51 E20.08568
G1 X16.322 Y59.963 E20.10922
G1 X16.671 Y59.457 E20.13274
G1 X17.051 Y59.033 E20.15453
G1 X17.258 Y58.828 E20.16568
G1 X17.722 Y58.425 E20.1892
G1 X18.234 Y58.085 E20.21272
G1 X18.786 Y57.815 E20.23624
G1 X19.368 Y57.619 E20.25974
G1 X19.971 Y57.5 E20.28326
G1 X20.664 Y57.461 E20.30983
G1 X26.331 Y57.558 E20.52673
G1 X26.7 Y57.437 E20.54159
G1 X27.304 Y57.322 E20.56512
G1 X27.918 Y57.287 E20.58866
G1 X28.53 Y57.332 E20.61215
G1 X28.859 Y57.4 E20.625
G1 X29.3 Y57.375 E20.64191
G1 X29.915 Y57.381 E20.66544
G1 X30.298 Y57.446 E20.68031
G1 X34.947 Y57.447 E20.85823
G1 X35.56 Y57.487 E20.88174
G1 X35.821 Y57.539 E20.89192
G1 X35.821 Y34.628 E21.76872
G1 X35.861 Y34.015 E21.79223
G1 X35.98 Y33.412 E21.81576
G1 X36.177 Y32.83 E21.83927
G1 X36.447 Y32.278 E21.86279
G1 X36.755 Y31.815 E21.88407
G0 F1458 X36.787 Y31.766
G0 X37.205 Y31.287
G0 F4320 X37.452 Y31.534
G1 F2400 E21.91063
G1 F1620 X37.555 Y31.431 E21.9162
G1 X38.001 Y31.043 E21.93882
G1 X38.495 Y30.717 E21.96148
G1 X39.028 Y30.462 E21.98409
G1 X39.59 Y30.28 E22.0067
G1 X40.172 Y30.176 E22.02932
G1 X40.649 Y30.15 E22.0476
G1 X99.393 Y30.15 E24.29573
G1 X99.983 Y30.19 E24.31836
G1 X100.562 Y30.309 E24.34099
G1 X101.12 Y30.505 E24.36362
G1 X101.646 Y30.775 E24.38625
G1 X102.131 Y31.113 E24.40887
G1 X102.487 Y31.431 E24.42714
G1 X102.59 Y31.534 E24.43271
G1 X102.978 Y31.98 E24.45534
G1 X103.304 Y32.474 E24.47799
G1 X103.559 Y33.007 E24.5006
G1 X103.741 Y33.569 E24.52321
G1 X103.845 Y34.151 E24.54583
G1 X103.871 Y34.628 E24.56411
G1 X103.871 Y85.372 E26.50608
G1 X103.831 Y85.962 E26.52871
G1 X103.712 Y86.541 E26.55134
G1 X103.516 Y87.099 E26.57397
G1 X103.246 Y87.625 E26.5966
G1 X102.908 Y88.11 E26.61922
G1 X102.59 Y88.466 E26.63749
G1 X102.487 Y88.569 E26.64306
G1 X102.041 Y88.957 E26.66569
G1 X101.547 Y89.283 E26.68834
G1 X101.014 Y89.538 E26.71095
G1 X100.452 Y89.72 E26.73356
G1 X99.87 Y89.824 E26.75618
G1 X99.393 Y89.85 E26.77446
G1 X40.649 Y89.85 E29.02259
G1 X40.059 Y89.81 E29.04523
G1 X39.48 Y89.691 E29.06785
G1 X38.922 Y89.495 E29.09048
G1 X38.396 Y89.225 E29.11311
G1 X37.911 Y88.887 E29.13573
G1 X37.555 Y88.569 E29.154
G1 X37.452 Y88.466 E29.15957
G1 X37.064 Y88.02 E29.1822
G1 X36.738 Y87.526 E29.20485
G1 X36.483 Y86.993 E29.22746
G1 X36.301 Y86.431 E29.25007
G1 X36.197 Y85.849 E29.27269
G1 X36.171 Y85.372 E29.29098
G1 X36.171 Y69.768 E29.88814
G1 X35.893 Y69.85 E29.89923
G1 X35.309 Y69.939 E29.92184
G1 X34.946 Y69.954 E29.93574
G1 X29.092 Y69.954 E30.15978
G1 X28.695 Y70.065 E30.17555
G1 X28.109 Y70.146 E30.19819
G1 X27.517 Y70.146 E30.22085
G1 X26.932 Y70.068 E30.24343
G1 X26.362 Y69.91 E30.26607
G1 X26.212 Y69.846 E30.27231
G1 X20.46 Y69.744 E30.49247
G1 X19.871 Y69.694 E30.5151
G1 X19.294 Y69.565 E30.53772
G1 X18.74 Y69.359 E30.56034
G1 X18.219 Y69.08 E30.58296
G1 X17.74 Y68.733 E30.6056
G1 X17.348 Y68.364 E30.6262
G1 X17.134 Y68.136 E30.63817
G1 X16.759 Y67.679 E30.66079
G1 X16.45 Y67.175 E30.68341
G1 X16.211 Y66.634 E30.70605
G1 X16.048 Y66.066 E30.72866
G1 X15.962 Y65.481 E30.75129
G1 X15.95 Y65.059 E30.76745
G1 X16.002 Y62.307 E30.87279
G1 X16.053 Y61.718 E30.89541
G1 X16.183 Y61.141 E30.91805
G1 X16.39 Y60.588 E30.94064
G1 X16.669 Y60.066 E30.96329
G1 X17.016 Y59.588 E30.9859
G1 X17.297 Y59.281 E31.00183
G1 X17.504 Y59.076 E31.01298
G1 X17.952 Y58.69 E31.03561
G1 X18.447 Y58.367 E31.05823
G1 X18.981 Y58.114 E31.08084
G1 X19.545 Y57.935 E31.10349
G1 X20.128 Y57.834 E31.12613
G1 X20.658 Y57.811 E31.14643
G1 X26.374 Y57.909 E31.36522
G1 X26.875 Y57.754 E31.38529
G1 X27.458 Y57.658 E31.4079
G1 X28.049 Y57.64 E31.43053
G1 X28.637 Y57.703 E31.45316
G1 X28.837 Y57.752 E31.46104
G1 X29.32 Y57.725 E31.47955
G1 X29.911 Y57.732 E31.50217
G1 X30.284 Y57.796 E31.51665
G1 X34.947 Y57.797 E31.69511
G1 X35.537 Y57.837 E31.71774
G1 X36.116 Y57.956 E31.74036
G1 X36.171 Y57.975 E31.74259
G1 X36.171 Y34.628 E32.63607
G1 X36.211 Y34.038 E32.6587
G1 X36.33 Y33.459 E32.68133
G1 X36.526 Y32.901 E32.70396
G1 X36.796 Y32.375 E32.72659
G1 X37.01 Y32.068 E32.74091
G0 F1458 X37.134 Y31.89
G0 X37.452 Y31.534
G0 F4320 X37.7 Y31.782
G1 F2400 E32.76747
G1 F1620 X37.803 Y31.679 E32.77304
G1 X38.231 Y31.307 E32.79474
G1 X38.707 Y30.999 E32.81644
G1 X39.222 Y30.761 E32.83815
G1 X39.765 Y30.598 E32.85985
G1 X40.326 Y30.513 E32.88156
G1 X40.649 Y30.5 E32.89394
G1 X99.393 Y30.5 E35.14207
G1 X99.959 Y30.54 E35.16378
G1 X100.513 Y30.659 E35.18547
G1 X101.045 Y30.855 E35.20716
G1 X101.545 Y31.123 E35.22887
G1 X102.001 Y31.46 E35.25057
G1 X102.239 Y31.679 E35.26295
G1 X102.342 Y31.782 E35.26852
G1 X102.714 Y32.21 E35.29023
G1 X103.022 Y32.686 E35.31192
G1 X103.26 Y33.201 E35.33364
G1 X103.423 Y33.744 E35.35533
G1 X103.508 Y34.305 E35.37705
G1 X103.521 Y34.628 E35.38942
G1 X103.521 Y85.372 E37.33139
G1 X103.481 Y85.938 E37.3531
G1 X103.362 Y86.492 E37.37479
G1 X103.166 Y87.024 E37.39649
G1 X102.898 Y87.524 E37.4182
G1 X102.561 Y87.98 E37.4399
G1 X102.342 Y88.218 E37.45227
G1 X102.239 Y88.321 E37.45785
G1 X101.811 Y88.693 E37.47955
G1 X101.335 Y89.001 E37.50125
G1 X100.82 Y89.239 E37.52296
G1 X100.277 Y89.402 E37.54465
G1 X99.716 Y89.487 E37.56637
G1 X99.393 Y89.5 E37.57874
G1 X40.649 Y89.5 E39.82687
G1 X40.083 Y89.46 E39.84858
G1 X39.529 Y89.341 E39.87027
G1 X38.997 Y89.145 E39.89197
G1 X38.497 Y88.877 E39.91368
G1 X38.041 Y88.54 E39.93538
G1 X37.803 Y88.321 E39.94775
G1 X37.7 Y88.218 E39.95333
G1 X37.328 Y87.79 E39.97503
G1 X37.02 Y87.314 E39.99673
G1 X36.782 Y86.799 E40.01844
G1 X36.619 Y86.256 E40.04014
G1 X36.534 Y85.695 E40.06185
G1 X36.521 Y85.372 E40.07422
G1 X36.521 Y69.274 E40.69029
G1 X36.142 Y69.422 E40.70586
G1 X35.59 Y69.552 E40.72757
G1 X34.946 Y69.604 E40.75229
G1 X29.055 Y69.604 E40.97774
G1 X28.555 Y69.736 E40.99753
G1 X27.992 Y69.802 E41.01922
G1 X27.425 Y69.788 E41.04093
G1 X26.866 Y69.694 E41.06262
G1 X26.325 Y69.523 E41.08434
G1 X26.271 Y69.497 E41.08663
G1 X20.467 Y69.394 E41.30878
G1 X19.902 Y69.344 E41.33049
G1 X19.349 Y69.216 E41.35221
G1 X18.821 Y69.01 E41.3739
G1 X18.326 Y68.733 E41.39561
G1 X17.876 Y68.389 E41.41729
G1 X17.603 Y68.125 E41.43182
G1 X17.389 Y67.897 E41.44379
G1 X17.031 Y67.457 E41.4655
G1 X16.739 Y66.971 E41.4872
G1 X16.517 Y66.449 E41.50891
G1 X16.371 Y65.901 E41.53061
G1 X16.3 Y65.066 E41.56268
G1 X16.352 Y62.314 E41.66802
G1 X16.402 Y61.749 E41.68972
G1 X16.532 Y61.197 E41.71143
G1 X16.738 Y60.669 E41.73312
G1 X17.016 Y60.174 E41.75484
G1 X17.544 Y59.53 E41.78671
G1 X17.751 Y59.325 E41.79786
G1 X18.181 Y58.955 E41.81957
G1 X18.659 Y58.65 E41.84127
G1 X19.174 Y58.414 E41.86295
G1 X19.718 Y58.254 E41.88465
G1 X20.279 Y58.171 E41.90636
G1 X20.652 Y58.161 E41.92064
G1 X26.435 Y58.26 E42.14198
G1 X26.5 Y58.231 E42.14471
G1 X27.046 Y58.075 E42.16644
G1 X27.607 Y57.996 E42.18812
G1 X28.174 Y57.998 E42.20982
G1 X28.736 Y58.079 E42.23155
G1 X28.818 Y58.103 E42.23482
G1 X29.339 Y58.074 E42.25479
G1 X29.906 Y58.083 E42.27649
G1 X30.268 Y58.146 E42.29055
G1 X34.947 Y58.147 E42.46962
G1 X35.512 Y58.187 E42.49129
G1 X36.067 Y58.306 E42.51302
G1 X36.521 Y58.473 E42.53153
G1 X36.521 Y34.628 E43.44408
G1 X36.561 Y34.062 E43.46579
G1 X36.68 Y33.508 E43.48748
G1 X36.876 Y32.976 E43.50917
G1 X37.144 Y32.476 E43.53088
G1 X37.261 Y32.318 E43.53841
G0 F1458 X37.481 Y32.02
G0 X37.7 Y31.782
G0 F4320 X37.947 Y32.029
G1 F2400 E43.56497
G1 F1620 X38.05 Y31.926 E43.57054
G1 X38.461 Y31.573 E43.59128
G1 X38.919 Y31.283 E43.61202
G1 X39.414 Y31.064 E43.63274
G1 X39.937 Y30.92 E43.6535
G1 X40.649 Y30.85 E43.68088
G1 X99.393 Y30.85 E45.92901
G1 X99.933 Y30.89 E45.94973
G1 X100.462 Y31.009 E45.97048
G1 X100.967 Y31.204 E45.9912
G1 X101.439 Y31.472 E46.01197
G1 X101.992 Y31.926 E46.03935
G1 X102.095 Y32.029 E46.04492
G1 X102.448 Y32.44 E46.06566
G1 X102.738 Y32.898 E46.0864
G1 X102.957 Y33.393 E46.10712
G1 X103.101 Y33.916 E46.12788
G1 X103.171 Y34.628 E46.15526
G1 X103.171 Y85.372 E48.09723
G1 X103.131 Y85.912 E48.11795
G1 X103.012 Y86.441 E48.1387
G1 X102.817 Y86.946 E48.15942
G1 X102.549 Y87.418 E48.18019
G1 X102.095 Y87.971 E48.20757
G1 X101.992 Y88.074 E48.21315
G1 X101.581 Y88.427 E48.23388
G1 X101.123 Y88.717 E48.25463
G1 X100.628 Y88.936 E48.27534
G1 X100.105 Y89.08 E48.2961
G1 X99.393 Y89.15 E48.32348
G1 X40.649 Y89.15 E50.57161
G1 X40.109 Y89.11 E50.59233
G1 X39.58 Y88.991 E50.61308
G1 X39.075 Y88.796 E50.6338
G1 X38.603 Y88.528 E50.65457
G1 X38.05 Y88.074 E50.68195
G1 X37.947 Y87.971 E50.68753
G1 X37.594 Y87.56 E50.70826
G1 X37.304 Y87.102 E50.72901
G1 X37.085 Y86.607 E50.74972
G1 X36.941 Y86.084 E50.77048
G1 X36.871 Y85.372 E50.79786
G1 X36.871 Y68.705 E51.43571
G1 X36.828 Y68.735 E51.43772
G1 X36.344 Y68.978 E51.45844
G1 X35.829 Y69.146 E51.47917
G1 X35.295 Y69.237 E51.4999
G1 X34.946 Y69.254 E51.51328
G1 X28.996 Y69.254 E51.74098
G1 X28.945 Y69.275 E51.74309
G1 X28.419 Y69.405 E51.76383
G1 X27.879 Y69.455 E51.78458
G1 X27.338 Y69.426 E51.80532
G1 X26.808 Y69.317 E51.82602
G1 X26.342 Y69.148 E51.84499
G1 X20.473 Y69.044 E52.06964
G1 X19.933 Y68.995 E52.09039
G1 X19.407 Y68.867 E52.1111
G1 X18.905 Y68.662 E52.13186
G1 X18.439 Y68.386 E52.15258
G1 X17.858 Y67.885 E52.18194
G1 X17.644 Y67.657 E52.19391
G1 X17.304 Y67.236 E52.21462
G1 X17.029 Y66.769 E52.23536
G1 X16.825 Y66.267 E52.2561
G1 X16.698 Y65.74 E52.27684
G1 X16.65 Y65.073 E52.30243
G1 X16.702 Y62.321 E52.40777
G1 X16.752 Y61.781 E52.42853
G1 X16.881 Y61.255 E52.44925
G1 X17.086 Y60.753 E52.47
G1 X17.362 Y60.287 E52.49073
G1 X17.79 Y59.779 E52.51615
G1 X17.997 Y59.574 E52.5273
G1 X18.409 Y59.222 E52.54804
G1 X18.868 Y58.934 E52.56878
G1 X19.365 Y58.718 E52.58952
G1 X19.888 Y58.576 E52.61026
G1 X20.646 Y58.511 E52.63937
G1 X26.512 Y58.612 E52.8639
G1 X26.689 Y58.536 E52.87127
G1 X27.213 Y58.398 E52.892
G1 X27.751 Y58.339 E52.91272
G1 X28.293 Y58.36 E52.93348
G1 X28.8 Y58.455 E52.95322
G1 X29.359 Y58.424 E52.97464
G1 X29.901 Y58.433 E52.99539
G1 X30.253 Y58.496 E53.00907
G1 X34.947 Y58.497 E53.18871
G1 X35.487 Y58.537 E53.20943
G1 X36.016 Y58.656 E53.23018
G1 X36.521 Y58.852 E53.25092
G1 X36.871 Y59.05 E53.2663
G1 X36.871 Y34.628 E54.20093
G1 X36.911 Y34.088 E54.22166
G1 X37.03 Y33.559 E54.24241
