;FLAVOR:Marlin
;TIME:6907
;Filament used: 7.47669m
;Layer height: 0.21875
;Generated with Cura_SteamEngine 3.6.0
M140 S65
M105
M190 S65
M104 S205
M105
M109 S205
M82 ;absolute extrusion mode
G21;(metric values)
G90;(absolute positioning)
M82;(set extruder to absolute mode)
M107;(start with the fan off)
G28;(Home the printer)
G92 E0;(Reset the extruder to 0)
G0 Z5 E5 F500;(Move up and prime the nozzle)
G0 X-1 Z0;(Move outside the printable area)
G1 Y60 E8 F500;(Draw a priming/wiping line to the rear)
G1 X-1;(Move a little closer to the print area)
G1 Y10 E16 F500;(draw more priming/wiping)
G1 E15 F250;(Small retract)
G92 E0;(Zero the extruder)
G92 E0
G1 F2400 E-2.5
;LAYER_COUNT:547
;LAYER:0
M107
G0 F4320 X35.583 Y44.082 Z0.263
;TYPE:SKIRT
G1 F2400 E0
G1 F2160 X36.125 Y43.747 E0.02438
G1 X36.705 Y43.483 E0.04877
G1 X37.023 Y43.374 E0.06164
G1 X37.228 Y43.311 E0.06984
G1 X37.847 Y43.162 E0.09421
G1 X38.721 Y43.087 E0.12778
G1 X41.295 Y43.088 E0.22629
G1 X41.931 Y43.128 E0.25068
G1 X42.556 Y43.248 E0.27503
G1 X43.246 Y43.479 E0.30288
G1 X43.505 Y43.587 E0.31362
G1 X44.007 Y43.834 E0.33503
G1 X44.187 Y43.679 E0.34412
G1 X44.718 Y43.328 E0.36848
G1 X45.29 Y43.046 E0.39288
G1 X45.892 Y42.839 E0.41725
G1 X46.515 Y42.708 E0.44161
G1 X47.244 Y42.655 E0.46958
G1 X50.174 Y42.655 E0.58171
G1 X50.223 Y38.291 E0.74873
G1 X50.27 Y37.656 E0.7731
G1 X50.397 Y37.032 E0.79747
G1 X50.6 Y36.429 E0.82182
G1 X50.877 Y35.855 E0.84621
G1 X51.224 Y35.321 E0.87059
G1 X51.463 Y35.024 E0.88517
G1 X51.723 Y34.724 E0.90037
G1 X52.169 Y34.27 E0.92472
G1 X52.669 Y33.875 E0.94911
G1 X53.215 Y33.546 E0.9735
G1 X53.658 Y33.342 E0.99217
G1 X54.032 Y33.191 E1.0076
G1 X54.636 Y32.99 E1.03197
G1 X55.261 Y32.867 E1.05634
G1 X55.949 Y32.822 E1.08273
G1 X64.259 Y32.85 E1.40075
G1 X64.895 Y32.892 E1.42515
G1 X65.52 Y33.013 E1.44951
G1 X66.125 Y33.212 E1.47388
G1 X66.845 Y33.568 E1.50462
G1 X67.076 Y33.706 E1.51492
G1 X67.601 Y34.067 E1.5393
G1 X68.077 Y34.49 E1.56367
G1 X68.496 Y34.969 E1.58803
G1 X68.689 Y35.237 E1.60067
G1 X68.933 Y35.601 E1.61744
G1 X69.253 Y36.151 E1.64179
G1 X69.503 Y36.737 E1.66617
G1 X69.676 Y37.35 E1.69055
G1 X69.772 Y37.98 E1.71494
G1 X69.792 Y38.411 E1.73145
G1 X69.805 Y42.654 E1.89383
G1 X72.756 Y42.654 E2.00676
G1 X73.392 Y42.694 E2.03115
G1 X74.017 Y42.813 E2.0555
G1 X74.623 Y43.01 E2.07988
G1 X75.199 Y43.281 E2.10425
G1 X75.737 Y43.622 E2.12862
G1 X75.995 Y43.835 E2.14143
G1 X76.139 Y43.749 E2.14785
G1 X76.712 Y43.498 E2.17179
G1 X76.984 Y43.398 E2.18288
G1 X77.594 Y43.216 E2.20724
G1 X78.222 Y43.112 E2.2316
G1 X78.741 Y43.086 E2.25149
G1 X81.316 Y43.089 E2.35003
G1 X81.951 Y43.13 E2.37438
G1 X82.577 Y43.25 E2.39878
G1 X83.182 Y43.447 E2.42313
G1 X83.494 Y43.583 E2.43615
G1 X83.752 Y43.706 E2.44709
G1 X84.309 Y44.016 E2.47148
G1 X84.822 Y44.392 E2.49583
G1 X85.284 Y44.831 E2.52022
G1 X85.688 Y45.323 E2.54458
G1 X86.008 Y45.828 E2.56746
G1 X86.147 Y46.079 E2.57844
G1 X86.42 Y46.655 E2.60283
G1 X86.618 Y47.26 E2.62719
G1 X86.74 Y47.885 E2.65156
G1 X86.782 Y48.53 E2.6763
G1 X86.792 Y54.811 E2.91668
G1 X86.753 Y55.447 E2.94106
G1 X86.635 Y56.072 E2.9654
G1 X86.439 Y56.678 E2.98978
G1 X86.189 Y57.219 E3.01258
G1 X86.024 Y57.526 E3.02592
G1 X86.175 Y57.699 E3.03471
G1 X86.529 Y58.228 E3.05907
G1 X86.815 Y58.797 E3.08344
G1 X87.027 Y59.398 E3.10783
G1 X87.162 Y60.02 E3.13219
G1 X87.22 Y60.784 E3.16151
G1 X87.221 Y76.606 E3.76702
G1 X87.271 Y76.941 E3.77998
G1 X87.326 Y77.575 E3.80433
G1 X87.3 Y78.212 E3.82873
G1 X87.216 Y78.717 E3.84833
G1 X87.259 Y81.427 E3.95205
G1 X87.23 Y82.063 E3.97641
G1 X87.12 Y82.69 E4.00078
G1 X86.874 Y83.449 E4.03131
G1 X86.696 Y83.879 E4.04912
G1 X86.416 Y84.451 E4.07349
G1 X86.067 Y84.983 E4.09784
G1 X85.653 Y85.468 E4.12225
G1 X85.31 Y85.791 E4.14028
G1 X85.002 Y86.055 E4.1558
G1 X84.493 Y86.439 E4.1802
G1 X83.941 Y86.755 E4.20454
G1 X83.308 Y87.015 E4.23073
G1 X82.997 Y87.119 E4.24328
G1 X82.382 Y87.283 E4.26764
G1 X81.751 Y87.368 E4.29201
G1 X81.293 Y87.38 E4.30954
G1 X78.747 Y87.333 E4.40699
G1 X78.442 Y87.409 E4.41902
G1 X77.81 Y87.486 E4.44339
G1 X77.173 Y87.482 E4.46777
G1 X76.542 Y87.399 E4.49212
G1 X76.313 Y87.345 E4.50113
G1 X43.703 Y87.346 E5.74911
G1 X43.213 Y87.449 E5.76827
G1 X42.578 Y87.501 E5.79265
G1 X41.942 Y87.473 E5.81702
G1 X41.314 Y87.366 E5.8414
G1 X41.239 Y87.343 E5.8444
G1 X38.721 Y87.384 E5.94078
G1 X38.085 Y87.355 E5.96514
G1 X37.457 Y87.246 E5.98953
G1 X37.098 Y87.146 E6.0038
G1 X36.759 Y87.038 E6.01741
G1 X36.166 Y86.807 E6.04177
G1 X35.606 Y86.503 E6.06615
G1 X34.923 Y85.991 E6.09882
G1 X34.601 Y85.704 E6.11533
G1 X34.153 Y85.251 E6.13971
G1 X33.766 Y84.746 E6.16406
G1 X33.444 Y84.196 E6.18845
G1 X33.264 Y83.796 E6.20524
G1 X33.108 Y83.405 E6.22135
G1 X32.91 Y82.799 E6.24574
G1 X32.789 Y82.174 E6.27011
G1 X32.747 Y81.551 E6.294
G1 X32.733 Y78.89 E6.39584
G1 X32.741 Y78.707 E6.40285
G1 X32.721 Y78.631 E6.40586
G1 X32.638 Y77.999 E6.43025
G1 X32.634 Y77.362 E6.45463
G1 X32.761 Y76.493 E6.48824
G1 X32.78 Y76.412 E6.49143
G1 X32.779 Y60.79 E7.08928
G1 X32.819 Y60.155 E7.11363
G1 X32.938 Y59.529 E7.13801
G1 X33.135 Y58.923 E7.1624
G1 X33.406 Y58.347 E7.18676
G1 X33.747 Y57.809 E7.21114
G1 X33.956 Y57.555 E7.22373
G1 X33.778 Y57.234 E7.23777
G1 X33.632 Y56.894 E7.25193
G1 X33.564 Y56.719 E7.25912
G1 X33.371 Y56.112 E7.28349
G1 X33.255 Y55.486 E7.30786
G1 X33.219 Y54.863 E7.33174
G1 X33.242 Y48.439 E7.57759
G1 X33.284 Y47.803 E7.60198
G1 X33.406 Y47.178 E7.62635
G1 X33.605 Y46.573 E7.65073
G1 X33.878 Y45.998 E7.67509
G1 X34.221 Y45.461 E7.69947
G1 X34.449 Y45.172 E7.71356
G1 X34.646 Y44.94 E7.72521
G1 X35.047 Y44.522 E7.74737
G0 F1944 X35.087 Y44.481
G0 X35.583 Y44.082
G0 F4320 X35.821 Y44.343
G1 F2400 E7.77393
G1 F2160 X36.347 Y44.026 E7.79744
G1 X37.126 Y43.708 E7.82964
G1 X37.331 Y43.645 E7.83784
G1 X37.929 Y43.504 E7.86136
G1 X38.721 Y43.437 E7.89177
G1 X41.295 Y43.438 E7.99028
G1 X41.908 Y43.478 E8.01379
G1 X42.511 Y43.598 E8.03732
G1 X43.112 Y43.802 E8.06161
G1 X43.371 Y43.91 E8.07235
G1 X43.921 Y44.183 E8.09585
G1 X44.038 Y44.261 E8.10123
G1 X44.058 Y44.241 E8.10231
G1 X44.538 Y43.857 E8.12584
G1 X45.063 Y43.538 E8.14935
G1 X45.626 Y43.291 E8.17287
G1 X46.215 Y43.118 E8.19637
G1 X46.822 Y43.024 E8.21987
G1 X47.244 Y43.005 E8.23604
G1 X50.52 Y43.005 E8.36141
G1 X50.573 Y38.295 E8.54168
G1 X50.62 Y37.683 E8.56517
G1 X50.746 Y37.081 E8.5887
G1 X50.949 Y36.501 E8.61222
G1 X51.225 Y35.952 E8.63574
G1 X51.727 Y35.253 E8.66867
G1 X51.987 Y34.953 E8.68386
G1 X52.419 Y34.516 E8.70738
G1 X52.904 Y34.139 E8.73089
G1 X53.434 Y33.827 E8.75443
G1 X53.789 Y33.667 E8.76933
G1 X54.163 Y33.516 E8.78476
G1 X54.747 Y33.323 E8.8083
G1 X55.35 Y33.208 E8.83179
G1 X55.948 Y33.172 E8.85472
G1 X64.258 Y33.2 E9.17275
G1 X64.871 Y33.242 E9.19626
G1 X65.473 Y33.363 E9.21976
G1 X66.055 Y33.562 E9.2433
G1 X66.665 Y33.869 E9.26943
G1 X66.896 Y34.007 E9.27973
G1 X67.402 Y34.355 E9.30323
G1 X67.859 Y34.767 E9.32678
G1 X68.398 Y35.432 E9.35954
G1 X68.642 Y35.796 E9.37631
G1 X68.95 Y36.328 E9.39984
G1 X69.187 Y36.895 E9.42335
G1 X69.348 Y37.488 E9.44687
G1 X69.43 Y38.097 E9.47039
G1 X69.442 Y38.412 E9.48245
G1 X69.457 Y43.004 E9.65819
G1 X72.756 Y43.004 E9.78444
G1 X73.369 Y43.044 E9.80795
G1 X73.972 Y43.163 E9.83147
G1 X74.554 Y43.36 E9.85498
G1 X75.106 Y43.63 E9.8785
G1 X75.618 Y43.97 E9.90202
G1 X75.956 Y44.264 E9.91917
G1 X76.377 Y44.022 E9.93775
G1 X76.833 Y43.826 E9.95675
G1 X77.105 Y43.726 E9.96784
G1 X77.694 Y43.552 E9.99134
G1 X78.301 Y43.456 E10.01486
G1 X78.741 Y43.436 E10.03171
G1 X81.316 Y43.439 E10.13026
G1 X81.929 Y43.48 E10.15377
G1 X82.531 Y43.6 E10.17726
G1 X83.343 Y43.899 E10.21038
G1 X83.601 Y44.022 E10.22132
G1 X84.138 Y44.322 E10.24486
G1 X84.631 Y44.689 E10.26838
G1 X85.072 Y45.117 E10.2919
G1 X85.453 Y45.598 E10.31538
G1 X85.701 Y45.998 E10.33339
G1 X85.84 Y46.249 E10.34437
G1 X86.103 Y46.805 E10.36791
G1 X86.29 Y47.39 E10.39141
G1 X86.401 Y47.994 E10.41492
G1 X86.432 Y48.53 E10.43546
G1 X86.442 Y54.811 E10.67584
G1 X86.403 Y55.425 E10.69938
G1 X86.285 Y56.028 E10.7229
G1 X86.089 Y56.61 E10.7464
G1 X85.88 Y57.053 E10.76514
G1 X85.697 Y57.394 E10.77995
G1 X85.595 Y57.558 E10.78735
G1 X85.612 Y57.574 E10.78824
G1 X85.999 Y58.051 E10.81175
G1 X86.321 Y58.574 E10.83525
G1 X86.573 Y59.135 E10.85879
G1 X86.749 Y59.723 E10.88228
G1 X86.848 Y60.33 E10.90581
G1 X86.87 Y60.784 E10.92321
G1 X86.871 Y76.63 E11.52963
G1 X86.925 Y76.992 E11.54364
G1 X86.976 Y77.605 E11.56718
G1 X86.947 Y78.218 E11.59067
G1 X86.865 Y78.678 E11.60855
G1 X86.909 Y81.432 E11.71396
G1 X86.879 Y82.046 E11.73748
G1 X86.77 Y82.651 E11.76101
G1 X86.551 Y83.315 E11.78777
G1 X86.373 Y83.745 E11.80558
G1 X86.101 Y84.296 E11.82909
G1 X85.761 Y84.808 E11.85261
G1 X85.356 Y85.271 E11.87616
G1 X85.082 Y85.525 E11.89045
G1 X84.774 Y85.789 E11.90598
G1 X84.282 Y86.158 E11.92951
G1 X83.747 Y86.46 E11.95303
G1 X83.197 Y86.683 E11.97574
G1 X82.886 Y86.787 E11.98829
G1 X82.292 Y86.944 E12.0118
G1 X81.683 Y87.022 E12.0353
G1 X81.3 Y87.03 E12.04996
G1 X78.709 Y86.982 E12.14913
G1 X78.336 Y87.073 E12.16383
G1 X77.725 Y87.14 E12.18735
G1 X77.111 Y87.126 E12.21085
G1 X76.374 Y86.995 E12.2395
G1 X43.667 Y86.996 E13.4912
G1 X43.141 Y87.106 E13.51176
G1 X42.528 Y87.152 E13.53529
G1 X41.915 Y87.118 E13.55878
G1 X41.311 Y87.005 E13.5823
G1 X41.276 Y86.993 E13.58371
G1 X38.715 Y87.034 E13.68174
G1 X38.102 Y87.004 E13.70522
G1 X37.205 Y86.812 E13.74033
G1 X36.866 Y86.704 E13.75395
G1 X36.294 Y86.48 E13.77745
G1 X35.755 Y86.183 E13.80101
G1 X35.156 Y85.729 E13.82977
G1 X34.834 Y85.442 E13.84628
G1 X34.403 Y85.004 E13.86979
G1 X34.032 Y84.514 E13.89331
G1 X33.728 Y83.98 E13.91683
G1 X33.589 Y83.666 E13.92997
G1 X33.433 Y83.275 E13.94608
G1 X33.243 Y82.691 E13.96959
G1 X33.131 Y82.087 E13.99309
G1 X33.097 Y81.549 E14.01372
G1 X33.083 Y78.888 E14.11556
G1 X33.092 Y78.664 E14.12414
G1 X33.056 Y78.521 E14.12979
G1 X32.983 Y77.911 E14.1533
G1 X32.99 Y77.296 E14.17683
G1 X33.101 Y76.574 E14.20479
G1 X33.13 Y76.451 E14.20963
G1 X33.129 Y60.79 E14.80897
G1 X33.169 Y60.177 E14.83248
G1 X33.288 Y59.574 E14.856
G1 X33.484 Y58.992 E14.8795
G1 X33.755 Y58.44 E14.90304
G1 X34.094 Y57.928 E14.92654
G1 X34.382 Y57.597 E14.94333
G1 X34.347 Y57.548 E14.94563
G1 X33.958 Y56.767 E14.97902
G1 X33.89 Y56.592 E14.98621
G1 X33.705 Y56.006 E15.00973
G1 X33.598 Y55.401 E15.03324
G1 X33.569 Y54.864 E15.05382
G1 X33.592 Y48.44 E15.29967
G1 X33.634 Y47.827 E15.32318
G1 X33.756 Y47.225 E15.34669
G1 X33.954 Y46.643 E15.37022
G1 X34.226 Y46.092 E15.39373
G1 X34.715 Y45.399 E15.42619
G1 X34.912 Y45.167 E15.43784
G1 X35.285 Y44.782 E15.45835
G0 F1944 X35.34 Y44.725
G0 X35.821 Y44.343
G0 F4320 X36.057 Y44.605
G1 F2400 E15.48491
G1 F2160 X36.568 Y44.307 E15.50755
G1 X37.229 Y44.043 E15.53479
G1 X37.434 Y43.98 E15.543
G1 X38.009 Y43.845 E15.5656
G1 X38.721 Y43.787 E15.59294
G1 X41.295 Y43.788 E15.69145
G1 X41.885 Y43.828 E15.71408
G1 X42.464 Y43.948 E15.73671
G1 X42.977 Y44.125 E15.75748
G1 X43.236 Y44.233 E15.76822
G1 X43.765 Y44.497 E15.79084
G1 X44.084 Y44.714 E15.80561
G1 X44.411 Y44.396 E15.82306
G1 X44.887 Y44.044 E15.84572
G1 X45.405 Y43.76 E15.86833
G1 X45.957 Y43.549 E15.89094
G1 X46.533 Y43.413 E15.91359
G1 X47.244 Y43.355 E15.94089
G1 X50.867 Y43.355 E16.07954
G1 X50.923 Y38.299 E16.27305
G1 X50.97 Y37.71 E16.29566
G1 X51.095 Y37.132 E16.31829
G1 X51.298 Y36.576 E16.34094
G1 X51.573 Y36.053 E16.36356
G1 X51.992 Y35.483 E16.39063
G1 X52.252 Y35.183 E16.40582
G1 X52.668 Y34.763 E16.42845
G1 X53.138 Y34.403 E16.4511
G1 X53.92 Y33.991 E16.48493
G1 X54.294 Y33.84 E16.50037
G1 X54.856 Y33.656 E16.523
G1 X55.438 Y33.55 E16.54564
G1 X55.947 Y33.522 E16.56515
G1 X64.257 Y33.55 E16.88317
G1 X64.847 Y33.592 E16.90581
G1 X65.425 Y33.713 E16.92841
G1 X65.982 Y33.911 E16.95103
G1 X66.486 Y34.169 E16.9727
G1 X66.717 Y34.307 E16.983
G1 X67.203 Y34.644 E17.00563
G1 X67.639 Y35.043 E17.02825
G1 X68.107 Y35.627 E17.05689
G1 X68.351 Y35.991 E17.07366
G1 X68.646 Y36.503 E17.09627
G1 X68.87 Y37.051 E17.11893
G1 X69.018 Y37.623 E17.14154
G1 X69.092 Y38.413 E17.17191
G1 X69.108 Y43.354 E17.361
G1 X72.756 Y43.354 E17.50061
G1 X73.346 Y43.394 E17.52324
G1 X73.925 Y43.513 E17.54586
G1 X74.483 Y43.709 E17.56849
G1 X75.009 Y43.979 E17.59112
G1 X75.494 Y44.317 E17.61374
G1 X75.922 Y44.711 E17.63601
G1 X76.094 Y44.583 E17.64421
G1 X76.612 Y44.297 E17.66686
G1 X76.953 Y44.155 E17.68099
G1 X77.225 Y44.055 E17.69208
G1 X77.793 Y43.889 E17.71473
G1 X78.377 Y43.801 E17.73733
G1 X78.74 Y43.786 E17.75124
G1 X81.315 Y43.789 E17.84978
G1 X81.905 Y43.83 E17.87241
G1 X82.484 Y43.949 E17.89504
G1 X83.193 Y44.215 E17.92402
G1 X83.451 Y44.338 E17.93495
G1 X83.966 Y44.628 E17.95757
G1 X84.438 Y44.985 E17.98022
G1 X84.857 Y45.402 E18.00285
G1 X85.216 Y45.871 E18.02545
G1 X85.395 Y46.167 E18.03869
G1 X85.534 Y46.418 E18.04967
G1 X85.785 Y46.954 E18.07232
G1 X85.962 Y47.518 E18.09494
G1 X86.06 Y48.101 E18.11756
G1 X86.082 Y48.531 E18.13404
G1 X86.092 Y54.812 E18.37442
G1 X86.053 Y55.402 E18.39704
G1 X85.935 Y55.981 E18.41966
G1 X85.74 Y56.539 E18.44228
G1 X85.572 Y56.888 E18.4571
G1 X85.389 Y57.229 E18.47191
G1 X85.148 Y57.613 E18.48926
G1 X85.459 Y57.928 E18.5062
G1 X85.814 Y58.401 E18.52884
G1 X86.102 Y58.917 E18.55145
G1 X86.317 Y59.468 E18.57409
G1 X86.457 Y60.043 E18.59673
G1 X86.52 Y60.784 E18.62519
G1 X86.521 Y76.654 E19.23254
G1 X86.579 Y77.044 E19.24763
G1 X86.627 Y77.633 E19.27024
G1 X86.594 Y78.224 E19.2929
G1 X86.514 Y78.641 E19.30915
G1 X86.559 Y81.438 E19.4162
G1 X86.529 Y82.028 E19.43881
G1 X86.419 Y82.609 E19.46144
G1 X86.227 Y83.181 E19.48453
G1 X86.049 Y83.611 E19.50234
G1 X85.787 Y84.141 E19.52497
G1 X85.455 Y84.631 E19.54762
G1 X84.854 Y85.26 E19.58091
G1 X84.546 Y85.524 E19.59644
G1 X84.072 Y85.877 E19.61905
G1 X83.555 Y86.164 E19.64168
G1 X83.086 Y86.351 E19.66101
G1 X82.775 Y86.455 E19.67356
G1 X82.203 Y86.604 E19.69618
G1 X81.616 Y86.675 E19.7188
G1 X81.306 Y86.68 E19.73067
G1 X78.676 Y86.631 E19.83134
G1 X78.231 Y86.736 E19.84883
G1 X77.643 Y86.792 E19.87144
G1 X77.052 Y86.769 E19.89407
G1 X76.397 Y86.645 E19.91959
G1 X43.634 Y86.646 E21.17342
G1 X43.07 Y86.762 E21.19546
G1 X42.48 Y86.802 E21.21809
G1 X41.89 Y86.762 E21.24072
G1 X41.311 Y86.643 E21.26334
G1 X41.308 Y86.642 E21.26346
G1 X38.71 Y86.684 E21.3629
G1 X38.119 Y86.654 E21.38555
G1 X37.311 Y86.479 E21.41719
G1 X36.972 Y86.371 E21.4308
G1 X36.422 Y86.153 E21.45345
G1 X35.906 Y85.864 E21.47608
G1 X35.389 Y85.468 E21.501
G1 X35.067 Y85.181 E21.51751
G1 X34.653 Y84.759 E21.54013
G1 X34.3 Y84.284 E21.56278
G1 X33.914 Y83.536 E21.595
G1 X33.758 Y83.145 E21.61111
G1 X33.577 Y82.583 E21.6337
G1 X33.473 Y82 E21.65637
G1 X33.447 Y81.547 E21.67373
G1 X33.433 Y78.886 E21.77557
G1 X33.444 Y78.624 E21.7856
G1 X33.392 Y78.413 E21.79392
G1 X33.329 Y77.825 E21.81655
G1 X33.346 Y77.234 E21.83918
G1 X33.442 Y76.654 E21.86168
G1 X33.48 Y76.493 E21.86801
G1 X33.479 Y60.79 E22.46896
G1 X33.519 Y60.2 E22.49159
G1 X33.638 Y59.621 E22.51421
G1 X33.834 Y59.063 E22.53685
G1 X34.104 Y58.537 E22.55947
G1 X34.442 Y58.052 E22.5821
G1 X34.833 Y57.627 E22.6042
G1 X34.61 Y57.306 E22.61916
G1 X34.284 Y56.641 E22.6475
G1 X34.216 Y56.466 E22.65468
G1 X34.04 Y55.901 E22.67733
G1 X33.941 Y55.318 E22.69996
G1 X33.919 Y54.865 E22.71732
G1 X33.942 Y48.441 E22.96317
G1 X33.984 Y47.852 E22.98577
G1 X34.105 Y47.273 E23.0084
G1 X34.303 Y46.716 E23.03103
G1 X34.575 Y46.19 E23.05369
G1 X34.982 Y45.625 E23.08034
G1 X35.179 Y45.393 E23.09198
G1 X35.52 Y45.042 E23.11071
G0 F1944 X35.591 Y44.969
G0 X36.057 Y44.605
G0 F4320 X36.292 Y44.869
G1 F2400 E23.13727
G1 F2160 X36.786 Y44.59 E23.15898
G1 X37.332 Y44.378 E23.1814
G1 X37.537 Y44.315 E23.18961
G1 X38.089 Y44.187 E23.21129
G1 X38.721 Y44.137 E23.23555
G1 X41.295 Y44.138 E23.33406
G1 X41.86 Y44.178 E23.35574
G1 X42.415 Y44.297 E23.37746
G1 X42.842 Y44.448 E23.39479
G1 X43.101 Y44.556 E23.40553
G1 X43.608 Y44.811 E23.42725
G1 X44.074 Y45.134 E23.44895
G1 X44.134 Y45.19 E23.45209
G1 X44.343 Y44.94 E23.46456
G1 X44.764 Y44.56 E23.48626
G1 X45.234 Y44.243 E23.50796
G1 X45.744 Y43.995 E23.52966
G1 X46.284 Y43.821 E23.55138
G1 X46.842 Y43.725 E23.57304
G1 X47.244 Y43.705 E23.58845
G1 X51.213 Y43.705 E23.74034
