;FLAVOR:Marlin
;TIME:3174
;Filament used: 2.47889m
;Layer height: 0.175
;Generated with Cura_SteamEngine 3.6.0
M140 S65
M105
M190 S65
M104 S205
M105
M109 S205
M82 ;absolute extrusion mode
G21;(metric values)
G90;(absolute positioning)
M82;(set extruder to absolute mode)
M107;(start with the fan off)
G28;(Home the printer)
G92 E0;(Reset the extruder to 0)
G0 Z5 E5 F500;(Move up and prime the nozzle)
G0 X-1 Z0;(Move outside the printable area)
G1 Y60 E8 F500;(Draw a priming/wiping line to the rear)
G1 X-1;(Move a little closer to the print area)
G1 Y10 E16 F500;(draw more priming/wiping)
G1 E15 F250;(Small retract)
G92 E0;(Zero the extruder)
G92 E0
G1 F2400 E-2.5
;LAYER_COUNT:200
;LAYER:0
M107
G0 F4320 X50.567 Y42.278 Z0.263
;TYPE:SKIRT
G1 F2400 E0
G1 F1800 X51.031 Y41.842 E0.02437
G1 X51.546 Y41.467 E0.04875
G1 X52.103 Y41.16 E0.07309
G1 X52.695 Y40.925 E0.09746
G1 X53.312 Y40.766 E0.12185
G1 X53.944 Y40.685 E0.14623
G1 X54.268 Y40.675 E0.15864
G1 X62.268 Y40.675 E0.4648
G1 X62.904 Y40.715 E0.48918
G1 X63.529 Y40.834 E0.51353
G1 X64.135 Y41.031 E0.53792
G1 X64.269 Y41.094 E0.54358
G1 X64.695 Y40.925 E0.56112
G1 X65.312 Y40.766 E0.58551
G1 X65.944 Y40.685 E0.60989
G1 X66.268 Y40.675 E0.6223
G1 X74.268 Y40.675 E0.92846
G1 X74.904 Y40.715 E0.95284
G1 X75.529 Y40.834 E0.97719
G1 X76.135 Y41.031 E1.00158
G1 X76.711 Y41.302 E1.02594
G1 X77.249 Y41.643 E1.05032
G1 X77.74 Y42.049 E1.0747
G1 X78.176 Y42.513 E1.09907
G1 X78.551 Y43.028 E1.12345
G1 X78.858 Y43.585 E1.14779
G1 X79.093 Y44.177 E1.17216
G1 X79.252 Y44.794 E1.19655
G1 X79.333 Y45.426 E1.22093
G1 X79.343 Y45.75 E1.23334
G1 X79.343 Y54.75 E1.57777
G1 X79.303 Y55.386 E1.60215
G1 X79.184 Y56.011 E1.6265
G1 X79.109 Y56.241 E1.63576
G1 X79.252 Y56.794 E1.65762
G1 X79.333 Y57.426 E1.682
G1 X79.343 Y57.75 E1.69441
G1 X79.343 Y66.75 E2.03884
G1 X79.303 Y67.386 E2.06323
G1 X79.184 Y68.011 E2.08757
G1 X78.987 Y68.617 E2.11196
G1 X78.716 Y69.193 E2.13632
G1 X78.375 Y69.731 E2.1607
G1 X77.969 Y70.222 E2.18508
G1 X77.505 Y70.658 E2.20945
G1 X76.99 Y71.033 E2.23383
G1 X76.433 Y71.34 E2.25817
G1 X75.841 Y71.575 E2.28254
G1 X75.224 Y71.734 E2.30693
G1 X74.592 Y71.815 E2.33131
G1 X74.268 Y71.825 E2.34372
G1 X71.843 Y71.825 E2.43652
G1 X71.843 Y74.25 E2.52933
G1 X71.803 Y74.886 E2.55371
G1 X71.684 Y75.511 E2.57806
G1 X71.487 Y76.117 E2.60245
G1 X71.216 Y76.693 E2.62681
G1 X70.875 Y77.231 E2.65119
G1 X70.469 Y77.722 E2.67557
G1 X70.005 Y78.158 E2.69994
G1 X69.49 Y78.533 E2.72432
G1 X68.933 Y78.84 E2.74866
G1 X68.341 Y79.075 E2.77303
G1 X67.724 Y79.234 E2.79742
G1 X67.092 Y79.315 E2.8218
G1 X66.768 Y79.325 E2.83421
G1 X57.101 Y79.325 E3.20416
G1 X56.465 Y79.285 E3.22855
G1 X55.84 Y79.166 E3.2529
G1 X55.234 Y78.969 E3.27728
G1 X54.658 Y78.698 E3.30165
G1 X54.12 Y78.357 E3.32602
G1 X53.629 Y77.951 E3.3504
G1 X53.193 Y77.487 E3.37477
G1 X52.818 Y76.972 E3.39915
G1 X52.511 Y76.415 E3.42349
G1 X52.276 Y75.823 E3.44787
G1 X52.117 Y75.206 E3.47225
G1 X52.036 Y74.574 E3.49663
G1 X52.026 Y74.251 E3.509
G1 X52.025 Y71.292 E3.62224
G1 X51.825 Y71.198 E3.6307
G1 X51.287 Y70.857 E3.65508
G1 X50.796 Y70.451 E3.67946
G1 X50.36 Y69.987 E3.70383
G1 X49.985 Y69.472 E3.72821
G1 X49.678 Y68.915 E3.75255
G1 X49.443 Y68.323 E3.77692
G1 X49.284 Y67.706 E3.80131
G1 X49.203 Y67.074 E3.82569
G1 X49.193 Y66.75 E3.8381
G1 X49.193 Y57.75 E4.18252
G1 X49.233 Y57.114 E4.20691
G1 X49.352 Y56.489 E4.23126
G1 X49.427 Y56.259 E4.24052
G1 X49.284 Y55.706 E4.26238
G1 X49.203 Y55.074 E4.28676
G1 X49.193 Y54.75 E4.29917
G1 X49.193 Y45.75 E4.6436
G1 X49.233 Y45.114 E4.66799
G1 X49.352 Y44.489 E4.69233
G1 X49.549 Y43.883 E4.71672
G1 X49.82 Y43.307 E4.74108
G1 X50.131 Y42.817 E4.76329
G0 F1620 X50.161 Y42.769
G0 X50.567 Y42.278
G0 F4320 X50.912 Y42.424
G1 F2400 E4.78985
G1 F1800 X51.372 Y42.017 E4.81336
G1 X51.881 Y41.672 E4.83689
G1 X52.43 Y41.397 E4.86039
G1 X53.011 Y41.195 E4.88393
G1 X53.612 Y41.071 E4.90741
G1 X54.268 Y41.025 E4.93258
G1 X62.268 Y41.025 E5.23874
G1 X62.881 Y41.065 E5.26225
G1 X63.484 Y41.184 E5.28577
G1 X64.066 Y41.381 E5.30928
G1 X64.266 Y41.479 E5.31781
G1 X64.43 Y41.397 E5.32483
G1 X65.011 Y41.195 E5.34837
G1 X65.612 Y41.071 E5.37185
G1 X66.268 Y41.025 E5.39702
G1 X74.268 Y41.025 E5.70318
G1 X74.881 Y41.065 E5.72669
G1 X75.484 Y41.184 E5.75021
G1 X76.066 Y41.381 E5.77372
G1 X76.618 Y41.651 E5.79724
G1 X77.13 Y41.991 E5.82076
G1 X77.594 Y42.394 E5.84428
G1 X78.001 Y42.854 E5.86779
G1 X78.346 Y43.363 E5.89132
G1 X78.621 Y43.912 E5.91482
G1 X78.823 Y44.493 E5.93836
G1 X78.947 Y45.094 E5.96184
G1 X78.993 Y45.75 E5.98701
G1 X78.993 Y54.75 E6.33144
G1 X78.953 Y55.363 E6.35495
G1 X78.834 Y55.966 E6.37847
G1 X78.738 Y56.249 E6.38991
G1 X78.823 Y56.493 E6.39979
G1 X78.947 Y57.094 E6.42328
G1 X78.993 Y57.75 E6.44845
G1 X78.993 Y66.75 E6.79287
G1 X78.953 Y67.363 E6.81638
G1 X78.834 Y67.966 E6.83991
G1 X78.637 Y68.548 E6.86342
G1 X78.367 Y69.1 E6.88694
G1 X78.027 Y69.612 E6.91046
G1 X77.624 Y70.076 E6.93398
G1 X77.164 Y70.483 E6.95748
G1 X76.655 Y70.828 E6.98102
G1 X76.106 Y71.103 E7.00451
G1 X75.525 Y71.305 E7.02806
G1 X74.924 Y71.429 E7.05154
G1 X74.268 Y71.475 E7.07671
G1 X71.493 Y71.475 E7.18291
G1 X71.493 Y74.25 E7.2891
G1 X71.453 Y74.863 E7.31261
G1 X71.334 Y75.466 E7.33614
G1 X71.137 Y76.048 E7.35965
G1 X70.867 Y76.6 E7.38317
G1 X70.527 Y77.112 E7.40669
G1 X70.124 Y77.576 E7.43021
G1 X69.664 Y77.983 E7.45371
G1 X69.155 Y78.328 E7.47725
G1 X68.606 Y78.603 E7.50074
G1 X68.025 Y78.805 E7.52428
G1 X67.424 Y78.929 E7.54777
G1 X66.768 Y78.975 E7.57294
G1 X57.101 Y78.975 E7.94289
G1 X56.488 Y78.935 E7.9664
G1 X55.885 Y78.816 E7.98992
G1 X55.303 Y78.619 E8.01344
G1 X54.751 Y78.349 E8.03695
G1 X54.239 Y78.009 E8.06048
G1 X53.775 Y77.606 E8.084
G1 X53.368 Y77.146 E8.1075
G1 X53.023 Y76.637 E8.13103
G1 X52.748 Y76.088 E8.15453
G1 X52.546 Y75.507 E8.17807
G1 X52.422 Y74.906 E8.20156
G1 X52.376 Y74.251 E8.22669
G1 X52.375 Y71.073 E8.34831
G1 X51.918 Y70.849 E8.36778
G1 X51.406 Y70.509 E8.39131
G1 X50.942 Y70.106 E8.41483
G1 X50.535 Y69.646 E8.43833
G1 X50.19 Y69.137 E8.46186
G1 X49.915 Y68.588 E8.48536
G1 X49.713 Y68.007 E8.5089
G1 X49.589 Y67.406 E8.53239
G1 X49.543 Y66.75 E8.55755
G1 X49.543 Y57.75 E8.90198
G1 X49.583 Y57.137 E8.92549
G1 X49.702 Y56.534 E8.94901
G1 X49.798 Y56.251 E8.96045
G1 X49.713 Y56.007 E8.97034
G1 X49.589 Y55.406 E8.99382
G1 X49.543 Y54.75 E9.01899
G1 X49.543 Y45.75 E9.36342
G1 X49.583 Y45.137 E9.38693
G1 X49.702 Y44.534 E9.41045
G1 X49.899 Y43.952 E9.43397
G1 X50.169 Y43.4 E9.45748
G1 X50.465 Y42.954 E9.47797
G0 F1620 X50.509 Y42.888
G0 X50.912 Y42.424
G0 F4320 X51.256 Y42.577
G1 F2400 E9.50453
G1 F1800 X51.712 Y42.2 E9.52717
G1 X52.214 Y41.887 E9.54981
G1 X52.753 Y41.646 E9.57241
G1 X53.321 Y41.479 E9.59506
G1 X53.905 Y41.39 E9.61767
G1 X54.268 Y41.375 E9.63157
G1 X62.268 Y41.375 E9.93773
G1 X62.858 Y41.415 E9.96037
G1 X63.437 Y41.534 E9.98299
G1 X63.995 Y41.73 E10.00562
G1 X64.26 Y41.866 E10.01702
G1 X64.753 Y41.646 E10.03768
G1 X65.321 Y41.479 E10.06034
G1 X65.905 Y41.39 E10.08295
G1 X66.268 Y41.375 E10.09685
G1 X74.268 Y41.375 E10.40301
G1 X74.858 Y41.415 E10.42564
G1 X75.437 Y41.534 E10.44826
G1 X75.995 Y41.73 E10.47089
G1 X76.521 Y42 E10.49352
G1 X77.006 Y42.338 E10.51615
G1 X77.441 Y42.738 E10.53876
G1 X77.818 Y43.194 E10.5614
G1 X78.131 Y43.696 E10.58404
G1 X78.372 Y44.235 E10.60664
G1 X78.539 Y44.803 E10.6293
G1 X78.628 Y45.387 E10.6519
G1 X78.643 Y45.75 E10.66581
G1 X78.643 Y54.75 E11.01024
G1 X78.603 Y55.34 E11.03287
G1 X78.484 Y55.919 E11.05549
G1 X78.372 Y56.237 E11.06839
G1 X78.539 Y56.803 E11.09098
G1 X78.628 Y57.387 E11.11358
G1 X78.643 Y57.75 E11.12749
G1 X78.643 Y66.75 E11.47192
G1 X78.603 Y67.34 E11.49455
G1 X78.484 Y67.919 E11.51717
G1 X78.288 Y68.477 E11.5398
G1 X78.018 Y69.003 E11.56243
G1 X77.68 Y69.488 E11.58505
G1 X77.28 Y69.923 E11.60767
G1 X76.824 Y70.3 E11.63031
G1 X76.322 Y70.613 E11.65295
G1 X75.783 Y70.854 E11.67555
G1 X75.215 Y71.021 E11.69821
G1 X74.631 Y71.11 E11.72081
G1 X74.268 Y71.125 E11.73472
G1 X71.143 Y71.125 E11.85431
G1 X71.143 Y74.25 E11.97391
G1 X71.103 Y74.84 E11.99654
G1 X70.984 Y75.419 E12.01916
G1 X70.788 Y75.977 E12.04179
G1 X70.518 Y76.503 E12.06442
G1 X70.18 Y76.988 E12.08704
G1 X69.78 Y77.423 E12.10966
G1 X69.324 Y77.8 E12.1323
G1 X68.822 Y78.113 E12.15494
G1 X68.283 Y78.354 E12.17754
G1 X67.715 Y78.521 E12.20019
G1 X67.131 Y78.61 E12.2228
G1 X66.768 Y78.625 E12.23671
G1 X57.101 Y78.625 E12.60666
G1 X56.511 Y78.585 E12.62929
G1 X55.932 Y78.466 E12.65191
G1 X55.374 Y78.27 E12.67455
G1 X54.848 Y78 E12.69717
G1 X54.363 Y77.662 E12.7198
G1 X53.928 Y77.262 E12.74241
G1 X53.551 Y76.806 E12.76506
G1 X53.238 Y76.304 E12.7877
G1 X52.997 Y75.765 E12.81029
G1 X52.83 Y75.197 E12.83295
G1 X52.741 Y74.613 E12.85556
G1 X52.726 Y74.251 E12.86942
G1 X52.725 Y70.835 E13.00015
G1 X52.541 Y70.77 E13.00762
G1 X52.015 Y70.5 E13.03025
G1 X51.53 Y70.162 E13.05287
G1 X51.095 Y69.762 E13.07549
G1 X50.718 Y69.306 E13.09813
G1 X50.405 Y68.804 E13.12077
G1 X50.164 Y68.265 E13.14337
G1 X49.997 Y67.697 E13.16602
G1 X49.908 Y67.113 E13.18863
G1 X49.893 Y66.75 E13.20253
G1 X49.893 Y57.75 E13.54696
G1 X49.933 Y57.16 E13.56959
G1 X50.052 Y56.581 E13.59222
G1 X50.164 Y56.263 E13.60512
G1 X49.997 Y55.697 E13.6277
G1 X49.908 Y55.113 E13.65031
G1 X49.893 Y54.75 E13.66421
G1 X49.893 Y45.75 E14.00864
G1 X49.933 Y45.16 E14.03128
G1 X50.052 Y44.581 E14.0539
G1 X50.248 Y44.023 E14.07653
G1 X50.518 Y43.497 E14.09916
G1 X50.797 Y43.097 E14.11782
G0 F1620 X50.856 Y43.012
G0 X51.256 Y42.577
G0 F4320 X51.203 Y43.142
G1 F2400 E14.14438
G1 F1800 X51.6 Y42.737 E14.16608
G1 X52.05 Y42.391 E14.18781
G1 X52.544 Y42.113 E14.2095
G1 X53.072 Y41.907 E14.23119
G1 X53.624 Y41.777 E14.25289
G1 X54.268 Y41.725 E14.27762
G1 X62.268 Y41.725 E14.58378
G1 X62.834 Y41.765 E14.60549
G1 X63.388 Y41.884 E14.62718
G1 X63.92 Y42.08 E14.64888
G1 X64.27 Y42.267 E14.66406
G1 X64.544 Y42.113 E14.67609
G1 X65.072 Y41.907 E14.69778
G1 X65.624 Y41.777 E14.71949
G1 X66.268 Y41.725 E14.74421
G1 X74.268 Y41.725 E15.05037
G1 X74.834 Y41.765 E15.07209
G1 X75.388 Y41.884 E15.09377
G1 X75.92 Y42.08 E15.11547
G1 X76.42 Y42.348 E15.13718
G1 X76.876 Y42.685 E15.15888
G1 X77.281 Y43.082 E15.18058
G1 X77.627 Y43.532 E15.20231
G1 X77.905 Y44.026 E15.224
G1 X78.111 Y44.554 E15.24569
G1 X78.241 Y45.106 E15.26739
G1 X78.293 Y45.75 E15.29212
G1 X78.293 Y54.75 E15.63655
G1 X78.253 Y55.316 E15.65826
G1 X78.134 Y55.87 E15.67995
G1 X77.993 Y56.252 E15.69553
G1 X78.111 Y56.554 E15.70794
G1 X78.241 Y57.106 E15.72964
G1 X78.293 Y57.75 E15.75437
G1 X78.293 Y66.75 E16.0988
G1 X78.253 Y67.316 E16.12051
G1 X78.134 Y67.87 E16.1422
G1 X77.938 Y68.402 E16.1639
G1 X77.67 Y68.902 E16.18561
G1 X77.333 Y69.358 E16.2073
G1 X76.936 Y69.763 E16.22901
G1 X76.486 Y70.109 E16.25073
G1 X75.992 Y70.387 E16.27243
G1 X75.464 Y70.593 E16.29412
G1 X74.912 Y70.723 E16.31582
G1 X74.268 Y70.775 E16.34054
G1 X70.793 Y70.775 E16.47353
G1 X70.793 Y74.25 E16.60652
G1 X70.753 Y74.816 E16.62824
G1 X70.634 Y75.37 E16.64992
G1 X70.438 Y75.902 E16.67162
G1 X70.17 Y76.402 E16.69333
G1 X69.833 Y76.858 E16.71503
G1 X69.436 Y77.263 E16.73673
G1 X68.986 Y77.609 E16.75846
G1 X68.492 Y77.887 E16.78015
G1 X67.964 Y78.093 E16.80184
G1 X67.412 Y78.223 E16.82354
G1 X66.768 Y78.275 E16.84827
G1 X57.101 Y78.275 E17.21822
G1 X56.535 Y78.235 E17.23994
G1 X55.981 Y78.116 E17.26162
G1 X55.449 Y77.92 E17.28332
G1 X54.949 Y77.652 E17.30503
G1 X54.493 Y77.315 E17.32673
G1 X54.088 Y76.918 E17.34843
G1 X53.742 Y76.468 E17.37016
G1 X53.464 Y75.974 E17.39185
G1 X53.258 Y75.446 E17.41354
G1 X53.128 Y74.894 E17.43524
G1 X53.076 Y74.251 E17.45993
G1 X53.075 Y70.589 E17.60008
G1 X52.616 Y70.42 E17.6188
G1 X52.116 Y70.152 E17.64051
G1 X51.66 Y69.815 E17.66221
G1 X51.255 Y69.418 E17.68391
G1 X50.909 Y68.968 E17.70563
G1 X50.631 Y68.474 E17.72733
G1 X50.425 Y67.946 E17.74902
G1 X50.295 Y67.394 E17.77072
G1 X50.243 Y66.75 E17.79545
G1 X50.243 Y57.75 E18.13988
G1 X50.283 Y57.184 E18.16159
G1 X50.402 Y56.63 E18.18328
G1 X50.543 Y56.248 E18.19886
G1 X50.425 Y55.946 E18.21127
G1 X50.295 Y55.394 E18.23297
G1 X50.243 Y54.75 E18.2577
G1 X50.243 Y45.75 E18.60213
G1 X50.283 Y45.184 E18.62384
G1 X50.402 Y44.63 E18.64553
G1 X50.598 Y44.098 E18.66722
G1 X50.806 Y43.709 E18.6841
G0 F1620 X50.866 Y43.598
G0 X51.203 Y43.142
G0 F4320 X51.549 Y43.278
G1 F2400 E18.71066
G1 F1800 X51.942 Y42.905 E18.7314
G1 X52.386 Y42.594 E18.75214
G1 X52.87 Y42.351 E18.77287
G1 X53.385 Y42.183 E18.7936
G1 X53.919 Y42.092 E18.81433
G1 X54.268 Y42.075 E18.82771
G1 X62.268 Y42.075 E19.13386
G1 X62.808 Y42.115 E19.15459
G1 X63.337 Y42.234 E19.17534
G1 X63.842 Y42.429 E19.19605
G1 X64.273 Y42.673 E19.21501
G1 X64.386 Y42.594 E19.22029
G1 X64.87 Y42.351 E19.24101
G1 X65.385 Y42.183 E19.26174
G1 X65.919 Y42.092 E19.28247
G1 X66.268 Y42.075 E19.29585
G1 X74.268 Y42.075 E19.60201
G1 X74.808 Y42.115 E19.62273
G1 X75.337 Y42.234 E19.64348
G1 X75.842 Y42.429 E19.6642
G1 X76.314 Y42.697 E19.68497
G1 X76.74 Y43.031 E19.70568
G1 X77.113 Y43.424 E19.72642
G1 X77.424 Y43.868 E19.74717
G1 X77.667 Y44.352 E19.76789
G1 X77.835 Y44.867 E19.78862
G1 X77.926 Y45.401 E19.80935
G1 X77.943 Y45.75 E19.82273
G1 X77.943 Y54.75 E20.16715
G1 X77.903 Y55.29 E20.18788
G1 X77.784 Y55.819 E20.20863
G1 X77.617 Y56.252 E20.22639
G1 X77.667 Y56.352 E20.23067
G1 X77.835 Y56.867 E20.2514
G1 X77.926 Y57.401 E20.27213
G1 X77.943 Y57.75 E20.2855
G1 X77.943 Y66.75 E20.62993
G1 X77.903 Y67.29 E20.65065
G1 X77.784 Y67.819 E20.6714
G1 X77.589 Y68.324 E20.69212
G1 X77.321 Y68.796 E20.71289
G1 X76.987 Y69.222 E20.73361
G1 X76.594 Y69.595 E20.75435
G1 X76.15 Y69.906 E20.77509
G1 X75.666 Y70.149 E20.79582
G1 X75.151 Y70.317 E20.81655
G1 X74.617 Y70.408 E20.83728
G1 X74.268 Y70.425 E20.85065
G1 X70.443 Y70.425 E20.99703
G1 X70.443 Y74.25 E21.14342
G1 X70.403 Y74.79 E21.16414
G1 X70.284 Y75.319 E21.18489
G1 X70.089 Y75.824 E21.20561
G1 X69.821 Y76.296 E21.22638
G1 X69.487 Y76.722 E21.24709
G1 X69.094 Y77.095 E21.26783
G1 X68.65 Y77.406 E21.28858
G1 X68.166 Y77.649 E21.3093
G1 X67.651 Y77.817 E21.33003
G1 X67.117 Y77.908 E21.35076
G1 X66.768 Y77.925 E21.36414
G1 X57.101 Y77.925 E21.73409
G1 X56.561 Y77.885 E21.75481
G1 X56.032 Y77.766 E21.77556
G1 X55.527 Y77.571 E21.79628
G1 X55.055 Y77.303 E21.81705
G1 X54.629 Y76.969 E21.83777
G1 X54.256 Y76.576 E21.85851
G1 X53.945 Y76.132 E21.87925
G1 X53.702 Y75.648 E21.89998
G1 X53.534 Y75.133 E21.92071
G1 X53.443 Y74.599 E21.94144
G1 X53.426 Y74.251 E21.95477
G1 X53.425 Y70.317 E22.10533
G1 X53.199 Y70.266 E22.11419
G1 X52.694 Y70.071 E22.13491
G1 X52.222 Y69.803 E22.15568
G1 X51.796 Y69.469 E22.1764
G1 X51.423 Y69.076 E22.19714
G1 X51.112 Y68.632 E22.21788
G1 X50.869 Y68.148 E22.23861
G1 X50.701 Y67.633 E22.25934
G1 X50.61 Y67.099 E22.28007
G1 X50.593 Y66.75 E22.29344
G1 X50.593 Y57.75 E22.63787
G1 X50.633 Y57.21 E22.65859
G1 X50.752 Y56.681 E22.67934
G1 X50.919 Y56.248 E22.6971
G1 X50.869 Y56.148 E22.70138
G1 X50.701 Y55.633 E22.72211
G1 X50.61 Y55.099 E22.74284
G1 X50.593 Y54.75 E22.75622
G1 X50.593 Y45.75 E23.10065
G1 X50.633 Y45.21 E23.12137
G1 X50.752 Y44.681 E23.14212
G1 X50.947 Y44.176 E23.16284
G1 X51.14 Y43.837 E23.17777
G0 F1620 X51.215 Y43.704
G0 X51.549 Y43.278
G0 F4320 X51.894 Y43.422
G1 F2400 E23.20432
G1 F1800 X52.283 Y43.083 E23.22407
G1 X52.719 Y42.808 E23.2438
G1 X53.192 Y42.604 E23.26351
G1 X53.691 Y42.475 E23.28324
G1 X54.268 Y42.425 E23.3054
G1 X62.268 Y42.425 E23.61156
G1 X62.782 Y42.465 E23.63129
G1 X63.283 Y42.584 E23.651
G1 X63.76 Y42.779 E23.67072
G1 X64.202 Y43.045 E23.69046
G1 X64.265 Y43.098 E23.69361
G1 X64.283 Y43.083 E23.69451
G1 X64.719 Y42.808 E23.71424
G1 X65.192 Y42.604 E23.73395
G1 X65.691 Y42.475 E23.75367
G1 X66.268 Y42.425 E23.77584
G1 X74.268 Y42.425 E24.082
G1 X74.782 Y42.465 E24.10173
G1 X75.283 Y42.584 E24.12143
G1 X75.76 Y42.779 E24.14116
G1 X76.202 Y43.045 E24.1609
G1 X76.596 Y43.376 E24.18059
G1 X76.935 Y43.765 E24.20034
G1 X77.21 Y44.201 E24.22007
G1 X77.414 Y44.674 E24.23978
G1 X77.543 Y45.173 E24.2595
G1 X77.593 Y45.75 E24.28167
G1 X77.593 Y54.75 E24.6261
G1 X77.553 Y55.264 E24.64583
G1 X77.434 Y55.765 E24.66553
G1 X77.239 Y56.242 E24.68526
G1 X77.232 Y56.253 E24.68575
