;FLAVOR:Marlin
;TIME:782
;Filament used: 0.90833m
;Layer height: 0.35
;Generated with Cura_SteamEngine 3.6.0
M140 S65
M105
M190 S65
M104 S205
M105
M109 S205
M82 ;absolute extrusion mode
G21;(metric values)
G90;(absolute positioning)
M82;(set extruder to absolute mode)
M107;(start with the fan off)
G28;(Home the printer)
G92 E0;(Reset the extruder to 0)
G0 Z5 E5 F500;(Move up and prime the nozzle)
G0 X-1 Z0;(Move outside the printable area)
G1 Y60 E8 F500;(Draw a priming/wiping line to the rear)
G1 X-1;(Move a little closer to the print area)
G1 Y10 E16 F500;(draw more priming/wiping)
G1 E15 F250;(Small retract)
G92 E0;(Zero the extruder)
G92 E0
G1 F2400 E-2.5
;LAYER_COUNT:29
;LAYER:0
M107
G0 F4320 X41.139 Y47.49 Z0.35
;TYPE:SKIRT
G1 F2400 E0
G1 F1800 X41.666 Y47.132 E0.03245
G1 X42.233 Y46.843 E0.06486
G1 X42.832 Y46.627 E0.09729
G1 X43.454 Y46.488 E0.12975
G1 X44.25 Y46.425 E0.17041
G1 X50.75 Y46.425 E0.50146
G1 X51.386 Y46.465 E0.53391
G1 X52.011 Y46.584 E0.56632
G1 X52.617 Y46.781 E0.59877
G1 X53.193 Y47.052 E0.63119
G1 X53.731 Y47.393 E0.66363
G1 X54.222 Y47.799 E0.69608
G1 X54.489 Y48.083 E0.71593
G1 X54.661 Y47.911 E0.72832
G1 X55.139 Y47.49 E0.76076
G1 X55.666 Y47.132 E0.79321
G1 X56.233 Y46.843 E0.82562
G1 X56.832 Y46.627 E0.85805
G1 X57.454 Y46.488 E0.89051
G1 X58.25 Y46.425 E0.93117
G1 X64.75 Y46.425 E1.26222
G1 X65.386 Y46.465 E1.29467
G1 X66.011 Y46.584 E1.32707
G1 X66.617 Y46.781 E1.35953
G1 X67.193 Y47.052 E1.39195
G1 X67.731 Y47.393 E1.42439
G1 X68.222 Y47.799 E1.45683
G1 X68.489 Y48.083 E1.47669
G1 X68.661 Y47.911 E1.48908
G1 X69.139 Y47.49 E1.52152
G1 X69.666 Y47.132 E1.55396
G1 X70.233 Y46.843 E1.58637
G1 X70.832 Y46.627 E1.6188
G1 X71.454 Y46.488 E1.65126
G1 X72.25 Y46.425 E1.69193
G1 X78.75 Y46.425 E2.02297
G1 X79.386 Y46.465 E2.05543
G1 X80.011 Y46.584 E2.08783
G1 X80.617 Y46.781 E2.12028
G1 X81.193 Y47.052 E2.1527
G1 X81.731 Y47.393 E2.18514
G1 X82.222 Y47.799 E2.21759
G1 X82.658 Y48.263 E2.25002
G1 X83.033 Y48.778 E2.28247
G1 X83.34 Y49.335 E2.31486
G1 X83.575 Y49.927 E2.3473
G1 X83.734 Y50.544 E2.37975
G1 X83.815 Y51.176 E2.4122
G1 X83.825 Y51.5 E2.42871
G1 X83.825 Y53 E2.5051
G1 X83.785 Y53.636 E2.53756
G1 X83.666 Y54.261 E2.56996
G1 X83.469 Y54.867 E2.60241
G1 X83.198 Y55.443 E2.63483
G1 X82.857 Y55.981 E2.66727
G1 X82.339 Y56.589 E2.70795
G1 X81.339 Y57.589 E2.77998
G1 X80.861 Y58.01 E2.81242
G1 X80.334 Y58.368 E2.84486
G1 X79.767 Y58.657 E2.87728
G1 X79.168 Y58.873 E2.90971
G1 X78.546 Y59.012 E2.94216
G1 X77.844 Y59.068 E2.97803
G1 X77.849 Y60.931 E3.07291
G1 X78.386 Y60.965 E3.10032
G1 X79.011 Y61.084 E3.13272
G1 X79.617 Y61.281 E3.16517
G1 X80.193 Y61.552 E3.19759
G1 X80.731 Y61.893 E3.23003
G1 X81.339 Y62.411 E3.27071
G1 X82.339 Y63.411 E3.34274
G1 X82.76 Y63.889 E3.37518
G1 X83.118 Y64.416 E3.40763
G1 X83.407 Y64.983 E3.44004
G1 X83.623 Y65.582 E3.47247
G1 X83.762 Y66.204 E3.50493
G1 X83.825 Y67 E3.54559
G1 X83.825 Y68.5 E3.62199
G1 X83.785 Y69.136 E3.65444
G1 X83.666 Y69.761 E3.68685
G1 X83.469 Y70.367 E3.7193
G1 X83.198 Y70.943 E3.75172
G1 X82.857 Y71.481 E3.78416
G1 X82.451 Y71.972 E3.81661
G1 X81.987 Y72.408 E3.84903
G1 X81.472 Y72.783 E3.88148
G1 X80.915 Y73.09 E3.91387
G1 X80.323 Y73.325 E3.94631
G1 X79.706 Y73.484 E3.97876
G1 X79.074 Y73.565 E4.01121
G1 X78.75 Y73.575 E4.02772
G1 X72.25 Y73.575 E4.35876
G1 X71.614 Y73.535 E4.39122
G1 X70.989 Y73.416 E4.42362
G1 X70.383 Y73.219 E4.45607
G1 X69.807 Y72.948 E4.48849
G1 X69.269 Y72.607 E4.52093
G1 X68.661 Y72.089 E4.56161
G1 X68.493 Y71.921 E4.57371
G1 X68.451 Y71.972 E4.57708
G1 X67.987 Y72.408 E4.60951
G1 X67.472 Y72.783 E4.64195
G1 X66.915 Y73.09 E4.67434
G1 X66.323 Y73.325 E4.70678
G1 X65.706 Y73.484 E4.73923
G1 X65.074 Y73.565 E4.77168
G1 X64.75 Y73.575 E4.78819
G1 X58.25 Y73.575 E5.11923
G1 X57.614 Y73.535 E5.15169
G1 X56.989 Y73.416 E5.18409
G1 X56.383 Y73.219 E5.21655
G1 X55.807 Y72.948 E5.24897
G1 X55.269 Y72.607 E5.28141
G1 X54.661 Y72.089 E5.32209
G1 X54.493 Y71.921 E5.33419
G1 X54.451 Y71.972 E5.33755
G1 X53.987 Y72.408 E5.36998
G1 X53.472 Y72.783 E5.40242
G1 X52.915 Y73.09 E5.43481
G1 X52.323 Y73.325 E5.46725
G1 X51.706 Y73.484 E5.4997
G1 X51.074 Y73.565 E5.53215
G1 X50.75 Y73.575 E5.54866
G1 X44.25 Y73.575 E5.87971
G1 X43.614 Y73.535 E5.91216
G1 X42.989 Y73.416 E5.94456
G1 X42.383 Y73.219 E5.97702
G1 X41.807 Y72.948 E6.00944
G1 X41.269 Y72.607 E6.04188
G1 X40.661 Y72.089 E6.08256
G1 X37.661 Y69.089 E6.29863
G1 X37.24 Y68.611 E6.33107
G1 X36.882 Y68.084 E6.36352
G1 X36.593 Y67.517 E6.39593
G1 X36.377 Y66.918 E6.42836
G1 X36.238 Y66.296 E6.46082
G1 X36.175 Y65.5 E6.50149
G1 X36.175 Y54.5 E7.06171
G1 X36.215 Y53.864 E7.09417
G1 X36.334 Y53.239 E7.12657
G1 X36.531 Y52.633 E7.15902
G1 X36.802 Y52.057 E7.19144
G1 X37.143 Y51.519 E7.22388
G1 X37.661 Y50.911 E7.26456
G1 X40.661 Y47.911 E7.48064
G1 X40.749 Y47.834 E7.4866
G0 F1620 X41.139 Y47.49
G0 F4320 X41.371 Y47.754
G1 F2400 E7.51308
G1 F1800 X41.881 Y47.412 E7.54435
G1 X42.432 Y47.139 E7.57567
G1 X43.013 Y46.94 E7.60695
G1 X43.616 Y46.818 E7.63828
G1 X44.25 Y46.775 E7.67064
G1 X50.75 Y46.775 E8.00169
G1 X51.363 Y46.815 E8.03297
G1 X51.966 Y46.934 E8.06428
G1 X52.548 Y47.131 E8.09557
G1 X53.1 Y47.401 E8.12686
G1 X53.612 Y47.741 E8.15817
G1 X54.076 Y48.144 E8.18947
G1 X54.474 Y48.594 E8.22006
G1 X54.909 Y48.159 E8.25139
G1 X55.371 Y47.754 E8.28268
G1 X55.881 Y47.412 E8.31396
G1 X56.432 Y47.139 E8.34528
G1 X57.013 Y46.94 E8.37655
G1 X57.616 Y46.818 E8.40789
G1 X58.25 Y46.775 E8.44025
G1 X64.75 Y46.775 E8.77129
G1 X65.363 Y46.815 E8.80258
G1 X65.966 Y46.934 E8.83388
G1 X66.548 Y47.131 E8.86517
G1 X67.1 Y47.401 E8.89647
G1 X67.612 Y47.741 E8.92777
G1 X68.076 Y48.144 E8.95907
G1 X68.474 Y48.594 E8.98967
G1 X68.909 Y48.159 E9.021
G1 X69.371 Y47.754 E9.05229
G1 X69.881 Y47.412 E9.08356
G1 X70.432 Y47.139 E9.11488
G1 X71.013 Y46.94 E9.14616
G1 X71.616 Y46.818 E9.17749
G1 X72.25 Y46.775 E9.20985
G1 X78.75 Y46.775 E9.5409
G1 X79.363 Y46.815 E9.57218
G1 X79.966 Y46.934 E9.60349
G1 X80.548 Y47.131 E9.63478
G1 X81.1 Y47.401 E9.66607
G1 X81.612 Y47.741 E9.69738
G1 X82.076 Y48.144 E9.72868
G1 X82.483 Y48.604 E9.75996
G1 X82.828 Y49.113 E9.79127
G1 X83.103 Y49.662 E9.82255
G1 X83.305 Y50.243 E9.85387
G1 X83.429 Y50.844 E9.88513
G1 X83.475 Y51.5 E9.91862
G1 X83.475 Y53 E9.99501
G1 X83.435 Y53.613 E10.0263
G1 X83.316 Y54.216 E10.0576
G1 X83.119 Y54.798 E10.0889
G1 X82.849 Y55.35 E10.12019
G1 X82.509 Y55.862 E10.15149
G1 X82.091 Y56.341 E10.18387
G1 X81.091 Y57.341 E10.2559
G1 X80.629 Y57.746 E10.28719
G1 X80.119 Y58.088 E10.31846
G1 X79.568 Y58.361 E10.34978
G1 X78.987 Y58.56 E10.38106
G1 X78.384 Y58.682 E10.41239
G1 X77.75 Y58.725 E10.44475
G1 X77.493 Y58.725 E10.45784
G1 X77.5 Y61.275 E10.58771
G1 X77.75 Y61.275 E10.60044
G1 X78.363 Y61.315 E10.63173
G1 X78.966 Y61.434 E10.66303
G1 X79.548 Y61.631 E10.69433
G1 X80.1 Y61.901 E10.72562
G1 X80.612 Y62.241 E10.75692
G1 X81.091 Y62.659 E10.7893
G1 X82.091 Y63.659 E10.86133
G1 X82.496 Y64.121 E10.89262
G1 X82.838 Y64.631 E10.92389
G1 X83.111 Y65.182 E10.95521
G1 X83.31 Y65.763 E10.98649
G1 X83.432 Y66.366 E11.01782
G1 X83.475 Y67 E11.05018
G1 X83.475 Y68.5 E11.12658
G1 X83.435 Y69.113 E11.15786
G1 X83.316 Y69.716 E11.18917
G1 X83.119 Y70.298 E11.22046
G1 X82.849 Y70.85 E11.25176
G1 X82.509 Y71.362 E11.28306
G1 X82.106 Y71.826 E11.31436
G1 X81.646 Y72.233 E11.34564
G1 X81.137 Y72.578 E11.37696
G1 X80.588 Y72.853 E11.40823
G1 X80.007 Y73.055 E11.43956
G1 X79.406 Y73.179 E11.47081
G1 X78.75 Y73.225 E11.5043
G1 X72.25 Y73.225 E11.83534
G1 X71.637 Y73.185 E11.86663
G1 X71.034 Y73.066 E11.89793
G1 X70.452 Y72.869 E11.92923
G1 X69.9 Y72.599 E11.96052
G1 X69.388 Y72.259 E11.99182
G1 X68.909 Y71.841 E12.0242
G1 X68.472 Y71.404 E12.05568
G1 X68.106 Y71.826 E12.08413
G1 X67.646 Y72.233 E12.11541
G1 X67.137 Y72.578 E12.14672
G1 X66.588 Y72.853 E12.178
G1 X66.007 Y73.055 E12.20932
G1 X65.406 Y73.179 E12.24058
G1 X64.75 Y73.225 E12.27407
G1 X58.25 Y73.225 E12.60511
G1 X57.637 Y73.185 E12.6364
G1 X57.034 Y73.066 E12.6677
G1 X56.452 Y72.869 E12.69899
G1 X55.9 Y72.599 E12.73029
G1 X55.388 Y72.259 E12.76159
G1 X54.909 Y71.841 E12.79397
G1 X54.472 Y71.404 E12.82544
G1 X54.106 Y71.826 E12.85389
G1 X53.646 Y72.233 E12.88517
G1 X53.137 Y72.578 E12.91649
G1 X52.588 Y72.853 E12.94776
G1 X52.007 Y73.055 E12.97909
G1 X51.406 Y73.179 E13.01034
G1 X50.75 Y73.225 E13.04384
G1 X44.25 Y73.225 E13.37488
G1 X43.637 Y73.185 E13.40616
G1 X43.034 Y73.066 E13.43747
G1 X42.452 Y72.869 E13.46876
G1 X41.9 Y72.599 E13.50006
G1 X41.388 Y72.259 E13.53136
G1 X40.909 Y71.841 E13.56374
G1 X37.909 Y68.841 E13.77981
G1 X37.504 Y68.379 E13.8111
G1 X37.162 Y67.869 E13.84238
G1 X36.889 Y67.318 E13.87369
G1 X36.69 Y66.737 E13.90497
G1 X36.568 Y66.134 E13.9363
G1 X36.525 Y65.5 E13.96867
G1 X36.525 Y54.5 E14.52889
G1 X36.565 Y53.887 E14.56018
G1 X36.684 Y53.284 E14.59148
G1 X36.881 Y52.702 E14.62277
G1 X37.151 Y52.15 E14.65407
G1 X37.491 Y51.638 E14.68537
G1 X37.909 Y51.159 E14.71775
G1 X40.909 Y48.159 E14.93383
G1 X40.98 Y48.096 E14.93866
G0 F1620 X41.371 Y47.754
G0 F4320 X41.602 Y48.018
G1 F2400 E14.96514
G1 F1800 X42.096 Y47.692 E14.99529
G1 X42.629 Y47.437 E15.02538
G1 X43.191 Y47.255 E15.05547
G1 X43.773 Y47.151 E15.08558
G1 X44.25 Y47.125 E15.10991
G1 X50.75 Y47.125 E15.44095
G1 X51.34 Y47.165 E15.47107
G1 X51.919 Y47.284 E15.50117
G1 X52.477 Y47.48 E15.53129
G1 X53.003 Y47.75 E15.5614
G1 X53.488 Y48.088 E15.59151
G1 X53.923 Y48.488 E15.62161
G1 X54.3 Y48.944 E15.65174
G1 X54.422 Y49.14 E15.6635
G1 X55.156 Y48.406 E15.71637
G1 X55.602 Y48.018 E15.74647
G1 X56.096 Y47.692 E15.77662
G1 X56.629 Y47.437 E15.80671
G1 X57.191 Y47.255 E15.83679
G1 X57.773 Y47.151 E15.8669
G1 X58.25 Y47.125 E15.89123
G1 X64.75 Y47.125 E16.22228
G1 X65.34 Y47.165 E16.25239
G1 X65.919 Y47.284 E16.2825
G1 X66.477 Y47.48 E16.31262
G1 X67.003 Y47.75 E16.34273
G1 X67.488 Y48.088 E16.37284
G1 X67.923 Y48.488 E16.40294
G1 X68.3 Y48.944 E16.43307
G1 X68.422 Y49.14 E16.44483
G1 X69.156 Y48.406 E16.49769
G1 X69.602 Y48.018 E16.5278
G1 X70.096 Y47.692 E16.55794
G1 X70.629 Y47.437 E16.58804
G1 X71.191 Y47.255 E16.61812
G1 X71.773 Y47.151 E16.64823
G1 X72.25 Y47.125 E16.67256
G1 X78.75 Y47.125 E17.00361
G1 X79.34 Y47.165 E17.03372
G1 X79.919 Y47.284 E17.06383
G1 X80.477 Y47.48 E17.09395
G1 X81.003 Y47.75 E17.12406
G1 X81.488 Y48.088 E17.15417
G1 X81.923 Y48.488 E17.18426
G1 X82.3 Y48.944 E17.2144
G1 X82.613 Y49.446 E17.24453
G1 X82.854 Y49.985 E17.2746
G1 X83.021 Y50.553 E17.30475
G1 X83.11 Y51.137 E17.33484
G1 X83.125 Y51.5 E17.35334
G1 X83.125 Y53 E17.42973
G1 X83.085 Y53.59 E17.45985
G1 X82.966 Y54.169 E17.48996
G1 X82.77 Y54.727 E17.52008
G1 X82.5 Y55.253 E17.55019
G1 X82.162 Y55.738 E17.5803
G1 X81.844 Y56.094 E17.60461
G1 X80.844 Y57.094 E17.67663
G1 X80.398 Y57.482 E17.70674
G1 X79.904 Y57.808 E17.73688
G1 X79.371 Y58.063 E17.76698
G1 X78.809 Y58.245 E17.79706
G1 X78.227 Y58.349 E17.82717
G1 X77.75 Y58.375 E17.8515
G1 X77.25 Y58.375 E17.87697
G1 X77.142 Y58.368 E17.88248
G1 X77.152 Y61.629 E18.04856
G1 X77.25 Y61.625 E18.05356
G1 X77.75 Y61.625 E18.07902
G1 X78.34 Y61.665 E18.10914
G1 X78.919 Y61.784 E18.13924
G1 X79.477 Y61.98 E18.16936
G1 X80.003 Y62.25 E18.19947
G1 X80.488 Y62.588 E18.22958
G1 X80.844 Y62.906 E18.25389
G1 X81.844 Y63.906 E18.32592
G1 X82.232 Y64.352 E18.35603
G1 X82.558 Y64.846 E18.38617
G1 X82.813 Y65.379 E18.41626
G1 X82.995 Y65.941 E18.44635
G1 X83.099 Y66.523 E18.47646
G1 X83.125 Y67 E18.50079
G1 X83.125 Y68.5 E18.57718
G1 X83.085 Y69.09 E18.6073
G1 X82.966 Y69.669 E18.6374
G1 X82.77 Y70.227 E18.66753
G1 X82.5 Y70.753 E18.69764
G1 X82.162 Y71.238 E18.72774
G1 X81.762 Y71.673 E18.75784
G1 X81.306 Y72.05 E18.78797
G1 X80.804 Y72.363 E18.8181
G1 X80.265 Y72.604 E18.84817
G1 X79.697 Y72.771 E18.87833
G1 X79.113 Y72.86 E18.90841
G1 X78.75 Y72.875 E18.92692
G1 X72.25 Y72.875 E19.25796
G1 X71.66 Y72.835 E19.28808
G1 X71.081 Y72.716 E19.31818
G1 X70.523 Y72.52 E19.3483
G1 X69.997 Y72.25 E19.37841
G1 X69.512 Y71.912 E19.40852
G1 X69.156 Y71.594 E19.43283
G1 X68.424 Y70.862 E19.48555
G1 X68.162 Y71.238 E19.50889
G1 X67.762 Y71.673 E19.53899
G1 X67.306 Y72.05 E19.56912
G1 X66.804 Y72.363 E19.59925
G1 X66.265 Y72.604 E19.62932
G1 X65.697 Y72.771 E19.65948
G1 X65.113 Y72.86 E19.68956
G1 X64.75 Y72.875 E19.70807
G1 X58.25 Y72.875 E20.03911
G1 X57.66 Y72.835 E20.06923
G1 X57.081 Y72.716 E20.09933
G1 X56.523 Y72.52 E20.12945
G1 X55.997 Y72.25 E20.15956
G1 X55.512 Y71.912 E20.18967
G1 X55.156 Y71.594 E20.21398
G1 X54.424 Y70.862 E20.2667
G1 X54.162 Y71.238 E20.29004
G1 X53.762 Y71.673 E20.32014
G1 X53.306 Y72.05 E20.35027
G1 X52.804 Y72.363 E20.3804
G1 X52.265 Y72.604 E20.41047
G1 X51.697 Y72.771 E20.44063
G1 X51.113 Y72.86 E20.47071
G1 X50.75 Y72.875 E20.48922
G1 X44.25 Y72.875 E20.82026
G1 X43.66 Y72.835 E20.85037
G1 X43.081 Y72.716 E20.88048
G1 X42.523 Y72.52 E20.9106
G1 X41.997 Y72.25 E20.94071
G1 X41.512 Y71.912 E20.97082
G1 X41.156 Y71.594 E20.99513
G1 X38.156 Y68.594 E21.21121
G1 X37.768 Y68.148 E21.24131
G1 X37.442 Y67.654 E21.27146
G1 X37.187 Y67.121 E21.30155
G1 X37.005 Y66.559 E21.33164
G1 X36.901 Y65.977 E21.36175
G1 X36.875 Y65.5 E21.38608
G1 X36.875 Y54.5 E21.9463
G1 X36.915 Y53.91 E21.97642
G1 X37.034 Y53.331 E22.00652
G1 X37.23 Y52.773 E22.03664
G1 X37.5 Y52.247 E22.06676
G1 X37.838 Y51.762 E22.09686
G1 X38.156 Y51.406 E22.12117
G1 X41.156 Y48.406 E22.33725
G1 X41.21 Y48.359 E22.3409
G0 F1620 X41.602 Y48.018
G0 F4320 X41.832 Y48.282
G1 F2400 E22.36738
G1 F1800 X42.308 Y47.974 E22.39626
G1 X42.823 Y47.736 E22.42515
G1 X43.366 Y47.573 E22.45402
G1 X43.927 Y47.488 E22.48292
G1 X44.25 Y47.475 E22.49938
G1 X50.75 Y47.475 E22.83043
G1 X51.316 Y47.515 E22.85932
G1 X51.87 Y47.634 E22.88818
G1 X52.402 Y47.83 E22.91706
G1 X52.902 Y48.098 E22.94595
G1 X53.358 Y48.435 E22.97483
G1 X53.763 Y48.832 E23.00371
G1 X54.109 Y49.282 E23.03262
G1 X54.349 Y49.709 E23.05757
G1 X55.404 Y48.654 E23.13355
G1 X55.832 Y48.282 E23.16244
G1 X56.308 Y47.974 E23.19131
G1 X56.823 Y47.736 E23.2202
G1 X57.366 Y47.573 E23.24908
G1 X57.927 Y47.488 E23.27798
G1 X58.25 Y47.475 E23.29444
G1 X64.75 Y47.475 E23.62548
G1 X65.316 Y47.515 E23.65438
G1 X65.87 Y47.634 E23.68324
G1 X66.402 Y47.83 E23.71211
G1 X66.902 Y48.098 E23.74101
G1 X67.358 Y48.435 E23.76988
G1 X67.763 Y48.832 E23.79877
G1 X68.109 Y49.282 E23.82768
G1 X68.349 Y49.709 E23.85262
G1 X69.404 Y48.654 E23.92861
G1 X69.832 Y48.282 E23.95749
G1 X70.308 Y47.974 E23.98636
G1 X70.823 Y47.736 E24.01526
G1 X71.366 Y47.573 E24.04413
G1 X71.927 Y47.488 E24.07303
G1 X72.25 Y47.475 E24.08949
G1 X78.75 Y47.475 E24.42054
G1 X79.316 Y47.515 E24.44943
G1 X79.87 Y47.634 E24.47829
G1 X80.402 Y47.83 E24.50717
G1 X80.902 Y48.098 E24.53606
G1 X81.358 Y48.435 E24.56494
G1 X81.763 Y48.832 E24.59382
G1 X82.109 Y49.282 E24.62273
G1 X82.387 Y49.776 E24.6516
G1 X82.593 Y50.304 E24.68047
G1 X82.723 Y50.856 E24.70935
G1 X82.775 Y51.5 E24.74225
G1 X82.775 Y53 E24.81865
G1 X82.735 Y53.566 E24.84755
G1 X82.616 Y54.12 E24.8764
G1 X82.42 Y54.652 E24.90528
G1 X82.152 Y55.152 E24.93417
G1 X81.815 Y55.608 E24.96305
G1 X81.596 Y55.846 E24.97952
G1 X80.596 Y56.846 E25.05155
G1 X80.168 Y57.218 E25.08043
G1 X79.692 Y57.526 E25.1093
G1 X79.177 Y57.764 E25.1382
G1 X78.634 Y57.927 E25.16707
G1 X78.073 Y58.012 E25.19597
G1 X77.75 Y58.025 E25.21243
G1 X77.25 Y58.025 E25.2379
G1 X76.791 Y57.993 E25.26133
G1 X76.803 Y62.011 E25.46597
G1 X77.25 Y61.975 E25.4888
G1 X77.75 Y61.975 E25.51427
G1 X78.316 Y62.015 E25.54317
G1 X78.87 Y62.134 E25.57203
G1 X79.402 Y62.33 E25.6009
G1 X79.902 Y62.598 E25.62979
G1 X80.358 Y62.935 E25.65867
G1 X80.596 Y63.154 E25.67514
G1 X81.596 Y64.154 E25.74717
G1 X81.968 Y64.582 E25.77605
G1 X82.276 Y65.058 E25.80492
G1 X82.514 Y65.573 E25.83382
G1 X82.677 Y66.116 E25.86269
G1 X82.762 Y66.677 E25.89159
G1 X82.775 Y67 E25.90805
G1 X82.775 Y68.5 E25.98445
G1 X82.735 Y69.066 E26.01334
G1 X82.616 Y69.62 E26.0422
G1 X82.42 Y70.152 E26.07108
G1 X82.152 Y70.652 E26.09997
G1 X81.815 Y71.108 E26.12885
G1 X81.418 Y71.513 E26.15773
G1 X80.968 Y71.859 E26.18664
G1 X80.474 Y72.137 E26.21551
G1 X79.946 Y72.343 E26.24438
G1 X79.394 Y72.473 E26.27326
G1 X78.75 Y72.525 E26.30616
