;FLAVOR:Marlin
;TIME:2751
;Filament used: 1.49027m
;Layer height: 0.175
;Generated with Cura_SteamEngine 3.6.0
M140 S65
M105
M190 S65
M104 S205
M105
M109 S205
M82 ;absolute extrusion mode
G21;(metric values)
G90;(absolute positioning)
M82;(set extruder to absolute mode)
M107;(start with the fan off)
G28;(Home the printer)
G92 E0;(Reset the extruder to 0)
G0 Z5 E5 F500;(Move up and prime the nozzle)
G0 X-1 Z0;(Move outside the printable area)
G1 Y60 E8 F500;(Draw a priming/wiping line to the rear)
G1 X-1;(Move a little closer to the print area)
G1 Y10 E16 F500;(draw more priming/wiping)
G1 E15 F250;(Small retract)
G92 E0;(Zero the extruder)
G92 E0
G1 F2400 E-2.5
;LAYER_COUNT:23
;LAYER:0
M107
G0 F4320 X36.933 Y44.641 Z0.263
;TYPE:SKIRT
G1 F2400 E0
G1 F1800 X37.633 Y44.154 E0.03263
G1 X57.463 Y32.706 E0.90891
G1 X58.033 Y32.423 E0.93327
G1 X58.635 Y32.213 E0.95767
G1 X59.257 Y32.081 E0.982
G1 X59.892 Y32.027 E1.00639
G1 X60.528 Y32.054 E1.03075
G1 X61.156 Y32.159 E1.05512
G1 X61.766 Y32.343 E1.0795
G1 X62.537 Y32.706 E1.11211
G1 X82.367 Y44.154 E1.98839
G1 X82.898 Y44.506 E2.01277
G1 X83.38 Y44.922 E2.03714
G1 X83.806 Y45.395 E2.0615
G1 X84.17 Y45.918 E2.08589
G1 X84.465 Y46.483 E2.11028
G1 X84.688 Y47.079 E2.13463
G1 X84.833 Y47.699 E2.159
G1 X84.905 Y48.549 E2.19165
G1 X84.905 Y71.45 E3.06807
G1 X84.865 Y72.086 E3.09245
G1 X84.746 Y72.711 E3.1168
G1 X84.549 Y73.317 E3.14119
G1 X84.278 Y73.893 E3.16555
G1 X83.937 Y74.431 E3.18993
G1 X83.531 Y74.922 E3.21431
G1 X83.067 Y75.358 E3.23868
G1 X82.368 Y75.845 E3.27128
G1 X62.538 Y87.294 E4.14757
G1 X61.967 Y87.577 E4.17196
G1 X61.366 Y87.787 E4.19633
G1 X60.743 Y87.919 E4.2207
G1 X60.108 Y87.973 E4.24509
G1 X59.472 Y87.946 E4.26945
G1 X58.844 Y87.841 E4.29382
G1 X58.234 Y87.657 E4.3182
G1 X57.462 Y87.294 E4.35085
G1 X37.632 Y75.845 E5.22714
G1 X37.102 Y75.493 E5.25149
G1 X36.62 Y75.077 E5.27586
G1 X36.194 Y74.603 E5.30025
G1 X35.83 Y74.081 E5.3246
G1 X35.535 Y73.516 E5.349
G1 X35.312 Y72.919 E5.37339
G1 X35.167 Y72.299 E5.39775
G1 X35.095 Y71.45 E5.43036
G1 X35.095 Y48.549 E6.30678
G1 X35.135 Y47.913 E6.33117
G1 X35.254 Y47.288 E6.35552
G1 X35.451 Y46.682 E6.3799
G1 X35.722 Y46.106 E6.40426
G1 X36.063 Y45.568 E6.42864
G1 X36.433 Y45.121 E6.45085
G0 F1620 X36.469 Y45.077
G0 X36.933 Y44.641
G0 F4320 X37.274 Y44.816
G1 F2400 E6.47741
G1 F1800 X37.808 Y44.457 E6.50203
G1 X57.638 Y33.009 E7.37831
G1 X58.189 Y32.737 E7.40183
G1 X58.77 Y32.539 E7.42532
G1 X59.373 Y32.418 E7.44885
G1 X59.986 Y32.376 E7.47237
G1 X60.599 Y32.414 E7.49587
G1 X61.202 Y32.532 E7.51939
G1 X61.785 Y32.726 E7.5429
G1 X62.362 Y33.009 E7.5675
G1 X82.192 Y44.457 E8.44377
G1 X82.703 Y44.798 E8.46728
G1 X83.166 Y45.203 E8.49083
G1 X83.572 Y45.664 E8.51433
G1 X83.915 Y46.174 E8.53786
G1 X84.188 Y46.724 E8.56135
G1 X84.388 Y47.305 E8.58487
G1 X84.511 Y47.907 E8.60838
G1 X84.555 Y48.549 E8.63301
G1 X84.555 Y71.45 E9.50943
G1 X84.515 Y72.063 E9.53294
G1 X84.396 Y72.666 E9.55646
G1 X84.199 Y73.248 E9.57998
G1 X83.929 Y73.8 E9.60349
G1 X83.589 Y74.312 E9.62701
G1 X83.186 Y74.776 E9.65053
G1 X82.726 Y75.183 E9.67404
G1 X82.193 Y75.542 E9.69863
G1 X62.363 Y86.991 E10.57493
G1 X61.812 Y87.263 E10.59845
G1 X61.23 Y87.461 E10.62197
G1 X60.627 Y87.582 E10.64551
G1 X60.014 Y87.624 E10.66902
G1 X59.401 Y87.586 E10.69253
G1 X58.798 Y87.469 E10.71604
G1 X58.215 Y87.274 E10.73956
G1 X57.637 Y86.991 E10.76419
G1 X37.807 Y75.542 E11.64049
G1 X37.296 Y75.201 E11.664
G1 X36.834 Y74.796 E11.68751
G1 X36.428 Y74.335 E11.71102
G1 X36.085 Y73.825 E11.73454
G1 X35.812 Y73.275 E11.75804
G1 X35.612 Y72.694 E11.78156
G1 X35.489 Y72.092 E11.80507
G1 X35.445 Y71.45 E11.8297
G1 X35.445 Y48.549 E12.70612
G1 X35.485 Y47.936 E12.72963
G1 X35.604 Y47.333 E12.75315
G1 X35.801 Y46.751 E12.77666
G1 X36.071 Y46.199 E12.80018
G1 X36.411 Y45.687 E12.8237
G1 X36.762 Y45.283 E12.84418
G0 F1620 X36.814 Y45.223
G0 X37.274 Y44.816
G0 F4320 X37.158 Y45.376
G1 F2400 E12.87074
G1 F1800 X37.614 Y44.999 E12.89338
G1 X37.983 Y44.76 E12.91021
G1 X57.813 Y33.312 E13.78649
G1 X58.343 Y33.052 E13.80908
G1 X58.905 Y32.865 E13.83175
G1 X59.486 Y32.756 E13.85437
G1 X60.076 Y32.727 E13.87697
G1 X60.665 Y32.777 E13.8996
G1 X61.242 Y32.906 E13.92222
G1 X61.797 Y33.112 E13.94488
G1 X62.187 Y33.312 E13.96165
G1 X82.017 Y44.76 E14.83793
G1 X82.508 Y45.09 E14.86057
G1 X82.95 Y45.482 E14.88318
G1 X83.335 Y45.931 E14.90582
G1 X83.656 Y46.428 E14.92846
G1 X83.907 Y46.963 E14.95107
G1 X84.084 Y47.527 E14.9737
G1 X84.183 Y48.11 E14.99633
G1 X84.205 Y48.549 E15.01315
G1 X84.205 Y71.45 E15.88957
G1 X84.165 Y72.04 E15.9122
G1 X84.046 Y72.619 E15.93482
G1 X83.85 Y73.177 E15.95745
G1 X83.58 Y73.703 E15.98008
G1 X83.242 Y74.188 E16.00271
G1 X82.842 Y74.623 E16.02532
G1 X82.386 Y75 E16.04796
G1 X82.018 Y75.239 E16.06476
G1 X62.188 Y86.688 E16.94105
G1 X61.657 Y86.948 E16.96368
G1 X61.096 Y87.135 E16.98631
G1 X60.514 Y87.244 E17.00897
G1 X59.924 Y87.273 E17.03158
G1 X59.335 Y87.223 E17.0542
G1 X58.758 Y87.094 E17.07683
G1 X58.203 Y86.888 E17.09948
G1 X57.812 Y86.688 E17.11629
G1 X37.982 Y75.239 E17.99259
G1 X37.492 Y74.909 E18.0152
G1 X37.05 Y74.517 E18.0378
G1 X36.665 Y74.068 E18.06044
G1 X36.344 Y73.571 E18.08308
G1 X36.093 Y73.036 E18.1057
G1 X35.916 Y72.472 E18.12832
G1 X35.817 Y71.889 E18.15095
G1 X35.795 Y71.45 E18.16777
G1 X35.795 Y48.549 E19.04419
G1 X35.835 Y47.959 E19.06682
G1 X35.954 Y47.38 E19.08944
G1 X36.15 Y46.822 E19.11208
G1 X36.42 Y46.296 E19.13471
G1 X36.699 Y45.896 E19.15337
G0 F1620 X36.758 Y45.811
G0 X37.158 Y45.376
G0 F4320 X37.502 Y45.536
G1 F2400 E19.17993
G1 F1800 X38.158 Y45.063 E19.21088
G1 X57.988 Y33.615 E20.08716
G1 X58.497 Y33.367 E20.10883
G1 X59.037 Y33.193 E20.13054
G1 X59.596 Y33.096 E20.15225
G1 X60.163 Y33.079 E20.17396
G1 X60.726 Y33.142 E20.19564
G1 X61.276 Y33.284 E20.21738
G1 X62.012 Y33.615 E20.24826
G1 X81.842 Y45.063 E21.12454
G1 X82.312 Y45.381 E21.14626
G1 X82.733 Y45.761 E21.16796
G1 X83.096 Y46.197 E21.18967
G1 X83.394 Y46.679 E21.21136
G1 X83.622 Y47.198 E21.23305
G1 X83.774 Y47.745 E21.25478
G1 X83.855 Y48.549 E21.28571
G1 X83.855 Y71.45 E22.16213
G1 X83.815 Y72.016 E22.18384
G1 X83.696 Y72.57 E22.20553
G1 X83.5 Y73.102 E22.22722
G1 X83.232 Y73.602 E22.24893
G1 X82.895 Y74.058 E22.27063
G1 X82.498 Y74.463 E22.29234
G1 X81.843 Y74.936 E22.32326
G1 X62.013 Y86.385 E23.19955
G1 X61.503 Y86.633 E23.22126
G1 X60.963 Y86.807 E23.24297
G1 X60.404 Y86.904 E23.26468
G1 X59.837 Y86.921 E23.28639
G1 X59.274 Y86.858 E23.30807
G1 X58.724 Y86.717 E23.3298
G1 X57.987 Y86.385 E23.36073
G1 X38.157 Y74.936 E24.23703
G1 X37.688 Y74.618 E24.25872
G1 X37.267 Y74.238 E24.28042
G1 X36.904 Y73.802 E24.30213
G1 X36.606 Y73.32 E24.32382
G1 X36.378 Y72.8 E24.34555
G1 X36.226 Y72.254 E24.36724
G1 X36.145 Y71.45 E24.39816
G1 X36.145 Y48.549 E25.27458
G1 X36.185 Y47.983 E25.2963
G1 X36.304 Y47.429 E25.31798
G1 X36.5 Y46.897 E25.33968
G1 X36.768 Y46.397 E25.36139
G1 X37.03 Y46.043 E25.37825
G0 F1620 X37.105 Y45.941
G0 X37.502 Y45.536
G0 F4320 X37.844 Y45.704
G1 F2400 E25.4048
G1 F1800 X38.333 Y45.366 E25.42755
G1 X58.163 Y33.918 E26.30383
G1 X58.651 Y33.683 E26.32456
G1 X59.168 Y33.521 E26.34529
G1 X59.703 Y33.438 E26.36601
G1 X60.245 Y33.434 E26.38676
G1 X60.782 Y33.51 E26.40751
G1 X61.301 Y33.664 E26.42823
G1 X61.837 Y33.918 E26.45093
G1 X81.667 Y45.366 E27.32721
G1 X82.115 Y45.671 E27.34795
G1 X82.514 Y46.038 E27.3687
G1 X82.854 Y46.46 E27.38943
G1 X83.128 Y46.928 E27.41019
G1 X83.331 Y47.43 E27.43091
G1 X83.457 Y47.957 E27.45165
G1 X83.505 Y48.549 E27.47438
G1 X83.505 Y71.45 E28.3508
G1 X83.465 Y71.99 E28.37152
G1 X83.346 Y72.519 E28.39227
G1 X83.151 Y73.024 E28.41299
G1 X82.883 Y73.496 E28.43376
G1 X82.549 Y73.922 E28.45448
G1 X82.156 Y74.295 E28.47521
G1 X81.668 Y74.633 E28.49793
G1 X61.838 Y86.082 E29.37423
G1 X61.35 Y86.317 E29.39496
G1 X60.832 Y86.479 E29.41573
G1 X60.297 Y86.562 E29.43645
G1 X59.755 Y86.566 E29.45719
G1 X59.219 Y86.49 E29.47791
G1 X58.699 Y86.336 E29.49866
G1 X58.162 Y86.082 E29.5214
G1 X38.332 Y74.633 E30.39769
G1 X37.884 Y74.328 E30.41843
G1 X37.486 Y73.961 E30.43915
G1 X37.146 Y73.539 E30.45989
G1 X36.872 Y73.071 E30.48065
G1 X36.669 Y72.569 E30.50137
G1 X36.543 Y72.042 E30.52211
G1 X36.495 Y71.45 E30.54484
G1 X36.495 Y48.549 E31.42126
G1 X36.535 Y48.009 E31.44198
G1 X36.654 Y47.48 E31.46273
G1 X36.849 Y46.975 E31.48345
G1 X37.117 Y46.503 E31.50422
G1 X37.357 Y46.197 E31.5191
G0 F1620 X37.451 Y46.077
G0 X37.844 Y45.704
G0 F4320 X38.185 Y45.882
G1 F2400 E31.54566
G1 F1800 X38.508 Y45.669 E31.56047
G1 X58.338 Y34.221 E32.43674
G1 X58.803 Y33.999 E32.45646
G1 X59.296 Y33.851 E32.47616
G1 X59.807 Y33.782 E32.4959
G1 X60.322 Y33.792 E32.51561
G1 X60.83 Y33.881 E32.53535
G1 X61.317 Y34.048 E32.55505
G1 X61.662 Y34.221 E32.56982
G1 X81.492 Y45.669 E33.4461
G1 X81.917 Y45.961 E33.46583
G1 X82.292 Y46.315 E33.48557
G1 X82.608 Y46.722 E33.50529
G1 X82.857 Y47.173 E33.525
G1 X83.033 Y47.657 E33.54471
G1 X83.133 Y48.163 E33.56445
G1 X83.155 Y48.549 E33.57925
G1 X83.155 Y71.45 E34.45567
G1 X83.115 Y71.964 E34.4754
G1 X82.996 Y72.465 E34.4951
G1 X82.801 Y72.942 E34.51482
G1 X82.535 Y73.384 E34.53457
G1 X82.204 Y73.778 E34.55426
G1 X81.815 Y74.117 E34.57401
G1 X81.493 Y74.33 E34.58878
G1 X61.663 Y85.779 E35.46508
G1 X61.198 Y86.001 E35.4848
G1 X60.704 Y86.149 E35.50453
G1 X60.193 Y86.218 E35.52427
G1 X59.678 Y86.208 E35.54398
G1 X59.17 Y86.119 E35.56372
G1 X58.683 Y85.952 E35.58342
G1 X58.337 Y85.779 E35.59822
G1 X38.507 Y74.33 E36.47452
G1 X38.082 Y74.038 E36.49425
G1 X37.708 Y73.684 E36.51396
G1 X37.392 Y73.277 E36.53368
G1 X37.143 Y72.826 E36.5534
G1 X36.967 Y72.341 E36.57314
G1 X36.867 Y71.836 E36.59284
G1 X36.845 Y71.45 E36.60764
G1 X36.845 Y48.549 E37.48406
G1 X36.885 Y48.035 E37.50379
G1 X37.004 Y47.534 E37.5235
G1 X37.199 Y47.057 E37.54322
G1 X37.465 Y46.615 E37.56296
G1 X37.681 Y46.358 E37.57581
G0 F1620 X37.796 Y46.221
G0 X38.185 Y45.882
G0 F4320 X38.141 Y46.374
G1 F2400 E37.60237
G1 F1800 X38.683 Y45.973 E37.62817
G1 X58.513 Y34.525 E38.50445
G1 X58.953 Y34.316 E38.52309
G1 X59.422 Y34.183 E38.54175
G1 X59.906 Y34.127 E38.56039
G1 X60.393 Y34.152 E38.57905
G1 X60.869 Y34.256 E38.5977
G1 X61.487 Y34.525 E38.62349
G1 X81.317 Y45.973 E39.49977
G1 X81.718 Y46.25 E39.51842
G1 X82.068 Y46.589 E39.53707
G1 X82.358 Y46.981 E39.55573
G1 X82.58 Y47.415 E39.57439
G1 X82.729 Y47.879 E39.59304
G1 X82.805 Y48.549 E39.61884
G1 X82.805 Y71.45 E40.49526
G1 X82.765 Y71.936 E40.51393
G1 X82.646 Y72.409 E40.53259
G1 X82.452 Y72.856 E40.55124
G1 X82.187 Y73.265 E40.56989
G1 X81.859 Y73.625 E40.58853
G1 X81.318 Y74.026 E40.6143
G1 X61.488 Y85.475 E41.4906
G1 X61.047 Y85.684 E41.50927
G1 X60.578 Y85.817 E41.52793
G1 X60.094 Y85.873 E41.54658
G1 X59.607 Y85.848 E41.56524
G1 X59.131 Y85.744 E41.58388
G1 X58.512 Y85.475 E41.60971
G1 X38.682 Y74.026 E42.48601
G1 X38.282 Y73.749 E42.50463
G1 X37.932 Y73.41 E42.52328
G1 X37.642 Y73.018 E42.54194
G1 X37.42 Y72.584 E42.56059
G1 X37.271 Y72.12 E42.57924
G1 X37.195 Y71.45 E42.60505
G1 X37.195 Y48.549 E43.48147
G1 X37.235 Y48.063 E43.50013
G1 X37.354 Y47.59 E43.5188
G1 X37.548 Y47.143 E43.53745
G1 X37.701 Y46.907 E43.54821
G0 F1620 X37.813 Y46.734
G0 X38.141 Y46.374
G0 F4320 X38.484 Y46.537
G1 F2400 E43.57477
G1 F1800 X38.858 Y46.276 E43.59222
G1 X58.688 Y34.828 E44.4685
G1 X59.103 Y34.634 E44.48603
G1 X59.545 Y34.516 E44.50354
G1 X60.001 Y34.476 E44.52106
G1 X60.457 Y34.516 E44.53858
G1 X60.899 Y34.635 E44.55609
G1 X61.312 Y34.828 E44.57354
G1 X81.142 Y46.276 E45.44982
G1 X81.517 Y46.538 E45.46732
G1 X81.841 Y46.862 E45.48486
G1 X82.104 Y47.237 E45.50239
G1 X82.297 Y47.652 E45.5199
G1 X82.415 Y48.094 E45.53741
G1 X82.455 Y48.549 E45.55489
G1 X82.455 Y71.45 E46.43131
G1 X82.415 Y71.906 E46.44883
G1 X82.297 Y72.348 E46.46634
G1 X82.103 Y72.763 E46.48387
G1 X81.84 Y73.138 E46.5014
G1 X81.516 Y73.462 E46.51893
G1 X81.143 Y73.723 E46.53636
G1 X61.313 Y85.172 E47.41265
G1 X60.898 Y85.366 E47.43019
G1 X60.455 Y85.484 E47.44773
G1 X59.999 Y85.524 E47.46525
G1 X59.543 Y85.484 E47.48277
G1 X59.101 Y85.365 E47.50028
G1 X58.687 Y85.172 E47.51776
G1 X38.857 Y73.723 E48.39406
G1 X38.482 Y73.461 E48.41157
G1 X38.159 Y73.137 E48.42908
G1 X37.896 Y72.762 E48.44661
G1 X37.703 Y72.347 E48.46412
G1 X37.585 Y71.905 E48.48163
G1 X37.545 Y71.45 E48.49911
G1 X37.545 Y48.549 E49.37553
G1 X37.585 Y48.093 E49.39305
G1 X37.703 Y47.651 E49.41055
G1 X37.897 Y47.236 E49.42809
G1 X38.025 Y47.054 E49.4366
G0 F1620 X38.16 Y46.861
G0 X38.484 Y46.537
G0 F4320 X38.824 Y46.715
G1 F2400 E49.46316
G1 F1800 X39.033 Y46.579 E49.4727
G1 X58.863 Y35.131 E50.34898
G1 X59.25 Y34.953 E50.36528
G1 X59.664 Y34.851 E50.3816
G1 X60.089 Y34.828 E50.39789
G1 X60.512 Y34.884 E50.41422
G1 X60.916 Y35.019 E50.43052
G1 X61.137 Y35.131 E50.44
G1 X80.967 Y46.579 E51.31628
G1 X81.315 Y46.825 E51.33259
G1 X81.61 Y47.133 E51.34891
G1 X81.843 Y47.489 E51.36519
G1 X82.005 Y47.884 E51.38153
G1 X82.091 Y48.301 E51.39783
G1 X82.105 Y48.549 E51.40733
G1 X82.105 Y71.45 E52.28375
G1 X82.065 Y71.874 E52.30005
G1 X81.947 Y72.284 E52.31638
G1 X81.754 Y72.664 E52.33269
G1 X81.494 Y73.001 E52.34898
G1 X81.176 Y73.284 E52.36527
G1 X80.968 Y73.42 E52.37478
G1 X61.138 Y84.869 E53.25108
G1 X60.75 Y85.047 E53.26741
G1 X60.336 Y85.149 E53.28373
G1 X59.911 Y85.172 E53.30002
G1 X59.489 Y85.116 E53.31631
G1 X59.084 Y84.981 E53.33265
G1 X58.862 Y84.869 E53.34217
G1 X39.032 Y73.42 E54.21846
G1 X38.685 Y73.173 E54.23476
G1 X38.39 Y72.866 E54.25106
G1 X38.157 Y72.509 E54.26737
G1 X37.994 Y72.115 E54.28369
G1 X37.909 Y71.698 E54.29998
G1 X37.895 Y71.45 E54.30948
G1 X37.895 Y48.549 E55.1859
G1 X37.935 Y48.125 E55.2022
G1 X38.053 Y47.715 E55.21853
G1 X38.246 Y47.335 E55.23484
G1 X38.342 Y47.211 E55.24084
G0 F1620 X38.506 Y46.998
G0 X38.824 Y46.715
G0 F4320 X38.851 Y47.147
G1 F2400 E55.2674
G1 F1800 X39.208 Y46.882 E55.28441
G1 X59.038 Y35.434 E56.16069
G1 X59.395 Y35.273 E56.17568
G1 X59.778 Y35.189 E56.19069
G1 X60.17 Y35.183 E56.20569
G1 X60.555 Y35.258 E56.2207
G1 X60.962 Y35.434 E56.23767
G1 X80.792 Y46.882 E57.11395
G1 X81.11 Y47.111 E57.12894
G1 X81.375 Y47.4 E57.14395
G1 X81.575 Y47.737 E57.15895
G1 X81.704 Y48.107 E57.17394
G1 X81.755 Y48.549 E57.19097
G1 X81.755 Y71.45 E58.06739
G1 X81.715 Y71.84 E58.08239
G1 X81.597 Y72.214 E58.0974
G1 X81.406 Y72.556 E58.11239
G1 X81.149 Y72.852 E58.1274
G1 X80.793 Y73.117 E58.14438
G1 X60.963 Y84.566 E59.02068
G1 X60.605 Y84.726 E59.03568
G1 X60.222 Y84.811 E59.0507
G1 X59.83 Y84.817 E59.0657
G1 X59.446 Y84.742 E59.08067
G1 X59.037 Y84.566 E59.09771
G1 X39.207 Y73.117 E59.97401
G1 X38.89 Y72.888 E59.98898
G1 X38.625 Y72.599 E60.00398
G1 X38.425 Y72.262 E60.01898
G1 X38.296 Y71.891 E60.03401
G1 X38.245 Y71.45 E60.051
G1 X38.245 Y48.549 E60.92742
G1 X38.285 Y48.159 E60.94243
G1 X38.403 Y47.785 E60.95743
G1 X38.447 Y47.707 E60.96086
G0 F1620 X38.594 Y47.443
G0 X38.851 Y47.147
G0 F4320 X39.193 Y47.313
G1 F2400 E60.98742
G1 F1800 X39.383 Y47.185 E60.99619
G1 X59.213 Y35.737 E61.87247
G1 X59.537 Y35.595 E61.886
G1 X59.886 Y35.53 E61.89959
G1 X60.24 Y35.544 E61.91315
G1 X60.582 Y35.637 E61.92671
G1 X60.787 Y35.737 E61.93544
G1 X80.617 Y47.185 E62.81172
G1 X80.902 Y47.396 E62.82529
G1 X81.133 Y47.665 E62.83886
G1 X81.298 Y47.978 E62.8524
G1 X81.388 Y48.321 E62.86597
G1 X81.405 Y48.549 E62.87472
G1 X81.405 Y71.45 E63.75114
G1 X81.365 Y71.802 E63.7647
G1 X81.248 Y72.136 E63.77824
G1 X81.058 Y72.436 E63.79183
G1 X80.807 Y72.686 E63.80539
G1 X80.618 Y72.814 E63.81412
G1 X60.788 Y84.263 E64.69042
G1 X60.463 Y84.405 E64.70399
G1 X60.114 Y84.47 E64.71758
G1 X59.76 Y84.456 E64.73114
G1 X59.418 Y84.363 E64.7447
G1 X59.212 Y84.263 E64.75347
G1 X39.382 Y72.814 E65.62976
G1 X39.097 Y72.603 E65.64333
G1 X38.867 Y72.334 E65.65688
G1 X38.702 Y72.021 E65.67042
G1 X38.612 Y71.678 E65.68399
G1 X38.595 Y71.45 E65.69274
G1 X38.595 Y48.549 E66.56916
G1 X38.635 Y48.197 E66.58272
G1 X38.752 Y47.863 E66.59626
G1 X38.761 Y47.85 E66.59687
G0 F1620 X38.942 Y47.563
G0 X39.193 Y47.313
G0 F4320 X39.288 Y47.699
G1 F2400 E66.62343
G1 F1800 X39.558 Y47.488 E66.63654
G1 X59.388 Y36.04 E67.51282
G1 X59.676 Y35.92 E67.52476
G1 X59.985 Y35.876 E67.5367
G1 X60.295 Y35.912 E67.54865
