;FLAVOR:Marlin
;TIME:2230
;Filament used: 1.00107m
;Layer height: 0.175
;Generated with Cura_SteamEngine 3.6.0
M140 S65
M105
M190 S65
M104 S205
M105
M109 S205
M82 ;absolute extrusion mode
G21;(metric values)
G90;(absolute positioning)
M82;(set extruder to absolute mode)
M107;(start with the fan off)
G28;(Home the printer)
G92 E0;(Reset the extruder to 0)
G0 Z5 E5 F500;(Move up and prime the nozzle)
G0 X-1 Z0;(Move outside the printable area)
G1 Y60 E8 F500;(Draw a priming/wiping line to the rear)
G1 X-1;(Move a little closer to the print area)
G1 Y10 E16 F500;(draw more priming/wiping)
G1 E15 F250;(Small retract)
G92 E0;(Zero the extruder)
G92 E0
G1 F2400 E-2.5
;LAYER_COUNT:105
;LAYER:0
M107
G0 F4320 X46.731 Y46.308 Z0.263
;TYPE:SKIRT
G1 F2400 E0
G1 F1080 X47.197 Y45.871 E0.02445
G1 X48.54 Y44.762 E0.0911
G1 X49.047 Y44.393 E0.1151
G1 X50.509 Y43.463 E0.18141
G1 X51.069 Y43.155 E0.20587
G1 X52.662 Y42.404 E0.27327
G1 X53.25 Y42.17 E0.29749
G1 X54.943 Y41.617 E0.36565
G1 X55.567 Y41.456 E0.39031
G1 X57.263 Y41.132 E0.45639
G1 X57.884 Y41.053 E0.48035
G1 X59.643 Y40.938 E0.54781
G1 X60.294 Y40.937 E0.57272
G1 X62.1 Y41.051 E0.64198
G1 X62.728 Y41.13 E0.6662
G1 X64.379 Y41.444 E0.73052
G1 X64.984 Y41.599 E0.75442
G1 X66.707 Y42.153 E0.82368
G1 X67.31 Y42.39 E0.84848
G1 X68.883 Y43.128 E0.91497
G1 X69.441 Y43.434 E0.93932
G1 X70.926 Y44.374 E1.00658
G1 X71.443 Y44.748 E1.031
G1 X72.795 Y45.864 E1.0981
G1 X73.258 Y46.298 E1.12238
G1 X74.48 Y47.595 E1.19058
G1 X74.891 Y48.09 E1.2152
G1 X75.909 Y49.49 E1.28145
G1 X76.246 Y50.021 E1.30551
G1 X77.11 Y51.585 E1.37389
G1 X77.387 Y52.173 E1.39877
G1 X78.034 Y53.809 E1.4661
G1 X78.23 Y54.412 E1.49036
G1 X78.669 Y56.121 E1.55789
G1 X78.79 Y56.752 E1.58248
G1 X79.008 Y58.49 E1.64951
G1 X79.047 Y59.119 E1.67363
G1 X79.048 Y60.872 E1.74072
G1 X79.007 Y61.516 E1.76541
G1 X78.783 Y63.276 E1.83331
G1 X78.664 Y63.898 E1.85755
G1 X78.23 Y65.587 E1.92428
G1 X78.032 Y66.197 E1.94883
G1 X77.373 Y67.857 E2.01718
G1 X77.098 Y68.438 E2.04178
G1 X76.248 Y69.977 E2.10906
G1 X75.913 Y70.505 E2.13299
G1 X74.911 Y71.885 E2.19826
G1 X74.51 Y72.37 E2.22234
G1 X73.324 Y73.638 E2.28879
G1 X72.863 Y74.073 E2.31304
G1 X71.475 Y75.227 E2.38212
G1 X70.946 Y75.612 E2.40716
G1 X69.437 Y76.568 E2.47553
G1 X68.879 Y76.875 E2.4999
G1 X67.312 Y77.611 E2.56615
G1 X66.715 Y77.846 E2.59071
G1 X65.017 Y78.395 E2.659
G1 X64.403 Y78.552 E2.68325
G1 X62.702 Y78.875 E2.74951
G1 X62.07 Y78.954 E2.77389
G1 X60.3 Y79.064 E2.84176
G1 X59.677 Y79.065 E2.8656
G1 X58.031 Y78.965 E2.92871
G1 X57.405 Y78.887 E2.95285
G1 X55.578 Y78.545 E3.02398
G1 X54.95 Y78.386 E3.04878
G1 X53.333 Y77.863 E3.11382
G1 X52.74 Y77.629 E3.13821
G1 X51.081 Y76.851 E3.20834
G1 X50.515 Y76.54 E3.23305
G1 X49.049 Y75.609 E3.29951
G1 X48.53 Y75.231 E3.32409
G1 X47.157 Y74.092 E3.39236
G1 X46.697 Y73.659 E3.41653
G1 X45.521 Y72.406 E3.4823
G1 X45.119 Y71.921 E3.5064
G1 X44.094 Y70.514 E3.57302
G1 X43.75 Y69.974 E3.59753
G1 X42.884 Y68.401 E3.66625
G1 X42.609 Y67.815 E3.69102
G1 X41.957 Y66.162 E3.75902
G1 X41.762 Y65.561 E3.7832
G1 X41.341 Y63.92 E3.84804
G1 X41.223 Y63.299 E3.87223
G1 X40.993 Y61.49 E3.94202
G1 X40.952 Y60.844 E3.96679
G1 X40.954 Y59.113 E4.03303
G1 X40.995 Y58.473 E4.05758
G1 X41.222 Y56.705 E4.12579
G1 X41.342 Y56.081 E4.15011
G1 X41.781 Y54.382 E4.21727
G1 X41.975 Y53.787 E4.24122
G1 X42.604 Y52.195 E4.30673
G1 X42.878 Y51.612 E4.33138
G1 X43.749 Y50.03 E4.40049
G1 X44.09 Y49.494 E4.4248
G1 X45.112 Y48.088 E4.49132
G1 X45.52 Y47.596 E4.51578
G1 X46.256 Y46.813 E4.55691
G0 F972 X46.731 Y46.308
G0 F4320 X46.986 Y46.547
G1 F2400 E4.58347
G1 F1080 X47.419 Y46.141 E4.60618
G1 X48.762 Y45.032 E4.67284
G1 X49.235 Y44.688 E4.69522
G1 X50.697 Y43.758 E4.76153
G1 X51.218 Y43.471 E4.7843
G1 X52.811 Y42.72 E4.8517
G1 X53.359 Y42.503 E4.87425
G1 X55.052 Y41.95 E4.94241
G1 X55.632 Y41.8 E4.96534
G1 X57.328 Y41.476 E5.03142
G1 X57.907 Y41.402 E5.05376
G1 X59.666 Y41.287 E5.12122
G1 X60.272 Y41.286 E5.14441
G1 X62.078 Y41.4 E5.21366
G1 X62.663 Y41.474 E5.23623
G1 X64.314 Y41.788 E5.30055
G1 X64.877 Y41.932 E5.32279
G1 X66.6 Y42.486 E5.39205
G1 X67.161 Y42.706 E5.41511
G1 X68.734 Y43.444 E5.48161
G1 X69.254 Y43.73 E5.50432
G1 X70.739 Y44.67 E5.57158
G1 X71.22 Y45.018 E5.5943
G1 X72.572 Y46.134 E5.66139
G1 X73.003 Y46.538 E5.684
G1 X74.225 Y47.835 E5.75219
G1 X74.608 Y48.296 E5.77513
G1 X75.626 Y49.696 E5.84137
G1 X75.94 Y50.19 E5.86378
G1 X76.804 Y51.754 E5.93216
G1 X77.062 Y52.301 E5.9553
G1 X77.709 Y53.937 E6.02263
G1 X77.891 Y54.499 E6.04524
G1 X78.33 Y56.208 E6.11276
G1 X78.442 Y56.796 E6.13567
G1 X78.66 Y58.534 E6.2027
G1 X78.697 Y59.119 E6.22514
G1 X78.698 Y60.872 E6.29222
G1 X78.66 Y61.472 E6.31523
G1 X78.436 Y63.232 E6.38313
G1 X78.325 Y63.811 E6.40569
G1 X77.891 Y65.5 E6.47243
G1 X77.707 Y66.067 E6.49524
G1 X77.048 Y67.727 E6.56359
G1 X76.792 Y68.268 E6.5865
G1 X75.942 Y69.807 E6.65378
G1 X75.629 Y70.299 E6.6761
G1 X74.627 Y71.679 E6.74136
G1 X74.255 Y72.131 E6.76377
G1 X73.069 Y73.399 E6.83021
G1 X72.639 Y73.804 E6.85282
G1 X71.251 Y74.958 E6.9219
G1 X70.759 Y75.316 E6.94518
G1 X69.25 Y76.272 E7.01355
G1 X68.73 Y76.558 E7.03626
G1 X67.163 Y77.294 E7.10251
G1 X66.608 Y77.513 E7.12535
G1 X64.91 Y78.062 E7.19364
G1 X64.337 Y78.208 E7.21627
G1 X62.636 Y78.531 E7.28253
G1 X62.048 Y78.605 E7.30521
G1 X60.278 Y78.715 E7.37308
G1 X59.698 Y78.715 E7.39528
G1 X58.052 Y78.615 E7.45838
G1 X57.47 Y78.543 E7.48083
G1 X55.643 Y78.201 E7.55196
G1 X55.058 Y78.053 E7.57505
G1 X53.441 Y77.53 E7.64009
G1 X52.889 Y77.312 E7.66281
G1 X51.23 Y76.534 E7.73293
G1 X50.703 Y76.245 E7.75593
G1 X49.237 Y75.314 E7.82239
G1 X48.753 Y74.962 E7.8453
G1 X47.38 Y73.823 E7.91357
G1 X46.952 Y73.42 E7.93607
G1 X45.776 Y72.167 E8.00183
G1 X45.402 Y71.715 E8.02428
G1 X44.377 Y70.308 E8.0909
G1 X44.057 Y69.805 E8.11372
G1 X43.191 Y68.232 E8.18243
G1 X42.935 Y67.687 E8.20548
G1 X42.283 Y66.034 E8.27348
G1 X42.101 Y65.474 E8.29602
G1 X41.68 Y63.833 E8.36085
G1 X41.57 Y63.255 E8.38337
G1 X41.34 Y61.446 E8.45316
G1 X41.302 Y60.845 E8.4762
G1 X41.304 Y59.114 E8.54245
G1 X41.342 Y58.517 E8.56534
G1 X41.569 Y56.749 E8.63356
G1 X41.681 Y56.169 E8.65616
G1 X42.12 Y54.47 E8.72332
G1 X42.301 Y53.916 E8.74562
G1 X42.93 Y52.324 E8.81113
G1 X43.185 Y51.781 E8.83409
G1 X44.056 Y50.199 E8.9032
G1 X44.373 Y49.7 E8.92583
G1 X45.395 Y48.294 E8.99235
G1 X45.775 Y47.835 E9.01515
G1 X46.511 Y47.052 E9.05628
G0 F972 X46.986 Y46.547
G0 F4320 X47.241 Y46.787
G1 F2400 E9.08284
G1 F1080 X47.642 Y46.411 E9.10387
G1 X48.985 Y45.302 E9.17053
G1 X49.423 Y44.984 E9.19124
G1 X50.885 Y44.054 E9.25756
G1 X51.367 Y43.788 E9.27862
G1 X52.96 Y43.037 E9.34602
G1 X53.468 Y42.835 E9.36694
G1 X55.161 Y42.282 E9.4351
G1 X55.698 Y42.144 E9.45632
G1 X57.394 Y41.82 E9.5224
G1 X57.93 Y41.751 E9.54308
G1 X59.689 Y41.636 E9.61055
G1 X60.25 Y41.636 E9.63201
G1 X62.056 Y41.75 E9.70127
G1 X62.597 Y41.818 E9.72213
G1 X64.248 Y42.132 E9.78645
G1 X64.77 Y42.265 E9.80707
G1 X66.493 Y42.819 E9.87633
G1 X67.012 Y43.023 E9.89767
G1 X68.585 Y43.761 E9.96417
G1 X69.067 Y44.025 E9.9852
G1 X70.552 Y44.965 E10.05246
G1 X70.997 Y45.288 E10.0735
G1 X72.349 Y46.404 E10.14059
G1 X72.748 Y46.778 E10.16152
G1 X73.97 Y48.075 E10.22972
G1 X74.324 Y48.502 E10.25094
G1 X75.342 Y49.902 E10.31719
G1 X75.634 Y50.359 E10.33794
G1 X76.498 Y51.923 E10.40632
G1 X76.736 Y52.43 E10.42776
G1 X77.383 Y54.066 E10.49509
G1 X77.552 Y54.587 E10.51605
G1 X77.991 Y56.296 E10.58357
G1 X78.095 Y56.84 E10.60477
G1 X78.313 Y58.578 E10.6718
G1 X78.347 Y59.12 E10.69259
G1 X78.348 Y60.873 E10.75967
G1 X78.313 Y61.427 E10.78092
G1 X78.089 Y63.187 E10.84882
G1 X77.986 Y63.724 E10.86974
G1 X77.552 Y65.413 E10.93648
G1 X77.381 Y65.938 E10.95761
G1 X76.722 Y67.598 E11.02596
G1 X76.486 Y68.099 E11.04716
G1 X75.636 Y69.638 E11.11444
G1 X75.346 Y70.094 E11.13512
G1 X74.344 Y71.474 E11.20039
G1 X73.999 Y71.892 E11.22113
G1 X72.813 Y73.16 E11.28757
G1 X72.415 Y73.535 E11.3085
G1 X71.027 Y74.689 E11.37758
G1 X70.571 Y75.021 E11.39917
G1 X69.062 Y75.977 E11.46753
G1 X68.581 Y76.241 E11.48853
G1 X67.014 Y76.977 E11.55478
G1 X66.5 Y77.18 E11.57593
G1 X64.802 Y77.729 E11.64423
G1 X64.272 Y77.864 E11.66516
G1 X62.571 Y78.187 E11.73142
G1 X62.026 Y78.256 E11.75244
G1 X60.256 Y78.366 E11.82031
G1 X59.72 Y78.366 E11.84082
G1 X58.074 Y78.266 E11.90393
G1 X57.534 Y78.199 E11.92475
G1 X55.707 Y77.857 E11.99589
G1 X55.166 Y77.72 E12.01725
G1 X53.549 Y77.197 E12.08228
G1 X53.037 Y76.995 E12.10335
G1 X51.378 Y76.217 E12.17347
G1 X50.891 Y75.949 E12.19475
G1 X49.425 Y75.018 E12.26121
G1 X48.977 Y74.692 E12.28241
G1 X47.604 Y73.553 E12.35068
G1 X47.207 Y73.18 E12.37153
G1 X46.031 Y71.927 E12.43729
G1 X45.685 Y71.509 E12.45806
G1 X44.66 Y70.102 E12.52468
G1 X44.363 Y69.636 E12.54583
G1 X43.497 Y68.063 E12.61455
G1 X43.26 Y67.558 E12.63589
G1 X42.608 Y65.905 E12.7039
G1 X42.44 Y65.387 E12.72474
G1 X42.019 Y63.746 E12.78957
G1 X41.917 Y63.211 E12.81042
G1 X41.687 Y61.402 E12.8802
G1 X41.652 Y60.845 E12.90156
G1 X41.654 Y59.114 E12.96781
G1 X41.69 Y58.562 E12.98898
G1 X41.917 Y56.794 E13.05719
G1 X42.02 Y56.257 E13.07812
G1 X42.459 Y54.558 E13.14528
G1 X42.626 Y54.044 E13.16596
G1 X43.255 Y52.452 E13.23147
G1 X43.491 Y51.95 E13.2527
G1 X44.362 Y50.368 E13.32181
G1 X44.656 Y49.906 E13.34277
G1 X45.678 Y48.5 E13.40929
G1 X46.03 Y48.075 E13.43041
G1 X46.766 Y47.292 E13.47153
G0 F972 X47.241 Y46.787
G0 F4320 X47.496 Y47.027
G1 F2400 E13.49809
G1 F1080 X47.865 Y46.68 E13.51747
G1 X49.208 Y45.571 E13.58413
G1 X49.611 Y45.279 E13.60317
G1 X51.073 Y44.349 E13.66949
G1 X51.517 Y44.104 E13.68889
G1 X53.11 Y43.353 E13.75629
G1 X53.576 Y43.168 E13.77548
G1 X55.269 Y42.615 E13.84364
G1 X55.764 Y42.487 E13.86321
G1 X57.46 Y42.163 E13.92929
G1 X57.952 Y42.101 E13.94826
G1 X59.711 Y41.986 E14.01572
G1 X60.228 Y41.985 E14.03551
G1 X62.034 Y42.099 E14.10476
G1 X62.532 Y42.162 E14.12397
G1 X64.183 Y42.476 E14.18829
G1 X64.663 Y42.598 E14.20724
G1 X66.386 Y43.152 E14.27651
G1 X66.864 Y43.34 E14.29616
G1 X68.437 Y44.078 E14.36266
G1 X68.88 Y44.321 E14.382
G1 X70.365 Y45.261 E14.44926
G1 X70.774 Y45.558 E14.4686
G1 X72.126 Y46.674 E14.53569
G1 X72.494 Y47.018 E14.55497
G1 X73.716 Y48.315 E14.62317
G1 X74.041 Y48.708 E14.64268
G1 X75.059 Y50.108 E14.70893
G1 X75.327 Y50.529 E14.72803
G1 X76.191 Y52.093 E14.79641
G1 X76.411 Y52.559 E14.81613
G1 X77.058 Y54.195 E14.88346
G1 X77.213 Y54.674 E14.90272
G1 X77.652 Y56.383 E14.97025
G1 X77.748 Y56.883 E14.98973
G1 X77.966 Y58.621 E15.05677
G1 X77.997 Y59.12 E15.0759
G1 X77.998 Y60.873 E15.14299
G1 X77.966 Y61.383 E15.16254
G1 X77.742 Y63.143 E15.23044
G1 X77.647 Y63.637 E15.2497
G1 X77.213 Y65.326 E15.31643
G1 X77.056 Y65.809 E15.33587
G1 X76.397 Y67.469 E15.40422
G1 X76.179 Y67.93 E15.42374
G1 X75.329 Y69.469 E15.49102
G1 X75.063 Y69.888 E15.51001
G1 X74.061 Y71.268 E15.57528
G1 X73.744 Y71.652 E15.59433
G1 X72.558 Y72.92 E15.66078
G1 X72.191 Y73.266 E15.68008
G1 X70.803 Y74.42 E15.74916
G1 X70.384 Y74.725 E15.769
G1 X68.875 Y75.681 E15.83736
G1 X68.432 Y75.924 E15.8567
G1 X66.865 Y76.66 E15.92295
G1 X66.392 Y76.847 E15.94241
G1 X64.694 Y77.396 E16.01071
G1 X64.207 Y77.52 E16.02994
G1 X62.506 Y77.843 E16.0962
G1 X62.005 Y77.906 E16.11553
G1 X60.235 Y78.016 E16.18339
G1 X59.741 Y78.017 E16.2023
G1 X58.095 Y77.917 E16.26541
G1 X57.598 Y77.855 E16.28458
G1 X55.771 Y77.513 E16.35571
G1 X55.273 Y77.387 E16.37537
G1 X53.656 Y76.864 E16.44041
G1 X53.186 Y76.678 E16.45975
G1 X51.527 Y75.9 E16.52988
G1 X51.078 Y75.654 E16.54947
G1 X49.612 Y74.723 E16.61593
G1 X49.2 Y74.423 E16.63543
G1 X47.827 Y73.284 E16.70371
G1 X47.462 Y72.94 E16.7229
G1 X46.286 Y71.687 E16.78866
G1 X45.968 Y71.303 E16.80775
G1 X44.943 Y69.896 E16.87436
G1 X44.67 Y69.467 E16.89382
G1 X43.804 Y67.894 E16.96254
G1 X43.586 Y67.43 E16.98216
G1 X42.934 Y65.777 E17.05017
G1 X42.779 Y65.3 E17.06936
G1 X42.358 Y63.659 E17.1342
G1 X42.264 Y63.167 E17.15336
G1 X42.034 Y61.358 E17.22315
G1 X42.002 Y60.845 E17.24282
G1 X42.004 Y59.114 E17.30907
G1 X42.037 Y58.606 E17.32855
G1 X42.264 Y56.838 E17.39677
G1 X42.359 Y56.344 E17.41602
G1 X42.798 Y54.645 E17.48317
G1 X42.952 Y54.173 E17.50218
G1 X43.581 Y52.581 E17.56768
G1 X43.798 Y52.119 E17.58722
G1 X44.669 Y50.537 E17.65633
G1 X44.939 Y50.111 E17.67563
G1 X45.961 Y48.705 E17.74215
G1 X46.285 Y48.315 E17.76156
G1 X47.021 Y47.532 E17.80268
G0 F972 X47.496 Y47.027
G0 F4320 X47.751 Y47.267
G1 F2400 E17.82924
G1 F1080 X48.088 Y46.95 E17.84695
G1 X49.431 Y45.841 E17.9136
G1 X49.799 Y45.574 E17.931
G1 X51.261 Y44.644 E17.99731
G1 X51.666 Y44.421 E18.01501
G1 X53.259 Y43.67 E18.08241
G1 X53.685 Y43.501 E18.09995
G1 X55.378 Y42.948 E18.1681
G1 X55.829 Y42.831 E18.18594
G1 X57.525 Y42.507 E18.25202
G1 X57.975 Y42.45 E18.26937
G1 X59.734 Y42.335 E18.33684
G1 X60.206 Y42.334 E18.3549
G1 X62.012 Y42.448 E18.42415
G1 X62.467 Y42.506 E18.44171
G1 X64.118 Y42.82 E18.50602
G1 X64.556 Y42.931 E18.52331
G1 X66.279 Y43.485 E18.59258
G1 X66.715 Y43.657 E18.61051
G1 X68.288 Y44.395 E18.67701
G1 X68.693 Y44.617 E18.69468
G1 X70.178 Y45.557 E18.76194
G1 X70.551 Y45.828 E18.77959
G1 X71.903 Y46.944 E18.84668
G1 X72.239 Y47.258 E18.86428
G1 X73.461 Y48.555 E18.93248
G1 X73.758 Y48.914 E18.95031
G1 X74.776 Y50.314 E19.01655
G1 X75.021 Y50.698 E19.03398
G1 X75.885 Y52.262 E19.10236
G1 X76.085 Y52.687 E19.12034
G1 X76.732 Y54.323 E19.18767
G1 X76.874 Y54.761 E19.20529
G1 X77.313 Y56.47 E19.27282
G1 X77.4 Y56.927 E19.29062
G1 X77.618 Y58.665 E19.35765
G1 X77.647 Y59.12 E19.3751
G1 X77.648 Y60.873 E19.44219
G1 X77.619 Y61.339 E19.46006
G1 X77.395 Y63.099 E19.52796
G1 X77.308 Y63.55 E19.54553
G1 X76.874 Y65.239 E19.61227
G1 X76.731 Y65.68 E19.63001
G1 X76.072 Y67.34 E19.69836
G1 X75.873 Y67.761 E19.71619
G1 X75.023 Y69.3 E19.78347
G1 X74.78 Y69.682 E19.8008
G1 X73.778 Y71.062 E19.86606
G1 X73.488 Y71.413 E19.88349
G1 X72.302 Y72.681 E19.94993
G1 X71.967 Y72.997 E19.96755
G1 X70.579 Y74.151 E20.03663
G1 X70.197 Y74.429 E20.05471
G1 X68.688 Y75.385 E20.12308
G1 X68.283 Y75.607 E20.14075
G1 X66.716 Y76.343 E20.20701
G1 X66.285 Y76.514 E20.22475
G1 X64.587 Y77.063 E20.29305
G1 X64.142 Y77.176 E20.31062
G1 X62.441 Y77.499 E20.37688
G1 X61.983 Y77.557 E20.39455
G1 X60.213 Y77.667 E20.46241
G1 X59.762 Y77.667 E20.47967
G1 X58.116 Y77.567 E20.54278
G1 X57.663 Y77.511 E20.56025
G1 X55.836 Y77.169 E20.63138
G1 X55.381 Y77.054 E20.64934
G1 X53.764 Y76.531 E20.71438
G1 X53.335 Y76.361 E20.73204
G1 X51.676 Y75.583 E20.80217
G1 X51.266 Y75.358 E20.82007
G1 X49.8 Y74.427 E20.88653
G1 X49.424 Y74.153 E20.90433
G1 X48.051 Y73.014 E20.9726
G1 X47.717 Y72.701 E20.99012
G1 X46.541 Y71.448 E21.05588
G1 X46.251 Y71.097 E21.07331
G1 X45.226 Y69.69 E21.13993
G1 X44.977 Y69.298 E21.1577
G1 X44.111 Y67.725 E21.22642
G1 X43.911 Y67.301 E21.24436
G1 X43.259 Y65.648 E21.31236
G1 X43.118 Y65.213 E21.32986
G1 X42.697 Y63.572 E21.3947
G1 X42.611 Y63.123 E21.41219
G1 X42.381 Y61.314 E21.48198
G1 X42.352 Y60.846 E21.49993
G1 X42.354 Y59.115 E21.56617
G1 X42.384 Y58.651 E21.58397
G1 X42.611 Y56.883 E21.65218
G1 X42.698 Y56.432 E21.66976
G1 X43.137 Y54.733 E21.73692
G1 X43.277 Y54.302 E21.75426
G1 X43.906 Y52.71 E21.81977
G1 X44.105 Y52.288 E21.83762
G1 X44.976 Y50.706 E21.90674
G1 X45.222 Y50.317 E21.92435
G1 X46.244 Y48.911 E21.99087
G1 X46.54 Y48.555 E22.00859
G1 X47.276 Y47.772 E22.04971
G0 F972 X47.751 Y47.267
G0 F4320 X48.006 Y47.506
G1 F2400 E22.07627
G1 F1080 X48.311 Y47.22 E22.09228
G1 X49.654 Y46.111 E22.15893
G1 X49.986 Y45.87 E22.17463
G1 X51.448 Y44.94 E22.24094
G1 X51.815 Y44.737 E22.25699
G1 X53.408 Y43.986 E22.32439
G1 X53.794 Y43.833 E22.34028
G1 X55.487 Y43.28 E22.40844
G1 X55.895 Y43.175 E22.42456
G1 X57.591 Y42.851 E22.49064
G1 X57.998 Y42.799 E22.50635
G1 X59.757 Y42.684 E22.57381
G1 X60.183 Y42.684 E22.59011
G1 X61.989 Y42.798 E22.65936
G1 X62.401 Y42.85 E22.67526
G1 X64.052 Y43.164 E22.73957
G1 X64.449 Y43.265 E22.75525
G1 X66.172 Y43.819 E22.82451
G1 X66.566 Y43.974 E22.84072
G1 X68.139 Y44.712 E22.90721
G1 X68.505 Y44.913 E22.92319
G1 X69.99 Y45.853 E22.99045
G1 X70.329 Y46.098 E23.00646
G1 X71.681 Y47.214 E23.07355
G1 X71.984 Y47.498 E23.08944
G1 X73.206 Y48.795 E23.15764
G1 X73.475 Y49.12 E23.17378
