;FLAVOR:Marlin
;TIME:17457
;Filament used: 11.4317m
;Layer height: 0.175
;Generated with Cura_SteamEngine 3.6.0
M140 S65
M105
M190 S65
M104 S205
M105
M109 S205
M82 ;absolute extrusion mode
G21;(metric values)
G90;(absolute positioning)
M82;(set extruder to absolute mode)
M107;(start with the fan off)
G28;(Home the printer)
G92 E0;(Reset the extruder to 0)
G0 Z5 E5 F500;(Move up and prime the nozzle)
G0 X-1 Z0;(Move outside the printable area)
G1 Y60 E8 F500;(Draw a priming/wiping line to the rear)
G1 X-1;(Move a little closer to the print area)
G1 Y10 E16 F500;(draw more priming/wiping)
G1 E15 F250;(Small retract)
G92 E0;(Zero the extruder)
G92 E0
G1 F2400 E-2.5
;LAYER_COUNT:74
;LAYER:0
M107
G0 F4320 X17.363 Y17.228 Z0.263
;TYPE:SKIRT
G1 F2400 E0
G1 F1800 X17.722 Y16.898 E0.01866
G1 X18.217 Y16.497 E0.04304
G1 X18.557 Y16.275 E0.05858
G1 X19.196 Y15.894 E0.08705
G1 X19.762 Y15.603 E0.11141
G1 X20.55 Y15.333 E0.14329
G1 X21.51 Y15.09 E0.18118
G1 X22.136 Y14.973 E0.20556
G1 X22.757 Y14.935 E0.22937
G1 X97.503 Y14.967 E3.08989
G1 X98.139 Y15.007 E3.11428
G1 X98.764 Y15.127 E3.13863
G1 X99.158 Y15.245 E3.15437
G1 X100.09 Y15.567 E3.19211
G1 X100.678 Y15.813 E3.2165
G1 X101.396 Y16.244 E3.24855
G1 X102.001 Y16.679 E3.27707
G1 X102.493 Y17.082 E3.30141
G1 X102.775 Y17.365 E3.3167
G1 X103.103 Y17.722 E3.33525
G1 X103.504 Y18.218 E3.35966
G1 X103.725 Y18.557 E3.37515
G1 X104.106 Y19.196 E3.40362
G1 X104.397 Y19.762 E3.42797
G1 X104.667 Y20.548 E3.45978
G1 X104.91 Y21.507 E3.49764
G1 X105.027 Y22.133 E3.52201
G1 X105.065 Y22.756 E3.5459
G1 X105.033 Y97.503 E6.40646
G1 X104.993 Y98.139 E6.43085
G1 X104.873 Y98.764 E6.45521
G1 X104.755 Y99.158 E6.47095
G1 X104.433 Y100.09 E6.50868
G1 X104.187 Y100.678 E6.53308
G1 X103.758 Y101.393 E6.56499
G1 X103.325 Y101.996 E6.5934
G1 X102.922 Y102.489 E6.61776
G1 X102.637 Y102.772 E6.63314
G1 X102.278 Y103.102 E6.6518
G1 X101.783 Y103.503 E6.67618
G1 X101.443 Y103.725 E6.69172
G1 X100.804 Y104.106 E6.72019
G1 X100.238 Y104.397 E6.74454
G1 X99.45 Y104.667 E6.77642
G1 X98.49 Y104.91 E6.81432
G1 X97.864 Y105.027 E6.83869
G1 X97.243 Y105.065 E6.8625
G1 X22.497 Y105.033 E9.72303
G1 X21.861 Y104.993 E9.74741
G1 X21.236 Y104.873 E9.77177
G1 X20.84 Y104.754 E9.78759
G1 X19.906 Y104.431 E9.82542
G1 X19.319 Y104.186 E9.84976
G1 X18.6 Y103.754 E9.88186
G1 X17.997 Y103.32 E9.91029
G1 X17.505 Y102.916 E9.93465
G1 X17.225 Y102.635 E9.94984
G1 X16.897 Y102.278 E9.96839
G1 X16.496 Y101.782 E9.9928
G1 X16.274 Y101.442 E10.00834
G1 X15.892 Y100.801 E10.0369
G1 X15.601 Y100.235 E10.06125
G1 X15.332 Y99.446 E10.09315
G1 X15.09 Y98.488 E10.13097
G1 X14.973 Y97.862 E10.15534
G1 X14.935 Y97.243 E10.17907
G1 X14.967 Y22.497 E13.0396
G1 X15.007 Y21.861 E13.06399
G1 X15.127 Y21.236 E13.08834
G1 X15.245 Y20.842 E13.10408
G1 X15.567 Y19.91 E13.14182
G1 X15.813 Y19.322 E13.16621
G1 X16.242 Y18.607 E13.19812
G1 X16.675 Y18.004 E13.22653
G1 X16.893 Y17.738 E13.23969
G0 F1620 X17.078 Y17.511
G0 X17.363 Y17.228
G0 F4320 X17.599 Y17.485
G1 F2400 E13.26625
G1 F1800 X17.958 Y17.155 E13.28491
G1 X18.437 Y16.77 E13.30843
G1 X18.736 Y16.576 E13.32207
G1 X19.375 Y16.195 E13.35054
G1 X19.922 Y15.915 E13.37406
G1 X20.636 Y15.672 E13.40292
G1 X21.596 Y15.429 E13.44082
G1 X22.2 Y15.318 E13.46432
G1 X22.757 Y15.285 E13.48568
G1 X97.503 Y15.317 E16.3462
G1 X98.116 Y15.357 E16.36971
G1 X98.719 Y15.477 E16.39324
G1 X99.044 Y15.576 E16.40624
G1 X99.976 Y15.898 E16.44398
G1 X100.542 Y16.136 E16.46748
G1 X101.191 Y16.528 E16.49649
G1 X101.796 Y16.963 E16.52501
G1 X102.271 Y17.353 E16.54853
G1 X102.517 Y17.602 E16.56193
G1 X102.845 Y17.959 E16.58048
G1 X103.231 Y18.438 E16.60402
G1 X103.424 Y18.736 E16.61761
G1 X103.805 Y19.375 E16.64608
G1 X104.085 Y19.922 E16.6696
G1 X104.327 Y20.634 E16.69838
G1 X104.57 Y21.593 E16.73624
G1 X104.682 Y22.198 E16.75979
G1 X104.715 Y22.756 E16.78118
G1 X104.683 Y97.503 E19.64174
G1 X104.643 Y98.116 E19.66525
G1 X104.523 Y98.719 E19.68878
G1 X104.424 Y99.044 E19.70178
G1 X104.102 Y99.976 E19.73952
G1 X103.864 Y100.542 E19.76302
G1 X103.474 Y101.189 E19.79193
G1 X103.041 Y101.792 E19.82034
G1 X102.651 Y102.267 E19.84386
G1 X102.401 Y102.515 E19.85733
G1 X102.042 Y102.845 E19.876
G1 X101.563 Y103.23 E19.89951
G1 X101.264 Y103.424 E19.91315
G1 X100.625 Y103.805 E19.94163
G1 X100.078 Y104.085 E19.96514
G1 X99.364 Y104.328 E19.99401
G1 X98.404 Y104.571 E20.0319
G1 X97.8 Y104.682 E20.05541
G1 X97.243 Y104.715 E20.07676
G1 X22.497 Y104.683 E22.93729
G1 X21.884 Y104.643 E22.9608
G1 X21.281 Y104.523 E22.98432
G1 X20.955 Y104.424 E22.99736
G1 X20.021 Y104.101 E23.03518
G1 X19.454 Y103.862 E23.05873
G1 X18.805 Y103.47 E23.08775
G1 X18.202 Y103.036 E23.11618
G1 X17.727 Y102.645 E23.13973
G1 X17.483 Y102.398 E23.15301
G1 X17.155 Y102.041 E23.17157
G1 X16.769 Y101.562 E23.19511
G1 X16.575 Y101.263 E23.20875
G1 X16.193 Y100.622 E23.23731
G1 X15.914 Y100.075 E23.26081
G1 X15.671 Y99.36 E23.28971
G1 X15.429 Y98.402 E23.32752
G1 X15.317 Y97.798 E23.35103
G1 X15.285 Y97.243 E23.3723
G1 X15.317 Y22.497 E26.23283
G1 X15.357 Y21.884 E26.25634
G1 X15.477 Y21.281 E26.27987
G1 X15.576 Y20.956 E26.29287
G1 X15.898 Y20.024 E26.33061
G1 X16.136 Y19.458 E26.3541
G1 X16.526 Y18.811 E26.38302
G1 X16.959 Y18.208 E26.41143
G1 X17.132 Y17.997 E26.42187
G0 F1620 X17.349 Y17.733
G0 X17.599 Y17.485
G0 F4320 X17.836 Y17.743
G1 F2400 E26.44843
G1 F1800 X18.195 Y17.413 E26.46709
G1 X18.657 Y17.043 E26.48974
G1 X18.915 Y16.876 E26.5015
G1 X19.554 Y16.495 E26.52997
G1 X20.082 Y16.227 E26.55263
G1 X20.721 Y16.012 E26.57844
G1 X21.681 Y15.769 E26.61633
G1 X22.263 Y15.663 E26.63897
G1 X22.757 Y15.635 E26.65791
G1 X97.503 Y15.667 E29.51843
G1 X98.093 Y15.707 E29.54107
G1 X98.93 Y15.907 E29.574
G1 X99.862 Y16.229 E29.61174
G1 X100.406 Y16.459 E29.63434
G1 X100.987 Y16.812 E29.66036
G1 X101.592 Y17.247 E29.68887
G1 X102.048 Y17.624 E29.71152
G1 X102.26 Y17.839 E29.72307
G1 X102.588 Y18.196 E29.74162
G1 X102.957 Y18.657 E29.76422
G1 X103.124 Y18.915 E29.77598
G1 X103.505 Y19.554 E29.80445
G1 X103.773 Y20.082 E29.82712
G1 X103.988 Y20.72 E29.85288
G1 X104.231 Y21.679 E29.89074
G1 X104.337 Y22.261 E29.91338
G1 X104.365 Y22.756 E29.93235
G1 X104.333 Y97.503 E32.79292
G1 X104.293 Y98.093 E32.81555
G1 X104.093 Y98.93 E32.84848
G1 X103.771 Y99.862 E32.88622
G1 X103.541 Y100.406 E32.90882
G1 X103.19 Y100.985 E32.93473
G1 X102.757 Y101.588 E32.96314
G1 X102.38 Y102.044 E32.98579
G1 X102.164 Y102.257 E32.9974
G1 X101.805 Y102.587 E33.01606
G1 X101.343 Y102.957 E33.03871
G1 X101.085 Y103.124 E33.05047
G1 X100.446 Y103.505 E33.07894
G1 X99.918 Y103.773 E33.1016
G1 X99.279 Y103.988 E33.12741
G1 X98.319 Y104.231 E33.1653
G1 X97.737 Y104.337 E33.18794
G1 X97.243 Y104.365 E33.20688
G1 X22.497 Y104.333 E36.0674
G1 X21.907 Y104.293 E36.09004
G1 X21.069 Y104.093 E36.12301
G1 X20.135 Y103.77 E36.16083
G1 X19.591 Y103.539 E36.18345
G1 X19.009 Y103.186 E36.2095
G1 X18.406 Y102.752 E36.23793
G1 X17.951 Y102.375 E36.26054
G1 X17.74 Y102.161 E36.27204
G1 X17.412 Y101.804 E36.2906
G1 X17.043 Y101.343 E36.31319
G1 X16.876 Y101.084 E36.32499
G1 X16.494 Y100.443 E36.35354
G1 X16.226 Y99.915 E36.3762
G1 X16.01 Y99.275 E36.40205
G1 X15.768 Y98.317 E36.43987
G1 X15.663 Y97.735 E36.4625
G1 X15.635 Y97.243 E36.48136
G1 X15.667 Y22.497 E39.34189
G1 X15.707 Y21.907 E39.36452
G1 X15.907 Y21.07 E39.39745
G1 X16.229 Y20.138 E39.43519
G1 X16.459 Y19.594 E39.45779
G1 X16.81 Y19.015 E39.4837
G1 X17.243 Y18.412 E39.51211
G1 X17.371 Y18.257 E39.51981
G0 F1620 X17.62 Y17.956
G0 X17.836 Y17.743
G0 F4320 X18.073 Y18.001
G1 F2400 E39.54637
G1 F1800 X18.432 Y17.671 E39.56503
G1 X19.095 Y17.177 E39.59667
G1 X19.734 Y16.796 E39.62514
G1 X20.24 Y16.54 E39.64684
G1 X20.807 Y16.351 E39.66971
G1 X21.767 Y16.108 E39.70761
G1 X22.326 Y16.008 E39.72934
G1 X22.757 Y15.985 E39.74586
G1 X97.503 Y16.017 E42.60639
G1 X98.068 Y16.057 E42.62806
G1 X98.815 Y16.238 E42.65748
G1 X99.747 Y16.56 E42.69522
G1 X100.269 Y16.782 E42.71692
G1 X100.783 Y17.096 E42.73998
G1 X101.388 Y17.531 E42.76849
G1 X102.002 Y18.076 E42.79991
G1 X102.33 Y18.433 E42.81846
G1 X102.823 Y19.095 E42.85005
G1 X103.204 Y19.734 E42.87852
G1 X103.46 Y20.24 E42.90023
G1 X103.649 Y20.806 E42.92306
G1 X103.892 Y21.765 E42.96092
G1 X103.992 Y22.324 E42.98266
G1 X104.015 Y22.756 E42.99921
G1 X103.983 Y97.503 E45.85978
G1 X103.943 Y98.068 E45.88145
G1 X103.762 Y98.815 E45.91087
G1 X103.44 Y99.747 E45.9486
G1 X103.218 Y100.269 E45.97031
G1 X102.905 Y100.781 E45.99328
G1 X102.472 Y101.384 E46.02169
G1 X101.927 Y101.999 E46.05314
G1 X101.568 Y102.329 E46.0718
G1 X100.905 Y102.823 E46.10344
G1 X100.266 Y103.204 E46.13191
G1 X99.76 Y103.46 E46.15361
G1 X99.193 Y103.649 E46.17648
G1 X98.233 Y103.892 E46.21438
G1 X97.674 Y103.992 E46.23612
G1 X97.243 Y104.015 E46.25263
G1 X22.497 Y103.983 E49.11316
G1 X21.932 Y103.943 E49.13483
G1 X21.183 Y103.762 E49.16432
G1 X20.249 Y103.439 E49.20215
G1 X19.728 Y103.216 E49.22383
G1 X19.214 Y102.902 E49.24688
G1 X18.611 Y102.468 E49.27532
G1 X17.998 Y101.924 E49.30668
G1 X17.67 Y101.567 E49.32524
G1 X17.176 Y100.905 E49.35685
G1 X16.794 Y100.264 E49.3854
G1 X16.539 Y99.757 E49.40712
G1 X16.35 Y99.189 E49.43003
G1 X16.108 Y98.231 E49.46785
G1 X16.008 Y97.673 E49.48954
G1 X15.985 Y97.243 E49.50602
G1 X16.017 Y22.497 E52.36655
G1 X16.057 Y21.932 E52.38822
G1 X16.238 Y21.185 E52.41764
G1 X16.56 Y20.253 E52.45537
G1 X16.782 Y19.731 E52.47708
G1 X17.095 Y19.219 E52.50005
G1 X17.528 Y18.616 E52.52846
G1 X17.613 Y18.52 E52.53336
G0 F1620 X18.073 Y18.001
G0 F4320 X18.31 Y18.258
G1 F2400 E52.55992
G1 F1800 X18.669 Y17.928 E52.57859
G1 X19.274 Y17.477 E52.60746
G1 X19.913 Y17.096 E52.63594
G1 X20.398 Y16.854 E52.65668
G1 X20.893 Y16.69 E52.67663
G1 X21.853 Y16.447 E52.71453
G1 X22.387 Y16.353 E52.73528
G1 X22.757 Y16.335 E52.74946
G1 X97.503 Y16.367 E55.60998
G1 X98.043 Y16.407 E55.63071
G1 X98.701 Y16.568 E55.65663
G1 X99.633 Y16.89 E55.69437
G1 X100.131 Y17.105 E55.71513
G1 X100.578 Y17.38 E55.73521
G1 X101.183 Y17.815 E55.76373
G1 X101.744 Y18.313 E55.79244
G1 X102.072 Y18.67 E55.81099
G1 X102.523 Y19.274 E55.83984
G1 X102.904 Y19.913 E55.86831
G1 X103.146 Y20.398 E55.88905
G1 X103.309 Y20.892 E55.90896
G1 X103.552 Y21.851 E55.94682
G1 X103.646 Y22.385 E55.96757
G1 X103.665 Y22.756 E55.98179
G1 X103.633 Y97.503 E58.84235
G1 X103.593 Y98.043 E58.86307
G1 X103.432 Y98.701 E58.889
G1 X103.11 Y99.633 E58.92674
G1 X102.895 Y100.131 E58.94749
G1 X102.621 Y100.577 E58.96753
G1 X102.188 Y101.18 E58.99594
G1 X101.69 Y101.742 E59.02467
G1 X101.331 Y102.072 E59.04333
G1 X100.726 Y102.523 E59.07221
G1 X100.087 Y102.904 E59.10068
G1 X99.602 Y103.146 E59.12143
G1 X99.107 Y103.31 E59.14138
G1 X98.147 Y103.553 E59.17928
G1 X97.613 Y103.647 E59.20003
G1 X97.243 Y103.665 E59.21421
G1 X22.497 Y103.633 E62.07473
G1 X21.957 Y103.593 E62.09546
G1 X21.298 Y103.431 E62.12143
G1 X20.364 Y103.108 E62.15925
G1 X19.866 Y102.894 E62.17999
G1 X19.418 Y102.618 E62.20013
G1 X18.815 Y102.184 E62.22856
G1 X18.256 Y101.687 E62.25719
G1 X17.928 Y101.33 E62.27574
G1 X17.477 Y100.725 E62.30462
G1 X17.095 Y100.084 E62.33318
G1 X16.853 Y99.6 E62.35389
G1 X16.689 Y99.103 E62.37391
G1 X16.447 Y98.145 E62.41173
G1 X16.353 Y97.611 E62.43248
G1 X16.335 Y97.243 E62.44658
G1 X16.367 Y22.497 E65.3071
G1 X16.407 Y21.957 E65.32783
G1 X16.568 Y21.299 E65.35375
G1 X16.89 Y20.367 E65.39149
G1 X17.105 Y19.869 E65.41225
G1 X17.379 Y19.423 E65.43228
G1 X17.812 Y18.82 E65.46069
G1 X17.85 Y18.778 E65.46286
G0 F1620 X18.31 Y18.258
G0 F4320 X18.547 Y18.516
G1 F2400 E65.48942
G1 F1800 X18.906 Y18.186 E65.50808
G1 X19.453 Y17.778 E65.53419
G1 X20.092 Y17.397 E65.56266
G1 X20.554 Y17.168 E65.5824
G1 X20.979 Y17.03 E65.5995
G1 X21.939 Y16.787 E65.6374
G1 X22.447 Y16.699 E65.65713
G1 X22.756 Y16.685 E65.66896
G1 X97.502 Y16.717 E68.52949
G1 X98.016 Y16.757 E68.54922
G1 X98.587 Y16.899 E68.57174
G1 X99.519 Y17.221 E68.60947
G1 X99.991 Y17.427 E68.62918
G1 X100.374 Y17.664 E68.64642
G1 X100.979 Y18.099 E68.67494
G1 X101.486 Y18.549 E68.70088
G1 X101.814 Y18.906 E68.71943
G1 X102.222 Y19.453 E68.74555
G1 X102.603 Y20.092 E68.77402
G1 X102.832 Y20.554 E68.79375
G1 X102.97 Y20.978 E68.81082
G1 X103.213 Y21.937 E68.84868
G1 X103.301 Y22.445 E68.86841
G1 X103.315 Y22.755 E68.88028
G1 X103.283 Y97.502 E71.74085
G1 X103.243 Y98.016 E71.76058
G1 X103.101 Y98.587 E71.7831
G1 X102.779 Y99.519 E71.82083
G1 X102.573 Y99.991 E71.84054
G1 X102.337 Y100.372 E71.85769
G1 X101.904 Y100.975 E71.8861
G1 X101.453 Y101.484 E71.91213
G1 X101.094 Y101.814 E71.93079
G1 X100.547 Y102.222 E71.95691
G1 X99.908 Y102.603 E71.98538
G1 X99.446 Y102.832 E72.00511
G1 X99.021 Y102.97 E72.02221
G1 X98.061 Y103.213 E72.06011
G1 X97.553 Y103.301 E72.07984
G1 X97.244 Y103.315 E72.09168
G1 X22.498 Y103.283 E74.9522
G1 X21.984 Y103.243 E74.97193
G1 X21.412 Y103.1 E74.9945
G1 X20.478 Y102.777 E75.03232
G1 X20.006 Y102.572 E75.05201
G1 X19.623 Y102.334 E75.06927
G1 X19.02 Y101.9 E75.0977
G1 X18.514 Y101.451 E75.12359
G1 X18.186 Y101.094 E75.14214
G1 X17.778 Y100.546 E75.16829
G1 X17.396 Y99.905 E75.19685
G1 X17.167 Y99.443 E75.21658
G1 X17.028 Y99.017 E75.23373
G1 X16.786 Y98.059 E75.27154
G1 X16.699 Y97.551 E75.29127
G1 X16.685 Y97.244 E75.30303
G1 X16.717 Y22.498 E78.16355
G1 X16.757 Y21.984 E78.18328
G1 X16.899 Y21.413 E78.2058
G1 X17.221 Y20.481 E78.24354
G1 X17.427 Y20.009 E78.26325
G1 X17.663 Y19.628 E78.2804
G1 X18.088 Y19.036 E78.30829
G0 F1620 X18.096 Y19.025
G0 X18.547 Y18.516
G0 F4320 X18.784 Y18.774
G1 F2400 E78.33485
G1 F1800 X19.143 Y18.444 E78.35351
G1 X19.632 Y18.079 E78.37686
G1 X20.271 Y17.698 E78.40533
G1 X20.709 Y17.483 E78.42401
G1 X21.065 Y17.369 E78.43831
G1 X22.025 Y17.126 E78.47621
G1 X22.506 Y17.045 E78.49488
G1 X22.756 Y17.035 E78.50445
G1 X97.502 Y17.067 E81.36498
G1 X97.988 Y17.107 E81.38364
G1 X98.472 Y17.23 E81.40275
G1 X99.404 Y17.552 E81.44049
G1 X99.851 Y17.748 E81.45917
G1 X100.17 Y17.949 E81.47359
G1 X100.775 Y18.384 E81.50211
G1 X101.229 Y18.786 E81.52532
G1 X101.557 Y19.143 E81.54387
G1 X101.921 Y19.632 E81.5672
G1 X102.302 Y20.271 E81.59567
G1 X102.517 Y20.709 E81.61435
G1 X102.631 Y21.064 E81.62861
G1 X102.874 Y22.023 E81.66648
G1 X102.954 Y22.504 E81.68514
G1 X102.965 Y22.755 E81.69475
G1 X102.933 Y97.502 E84.55532
G1 X102.893 Y97.988 E84.57398
G1 X102.77 Y98.472 E84.59309
G1 X102.448 Y99.404 E84.63082
G1 X102.252 Y99.851 E84.6495
G1 X102.053 Y100.168 E84.66383
G1 X101.62 Y100.771 E84.69224
G1 X101.216 Y101.226 E84.71552
G1 X100.857 Y101.556 E84.73419
G1 X100.368 Y101.921 E84.75754
G1 X99.729 Y102.302 E84.78601
G1 X99.291 Y102.517 E84.80468
G1 X98.935 Y102.631 E84.81899
G1 X97.975 Y102.874 E84.85689
G1 X97.494 Y102.955 E84.87555
G1 X97.244 Y102.965 E84.88513
G1 X22.498 Y102.933 E87.74565
G1 X22.012 Y102.893 E87.76432
G1 X21.527 Y102.77 E87.78346
G1 X20.593 Y102.447 E87.82128
G1 X20.147 Y102.25 E87.83994
G1 X19.827 Y102.05 E87.85439
G1 X19.224 Y101.616 E87.88282
G1 X18.771 Y101.214 E87.906
G1 X18.443 Y100.857 E87.92455
G1 X18.078 Y100.367 E87.94793
G1 X17.696 Y99.726 E87.97649
G1 X17.482 Y99.288 E87.99515
G1 X17.368 Y98.932 E88.00945
G1 X17.126 Y97.974 E88.04727
G1 X17.045 Y97.493 E88.06593
G1 X17.035 Y97.244 E88.07547
G1 X17.067 Y22.498 E90.93599
G1 X17.107 Y22.012 E90.95466
G1 X17.23 Y21.528 E90.97377
G1 X17.552 Y20.596 E91.0115
G1 X17.748 Y20.149 E91.03018
G1 X17.947 Y19.832 E91.04451
G1 X18.33 Y19.298 E91.06966
G0 F1620 X18.38 Y19.229
G0 X18.784 Y18.774
G0 F4320 X19.021 Y19.031
G1 F2400 E91.09622
G1 F1800 X19.38 Y18.701 E91.11488
G1 X19.812 Y18.379 E91.1355
G1 X20.451 Y17.998 E91.16397
G1 X20.863 Y17.799 E91.18148
G1 X21.151 Y17.708 E91.19304
G1 X22.111 Y17.465 E91.23094
G1 X22.756 Y17.385 E91.25581
G1 X97.502 Y17.417 E94.11633
G1 X97.958 Y17.457 E94.13385
G1 X98.358 Y17.561 E94.14967
G1 X99.29 Y17.883 E94.18741
G1 X99.708 Y18.07 E94.20493
G1 X99.965 Y18.233 E94.21658
G1 X100.57 Y18.668 E94.24509
G1 X100.971 Y19.023 E94.26559
G1 X101.299 Y19.38 E94.28414
G1 X101.621 Y19.812 E94.30476
G1 X102.002 Y20.451 E94.33323
G1 X102.201 Y20.863 E94.35074
G1 X102.292 Y21.15 E94.36227
G1 X102.535 Y22.109 E94.40013
G1 X102.615 Y22.755 E94.42504
G1 X102.583 Y97.502 E97.2856
