;FLAVOR:Marlin
;TIME:3808
;Filament used: 1.17668m
;Layer height: 0.21875
;Generated with Cura_SteamEngine 3.6.0
M140 S60
M105
M190 S60
M104 S200
M105
M109 S200
M82 ;absolute extrusion mode
G21;(metric values)
G90;(absolute positioning)
M82;(set extruder to absolute mode)
M107;(start with the fan off)
G28;(Home the printer)
G92 E0;(Reset the extruder to 0)
G92 E0
G1 F2400 E-2.5
;LAYER_COUNT:20
;LAYER:0
M107
G0 F4320 X28.625 Y43.592 Z0.2
;TYPE:SKIRT
G1 F2400 E0
G1 F720 X30.419 Y42.489 E0.06129
G1 X31.167 Y42.11 E0.08569
G1 X33.117 Y41.318 E0.14694
G1 X33.916 Y41.068 E0.17131
G1 X35.971 Y40.607 E0.2326
G1 X36.663 Y40.501 E0.25298
G1 X38.063 Y40.385 E0.29386
G1 X38.623 Y40.37 E0.31016
G1 X40.027 Y40.409 E0.35104
G1 X40.582 Y40.455 E0.36725
G1 X41.879 Y40.635 E0.40535
G1 X42.317 Y40.3 E0.4214
G1 X42.905 Y39.96 E0.44117
G1 X43.418 Y39.708 E0.4578
G1 X44.007 Y39.464 E0.47636
G1 X44.621 Y39.295 E0.49489
G1 X45.079 Y39.221 E0.50839
G1 X45.927 Y39.124 E0.53323
G1 X46.563 Y39.091 E0.55177
G1 X47.198 Y39.139 E0.5703
G1 X47.679 Y39.229 E0.58454
G1 X48.238 Y39.362 E0.60126
G1 X48.847 Y39.548 E0.61979
G1 X49.536 Y39.867 E0.64189
G1 X50.036 Y40.146 E0.65855
G1 X50.571 Y40.491 E0.67708
G1 X51.139 Y40.977 E0.69884
G1 X55.723 Y45.53 E0.88686
G1 X60.037 Y41.188 E1.06499
G1 X60.572 Y40.72 E1.08568
G1 X61.03 Y40.373 E1.1024
G1 X61.561 Y40.021 E1.12094
G1 X62.259 Y39.687 E1.14346
G1 X62.79 Y39.481 E1.16004
G1 X63.397 Y39.288 E1.17858
G1 X64.151 Y39.159 E1.20084
G1 X64.725 Y39.105 E1.21762
G1 X65.361 Y39.086 E1.23613
G1 X66.132 Y39.169 E1.2587
G1 X66.694 Y39.274 E1.27534
G1 X67.312 Y39.43 E1.29389
G1 X68.01 Y39.713 E1.31581
G1 X68.522 Y39.966 E1.33243
G1 X69.074 Y40.284 E1.35097
G1 X69.546 Y40.649 E1.36833
G1 X70.773 Y40.464 E1.40445
G1 X71.39 Y40.409 E1.42247
G1 X72.794 Y40.37 E1.46335
G1 X73.494 Y40.399 E1.48374
G1 X75.588 Y40.631 E1.54505
G1 X76.196 Y40.736 E1.56301
G1 X77.161 Y40.964 E1.59187
G1 X77.614 Y41.094 E1.60558
G1 X78.923 Y41.535 E1.64578
G1 X79.52 Y41.779 E1.66455
G1 X81.176 Y42.583 E1.71812
G1 X81.882 Y42.999 E1.74197
G1 X83.761 Y44.323 E1.80887
G1 X84.301 Y44.762 E1.82912
G1 X85.186 Y45.588 E1.86435
G1 X85.643 Y46.075 E1.88379
G1 X86.98 Y47.701 E1.94505
G1 X87.38 Y48.26 E1.96506
G1 X88.117 Y49.455 E2.00592
G1 X88.388 Y49.955 E2.02247
G1 X88.987 Y51.226 E2.06336
G1 X89.239 Y51.872 E2.08354
G1 X89.869 Y53.882 E2.14484
G1 X90.053 Y54.706 E2.16941
G1 X90.341 Y56.792 E2.2307
G1 X90.389 Y57.482 E2.25083
G1 X90.39 Y58.874 E2.29134
G1 X90.344 Y59.562 E2.3114
G1 X90.065 Y61.613 E2.37164
G1 X89.925 Y62.289 E2.39173
G1 X89.555 Y63.619 E2.43191
G1 X89.38 Y64.138 E2.44785
G1 X88.869 Y65.42 E2.48801
G1 X88.639 Y65.919 E2.50401
G1 X87.992 Y67.139 E2.54419
G1 X87.63 Y67.721 E2.56414
G1 X86.422 Y69.403 E2.62441
G1 X85.89 Y70.03 E2.64834
G1 X84.428 Y71.493 E2.70853
G1 X83.798 Y72.028 E2.73259
G1 X82.117 Y73.235 E2.79281
G1 X81.366 Y73.682 E2.81825
G1 X79.262 Y74.699 E2.88626
G1 X78.435 Y75.013 E2.912
G1 X76.411 Y75.586 E2.97322
G1 X75.585 Y75.747 E2.99771
G1 X73.49 Y75.978 E3.05905
G1 X72.729 Y76.005 E3.08121
G1 X71.001 Y75.935 E3.13154
G1 X70.249 Y75.848 E3.15357
G1 X68.217 Y75.458 E3.21379
G1 X67.555 Y75.284 E3.23371
G1 X66.245 Y74.843 E3.27394
G1 X65.775 Y74.658 E3.28864
G1 X64.739 Y74.19 E3.32172
G1 X64.256 Y73.94 E3.33755
G1 X62.856 Y73.117 E3.38481
G1 X62.167 Y72.631 E3.40935
G1 X60.184 Y70.968 E3.48467
G1 X59.527 Y70.305 E3.51183
G1 X58.188 Y68.679 E3.57313
G1 X57.785 Y68.115 E3.5933
G1 X57.048 Y66.919 E3.63419
G1 X56.778 Y66.42 E3.6507
G1 X56.18 Y65.151 E3.69153
G1 X55.928 Y64.505 E3.71171
G1 X55.719 Y63.838 E3.73205
G1 X55.447 Y64.633 E3.7565
G1 X55.237 Y65.151 E3.77277
G1 X54.639 Y66.42 E3.8136
G1 X54.369 Y66.919 E3.83011
G1 X53.632 Y68.115 E3.87099
G1 X53.229 Y68.679 E3.89117
G1 X51.89 Y70.305 E3.95247
G1 X51.306 Y70.905 E3.97683
G1 X49.719 Y72.288 E4.0381
G1 X49.197 Y72.687 E4.05722
G1 X48.219 Y73.338 E4.09141
G1 X47.616 Y73.682 E4.11161
G1 X45.512 Y74.699 E4.17962
G1 X44.685 Y75.013 E4.20537
G1 X42.661 Y75.586 E4.26659
G1 X41.835 Y75.747 E4.29108
G1 X39.74 Y75.978 E4.35242
G1 X38.979 Y76.005 E4.37458
G1 X37.251 Y75.935 E4.42491
G1 X36.499 Y75.848 E4.44694
G1 X34.467 Y75.458 E4.50715
G1 X33.805 Y75.284 E4.52707
G1 X32.495 Y74.843 E4.5673
G1 X32.026 Y74.659 E4.58196
G1 X30.989 Y74.191 E4.61507
G1 X30.504 Y73.939 E4.63098
G1 X29.105 Y73.116 E4.67822
G1 X28.636 Y72.805 E4.69459
G1 X27.685 Y72.093 E4.72917
G1 X27.164 Y71.644 E4.74919
G1 X25.554 Y70.057 E4.81498
G1 X25.078 Y69.516 E4.83595
G1 X24.241 Y68.416 E4.87617
G1 X23.931 Y67.959 E4.89225
G1 X23.22 Y66.777 E4.93239
G1 X22.963 Y66.293 E4.94834
G1 X22.383 Y65.04 E4.98852
G1 X22.137 Y64.396 E5.00858
G1 X21.53 Y62.417 E5.06883
G1 X21.374 Y61.752 E5.0887
G1 X21.15 Y60.389 E5.1289
G1 X21.09 Y59.839 E5.145
G1 X21.016 Y58.463 E5.18511
G1 X21.017 Y57.912 E5.20114
G1 X21.094 Y56.509 E5.24204
G1 X21.18 Y55.813 E5.26244
G1 X21.584 Y53.746 E5.32374
G1 X21.764 Y53.074 E5.34398
G1 X22.22 Y51.744 E5.3849
G1 X22.43 Y51.228 E5.40112
G1 X23.028 Y49.958 E5.44197
G1 X23.299 Y49.456 E5.45857
G1 X24.036 Y48.261 E5.49943
G1 X24.439 Y47.699 E5.51956
G1 X25.779 Y46.072 E5.5809
G1 X26.362 Y45.472 E5.60525
G1 X27.893 Y44.138 E5.66434
G0 F648 X27.949 Y44.089
G0 X28.625 Y43.592
G0 F4320 X28.808 Y43.89
G1 F2400 E5.69094
G1 F720 X30.602 Y42.787 E5.75223
G1 X31.299 Y42.434 E5.77497
G1 X33.249 Y41.642 E5.83622
G1 X33.993 Y41.41 E5.8589
G1 X36.048 Y40.949 E5.92019
G1 X36.692 Y40.85 E5.93916
G1 X38.092 Y40.734 E5.98004
G1 X38.613 Y40.72 E5.99521
G1 X40.017 Y40.759 E6.03608
G1 X40.534 Y40.802 E6.05118
G1 X41.927 Y40.995 E6.09211
G1 X41.987 Y41.006 E6.09388
G1 X42.057 Y40.937 E6.09674
G1 X42.548 Y40.566 E6.11465
G1 X43.06 Y40.274 E6.13181
G1 X43.573 Y40.022 E6.14844
G1 X44.141 Y39.788 E6.16632
G1 X44.734 Y39.629 E6.18419
G1 X45.119 Y39.569 E6.19553
G1 X45.967 Y39.472 E6.22037
G1 X46.581 Y39.442 E6.23826
G1 X47.193 Y39.492 E6.25613
G1 X47.598 Y39.569 E6.26812
G1 X48.157 Y39.702 E6.28485
G1 X48.744 Y39.883 E6.30272
G1 X49.365 Y40.173 E6.32267
G1 X49.865 Y40.452 E6.33933
G1 X50.381 Y40.786 E6.35722
G1 X50.893 Y41.226 E6.37687
G1 X55.588 Y45.889 E6.56945
G1 X55.715 Y46.035 E6.57508
G1 X60.285 Y41.435 E6.76378
G1 X60.784 Y40.999 E6.78307
G1 X61.242 Y40.652 E6.79979
G1 X61.754 Y40.313 E6.81766
G1 X62.386 Y40.013 E6.83802
G1 X62.917 Y39.807 E6.8546
G1 X63.503 Y39.622 E6.87248
G1 X64.183 Y39.508 E6.89255
G1 X64.757 Y39.454 E6.90933
G1 X65.372 Y39.436 E6.92723
G1 X66.068 Y39.513 E6.94761
G1 X66.63 Y39.618 E6.96425
G1 X67.225 Y39.77 E6.98212
G1 X67.855 Y40.027 E7.00192
G1 X68.367 Y40.28 E7.01854
G1 X68.899 Y40.587 E7.03642
G1 X69.442 Y41.01 E7.05645
G1 X69.45 Y41.018 E7.05678
G1 X70.825 Y40.81 E7.09725
G1 X71.4 Y40.759 E7.11405
G1 X72.804 Y40.72 E7.15493
G1 X73.455 Y40.747 E7.17389
G1 X75.549 Y40.979 E7.2352
G1 X76.115 Y41.077 E7.25192
G1 X77.08 Y41.305 E7.28078
G1 X77.503 Y41.425 E7.29357
G1 X78.812 Y41.866 E7.33377
G1 X79.367 Y42.093 E7.35122
G1 X81.023 Y42.897 E7.4048
G1 X81.681 Y43.286 E7.42704
G1 X83.56 Y44.61 E7.49394
G1 X84.062 Y45.018 E7.51276
G1 X84.947 Y45.844 E7.548
G1 X85.373 Y46.297 E7.56609
G1 X86.71 Y47.923 E7.62736
G1 X87.082 Y48.444 E7.64599
G1 X87.819 Y49.639 E7.68685
G1 X88.071 Y50.105 E7.70227
G1 X88.67 Y51.376 E7.74316
G1 X88.905 Y51.977 E7.76194
G1 X89.535 Y53.987 E7.82324
G1 X89.707 Y54.754 E7.84612
G1 X89.995 Y56.84 E7.9074
G1 X90.039 Y57.483 E7.92616
G1 X90.04 Y58.875 E7.96667
G1 X89.997 Y59.515 E7.98533
G1 X89.718 Y61.566 E8.04557
G1 X89.588 Y62.195 E8.06427
G1 X89.218 Y63.525 E8.10444
G1 X89.055 Y64.009 E8.11931
G1 X88.544 Y65.291 E8.15947
G1 X88.329 Y65.755 E8.17435
G1 X87.682 Y66.975 E8.21454
G1 X87.346 Y67.517 E8.2331
G1 X86.138 Y69.199 E8.29337
G1 X85.642 Y69.783 E8.31567
G1 X84.18 Y71.246 E8.37586
G1 X83.594 Y71.744 E8.39824
G1 X81.913 Y72.951 E8.45847
G1 X81.213 Y73.367 E8.48216
G1 X79.109 Y74.384 E8.55017
G1 X78.34 Y74.676 E8.57411
G1 X76.316 Y75.249 E8.63533
G1 X75.547 Y75.4 E8.65814
G1 X73.452 Y75.631 E8.71948
G1 X72.743 Y75.655 E8.74012
G1 X71.015 Y75.585 E8.79045
G1 X70.315 Y75.504 E8.81096
G1 X68.283 Y75.114 E8.87118
G1 X67.666 Y74.952 E8.88974
G1 X66.356 Y74.511 E8.92997
G1 X65.919 Y74.339 E8.94364
G1 X64.883 Y73.871 E8.97672
G1 X64.433 Y73.638 E8.99147
G1 X63.033 Y72.815 E9.03873
G1 X62.392 Y72.362 E9.06157
G1 X60.409 Y70.699 E9.13689
G1 X59.798 Y70.083 E9.16214
G1 X58.459 Y68.457 E9.22344
G1 X58.083 Y67.932 E9.24224
G1 X57.346 Y66.736 E9.28312
G1 X57.095 Y66.271 E9.2985
G1 X56.497 Y65.002 E9.33933
G1 X56.262 Y64.401 E9.35811
G1 X55.715 Y62.654 E9.41138
G1 X55.572 Y63.188 E9.42747
G1 X55.116 Y64.519 E9.46842
G1 X54.92 Y65.002 E9.48359
G1 X54.322 Y66.271 E9.52441
G1 X54.071 Y66.736 E9.53979
G1 X53.334 Y67.932 E9.58067
G1 X52.958 Y68.457 E9.59947
G1 X51.619 Y70.083 E9.66077
G1 X51.076 Y70.641 E9.68343
G1 X49.489 Y72.024 E9.74469
G1 X49.003 Y72.395 E9.76248
G1 X48.025 Y73.046 E9.79668
G1 X47.463 Y73.367 E9.81551
G1 X45.359 Y74.384 E9.88352
G1 X44.59 Y74.676 E9.90746
G1 X42.566 Y75.249 E9.96868
G1 X41.797 Y75.4 E9.99149
G1 X39.702 Y75.631 E10.05283
G1 X38.993 Y75.655 E10.07347
G1 X37.265 Y75.585 E10.1238
G1 X36.565 Y75.504 E10.14431
G1 X34.533 Y75.114 E10.20453
G1 X33.916 Y74.952 E10.22309
G1 X32.606 Y74.511 E10.26332
G1 X32.17 Y74.34 E10.27695
G1 X31.133 Y73.872 E10.31006
G1 X30.681 Y73.638 E10.32487
G1 X29.282 Y72.815 E10.37211
G1 X28.846 Y72.524 E10.38736
G1 X27.895 Y71.812 E10.42194
G1 X27.41 Y71.395 E10.44055
G1 X25.8 Y69.808 E10.50634
G1 X25.357 Y69.304 E10.52587
G1 X24.52 Y68.204 E10.5661
G1 X24.231 Y67.779 E10.58106
G1 X23.52 Y66.597 E10.6212
G1 X23.281 Y66.146 E10.63605
G1 X22.701 Y64.893 E10.67624
G1 X22.472 Y64.294 E10.6949
G1 X21.865 Y62.315 E10.75514
G1 X21.72 Y61.695 E10.77367
G1 X21.496 Y60.332 E10.81387
G1 X21.44 Y59.82 E10.82886
G1 X21.366 Y58.444 E10.86896
G1 X21.366 Y57.931 E10.88389
G1 X21.443 Y56.528 E10.92479
G1 X21.524 Y55.881 E10.94376
G1 X21.928 Y53.814 E11.00505
G1 X22.095 Y53.188 E11.02391
G1 X22.551 Y51.858 E11.06483
G1 X22.746 Y51.377 E11.07993
G1 X23.344 Y50.107 E11.12079
G1 X23.597 Y49.64 E11.13624
G1 X24.334 Y48.445 E11.1771
G1 X24.709 Y47.921 E11.19586
G1 X26.049 Y46.294 E11.2572
G1 X26.592 Y45.736 E11.27986
G1 X28.079 Y44.44 E11.33726
G0 F648 X28.179 Y44.353
G0 X28.808 Y43.89
G0 F4320 X28.992 Y44.188
G1 F2400 E11.36386
G1 F720 X30.786 Y43.085 E11.42515
G1 X31.431 Y42.759 E11.44618
G1 X33.381 Y41.967 E11.50744
G1 X34.069 Y41.751 E11.52842
G1 X36.124 Y41.29 E11.58971
G1 X36.721 Y41.199 E11.60729
G1 X38.121 Y41.083 E11.64817
G1 X38.603 Y41.07 E11.6622
G1 X40.007 Y41.109 E11.70308
G1 X40.486 Y41.148 E11.71707
G1 X41.879 Y41.341 E11.75799
G1 X42.103 Y41.383 E11.76463
G1 X42.303 Y41.187 E11.77278
G1 X42.778 Y40.835 E11.78998
G1 X43.214 Y40.588 E11.80457
G1 X43.727 Y40.336 E11.8212
G1 X44.274 Y40.112 E11.8384
G1 X44.846 Y39.964 E11.8556
G1 X45.159 Y39.916 E11.86481
G1 X46.007 Y39.819 E11.88965
G1 X46.597 Y39.792 E11.90684
G1 X47.186 Y39.845 E11.92405
G1 X47.517 Y39.91 E11.93387
G1 X48.076 Y40.043 E11.95059
G1 X48.64 Y40.218 E11.96778
G1 X49.195 Y40.479 E11.98563
G1 X49.695 Y40.758 E12.00229
G1 X50.19 Y41.08 E12.01947
G1 X50.646 Y41.474 E12.03701
G1 X55.341 Y46.137 E12.22959
G1 X55.71 Y46.559 E12.2459
G1 X55.87 Y46.375 E12.253
G1 X60.534 Y41.681 E12.44558
G1 X60.995 Y41.278 E12.4634
G1 X61.453 Y40.931 E12.48012
G1 X61.947 Y40.606 E12.49733
G1 X62.513 Y40.339 E12.51554
G1 X63.044 Y40.133 E12.53212
G1 X63.608 Y39.957 E12.54931
G1 X64.216 Y39.856 E12.56725
G1 X64.79 Y39.802 E12.58403
G1 X65.381 Y39.787 E12.60123
G1 X66.003 Y39.857 E12.61945
G1 X66.565 Y39.962 E12.63609
G1 X67.138 Y40.11 E12.65331
G1 X67.7 Y40.341 E12.67099
G1 X68.212 Y40.594 E12.68761
G1 X68.723 Y40.891 E12.70481
G1 X69.207 Y41.27 E12.7227
G1 X69.338 Y41.388 E12.72783
G1 X70.877 Y41.156 E12.77313
G1 X71.41 Y41.109 E12.7887
G1 X72.814 Y41.07 E12.82958
G1 X73.417 Y41.095 E12.84714
G1 X75.511 Y41.327 E12.90845
G1 X76.035 Y41.417 E12.92393
G1 X77 Y41.645 E12.95279
G1 X77.391 Y41.757 E12.96462
G1 X78.7 Y42.198 E13.00482
G1 X79.214 Y42.408 E13.02098
G1 X80.87 Y43.212 E13.07455
G1 X81.479 Y43.572 E13.09514
G1 X83.358 Y44.896 E13.16204
G1 X83.823 Y45.274 E13.17948
G1 X84.708 Y46.1 E13.21471
G1 X85.102 Y46.519 E13.23145
G1 X86.439 Y48.145 E13.29271
G1 X86.784 Y48.627 E13.30996
G1 X87.521 Y49.822 E13.35082
G1 X87.755 Y50.254 E13.36512
G1 X88.354 Y51.525 E13.40601
G1 X88.571 Y52.081 E13.42338
G1 X89.201 Y54.091 E13.48468
G1 X89.36 Y54.802 E13.50589
G1 X89.648 Y56.888 E13.56717
G1 X89.689 Y57.483 E13.58453
G1 X89.69 Y58.875 E13.62504
G1 X89.65 Y59.468 E13.64234
G1 X89.371 Y61.519 E13.70257
G1 X89.251 Y62.102 E13.7199
G1 X88.881 Y63.432 E13.76007
G1 X88.73 Y63.879 E13.7738
G1 X88.219 Y65.161 E13.81397
G1 X88.02 Y65.591 E13.82776
G1 X87.373 Y66.811 E13.86795
G1 X87.062 Y67.313 E13.88513
G1 X85.854 Y68.995 E13.9454
G1 X85.395 Y69.536 E13.96605
G1 X83.933 Y70.999 E14.02624
G1 X83.39 Y71.46 E14.04697
G1 X81.709 Y72.667 E14.1072
G1 X81.061 Y73.052 E14.12913
G1 X78.957 Y74.069 E14.19714
G1 X78.245 Y74.34 E14.21931
G1 X76.221 Y74.913 E14.28053
G1 X75.508 Y75.052 E14.30167
G1 X73.413 Y75.283 E14.36301
G1 X72.757 Y75.305 E14.38211
G1 X71.029 Y75.235 E14.43245
G1 X70.381 Y75.161 E14.45143
G1 X68.349 Y74.771 E14.51164
G1 X67.778 Y74.62 E14.52883
G1 X66.468 Y74.179 E14.56906
G1 X66.063 Y74.02 E14.58172
G1 X65.027 Y73.552 E14.6148
G1 X64.611 Y73.337 E14.62843
G1 X63.211 Y72.514 E14.67569
G1 X62.617 Y72.094 E14.69687
G1 X60.634 Y70.431 E14.77218
G1 X60.068 Y69.86 E14.79558
G1 X58.729 Y68.234 E14.85688
G1 X58.381 Y67.748 E14.87428
G1 X57.644 Y66.552 E14.91516
G1 X57.411 Y66.122 E14.9294
G1 X56.813 Y64.853 E14.97022
G1 X56.596 Y64.296 E14.98762
G1 X55.966 Y62.285 E15.04895
G1 X55.807 Y61.575 E15.07012
G1 X55.711 Y60.882 E15.09049
G1 X55.396 Y62.496 E15.13834
G1 X55.241 Y63.075 E15.15579
G1 X54.785 Y64.406 E15.19673
G1 X54.604 Y64.853 E15.21077
G1 X54.006 Y66.122 E15.25159
G1 X53.773 Y66.552 E15.26583
G1 X53.036 Y67.748 E15.30671
G1 X52.688 Y68.234 E15.32411
G1 X51.349 Y69.86 E15.38541
G1 X50.846 Y70.377 E15.4064
G1 X49.259 Y71.76 E15.46766
G1 X48.809 Y72.104 E15.48415
G1 X47.831 Y72.755 E15.51834
G1 X47.311 Y73.052 E15.53577
G1 X45.207 Y74.069 E15.60378
G1 X44.495 Y74.34 E15.62595
G1 X42.471 Y74.913 E15.68717
G1 X41.758 Y75.052 E15.70831
G1 X39.663 Y75.283 E15.76965
G1 X39.007 Y75.305 E15.78875
G1 X37.279 Y75.235 E15.83908
G1 X36.631 Y75.161 E15.85806
G1 X34.599 Y74.771 E15.91828
G1 X34.028 Y74.62 E15.93547
G1 X32.718 Y74.179 E15.97569
G1 X32.314 Y74.021 E15.98832
G1 X31.277 Y73.553 E16.02143
G1 X30.859 Y73.336 E16.03513
G1 X29.46 Y72.513 E16.08237
G1 X29.056 Y72.244 E16.0965
G1 X28.105 Y71.532 E16.13107
G1 X27.656 Y71.146 E16.1483
G1 X26.046 Y69.559 E16.21409
G1 X25.635 Y69.092 E16.2322
G1 X24.798 Y67.992 E16.27243
G1 X24.531 Y67.598 E16.28628
G1 X23.82 Y66.416 E16.32642
G1 X23.599 Y65.999 E16.34015
G1 X23.019 Y64.746 E16.38034
G1 X22.806 Y64.191 E16.39764
G1 X22.199 Y62.212 E16.45788
G1 X22.065 Y61.638 E16.47503
G1 X21.841 Y60.275 E16.51523
G1 X21.789 Y59.801 E16.52911
G1 X21.715 Y58.425 E16.56921
G1 X21.716 Y57.95 E16.58304
G1 X21.793 Y56.547 E16.62393
G1 X21.867 Y55.948 E16.6415
G1 X22.271 Y53.881 E16.70279
G1 X22.426 Y53.301 E16.72026
G1 X22.882 Y51.971 E16.76118
G1 X23.063 Y51.526 E16.77516
G1 X23.661 Y50.256 E16.81601
G1 X23.895 Y49.823 E16.83034
G1 X24.632 Y48.628 E16.8712
G1 X24.979 Y48.144 E16.88853
G1 X26.319 Y46.517 E16.94987
G1 X26.822 Y46 E16.97086
G1 X28.266 Y44.742 E17.0266
G0 F648 X28.409 Y44.617
G0 X28.992 Y44.188
G0 F4320 X29.175 Y44.486
G1 F2400 E17.0532
G1 F720 X30.969 Y43.383 E17.11449
G1 X31.562 Y43.083 E17.13383
G1 X33.512 Y42.291 E17.19508
G1 X34.146 Y42.093 E17.21441
G1 X36.201 Y41.632 E17.2757
G1 X36.75 Y41.548 E17.29186
G1 X38.15 Y41.432 E17.33275
G1 X38.594 Y41.42 E17.34567
G1 X39.998 Y41.459 E17.38655
G1 X40.438 Y41.495 E17.3994
G1 X41.831 Y41.688 E17.44032
G1 X42.205 Y41.758 E17.4514
G1 X42.216 Y41.761 E17.45173
G1 X42.548 Y41.438 E17.46521
G1 X43.006 Y41.104 E17.48171
G1 X43.368 Y40.902 E17.49377
G1 X43.881 Y40.65 E17.51041
G1 X44.407 Y40.437 E17.52692
G1 X45.199 Y40.264 E17.55051
G1 X46.047 Y40.167 E17.57535
G1 X46.613 Y40.142 E17.59184
G1 X47.436 Y40.25 E17.616
