;FLAVOR:Marlin
;TIME:497
;Filament used: 0.56415m
;Layer height: 0.35
;Generated with Cura_SteamEngine 3.6.0
M140 S65
M105
M190 S65
M104 S205
M105
M109 S205
M82 ;absolute extrusion mode
G21;(metric values)
G90;(absolute positioning)
M82;(set extruder to absolute mode)
M107;(start with the fan off)
G28;(Home the printer)
G92 E0;(Reset the extruder to 0)
G0 Z5 E5 F500;(Move up and prime the nozzle)
G0 X-1 Z0;(Move outside the printable area)
G1 Y60 E8 F500;(Draw a priming/wiping line to the rear)
G1 X-1;(Move a little closer to the print area)
G1 Y10 E16 F500;(draw more priming/wiping)
G1 E15 F250;(Small retract)
G92 E0;(Zero the extruder)
G92 E0
G1 F2400 E-2.5
;LAYER_COUNT:5
;LAYER:0
M107
G0 F4320 X36.196 Y34.39 Z0.35
;TYPE:SKIRT
G1 F2400 E0
G1 F1800 X36.685 Y33.982 E0.03243
G1 X37.221 Y33.639 E0.06484
G1 X37.796 Y33.365 E0.09728
G1 X38.364 Y33.176 E0.12777
G1 X50.239 Y29.976 E0.75413
G1 X50.639 Y29.894 E0.77493
G1 X50.684 Y29.362 E0.80212
G1 X50.885 Y28.51 E0.8467
G1 X55.18 Y15.464 E1.54621
G1 X55.416 Y14.873 E1.57862
G1 X55.725 Y14.316 E1.61106
G1 X56.101 Y13.802 E1.6435
G1 X56.539 Y13.339 E1.67596
G1 X57.031 Y12.935 E1.70838
G1 X57.57 Y12.596 E1.74081
G1 X58.147 Y12.326 E1.77325
G1 X58.753 Y12.131 E1.80568
G1 X59.379 Y12.014 E1.83811
G1 X60.015 Y11.976 E1.87056
G1 X60.651 Y12.018 E1.90302
G1 X61.276 Y12.139 E1.93544
G1 X61.881 Y12.337 E1.96786
G1 X62.457 Y12.61 E2.00033
G1 X62.993 Y12.953 E2.03274
G1 X63.483 Y13.36 E2.06518
G1 X63.918 Y13.825 E2.09761
G1 X64.291 Y14.341 E2.13003
G1 X64.597 Y14.9 E2.16249
G1 X64.82 Y15.464 E2.19338
G1 X69.116 Y28.51 E2.8929
G1 X69.277 Y29.126 E2.92533
G1 X69.36 Y29.757 E2.95774
G1 X69.36 Y29.887 E2.96436
G1 X69.396 Y29.892 E2.96621
G1 X69.761 Y29.976 E2.98529
G1 X81.636 Y33.176 E3.61165
G1 X82.24 Y33.38 E3.64412
G1 X82.813 Y33.658 E3.67656
G1 X83.347 Y34.005 E3.70899
G1 X83.833 Y34.417 E3.74144
G1 X84.263 Y34.886 E3.77384
G1 X84.632 Y35.406 E3.80632
G1 X84.932 Y35.967 E3.83872
G1 X85.16 Y36.562 E3.87117
G1 X85.311 Y37.18 E3.90357
G1 X85.384 Y37.813 E3.93602
G1 X85.377 Y38.45 E3.96847
G1 X85.291 Y39.081 E4.0009
G1 X85.126 Y39.696 E4.03333
G1 X84.885 Y40.286 E4.06579
G1 X84.572 Y40.84 E4.09819
G1 X84.192 Y41.352 E4.13067
G1 X83.752 Y41.811 E4.16305
G1 X83.257 Y42.212 E4.1955
G1 X82.715 Y42.548 E4.22797
G1 X82.137 Y42.813 E4.26036
G1 X81.228 Y43.068 E4.30844
G1 X68.459 Y45.4 E4.96951
G1 X68.177 Y45.433 E4.98397
G1 X68.14 Y46.06 E5.01596
G1 X68.019 Y46.705 E5.04939
G1 X67.501 Y48.723 E5.15549
G1 X67.371 Y49.762 E5.20882
G1 X67.407 Y51.186 E5.28137
G1 X67.666 Y52.806 E5.36492
G1 X67.909 Y53.511 E5.4029
G1 X68.283 Y54.004 E5.43442
G1 X68.298 Y54.026 E5.43577
G1 X68.507 Y54.181 E5.44903
G1 X68.994 Y54.591 E5.48145
G1 X69.219 Y54.835 E5.49835
G1 X69.592 Y55.084 E5.52119
G1 X70.073 Y55.5 E5.55358
G1 X70.499 Y55.974 E5.58604
G1 X70.862 Y56.497 E5.61846
G1 X71.156 Y57.062 E5.6509
G1 X71.378 Y57.659 E5.68334
G1 X71.523 Y58.279 E5.71577
G1 X71.589 Y58.913 E5.74823
G1 X71.575 Y59.55 E5.78068
G1 X71.526 Y59.946 E5.801
G1 X65.008 Y99.537 E7.8445
G1 X64.865 Y100.158 E7.87695
G1 X64.646 Y100.756 E7.90939
G1 X64.353 Y101.322 E7.94185
G1 X63.992 Y101.846 E7.97425
G1 X63.568 Y102.322 E8.00672
G1 X63.088 Y102.74 E8.03914
G1 X62.559 Y103.095 E8.07158
G1 X61.99 Y103.381 E8.10401
G1 X61.39 Y103.594 E8.13644
G1 X60.768 Y103.73 E8.16887
G1 X60.134 Y103.786 E8.20128
G1 X59.497 Y103.763 E8.23375
G1 X58.869 Y103.66 E8.26616
G1 X58.258 Y103.48 E8.2986
G1 X57.675 Y103.224 E8.33103
G1 X57.128 Y102.897 E8.36348
G1 X56.627 Y102.504 E8.39591
G1 X56.178 Y102.052 E8.42836
G1 X55.79 Y101.547 E8.46079
G1 X55.468 Y100.998 E8.49321
G1 X55.218 Y100.412 E8.52566
G1 X54.992 Y99.537 E8.57168
G1 X48.474 Y59.946 E10.61518
G1 X48.411 Y59.313 E10.64758
G1 X48.427 Y58.676 E10.68003
G1 X48.522 Y58.046 E10.71248
G1 X48.696 Y57.434 E10.74488
G1 X48.945 Y56.848 E10.77731
G1 X49.266 Y56.297 E10.80978
G1 X49.653 Y55.792 E10.84219
G1 X50.1 Y55.338 E10.87464
G1 X50.601 Y54.944 E10.9071
G1 X50.764 Y54.841 E10.91692
G1 X50.797 Y54.801 E10.91956
G1 X51.499 Y54.174 E10.96749
G1 X51.703 Y54.023 E10.98042
G1 X51.721 Y53.996 E10.98207
G1 X52.091 Y53.51 E11.01318
G1 X52.336 Y52.804 E11.05124
G1 X52.593 Y51.188 E11.13458
G1 X52.629 Y49.762 E11.20723
G1 X52.497 Y48.716 E11.26092
G1 X51.982 Y46.705 E11.36665
G1 X51.91 Y46.328 E11.38619
G1 X51.625 Y46.31 E11.40074
G1 X51.013 Y46.193 E11.43247
G1 X38.433 Y42.994 E12.09356
G1 X37.827 Y42.799 E12.12598
G1 X37.25 Y42.529 E12.15842
G1 X36.712 Y42.189 E12.19084
G1 X36.22 Y41.785 E12.22326
G1 X35.783 Y41.322 E12.25568
G1 X35.407 Y40.808 E12.28812
G1 X35.098 Y40.25 E12.3206
G1 X34.862 Y39.659 E12.35301
G1 X34.702 Y39.043 E12.38543
G1 X34.62 Y38.411 E12.41788
G1 X34.618 Y37.774 E12.45033
G1 X34.696 Y37.142 E12.48276
G1 X34.852 Y36.525 E12.51517
G1 X35.084 Y35.932 E12.5476
G1 X35.389 Y35.372 E12.58008
G1 X35.762 Y34.856 E12.6125
G1 X35.842 Y34.771 E12.61845
G0 F1620 X36.196 Y34.39
G0 F4320 X36.261 Y34.819
G1 F2400 E12.64493
G1 F1800 X36.712 Y34.402 E12.67622
G1 X37.214 Y34.048 E12.7075
G1 X37.758 Y33.761 E12.73882
G1 X38.455 Y33.514 E12.77649
G1 X50.33 Y30.314 E13.40285
G1 X50.932 Y30.193 E13.43412
G1 X50.99 Y30.189 E13.43708
G1 X50.99 Y29.787 E13.45756
G1 X51.07 Y29.178 E13.48884
G1 X51.217 Y28.619 E13.51828
G1 X55.512 Y15.573 E14.21778
G1 X55.742 Y15.004 E14.24904
G1 X56.043 Y14.468 E14.28035
G1 X56.412 Y13.977 E14.31163
G1 X56.841 Y13.537 E14.34293
G1 X57.324 Y13.157 E14.37423
G1 X57.852 Y12.842 E14.40554
G1 X58.416 Y12.599 E14.43682
G1 X59.008 Y12.431 E14.46816
G1 X59.615 Y12.342 E14.4994
G1 X60.23 Y12.332 E14.53073
G1 X60.84 Y12.401 E14.56199
G1 X61.437 Y12.55 E14.59333
G1 X62.009 Y12.774 E14.62462
G1 X62.547 Y13.071 E14.65591
G1 X63.042 Y13.435 E14.68721
G1 X63.485 Y13.861 E14.71851
G1 X63.87 Y14.34 E14.74981
G1 X64.189 Y14.865 E14.78109
G1 X64.488 Y15.573 E14.82024
G1 X68.784 Y28.619 E15.51976
G1 X68.938 Y29.214 E15.55106
G1 X69.013 Y29.824 E15.58236
G1 X69.011 Y30.193 E15.60116
G1 X69.67 Y30.314 E15.63528
G1 X81.545 Y33.514 E16.26164
G1 X82.127 Y33.712 E16.29295
G1 X82.678 Y33.984 E16.32425
G1 X83.189 Y34.325 E16.35553
G1 X83.652 Y34.73 E16.38686
G1 X84.058 Y35.191 E16.41815
G1 X84.401 Y35.701 E16.44945
G1 X84.674 Y36.251 E16.48072
G1 X84.874 Y36.832 E16.51202
G1 X84.997 Y37.434 E16.54331
G1 X85.041 Y38.047 E16.57461
G1 X85.005 Y38.66 E16.60588
G1 X84.889 Y39.264 E16.63721
G1 X84.696 Y39.847 E16.66848
G1 X84.429 Y40.401 E16.6998
G1 X84.093 Y40.915 E16.73108
G1 X83.693 Y41.381 E16.76236
G1 X83.235 Y41.791 E16.79366
G1 X82.728 Y42.139 E16.82498
G1 X82.181 Y42.418 E16.85626
G1 X81.601 Y42.623 E16.88759
G1 X81.165 Y42.724 E16.91038
G1 X68.396 Y45.056 E17.57145
G1 X67.824 Y45.122 E17.60078
G1 X67.827 Y45.159 E17.60267
G1 X67.828 Y45.425 E17.61622
G1 X67.79 Y46.039 E17.64755
G1 X67.68 Y46.618 E17.67756
G1 X67.155 Y48.663 E17.78509
G1 X67.02 Y49.741 E17.84042
G1 X67.058 Y51.221 E17.91582
G1 X67.324 Y52.889 E18.00185
G1 X67.596 Y53.679 E18.0444
G1 X68.004 Y54.216 E18.07875
G1 X68.04 Y54.27 E18.08205
G1 X68.299 Y54.462 E18.09847
G1 X68.768 Y54.859 E18.12977
G1 X68.989 Y55.102 E18.1465
G1 X69.397 Y55.375 E18.1715
G1 X69.859 Y55.781 E18.20282
G1 X70.264 Y56.242 E18.23407
G1 X70.606 Y56.753 E18.26539
G1 X70.879 Y57.303 E18.29666
G1 X71.078 Y57.885 E18.32799
G1 X71.2 Y58.487 E18.35927
G1 X71.243 Y59.1 E18.39057
G1 X71.18 Y59.89 E18.43093
G1 X64.662 Y99.481 E20.47443
G1 X64.523 Y100.079 E20.50569
G1 X64.308 Y100.655 E20.53701
G1 X64.019 Y101.197 E20.56829
G1 X63.663 Y101.698 E20.59959
G1 X63.245 Y102.148 E20.63087
G1 X62.771 Y102.54 E20.6622
G1 X62.251 Y102.867 E20.69348
G1 X61.693 Y103.124 E20.72477
G1 X61.106 Y103.307 E20.75608
G1 X60.501 Y103.411 E20.78735
G1 X59.887 Y103.437 E20.81865
G1 X59.275 Y103.382 E20.84994
G1 X58.675 Y103.248 E20.88125
G1 X58.098 Y103.038 E20.91252
G1 X57.552 Y102.755 E20.94385
G1 X57.049 Y102.403 E20.97511
G1 X56.595 Y101.989 E21.00641
G1 X56.198 Y101.519 E21.03774
G1 X55.866 Y101.002 E21.06903
G1 X55.604 Y100.446 E21.10033
G1 X55.417 Y99.861 E21.13161
G1 X55.338 Y99.481 E21.15138
G1 X48.82 Y59.89 E23.19488
G1 X48.76 Y59.278 E23.22619
G1 X48.779 Y58.664 E23.25748
G1 X48.878 Y58.057 E23.2888
G1 X49.056 Y57.469 E23.32009
G1 X49.308 Y56.909 E23.35137
G1 X49.63 Y56.386 E23.38265
G1 X50.018 Y55.909 E23.41396
G1 X50.464 Y55.486 E23.44527
G1 X50.994 Y55.118 E23.47813
G1 X51.142 Y54.946 E23.48969
G1 X51.707 Y54.456 E23.52778
G1 X51.96 Y54.269 E23.5438
G1 X52 Y54.209 E23.54747
G1 X52.403 Y53.68 E23.58134
G1 X52.677 Y52.889 E23.62397
G1 X52.942 Y51.23 E23.70954
G1 X52.978 Y49.734 E23.78575
G1 X52.843 Y48.656 E23.84108
G1 X52.321 Y46.618 E23.94823
G1 X52.207 Y46.014 E23.97953
G1 X52.206 Y45.99 E23.98075
G1 X51.981 Y45.991 E23.99221
G1 X51.1 Y45.854 E24.03762
G1 X38.52 Y42.655 E24.69871
G1 X37.935 Y42.465 E24.73003
G1 X37.38 Y42.201 E24.76133
G1 X36.864 Y41.867 E24.79264
G1 X36.396 Y41.469 E24.82393
G1 X35.984 Y41.014 E24.85519
G1 X35.634 Y40.509 E24.88648
G1 X35.352 Y39.963 E24.91778
G1 X35.144 Y39.385 E24.94906
G1 X35.012 Y38.784 E24.9804
G1 X34.96 Y38.172 E25.01168
G1 X34.987 Y37.558 E25.04298
G1 X35.094 Y36.953 E25.07427
G1 X35.279 Y36.367 E25.10557
G1 X35.538 Y35.81 E25.13685
G1 X35.867 Y35.291 E25.16815
G1 X35.928 Y35.218 E25.173
G0 F1620 X36.261 Y34.819
G0 F4320 X36.771 Y34.812
G1 F2400 E25.19948
G1 F1800 X37.238 Y34.449 E25.2296
G1 X37.749 Y34.152 E25.2597
G1 X38.546 Y33.852 E25.30308
G1 X50.421 Y30.652 E25.92944
G1 X51.001 Y30.537 E25.95955
G1 X51.36 Y30.515 E25.97787
G1 X51.331 Y30.178 E25.9951
G1 X51.36 Y29.588 E26.02518
G1 X51.549 Y28.729 E26.06998
G1 X55.844 Y15.683 E26.76949
G1 X56.067 Y15.135 E26.79962
G1 X56.361 Y14.622 E26.82973
G1 X56.722 Y14.154 E26.85983
G1 X57.142 Y13.738 E26.88994
G1 X57.615 Y13.383 E26.92006
G1 X58.132 Y13.095 E26.9502
G1 X58.682 Y12.879 E26.98029
G1 X59.257 Y12.74 E27.01042
G1 X59.845 Y12.679 E27.04053
G1 X60.436 Y12.698 E27.07064
G1 X61.019 Y12.796 E27.10075
G1 X61.583 Y12.972 E27.13084
G1 X62.119 Y13.223 E27.16099
G1 X62.615 Y13.544 E27.19108
G1 X63.064 Y13.928 E27.22117
G1 X63.457 Y14.37 E27.25129
G1 X63.787 Y14.861 E27.28142
G1 X64.048 Y15.392 E27.31155
G1 X64.155 Y15.683 E27.32734
G1 X68.451 Y28.729 E28.02687
G1 X68.598 Y29.301 E28.05694
G1 X68.666 Y29.889 E28.08709
G1 X68.654 Y30.48 E28.1172
G1 X68.649 Y30.515 E28.119
G1 X69.056 Y30.545 E28.13978
G1 X69.579 Y30.652 E28.16697
G1 X81.454 Y33.852 E28.79333
G1 X82.014 Y34.044 E28.82348
G1 X82.542 Y34.309 E28.85357
G1 X83.029 Y34.644 E28.88367
G1 X83.467 Y35.041 E28.91378
G1 X83.848 Y35.494 E28.94393
G1 X84.164 Y35.994 E28.97405
G1 X84.409 Y36.531 E29.00411
G1 X84.58 Y37.097 E29.03423
G1 X84.673 Y37.681 E29.06434
G1 X84.687 Y38.272 E29.09445
G1 X84.62 Y38.86 E29.12459
G1 X84.475 Y39.433 E29.15469
G1 X84.254 Y39.982 E29.18483
G1 X83.961 Y40.495 E29.21492
G1 X83.602 Y40.965 E29.24504
G1 X83.182 Y41.381 E29.27515
G1 X82.71 Y41.738 E29.30529
G1 X82.195 Y42.027 E29.33537
G1 X81.645 Y42.244 E29.36548
G1 X81.102 Y42.38 E29.39399
G1 X68.333 Y44.712 E30.05507
G1 X67.746 Y44.778 E30.08515
G1 X67.455 Y44.772 E30.09997
G1 X67.477 Y45.161 E30.11982
G1 X67.478 Y45.427 E30.13336
G1 X67.44 Y46.017 E30.16347
G1 X67.341 Y46.531 E30.19013
G1 X66.811 Y48.596 E30.29871
G1 X66.67 Y49.719 E30.35635
G1 X66.71 Y51.262 E30.43497
G1 X66.983 Y52.973 E30.52321
G1 X67.283 Y53.845 E30.57017
G1 X67.725 Y54.427 E30.60739
G1 X67.783 Y54.515 E30.61276
G1 X68.091 Y54.743 E30.63228
G1 X68.541 Y55.127 E30.66241
G1 X68.756 Y55.366 E30.67878
G1 X69.201 Y55.666 E30.70611
G1 X69.643 Y56.06 E30.73627
G1 X70.027 Y56.509 E30.76636
G1 X70.347 Y57.006 E30.79646
G1 X70.598 Y57.542 E30.82661
G1 X70.773 Y58.106 E30.85668
G1 X70.872 Y58.689 E30.8868
G1 X70.89 Y59.28 E30.91691
G1 X70.835 Y59.833 E30.94521
G1 X64.317 Y99.424 E32.98871
G1 X64.182 Y99.999 E33.01879
G1 X63.97 Y100.551 E33.04891
G1 X63.686 Y101.07 E33.07904
G1 X63.334 Y101.545 E33.10915
G1 X62.922 Y101.969 E33.13926
G1 X62.456 Y102.333 E33.16937
G1 X61.946 Y102.632 E33.19948
G1 X61.4 Y102.858 E33.22958
G1 X60.828 Y103.009 E33.25971
G1 X60.241 Y103.081 E33.28983
G1 X59.65 Y103.074 E33.31993
G1 X59.065 Y102.987 E33.35005
G1 X58.497 Y102.822 E33.38017
G1 X57.957 Y102.582 E33.41027
G1 X57.454 Y102.271 E33.44039
G1 X56.997 Y101.895 E33.47053
G1 X56.596 Y101.461 E33.50062
G1 X56.256 Y100.977 E33.53075
G1 X55.985 Y100.452 E33.56084
G1 X55.788 Y99.894 E33.59097
G1 X55.683 Y99.424 E33.6155
G1 X49.165 Y59.833 E35.659
G1 X49.109 Y59.244 E35.68913
G1 X49.132 Y58.653 E35.71925
G1 X49.235 Y58.071 E35.74935
G1 X49.416 Y57.508 E35.77947
G1 X49.67 Y56.974 E35.80959
G1 X49.995 Y56.48 E35.8397
G1 X50.383 Y56.034 E35.86981
G1 X50.827 Y55.644 E35.89991
G1 X51.236 Y55.372 E35.92492
G1 X51.487 Y55.097 E35.94389
G1 X51.915 Y54.738 E35.97234
G1 X52.211 Y54.519 E35.99109
G1 X52.278 Y54.421 E35.99714
G1 X52.714 Y53.848 E36.03381
G1 X53.019 Y52.968 E36.08124
G1 X53.291 Y51.264 E36.16912
G1 X53.329 Y49.719 E36.24783
G1 X53.187 Y48.588 E36.30589
G1 X52.66 Y46.531 E36.41403
G1 X52.552 Y45.95 E36.44413
G1 X52.533 Y45.632 E36.46035
G1 X52.303 Y45.65 E36.4721
G1 X51.712 Y45.615 E36.50226
G1 X51.186 Y45.515 E36.52952
G1 X38.606 Y42.316 E37.19061
G1 X38.044 Y42.132 E37.22073
G1 X37.512 Y41.874 E37.25084
G1 X37.02 Y41.546 E37.28095
G1 X36.576 Y41.155 E37.31109
G1 X36.189 Y40.708 E37.3412
G1 X35.866 Y40.213 E37.3713
G1 X35.613 Y39.679 E37.40139
G1 X35.434 Y39.115 E37.43153
G1 X35.333 Y38.532 E37.46166
G1 X35.311 Y37.942 E37.49173
G1 X35.369 Y37.353 E37.52188
G1 X35.506 Y36.778 E37.55198
G1 X35.719 Y36.226 E37.58211
G1 X36.005 Y35.709 E37.61221
G1 X36.358 Y35.234 E37.64235
G1 X36.407 Y35.183 E37.64595
G0 F1620 X36.771 Y34.812
G0 F4320 X36.861 Y35.207
G1 F2400 E37.67243
G1 F1800 X37.292 Y34.839 E37.70129
G1 X37.771 Y34.535 E37.73019
G1 X38.287 Y34.301 E37.75904
G1 X38.637 Y34.19 E37.77774
G1 X50.512 Y30.99 E38.40411
G1 X51.068 Y30.881 E38.43296
G1 X51.635 Y30.852 E38.46188
G1 X51.763 Y30.863 E38.46842
G1 X51.703 Y30.53 E38.48565
G1 X51.682 Y29.963 E38.51455
G1 X51.741 Y29.399 E38.54343
G1 X51.882 Y28.838 E38.57289
G1 X56.177 Y15.792 E39.2724
G1 X56.392 Y15.268 E39.30125
G1 X56.678 Y14.778 E39.33014
G1 X57.031 Y14.334 E39.35903
G1 X57.442 Y13.943 E39.38792
G1 X57.904 Y13.615 E39.41678
G1 X58.408 Y13.354 E39.44568
G1 X58.943 Y13.167 E39.47455
G1 X59.5 Y13.057 E39.50346
G1 X60.066 Y13.027 E39.53233
G1 X60.631 Y13.076 E39.56121
G1 X61.183 Y13.204 E39.59007
G1 X61.712 Y13.408 E39.61895
G1 X62.207 Y13.685 E39.64784
G1 X62.658 Y14.029 E39.67672
G1 X63.057 Y14.432 E39.70561
G1 X63.394 Y14.888 E39.73448
G1 X63.665 Y15.386 E39.76336
G1 X63.823 Y15.792 E39.78555
G1 X68.119 Y28.838 E40.48507
G1 X68.258 Y29.388 E40.51396
G1 X68.318 Y29.952 E40.54285
G1 X68.299 Y30.519 E40.57174
G1 X68.238 Y30.865 E40.58964
G1 X68.627 Y30.855 E40.60946
G1 X69.19 Y30.921 E40.63833
G1 X69.488 Y30.99 E40.6539
G1 X81.363 Y34.19 E41.28027
G1 X81.899 Y34.375 E41.30914
G1 X82.403 Y34.635 E41.33803
G1 X82.866 Y34.962 E41.3669
G1 X83.279 Y35.352 E41.39583
G1 X83.632 Y35.795 E41.42467
G1 X83.92 Y36.284 E41.45358
G1 X84.136 Y36.808 E41.48244
G1 X84.276 Y37.357 E41.5113
G1 X84.338 Y37.921 E41.5402
G1 X84.32 Y38.488 E41.56909
G1 X84.222 Y39.047 E41.59799
G1 X84.047 Y39.586 E41.62685
G1 X83.798 Y40.095 E41.65571
G1 X83.479 Y40.565 E41.68464
G1 X83.098 Y40.985 E41.71352
G1 X82.662 Y41.347 E41.74238
G1 X82.179 Y41.644 E41.77126
G1 X81.659 Y41.87 E41.80014
G1 X81.039 Y42.036 E41.83283
G1 X68.27 Y44.368 E42.4939
G1 X67.706 Y44.43 E42.5228
G1 X67.14 Y44.412 E42.55164
G1 X67.045 Y44.395 E42.55656
G1 X67.114 Y44.858 E42.5804
G1 X67.127 Y45.162 E42.59589
G1 X67.128 Y45.428 E42.60944
G1 X67.09 Y45.994 E42.63833
G1 X67.002 Y46.444 E42.66168
G1 X66.467 Y48.528 E42.77126
G1 X66.32 Y49.705 E42.83167
G1 X66.36 Y51.288 E42.91232
G1 X66.643 Y53.062 E43.00381
G1 X66.971 Y54.013 E43.05504
G1 X67.446 Y54.639 E43.09507
G1 X67.525 Y54.76 E43.10243
G1 X67.883 Y55.025 E43.12511
G1 X68.314 Y55.393 E43.15397
G1 X68.525 Y55.633 E43.17025
G1 X68.535 Y55.639 E43.17084
G1 X69.005 Y55.957 E43.19974
G1 X69.425 Y56.338 E43.22862
G1 X69.787 Y56.774 E43.25749
G1 X70.085 Y57.257 E43.28639
G1 X70.312 Y57.777 E43.31529
G1 X70.463 Y58.323 E43.34414
G1 X70.536 Y58.886 E43.37305
