;FLAVOR:Marlin
;TIME:3484
;Filament used: 2.34389m
;Layer height: 0.175
;Generated with Cura_SteamEngine 3.6.0
M140 S65
M105
M190 S65
M104 S205
M105
M109 S205
M82 ;absolute extrusion mode
G21;(metric values)
G90;(absolute positioning)
M82;(set extruder to absolute mode)
M107;(start with the fan off)
G28;(Home the printer)
G92 E0;(Reset the extruder to 0)
G0 Z5 E5 F500;(Move up and prime the nozzle)
G0 X-1 Z0;(Move outside the printable area)
G1 Y60 E8 F500;(Draw a priming/wiping line to the rear)
G1 X-1;(Move a little closer to the print area)
G1 Y10 E16 F500;(draw more priming/wiping)
G1 E15 F250;(Small retract)
G92 E0;(Zero the extruder)
G92 E0
G1 F2400 E-2.5
;LAYER_COUNT:469
;LAYER:0
M107
G0 F4320 X36.032 Y26.395 Z0.263
;TYPE:SKIRT
G1 F2400 E0
G1 F1800 X36.438 Y25.904 E0.02438
G1 X36.902 Y25.468 E0.04875
G1 X37.417 Y25.093 E0.07313
G1 X37.974 Y24.786 E0.09747
G1 X38.566 Y24.551 E0.12184
G1 X39.183 Y24.392 E0.14623
G1 X39.815 Y24.311 E0.17061
G1 X40.146 Y24.301 E0.18329
G1 X46.89 Y24.31 E0.44138
G1 X47.525 Y24.351 E0.46573
G1 X47.922 Y24.417 E0.48113
G1 X48.649 Y24.569 E0.50956
G1 X49.263 Y24.739 E0.53394
G1 X50.02 Y25.071 E0.56557
G1 X50.889 Y25.54 E0.60336
G1 X51.43 Y25.877 E0.62776
G1 X52.068 Y26.417 E0.65974
G1 X52.595 Y26.944 E0.68827
G1 X53.016 Y27.422 E0.71264
G1 X53.369 Y27.941 E0.73666
G1 X53.748 Y28.579 E0.76506
G1 X54.038 Y29.146 E0.78944
G1 X54.303 Y29.918 E0.82067
G1 X54.547 Y30.876 E0.8585
G1 X54.665 Y31.502 E0.88288
G1 X54.704 Y32.121 E0.90662
G1 X54.715 Y38.868 E1.16483
G1 X54.676 Y39.503 E1.18917
G1 X54.558 Y40.129 E1.21355
G1 X54.362 Y40.735 E1.23793
G1 X54.092 Y41.312 E1.26231
G1 X53.752 Y41.85 E1.28666
G1 X53.347 Y42.342 E1.31105
G1 X52.884 Y42.779 E1.33542
G1 X52.369 Y43.155 E1.35982
G1 X51.812 Y43.463 E1.38418
G1 X51.22 Y43.699 E1.40857
G1 X50.604 Y43.859 E1.43292
G1 X49.972 Y43.94 E1.45731
G1 X49.64 Y43.951 E1.47002
G1 X40.139 Y43.951 E1.83362
G1 X39.503 Y43.911 E1.85801
G1 X38.878 Y43.792 E1.88236
G1 X38.272 Y43.595 E1.90675
G1 X37.696 Y43.324 E1.93111
G1 X37.158 Y42.983 E1.95548
G1 X36.667 Y42.577 E1.97987
G1 X36.231 Y42.113 E2.00423
G1 X35.856 Y41.598 E2.02861
G1 X35.549 Y41.041 E2.05295
G1 X35.314 Y40.449 E2.07733
G1 X35.155 Y39.832 E2.10171
G1 X35.074 Y39.2 E2.1261
G1 X35.064 Y38.876 E2.1385
G1 X35.064 Y29.376 E2.50207
G1 X35.104 Y28.74 E2.52645
G1 X35.223 Y28.115 E2.5508
G1 X35.42 Y27.509 E2.57519
G1 X35.667 Y26.985 E2.59736
G0 F1620 X35.691 Y26.933
G0 X36.032 Y26.395
G0 F4320 X36.38 Y26.514
G1 F2400 E2.62392
G1 F1800 X36.783 Y26.05 E2.64744
G1 X37.243 Y25.643 E2.67094
G1 X37.752 Y25.298 E2.69448
G1 X38.301 Y25.023 E2.71797
G1 X38.882 Y24.821 E2.74152
G1 X39.483 Y24.697 E2.765
G1 X40.145 Y24.651 E2.7904
G1 X46.889 Y24.66 E3.04849
G1 X47.502 Y24.701 E3.072
G1 X47.85 Y24.76 E3.08551
G1 X48.577 Y24.912 E3.11393
G1 X49.169 Y25.077 E3.13745
G1 X49.854 Y25.379 E3.1661
G1 X50.723 Y25.848 E3.20389
G1 X51.244 Y26.174 E3.22741
G1 X51.82 Y26.665 E3.25638
G1 X52.347 Y27.192 E3.2849
G1 X52.752 Y27.654 E3.30841
G1 X53.068 Y28.12 E3.32996
G1 X53.447 Y28.758 E3.35836
G1 X53.726 Y29.305 E3.38186
G1 X53.964 Y30.005 E3.41015
G1 X54.208 Y30.963 E3.44799
G1 X54.32 Y31.567 E3.4715
G1 X54.354 Y32.121 E3.49274
G1 X54.365 Y38.868 E3.75095
G1 X54.326 Y39.482 E3.77449
G1 X54.208 Y40.085 E3.798
G1 X54.012 Y40.667 E3.82151
G1 X53.743 Y41.219 E3.84501
G1 X53.404 Y41.732 E3.86854
G1 X53.002 Y42.196 E3.89203
G1 X52.542 Y42.605 E3.91559
G1 X52.034 Y42.95 E3.93909
G1 X51.485 Y43.226 E3.96261
G1 X50.905 Y43.429 E3.98612
G1 X50.303 Y43.554 E4.00965
G1 X49.64 Y43.601 E4.03509
G1 X40.139 Y43.601 E4.39869
G1 X39.526 Y43.561 E4.4222
G1 X38.923 Y43.442 E4.44572
G1 X38.341 Y43.245 E4.46924
G1 X37.789 Y42.975 E4.49275
G1 X37.277 Y42.635 E4.51628
G1 X36.813 Y42.232 E4.5398
G1 X36.406 Y41.772 E4.5633
G1 X36.061 Y41.263 E4.58683
G1 X35.786 Y40.714 E4.61033
G1 X35.584 Y40.133 E4.63387
G1 X35.46 Y39.532 E4.65736
G1 X35.414 Y38.876 E4.68252
G1 X35.414 Y29.376 E5.04609
G1 X35.454 Y28.763 E5.0696
G1 X35.573 Y28.16 E5.09312
G1 X35.77 Y27.578 E5.11663
G1 X36.005 Y27.097 E5.13712
G0 F1620 X36.04 Y27.026
G0 X36.38 Y26.514
G0 F4320 X36.727 Y26.638
G1 F2400 E5.16368
G1 F1800 X37.127 Y26.203 E5.1863
G1 X37.583 Y25.826 E5.20894
G1 X38.085 Y25.513 E5.23158
G1 X38.624 Y25.272 E5.25417
G1 X39.192 Y25.105 E5.27683
G1 X39.776 Y25.016 E5.29944
G1 X40.145 Y25.001 E5.31357
G1 X46.889 Y25.01 E5.57167
G1 X47.479 Y25.051 E5.5943
G1 X47.778 Y25.103 E5.60591
G1 X48.505 Y25.255 E5.63434
G1 X49.075 Y25.414 E5.65698
G1 X49.688 Y25.687 E5.68267
G1 X50.557 Y26.156 E5.72046
G1 X51.057 Y26.471 E5.74307
G1 X51.573 Y26.912 E5.76905
G1 X52.1 Y27.439 E5.79757
G1 X52.488 Y27.885 E5.82019
G1 X52.767 Y28.299 E5.8393
G1 X53.146 Y28.937 E5.8677
G1 X53.413 Y29.464 E5.89031
G1 X53.625 Y30.091 E5.91564
G1 X53.869 Y31.049 E5.95347
G1 X53.976 Y31.631 E5.97612
G1 X54.004 Y32.122 E5.99494
G1 X54.015 Y38.869 E6.25315
G1 X53.976 Y39.459 E6.27578
G1 X53.858 Y40.038 E6.29839
G1 X53.663 Y40.596 E6.32101
G1 X53.394 Y41.123 E6.34365
G1 X53.057 Y41.609 E6.36629
G1 X52.657 Y42.044 E6.3889
G1 X52.202 Y42.422 E6.41154
G1 X51.701 Y42.735 E6.43415
G1 X51.161 Y42.978 E6.45681
G1 X50.594 Y43.146 E6.47944
G1 X50.01 Y43.235 E6.50205
G1 X49.64 Y43.251 E6.51622
G1 X40.139 Y43.251 E6.87982
G1 X39.549 Y43.211 E6.90246
G1 X38.97 Y43.092 E6.92508
G1 X38.412 Y42.896 E6.94771
G1 X37.886 Y42.626 E6.97034
G1 X37.401 Y42.288 E6.99296
G1 X36.966 Y41.888 E7.01558
G1 X36.589 Y41.432 E7.03822
G1 X36.276 Y40.93 E7.06086
G1 X36.035 Y40.391 E7.08346
G1 X35.868 Y39.823 E7.10611
G1 X35.779 Y39.239 E7.12872
G1 X35.764 Y38.876 E7.14262
G1 X35.764 Y29.376 E7.50619
G1 X35.804 Y28.786 E7.52882
G1 X35.923 Y28.207 E7.55144
G1 X36.119 Y27.649 E7.57408
G1 X36.342 Y27.214 E7.59278
G0 F1620 X36.389 Y27.123
G0 X36.727 Y26.638
G0 F4320 X36.737 Y27.224
G1 F2400 E7.61934
G1 F1800 X37.074 Y26.768 E7.64104
G1 X37.471 Y26.363 E7.66275
G1 X37.921 Y26.017 E7.68447
G1 X38.415 Y25.739 E7.70616
G1 X38.943 Y25.533 E7.72785
G1 X39.495 Y25.403 E7.74956
G1 X40.144 Y25.351 E7.77447
G1 X46.888 Y25.36 E8.03257
G1 X47.707 Y25.445 E8.06408
G1 X48.434 Y25.597 E8.0925
G1 X48.979 Y25.752 E8.11418
G1 X49.522 Y25.995 E8.13695
G1 X50.391 Y26.464 E8.17474
G1 X50.869 Y26.768 E8.19642
G1 X51.325 Y27.16 E8.21943
G1 X51.852 Y27.687 E8.24796
G1 X52.224 Y28.115 E8.26966
G1 X52.466 Y28.477 E8.28632
G1 X52.845 Y29.115 E8.31472
G1 X53.1 Y29.622 E8.33644
G1 X53.285 Y30.178 E8.35887
G1 X53.529 Y31.136 E8.3967
G1 X53.63 Y31.694 E8.4184
G1 X53.654 Y32.122 E8.43481
G1 X53.665 Y38.869 E8.69301
G1 X53.626 Y39.435 E8.71473
G1 X53.508 Y39.99 E8.73644
G1 X53.313 Y40.522 E8.75812
G1 X53.045 Y41.022 E8.77983
G1 X52.71 Y41.479 E8.80152
G1 X52.313 Y41.885 E8.82325
G1 X51.864 Y42.231 E8.84494
G1 X51.37 Y42.51 E8.86666
G1 X50.842 Y42.717 E8.88836
G1 X50.29 Y42.848 E8.91007
G1 X49.64 Y42.901 E8.93503
G1 X40.139 Y42.901 E9.29863
G1 X39.573 Y42.861 E9.32035
G1 X39.019 Y42.742 E9.34203
G1 X38.487 Y42.546 E9.36373
G1 X37.987 Y42.278 E9.38544
G1 X37.531 Y41.941 E9.40714
G1 X37.126 Y41.544 E9.42884
G1 X36.78 Y41.094 E9.45057
G1 X36.502 Y40.6 E9.47226
G1 X36.296 Y40.072 E9.49395
G1 X36.166 Y39.52 E9.51565
G1 X36.114 Y38.876 E9.54038
G1 X36.114 Y29.376 E9.90394
G1 X36.154 Y28.81 E9.92566
G1 X36.273 Y28.256 E9.94734
G1 X36.426 Y27.843 E9.9642
G0 F1620 X36.469 Y27.724
G0 X36.737 Y27.224
G0 F4320 X37.086 Y27.33
G1 F2400 E9.99076
G1 F1800 X37.42 Y26.904 E10.01148
G1 X37.813 Y26.531 E10.03221
G1 X38.257 Y26.22 E10.05296
G1 X38.741 Y25.977 E10.07368
G1 X39.256 Y25.809 E10.09441
G1 X39.79 Y25.718 E10.11514
G1 X40.144 Y25.701 E10.12871
G1 X46.888 Y25.71 E10.3868
G1 X47.635 Y25.788 E10.41554
G1 X48.362 Y25.94 E10.44397
G1 X48.883 Y26.089 E10.46471
G1 X49.355 Y26.303 E10.48454
G1 X50.224 Y26.772 E10.52233
G1 X50.681 Y27.064 E10.54308
G1 X51.078 Y27.407 E10.56316
G1 X51.605 Y27.934 E10.59168
G1 X51.958 Y28.345 E10.61242
G1 X52.166 Y28.656 E10.62674
G1 X52.545 Y29.294 E10.65514
G1 X52.786 Y29.779 E10.67586
G1 X52.946 Y30.264 E10.69541
G1 X53.19 Y31.222 E10.73324
G1 X53.285 Y31.755 E10.75396
G1 X53.304 Y32.123 E10.76806
G1 X53.315 Y38.87 E11.02627
G1 X53.276 Y39.41 E11.04699
G1 X53.158 Y39.939 E11.06773
G1 X52.963 Y40.445 E11.08848
G1 X52.696 Y40.917 E11.10924
G1 X52.363 Y41.344 E11.12996
G1 X51.971 Y41.717 E11.15067
G1 X51.528 Y42.029 E11.17141
G1 X51.043 Y42.272 E11.19217
G1 X50.529 Y42.442 E11.21288
G1 X49.995 Y42.534 E11.23362
G1 X49.64 Y42.551 E11.24722
G1 X40.139 Y42.551 E11.61083
G1 X39.599 Y42.511 E11.63155
G1 X39.07 Y42.392 E11.6523
G1 X38.565 Y42.197 E11.67302
G1 X38.093 Y41.929 E11.69379
G1 X37.667 Y41.595 E11.7145
G1 X37.294 Y41.202 E11.73524
G1 X36.983 Y40.758 E11.75599
G1 X36.74 Y40.274 E11.77671
G1 X36.572 Y39.759 E11.79744
G1 X36.481 Y39.225 E11.81817
G1 X36.464 Y38.876 E11.83155
G1 X36.464 Y29.376 E12.19511
G1 X36.504 Y28.836 E12.21583
G1 X36.623 Y28.307 E12.23658
G1 X36.764 Y27.943 E12.25152
G0 F1620 X36.818 Y27.802
G0 X37.086 Y27.33
G0 F4320 X37.434 Y27.442
G1 F2400 E12.27808
G1 F1800 X37.765 Y27.048 E12.29777
G1 X38.154 Y26.709 E12.31752
G1 X38.59 Y26.434 E12.33725
G1 X39.063 Y26.23 E12.35696
G1 X39.562 Y26.101 E12.37669
G1 X40.143 Y26.051 E12.399
G1 X46.887 Y26.06 E12.6571
G1 X47.563 Y26.13 E12.68311
G1 X48.29 Y26.282 E12.71153
G1 X48.785 Y26.427 E12.73127
G1 X49.189 Y26.611 E12.74826
G1 X50.058 Y27.08 E12.78605
G1 X50.491 Y27.359 E12.80576
G1 X50.83 Y27.655 E12.82298
G1 X51.357 Y28.182 E12.85151
G1 X51.692 Y28.573 E12.87121
G1 X51.865 Y28.835 E12.88323
G1 X52.244 Y29.473 E12.91163
G1 X52.472 Y29.935 E12.93134
G1 X52.607 Y30.35 E12.94804
G1 X52.851 Y31.308 E12.98588
G1 X52.939 Y31.816 E13.00561
G1 X52.954 Y32.124 E13.01741
G1 X52.965 Y38.871 E13.27562
G1 X52.926 Y39.384 E13.29531
G1 X52.808 Y39.886 E13.31504
G1 X52.614 Y40.364 E13.33478
G1 X52.348 Y40.805 E13.35449
G1 X52.017 Y41.2 E13.37422
G1 X51.63 Y41.54 E13.39393
G1 X51.194 Y41.815 E13.41366
G1 X50.721 Y42.02 E13.43339
G1 X50.222 Y42.15 E13.45312
G1 X49.64 Y42.201 E13.47548
G1 X40.139 Y42.201 E13.83908
G1 X39.625 Y42.161 E13.85881
G1 X39.124 Y42.042 E13.87852
G1 X38.647 Y41.847 E13.89824
G1 X38.205 Y41.581 E13.91798
G1 X37.811 Y41.25 E13.93767
G1 X37.472 Y40.861 E13.95742
G1 X37.197 Y40.425 E13.97715
G1 X36.993 Y39.952 E13.99686
G1 X36.864 Y39.453 E14.01659
G1 X36.814 Y38.876 E14.03875
G1 X36.814 Y29.376 E14.40232
G1 X36.854 Y28.862 E14.42205
G1 X36.973 Y28.361 E14.44175
G1 X37.101 Y28.049 E14.45466
G0 F1620 X37.168 Y27.884
G0 X37.434 Y27.442
G0 F4320 X37.782 Y27.561
G1 F2400 E14.48122
G1 F1800 X38.11 Y27.201 E14.49986
G1 X38.492 Y26.898 E14.51852
G1 X38.919 Y26.663 E14.53717
G1 X39.378 Y26.5 E14.55581
G1 X39.858 Y26.414 E14.57447
G1 X40.143 Y26.401 E14.58539
G1 X46.887 Y26.41 E14.84348
G1 X47.492 Y26.473 E14.86676
G1 X48.219 Y26.625 E14.89518
G1 X48.686 Y26.763 E14.91382
G1 X49.023 Y26.919 E14.92803
G1 X49.892 Y27.388 E14.96582
G1 X50.301 Y27.654 E14.98449
G1 X50.583 Y27.902 E14.99887
G1 X51.11 Y28.429 E15.02739
G1 X51.425 Y28.801 E15.04604
G1 X51.564 Y29.014 E15.05578
G1 X51.943 Y29.652 E15.08418
G1 X52.157 Y30.09 E15.10283
G1 X52.268 Y30.437 E15.11677
G1 X52.512 Y31.395 E15.15461
G1 X52.593 Y31.875 E15.17324
G1 X52.604 Y32.124 E15.18278
G1 X52.615 Y38.871 E15.44098
G1 X52.576 Y39.357 E15.45964
G1 X52.458 Y39.83 E15.4783
G1 X52.264 Y40.277 E15.49695
G1 X52 Y40.687 E15.51561
G1 X51.673 Y41.048 E15.53425
G1 X51.291 Y41.351 E15.55291
G1 X50.865 Y41.587 E15.57155
G1 X50.405 Y41.751 E15.59024
G1 X49.926 Y41.837 E15.60886
G1 X49.64 Y41.851 E15.61982
G1 X40.139 Y41.851 E15.98342
G1 X39.653 Y41.811 E16.00208
G1 X39.18 Y41.692 E16.02075
G1 X38.733 Y41.498 E16.0394
G1 X38.324 Y41.233 E16.05805
G1 X37.964 Y40.905 E16.07669
G1 X37.661 Y40.523 E16.09535
G1 X37.426 Y40.096 E16.114
G1 X37.263 Y39.637 E16.13264
G1 X37.177 Y39.157 E16.1513
G1 X37.164 Y38.876 E16.16207
G1 X37.164 Y29.376 E16.52563
G1 X37.204 Y28.89 E16.54429
G1 X37.323 Y28.417 E16.56296
G1 X37.435 Y28.159 E16.57372
G0 F1620 X37.517 Y27.97
G0 X37.782 Y27.561
G0 F4320 X38.129 Y27.688
G1 F2400 E16.60028
G1 F1800 X38.453 Y27.364 E16.61782
G1 X38.828 Y27.102 E16.63533
G1 X39.243 Y26.909 E16.65284
G1 X39.685 Y26.791 E16.67035
G1 X40.143 Y26.751 E16.68794
G1 X46.887 Y26.76 E16.94604
G1 X47.42 Y26.816 E16.96655
G1 X48.147 Y26.968 E16.99497
G1 X48.585 Y27.1 E17.01248
G1 X48.857 Y27.227 E17.02396
G1 X49.726 Y27.696 E17.06176
G1 X50.108 Y27.948 E17.07927
G1 X50.335 Y28.15 E17.0909
G1 X50.862 Y28.677 E17.11942
G1 X51.263 Y29.192 E17.1444
G1 X51.642 Y29.83 E17.1728
G1 X51.84 Y30.243 E17.19033
G1 X51.929 Y30.523 E17.20157
G1 X52.173 Y31.481 E17.2394
G1 X52.254 Y32.125 E17.26424
G1 X52.265 Y38.872 E17.52245
G1 X52.226 Y39.328 E17.53997
G1 X52.108 Y39.77 E17.55747
G1 X51.915 Y40.185 E17.57499
G1 X51.653 Y40.561 E17.59253
G1 X51.33 Y40.885 E17.61004
G1 X50.955 Y41.148 E17.62756
G1 X50.54 Y41.342 E17.6451
G1 X50.098 Y41.461 E17.66261
G1 X49.64 Y41.501 E17.68021
G1 X40.139 Y41.501 E18.04381
G1 X39.683 Y41.461 E18.06133
G1 X39.241 Y41.343 E18.07884
G1 X38.826 Y41.149 E18.09637
G1 X38.451 Y40.886 E18.1139
G1 X38.127 Y40.562 E18.13143
G1 X37.865 Y40.187 E18.14894
G1 X37.672 Y39.772 E18.16646
G1 X37.554 Y39.33 E18.18396
G1 X37.514 Y38.876 E18.20141
G1 X37.514 Y29.376 E18.56497
G1 X37.554 Y28.92 E18.58249
G1 X37.672 Y28.478 E18.6
G1 X37.767 Y28.276 E18.60854
G0 F1620 X37.866 Y28.063
G0 X38.129 Y27.688
G0 F4320 X38.215 Y28.162
G1 F2400 E18.6351
G1 F1800 X38.475 Y27.825 E18.65139
G1 X38.793 Y27.542 E18.66768
G1 X39.159 Y27.323 E18.684
G1 X39.559 Y27.176 E18.70031
G1 X40.142 Y27.101 E18.72281
G1 X46.886 Y27.11 E18.9809
G1 X47.349 Y27.158 E18.99871
G1 X48.076 Y27.31 E19.02714
G1 X48.483 Y27.436 E19.04344
G1 X48.69 Y27.535 E19.05222
G1 X49.559 Y28.004 E19.09001
G1 X49.914 Y28.241 E19.10635
G1 X50.088 Y28.397 E19.11529
G1 X50.615 Y28.924 E19.14381
G1 X50.962 Y29.371 E19.16547
G1 X51.341 Y30.009 E19.19387
G1 X51.523 Y30.394 E19.21017
G1 X51.59 Y30.609 E19.21878
G1 X51.834 Y31.567 E19.25662
G1 X51.904 Y32.125 E19.27814
G1 X51.915 Y38.872 E19.53635
G1 X51.876 Y39.297 E19.55268
G1 X51.758 Y39.706 E19.56897
G1 X51.566 Y40.087 E19.5853
G1 X51.307 Y40.425 E19.6016
G1 X50.989 Y40.708 E19.61789
G1 X50.623 Y40.928 E19.63423
G1 X50.223 Y41.075 E19.65054
G1 X49.64 Y41.151 E19.67304
G1 X40.139 Y41.151 E20.03664
G1 X39.715 Y41.111 E20.05294
G1 X39.305 Y40.993 E20.06927
G1 X38.925 Y40.8 E20.08558
G1 X38.588 Y40.54 E20.10187
G1 X38.305 Y40.222 E20.11816
G1 X38.086 Y39.856 E20.13448
G1 X37.939 Y39.456 E20.15079
G1 X37.864 Y38.876 E20.17317
G1 X37.864 Y29.376 E20.53674
G1 X37.904 Y28.952 E20.55303
G1 X37.948 Y28.799 E20.55913
G0 F1620 X38.022 Y28.542
G0 X38.215 Y28.162
G0 F4320 X38.563 Y28.27
G1 F2400 E20.58569
G1 F1800 X38.82 Y27.974 E20.60069
G1 X39.131 Y27.736 E20.61568
G1 X39.484 Y27.566 E20.63067
G1 X39.864 Y27.471 E20.64566
G1 X40.142 Y27.451 E20.65633
G1 X46.886 Y27.46 E20.91442
G1 X47.277 Y27.501 E20.92946
G1 X48.004 Y27.653 E20.95789
G1 X48.524 Y27.843 E20.97908
G1 X49.393 Y28.312 E21.01687
G1 X49.84 Y28.645 E21.0382
G1 X50.367 Y29.172 E21.06672
G1 X50.661 Y29.55 E21.08505
G1 X51.04 Y30.188 E21.11345
G1 X51.25 Y30.696 E21.13448
G1 X51.494 Y31.654 E21.17232
G1 X51.554 Y32.126 E21.19052
G1 X51.565 Y38.873 E21.44873
G1 X51.526 Y39.263 E21.46373
G1 X51.408 Y39.637 E21.47874
G1 X51.218 Y39.979 E21.49371
G1 X50.961 Y40.276 E21.50874
G1 X50.651 Y40.514 E21.5237
G1 X50.298 Y40.685 E21.53871
G1 X49.918 Y40.781 E21.55371
G1 X49.64 Y40.801 E21.56438
G1 X40.139 Y40.801 E21.92798
G1 X39.749 Y40.761 E21.94298
G1 X39.375 Y40.643 E21.95799
G1 X39.033 Y40.452 E21.97298
G1 X38.737 Y40.195 E21.98799
G1 X38.499 Y39.884 E22.00297
G1 X38.329 Y39.531 E22.01797
G1 X38.234 Y39.151 E22.03296
G1 X38.214 Y38.876 E22.04351
G1 X38.214 Y29.376 E22.40707
G1 X38.254 Y28.986 E22.42208
G1 X38.281 Y28.901 E22.42549
G0 F1620 X38.372 Y28.612
G0 X38.563 Y28.27
G0 F4320 X38.911 Y28.39
G1 F2400 E22.45205
G1 F1800 X39.162 Y28.14 E22.46561
G1 X39.463 Y27.953 E22.47917
G1 X39.799 Y27.838 E22.49276
G1 X40.141 Y27.801 E22.50592
G1 X46.885 Y27.81 E22.76402
G1 X47.205 Y27.843 E22.77633
G1 X47.932 Y27.995 E22.80475
G1 X48.358 Y28.151 E22.82211
G1 X49.227 Y28.62 E22.8599
G1 X49.593 Y28.892 E22.87736
G1 X50.12 Y29.419 E22.90588
