;FLAVOR:Marlin
;TIME:5045
;Filament used: 3.71487m
;Layer height: 0.175
;Generated with Cura_SteamEngine 3.6.0
M140 S65
M105
M190 S65
M104 S205
M105
M109 S205
M82 ;absolute extrusion mode
G21;(metric values)
G90;(absolute positioning)
M82;(set extruder to absolute mode)
M107;(start with the fan off)
G28;(Home the printer)
G92 E0;(Reset the extruder to 0)
G0 Z5 E5 F500;(Move up and prime the nozzle)
G0 X-1 Z0;(Move outside the printable area)
G1 Y60 E8 F500;(Draw a priming/wiping line to the rear)
G1 X-1;(Move a little closer to the print area)
G1 Y10 E16 F500;(draw more priming/wiping)
G1 E15 F250;(Small retract)
G92 E0;(Zero the extruder)
G92 E0
G1 F2400 E-2.5
;LAYER_COUNT:109
;LAYER:0
M107
G0 F4320 X23.008 Y38.717 Z0.263
;TYPE:SKIRT
G1 F2400 E0
G1 F1800 X23.566 Y38.41 E0.02437
G1 X24.158 Y38.175 E0.04875
G1 X24.775 Y38.017 E0.07312
G1 X25.407 Y37.936 E0.09751
G1 X25.729 Y37.926 E0.10984
G1 X34.514 Y37.926 E0.44604
G1 X35.15 Y37.966 E0.47043
G1 X35.775 Y38.085 E0.49477
G1 X36.381 Y38.282 E0.51916
G1 X36.957 Y38.553 E0.54352
G1 X37.495 Y38.894 E0.5679
G1 X37.986 Y39.3 E0.59228
G1 X38.422 Y39.764 E0.61665
G1 X38.797 Y40.279 E0.64103
G1 X39.104 Y40.836 E0.66537
G1 X39.339 Y41.428 E0.68974
G1 X39.498 Y42.045 E0.71413
G1 X39.579 Y42.677 E0.73851
G1 X39.589 Y43.007 E0.75115
G1 X39.568 Y62.459 E1.49557
G1 X47.544 Y62.459 E1.80081
G1 X56.375 Y53.446 E2.28372
G1 X56.848 Y53.02 E2.30808
G1 X57.371 Y52.657 E2.33244
G1 X57.936 Y52.362 E2.35683
G1 X58.533 Y52.14 E2.38121
G1 X59.153 Y51.994 E2.40558
G1 X59.786 Y51.928 E2.42994
G1 X60.423 Y51.941 E2.45432
G1 X61.053 Y52.033 E2.47869
G1 X61.666 Y52.204 E2.50304
G1 X62.254 Y52.451 E2.52745
G1 X62.805 Y52.769 E2.5518
G1 X63.313 Y53.154 E2.57619
G1 X63.625 Y53.446 E2.59255
G1 X72.451 Y62.452 E3.07512
G1 X79.906 Y62.449 E3.36042
G1 X79.915 Y62.449 E3.36077
G1 X79.913 Y43.002 E4.105
G1 X79.953 Y42.366 E4.12939
G1 X80.072 Y41.74 E4.15378
G1 X80.269 Y41.135 E4.17813
G1 X80.54 Y40.558 E4.20252
G1 X80.881 Y40.02 E4.2269
G1 X81.286 Y39.529 E4.25126
G1 X81.75 Y39.093 E4.27562
G1 X82.265 Y38.718 E4.30001
G1 X82.823 Y38.411 E4.32438
G1 X83.415 Y38.176 E4.34875
G1 X84.032 Y38.017 E4.37314
G1 X84.663 Y37.936 E4.39748
G1 X84.988 Y37.926 E4.40993
G1 X94.251 Y37.926 E4.76442
G1 X94.887 Y37.966 E4.78881
G1 X95.512 Y38.085 E4.81316
G1 X96.118 Y38.282 E4.83754
G1 X96.694 Y38.553 E4.86191
G1 X97.232 Y38.894 E4.88628
G1 X97.723 Y39.3 E4.91067
G1 X98.159 Y39.764 E4.93503
G1 X98.534 Y40.279 E4.95941
G1 X98.841 Y40.836 E4.98375
G1 X99.076 Y41.428 E5.00813
G1 X99.235 Y42.045 E5.03251
G1 X99.316 Y42.677 E5.0569
G1 X99.326 Y43.003 E5.06938
G1 X99.317 Y62.717 E5.82383
G1 X99.261 Y63.466 E5.85258
G1 X99.185 Y63.972 E5.87216
G1 X99.189 Y64.017 E5.87389
G1 X99.161 Y64.654 E5.89829
G1 X99.115 Y64.977 E5.91077
G1 X98.933 Y66.024 E5.95144
G1 X98.823 Y66.511 E5.97055
G1 X98.341 Y68.249 E6.03957
G1 X98.074 Y68.987 E6.06961
G1 X97.087 Y71.166 E6.16115
G1 X96.716 Y71.842 E6.19067
G1 X95.518 Y73.681 E6.27466
G1 X95.137 Y74.193 E6.29908
G1 X94.123 Y75.389 E6.35909
G1 X93.536 Y75.976 E6.39086
G1 X91.274 Y77.896 E6.50441
G1 X90.764 Y78.277 E6.52877
G1 X90.314 Y78.521 E6.54836
G1 X90.007 Y78.753 E6.56309
G1 X89.509 Y79.045 E6.58518
G1 X87.753 Y79.941 E6.66062
G1 X86.999 Y80.252 E6.69184
G1 X84.833 Y80.948 E6.77891
G1 X83.99 Y81.141 E6.812
G1 X81.477 Y81.496 E6.90913
G1 X80.771 Y81.546 E6.93621
G1 X69.295 Y81.556 E7.3754
G1 X68.66 Y81.517 E7.39975
G1 X68.034 Y81.398 E7.42413
G1 X67.428 Y81.202 E7.44851
G1 X66.852 Y80.931 E7.47287
G1 X66.313 Y80.591 E7.49726
G1 X65.666 Y80.032 E7.52998
G1 X60.001 Y74.249 E7.83979
G1 X54.33 Y80.036 E8.14987
G1 X53.856 Y80.462 E8.17426
G1 X53.333 Y80.825 E8.19862
G1 X52.769 Y81.12 E8.22298
G1 X52.172 Y81.342 E8.24736
G1 X51.552 Y81.488 E8.27173
G1 X50.706 Y81.559 E8.30422
G1 X30.114 Y81.565 E9.09228
G1 X29.309 Y81.501 E9.12318
G1 X28.449 Y81.363 E9.15652
G1 X27.889 Y81.237 E9.17848
G1 X27.714 Y81.216 E9.18523
G1 X27.096 Y81.062 E9.2096
G1 X26.521 Y80.842 E9.23316
G1 X25.885 Y80.552 E9.25992
G1 X25.324 Y80.252 E9.28426
G1 X24.705 Y79.802 E9.31355
G1 X23.422 Y78.712 E9.37798
G1 X22.964 Y78.27 E9.40234
G1 X22.564 Y77.774 E9.42672
G1 X22.318 Y77.391 E9.44414
G1 X21.696 Y76.319 E9.49157
G1 X21.412 Y75.749 E9.51594
G1 X21.266 Y75.359 E9.53188
G1 X20.993 Y74.53 E9.56528
G1 X20.789 Y73.66 E9.59948
G1 X20.695 Y73.001 E9.62496
G1 X20.644 Y72.282 E9.65254
G1 X20.654 Y42.999 E10.7732
G1 X20.694 Y42.364 E10.79755
G1 X20.814 Y41.738 E10.82194
G1 X21.011 Y41.132 E10.84633
G1 X21.282 Y40.556 E10.87069
G1 X21.623 Y40.018 E10.89507
G1 X22.029 Y39.528 E10.91942
G1 X22.452 Y39.131 E10.94162
G0 F1620 X22.493 Y39.092
G0 X23.008 Y38.717
G0 F4320 X23.343 Y38.923
G1 F2400 E10.96818
G1 F1800 X23.893 Y38.647 E10.99173
G1 X24.473 Y38.446 E11.01522
G1 X25.075 Y38.321 E11.03875
G1 X25.729 Y38.276 E11.06384
G1 X34.514 Y38.276 E11.40004
G1 X35.127 Y38.316 E11.42355
G1 X35.73 Y38.435 E11.44707
G1 X36.312 Y38.632 E11.47059
G1 X36.864 Y38.902 E11.4941
G1 X37.376 Y39.242 E11.51762
G1 X37.84 Y39.645 E11.54114
G1 X38.247 Y40.105 E11.56465
G1 X38.592 Y40.614 E11.58818
G1 X38.867 Y41.163 E11.61168
G1 X39.069 Y41.744 E11.63522
G1 X39.193 Y42.345 E11.65871
G1 X39.239 Y43.006 E11.68406
G1 X39.217 Y62.809 E12.44192
G1 X47.691 Y62.809 E12.76622
G1 X56.625 Y53.691 E13.25475
G1 X57.083 Y53.281 E13.27828
G1 X57.59 Y52.934 E13.30179
G1 X58.138 Y52.656 E13.32531
G1 X58.717 Y52.451 E13.34881
G1 X59.318 Y52.323 E13.37233
G1 X59.93 Y52.274 E13.39582
G1 X60.544 Y52.304 E13.41935
G1 X61.149 Y52.415 E13.44289
G1 X61.734 Y52.603 E13.4664
G1 X62.289 Y52.865 E13.48989
G1 X62.806 Y53.197 E13.51341
G1 X63.375 Y53.691 E13.54224
G1 X72.304 Y62.802 E14.03045
G1 X79.802 Y62.799 E14.3174
G1 X79.896 Y62.787 E14.32102
G1 X80.25 Y62.778 E14.33457
G1 X80.265 Y62.778 E14.33515
G1 X80.263 Y43.001 E15.09201
G1 X80.303 Y42.388 E15.11552
G1 X80.422 Y41.785 E15.13904
G1 X80.618 Y41.203 E15.16255
G1 X80.889 Y40.651 E15.18608
G1 X81.228 Y40.139 E15.20958
G1 X81.631 Y39.675 E15.2331
G1 X82.091 Y39.268 E15.25661
G1 X82.6 Y38.924 E15.28012
G1 X83.15 Y38.648 E15.30367
G1 X83.73 Y38.447 E15.32716
G1 X84.332 Y38.322 E15.35069
G1 X84.988 Y38.276 E15.37585
G1 X94.251 Y38.276 E15.73035
G1 X94.864 Y38.316 E15.75386
G1 X95.467 Y38.435 E15.77738
G1 X96.049 Y38.632 E15.80089
G1 X96.601 Y38.902 E15.82441
G1 X97.113 Y39.242 E15.84793
G1 X97.577 Y39.645 E15.87145
G1 X97.984 Y40.105 E15.89496
G1 X98.329 Y40.614 E15.91849
G1 X98.604 Y41.163 E15.94199
G1 X98.806 Y41.744 E15.96553
G1 X98.93 Y42.345 E15.98901
G1 X98.976 Y43.003 E16.01426
G1 X98.967 Y62.717 E16.76871
G1 X98.915 Y63.414 E16.79546
G1 X98.833 Y63.96 E16.81659
G1 X98.84 Y64.045 E16.81985
G1 X98.77 Y64.917 E16.85333
G1 X98.588 Y65.964 E16.894
G1 X98.486 Y66.418 E16.91181
G1 X98.004 Y68.156 E16.98083
G1 X97.755 Y68.843 E17.0088
G1 X96.768 Y71.022 E17.10034
G1 X96.423 Y71.651 E17.1278
G1 X95.225 Y73.49 E17.21179
G1 X94.87 Y73.967 E17.23455
G1 X93.856 Y75.163 E17.29456
G1 X93.31 Y75.709 E17.32411
G1 X91.048 Y77.629 E17.43765
G1 X90.554 Y77.996 E17.4612
G1 X90.116 Y78.233 E17.48026
G1 X89.796 Y78.474 E17.49559
G1 X89.35 Y78.733 E17.51533
G1 X87.594 Y79.629 E17.59078
G1 X86.891 Y79.918 E17.61986
G1 X84.725 Y80.614 E17.70693
G1 X83.941 Y80.795 E17.73772
G1 X81.428 Y81.15 E17.83485
G1 X80.771 Y81.196 E17.86006
G1 X69.295 Y81.206 E18.29924
G1 X68.682 Y81.167 E18.32275
G1 X68.079 Y81.048 E18.34627
G1 X67.497 Y80.852 E18.36977
G1 X66.944 Y80.582 E18.39332
G1 X66.432 Y80.243 E18.41682
G1 X65.916 Y79.787 E18.44318
G1 X60.001 Y73.748 E18.76668
G1 X54.08 Y79.791 E19.09046
G1 X53.622 Y80.201 E19.11398
G1 X53.115 Y80.548 E19.13749
G1 X52.567 Y80.827 E19.16103
G1 X51.988 Y81.031 E19.18452
G1 X51.387 Y81.16 E19.20804
G1 X50.706 Y81.209 E19.23417
G1 X30.114 Y81.215 E20.02223
G1 X29.364 Y81.155 E20.05102
G1 X28.504 Y81.017 E20.08436
G1 X27.954 Y80.892 E20.10594
G1 X27.755 Y80.868 E20.11361
G1 X27.16 Y80.716 E20.13711
G1 X26.667 Y80.523 E20.15737
G1 X26.031 Y80.233 E20.18412
G1 X25.489 Y79.942 E20.20767
G1 X24.932 Y79.535 E20.23407
G1 X23.649 Y78.445 E20.2985
G1 X23.207 Y78.017 E20.32204
G1 X22.825 Y77.536 E20.34555
G1 X22.621 Y77.215 E20.3601
G1 X21.999 Y76.143 E20.40754
G1 X21.726 Y75.593 E20.43103
G1 X21.598 Y75.25 E20.44505
G1 X21.325 Y74.421 E20.47845
G1 X21.135 Y73.61 E20.51032
G1 X21.041 Y72.951 E20.5358
G1 X20.994 Y72.282 E20.56147
G1 X21.004 Y42.999 E21.68212
G1 X21.044 Y42.386 E21.70563
G1 X21.164 Y41.783 E21.72916
G1 X21.36 Y41.201 E21.75266
G1 X21.631 Y40.649 E21.7762
G1 X21.971 Y40.138 E21.79969
G1 X22.374 Y39.674 E21.82321
G1 X22.775 Y39.32 E21.84368
G0 F1620 X22.834 Y39.267
G0 X23.343 Y38.923
G0 F4320 X23.174 Y39.45
G1 F2400 E21.87024
G1 F1800 X23.676 Y39.138 E21.89286
G1 X24.216 Y38.896 E21.9155
G1 X24.783 Y38.73 E21.93811
G1 X25.368 Y38.641 E21.96076
G1 X25.729 Y38.626 E21.97459
G1 X34.514 Y38.626 E22.31079
G1 X35.104 Y38.666 E22.33342
G1 X35.683 Y38.785 E22.35604
G1 X36.241 Y38.981 E22.37867
G1 X36.767 Y39.251 E22.4013
G1 X37.252 Y39.589 E22.42392
G1 X37.687 Y39.989 E22.44654
G1 X38.064 Y40.445 E22.46918
G1 X38.377 Y40.947 E22.49182
G1 X38.618 Y41.486 E22.51442
G1 X38.785 Y42.054 E22.53708
G1 X38.874 Y42.638 E22.55968
G1 X38.889 Y43.006 E22.57378
G1 X38.867 Y63.159 E23.34503
G1 X47.838 Y63.159 E23.68835
G1 X56.875 Y53.936 E24.18251
G1 X57.316 Y53.543 E24.20512
G1 X57.807 Y53.212 E24.22778
G1 X58.337 Y52.951 E24.25039
G1 X58.898 Y52.764 E24.27302
G1 X59.479 Y52.654 E24.29565
G1 X60.07 Y52.624 E24.3183
G1 X60.659 Y52.673 E24.34091
G1 X61.236 Y52.801 E24.36353
G1 X61.791 Y53.006 E24.38617
G1 X62.312 Y53.284 E24.40877
G1 X62.792 Y53.63 E24.43142
G1 X63.125 Y53.936 E24.44873
G1 X72.157 Y63.152 E24.94256
G1 X79.861 Y63.149 E25.23739
G1 X80.246 Y63.128 E25.25215
G1 X80.311 Y63.129 E25.25463
G1 X80.506 Y63.068 E25.26245
G1 X80.602 Y63.01 E25.26675
G1 X80.615 Y63 E25.26737
G1 X80.615 Y62.999 E25.26741
G1 X80.613 Y43.001 E26.03273
G1 X80.653 Y42.412 E26.05533
G1 X80.772 Y41.832 E26.07799
G1 X80.968 Y41.275 E26.10058
G1 X81.238 Y40.748 E26.12325
G1 X81.576 Y40.263 E26.14587
G1 X81.976 Y39.828 E26.16848
G1 X82.431 Y39.451 E26.1911
G1 X82.933 Y39.139 E26.21372
G1 X83.473 Y38.897 E26.23636
G1 X84.04 Y38.73 E26.25898
G1 X84.625 Y38.641 E26.28163
G1 X84.988 Y38.626 E26.29553
G1 X94.251 Y38.626 E26.65003
G1 X94.841 Y38.666 E26.67266
G1 X95.42 Y38.785 E26.69528
G1 X95.978 Y38.981 E26.71791
G1 X96.504 Y39.251 E26.74054
G1 X96.989 Y39.589 E26.76317
G1 X97.424 Y39.989 E26.78578
G1 X97.801 Y40.445 E26.80842
G1 X98.114 Y40.947 E26.83106
G1 X98.355 Y41.486 E26.85366
G1 X98.522 Y42.054 E26.87632
G1 X98.611 Y42.638 E26.89892
G1 X98.626 Y43.003 E26.9129
G1 X98.617 Y62.717 E27.66736
G1 X98.569 Y63.362 E27.69211
G1 X98.481 Y63.948 E27.71479
G1 X98.49 Y64.072 E27.71955
G1 X98.425 Y64.857 E27.74969
G1 X98.243 Y65.904 E27.79036
G1 X98.149 Y66.324 E27.80683
G1 X97.667 Y68.062 E27.87586
G1 X97.436 Y68.698 E27.90175
G1 X96.449 Y70.877 E27.9933
G1 X96.13 Y71.46 E28.01873
G1 X94.932 Y73.299 E28.10272
G1 X94.603 Y73.74 E28.12378
G1 X93.589 Y74.936 E28.18379
G1 X93.083 Y75.442 E28.21117
G1 X90.821 Y77.362 E28.32472
G1 X90.346 Y77.714 E28.34735
G1 X89.917 Y77.944 E28.36597
G1 X89.585 Y78.193 E28.38186
G1 X89.19 Y78.421 E28.39931
G1 X87.434 Y79.317 E28.47476
G1 X86.784 Y79.585 E28.50166
G1 X84.618 Y80.281 E28.58873
G1 X83.892 Y80.448 E28.61724
G1 X81.379 Y80.803 E28.71437
G1 X80.771 Y80.846 E28.73769
G1 X69.295 Y80.856 E29.17688
G1 X68.705 Y80.817 E29.19951
G1 X68.126 Y80.698 E29.22213
G1 X67.568 Y80.502 E29.24476
G1 X67.041 Y80.233 E29.26741
G1 X66.556 Y79.896 E29.29001
G1 X66.166 Y79.542 E29.31016
G1 X60.001 Y73.248 E29.64733
G1 X53.83 Y79.546 E29.98477
G1 X53.388 Y79.939 E30.00741
G1 X52.898 Y80.27 E30.03004
G1 X52.368 Y80.531 E30.05265
G1 X51.807 Y80.718 E30.07528
G1 X51.226 Y80.828 E30.09791
G1 X50.706 Y80.859 E30.11784
G1 X30.114 Y80.865 E30.9059
G1 X29.42 Y80.81 E30.93254
G1 X28.56 Y80.672 E30.96588
G1 X28.019 Y80.547 E30.98712
G1 X27.798 Y80.52 E30.99565
G1 X27.226 Y80.369 E31.01829
G1 X26.812 Y80.205 E31.03533
G1 X26.176 Y79.915 E31.06208
G1 X25.656 Y79.634 E31.0847
G1 X25.158 Y79.268 E31.10835
G1 X23.875 Y78.178 E31.17278
G1 X23.452 Y77.766 E31.19538
G1 X23.087 Y77.3 E31.21803
G1 X22.924 Y77.04 E31.22977
G1 X22.302 Y75.968 E31.2772
G1 X22.04 Y75.437 E31.29986
G1 X21.931 Y75.14 E31.31197
G1 X21.658 Y74.311 E31.34537
G1 X21.482 Y73.561 E31.37486
G1 X21.388 Y72.902 E31.40033
G1 X21.344 Y72.283 E31.42408
G1 X21.354 Y43 E32.54474
G1 X21.394 Y42.41 E32.56737
G1 X21.513 Y41.83 E32.59003
G1 X21.71 Y41.273 E32.61264
G1 X21.98 Y40.747 E32.63527
G1 X22.318 Y40.262 E32.65789
G1 X22.649 Y39.902 E32.6766
G0 F1620 X22.718 Y39.827
G0 X23.174 Y39.45
G0 F4320 X23.512 Y39.642
G1 F2400 E32.70316
G1 F1800 X24.006 Y39.363 E32.72488
G1 X24.534 Y39.157 E32.74657
G1 X25.086 Y39.028 E32.76826
G1 X25.729 Y38.976 E32.79295
G1 X34.514 Y38.976 E33.12915
G1 X35.08 Y39.016 E33.15086
G1 X35.634 Y39.135 E33.17255
G1 X36.166 Y39.331 E33.19425
G1 X36.666 Y39.599 E33.21596
G1 X37.122 Y39.936 E33.23766
G1 X37.527 Y40.333 E33.25936
G1 X37.873 Y40.783 E33.28108
G1 X38.151 Y41.277 E33.30278
G1 X38.357 Y41.805 E33.32447
G1 X38.487 Y42.357 E33.34617
G1 X38.539 Y43.005 E33.37105
G1 X38.516 Y63.509 E34.15574
G1 X47.985 Y63.509 E34.51811
G1 X57.125 Y54.181 E35.0179
G1 X57.549 Y53.805 E35.03959
G1 X58.023 Y53.492 E35.06133
G1 X58.535 Y53.249 E35.08302
G1 X59.076 Y53.08 E35.10471
G1 X59.636 Y52.989 E35.12642
G1 X60.203 Y52.978 E35.14812
G1 X60.766 Y53.047 E35.16983
G1 X61.314 Y53.193 E35.19153
G1 X61.835 Y53.416 E35.21322
G1 X62.321 Y53.709 E35.23494
G1 X62.875 Y54.181 E35.26279
G1 X72.01 Y63.502 E35.76225
G1 X79.997 Y63.499 E36.06792
G1 X80.242 Y63.478 E36.07733
G1 X80.357 Y63.479 E36.08173
G1 X80.646 Y63.39 E36.0933
G1 X80.815 Y63.289 E36.10084
G1 X80.921 Y63.204 E36.10604
G1 X80.977 Y63.143 E36.1092
G1 X80.965 Y62.999 E36.11473
G1 X80.963 Y43.001 E36.88006
G1 X81.003 Y42.436 E36.90173
G1 X81.122 Y41.881 E36.92346
G1 X81.318 Y41.349 E36.94515
G1 X81.586 Y40.85 E36.96683
G1 X81.922 Y40.393 E36.98854
G1 X82.319 Y39.988 E37.01024
G1 X82.769 Y39.643 E37.03194
G1 X83.263 Y39.364 E37.05365
G1 X83.792 Y39.158 E37.07538
G1 X84.344 Y39.028 E37.09708
G1 X84.988 Y38.976 E37.12181
G1 X94.251 Y38.976 E37.4763
G1 X94.817 Y39.016 E37.49802
G1 X95.371 Y39.135 E37.5197
G1 X95.903 Y39.331 E37.5414
G1 X96.403 Y39.599 E37.56311
G1 X96.859 Y39.936 E37.58481
G1 X97.264 Y40.333 E37.60651
G1 X97.61 Y40.783 E37.62824
G1 X97.888 Y41.277 E37.64993
G1 X98.094 Y41.805 E37.67162
G1 X98.224 Y42.357 E37.69332
G1 X98.276 Y43.003 E37.71813
G1 X98.267 Y62.717 E38.47258
G1 X98.223 Y63.311 E38.49538
G1 X98.129 Y63.942 E38.51979
G1 X98.14 Y64.098 E38.52578
G1 X98.081 Y64.797 E38.55262
G1 X97.899 Y65.844 E38.59329
G1 X97.812 Y66.231 E38.60847
G1 X97.33 Y67.969 E38.67749
G1 X97.117 Y68.554 E38.70132
G1 X96.13 Y70.733 E38.79287
G1 X95.837 Y71.269 E38.81624
G1 X94.639 Y73.108 E38.90024
G1 X94.336 Y73.514 E38.91963
G1 X93.322 Y74.71 E38.97963
G1 X92.857 Y75.176 E39.00483
G1 X90.595 Y77.096 E39.11837
G1 X90.138 Y77.431 E39.14006
G1 X89.723 Y77.652 E39.15805
G1 X89.375 Y77.912 E39.17468
G1 X89.031 Y78.109 E39.18985
G1 X87.275 Y79.005 E39.26529
G1 X86.677 Y79.252 E39.29005
G1 X84.511 Y79.948 E39.37712
G1 X83.843 Y80.101 E39.40335
G1 X81.33 Y80.456 E39.50047
G1 X80.771 Y80.496 E39.52192
G1 X69.295 Y80.506 E39.96111
G1 X68.729 Y80.467 E39.98282
G1 X68.174 Y80.348 E40.00454
G1 X67.642 Y80.153 E40.02623
G1 X67.142 Y79.884 E40.04795
G1 X66.685 Y79.549 E40.06964
G1 X66.416 Y79.298 E40.08372
G1 X60.001 Y72.749 E40.43456
G1 X53.58 Y79.301 E40.78564
G1 X53.155 Y79.677 E40.80735
G1 X52.682 Y79.99 E40.82906
G1 X52.17 Y80.233 E40.85075
G1 X51.629 Y80.402 E40.87244
G1 X51.069 Y80.493 E40.89415
G1 X50.706 Y80.509 E40.90806
G1 X30.114 Y80.515 E41.69611
G1 X29.475 Y80.464 E41.72064
G1 X28.615 Y80.326 E41.75398
G1 X28.09 Y80.203 E41.77461
G1 X27.842 Y80.172 E41.78418
G1 X27.295 Y80.022 E41.80588
G1 X26.957 Y79.886 E41.81983
G1 X26.321 Y79.596 E41.84658
G1 X25.823 Y79.325 E41.86827
G1 X25.385 Y79.001 E41.88912
G1 X24.102 Y77.911 E41.95355
G1 X23.697 Y77.515 E41.97523
G1 X23.227 Y76.864 E42.00596
G1 X22.605 Y75.792 E42.05339
