;FLAVOR:Marlin
;TIME:2833
;Filament used: 2.27684m
;Layer height: 0.175
;Generated with Cura_SteamEngine 3.6.0
M140 S65
M105
M190 S65
M104 S205
M105
M109 S205
M82 ;absolute extrusion mode
G21;(metric values)
G90;(absolute positioning)
M82;(set extruder to absolute mode)
M107;(start with the fan off)
G28;(Home the printer)
G92 E0;(Reset the extruder to 0)
G0 Z5 E5 F500;(Move up and prime the nozzle)
G0 X-1 Z0;(Move outside the printable area)
G1 Y60 E8 F500;(Draw a priming/wiping line to the rear)
G1 X-1;(Move a little closer to the print area)
G1 Y10 E16 F500;(draw more priming/wiping)
G1 E15 F250;(Small retract)
G92 E0;(Zero the extruder)
G92 E0
G1 F2400 E-2.5
;LAYER_COUNT:125
;LAYER:0
M107
G0 F4320 X47.177 Y44.315 Z0.263
;TYPE:SKIRT
G1 F2400 E0
G1 F1800 X48.409 Y42.996 E0.06907
G1 X48.682 Y42.726 E0.08377
G1 X50.023 Y41.492 E0.15351
G1 X50.334 Y41.227 E0.16915
G1 X51.771 Y40.104 E0.23894
G1 X52.129 Y39.849 E0.25576
G1 X53.662 Y38.852 E0.32575
G1 X54.066 Y38.614 E0.34369
G1 X55.682 Y37.764 E0.41357
G1 X56.131 Y37.556 E0.4325
G1 X57.808 Y36.873 E0.5018
G1 X58.335 Y36.691 E0.52314
G1 X60.007 Y36.216 E0.58966
G1 X60.561 Y36.092 E0.61138
G1 X62.286 Y35.805 E0.67831
G1 X62.928 Y35.74 E0.703
G1 X64.681 Y35.674 E0.77014
G1 X65.392 Y35.697 E0.79736
G1 X67.138 Y35.877 E0.86454
G1 X67.745 Y35.977 E0.88808
G1 X68.724 Y36.2 E0.9265
G1 X69.252 Y36.35 E0.94751
G1 X70.826 Y36.893 E1.01123
G1 X71.487 Y37.175 E1.03873
G1 X72.577 Y37.734 E1.08561
G1 X73.021 Y37.991 E1.10525
G1 X74.035 Y38.648 E1.15149
G1 X74.609 Y39.081 E1.179
G1 X75.893 Y40.2 E1.24418
G1 X76.413 Y40.724 E1.27243
G1 X77.524 Y42.021 E1.33779
G1 X77.955 Y42.604 E1.36554
G1 X78.892 Y44.081 E1.43248
G1 X79.219 Y44.683 E1.45869
G1 X79.96 Y46.297 E1.52666
G1 X80.14 Y46.744 E1.5451
G1 X80.463 Y47.671 E1.58267
G1 X80.591 Y48.096 E1.59966
G1 X81.018 Y49.784 E1.66629
G1 X81.14 Y50.453 E1.69232
G1 X81.438 Y53.061 E1.79277
G1 X81.471 Y53.679 E1.81646
G1 X81.454 Y55.744 E1.89549
G1 X81.427 Y56.229 E1.91408
G1 X81.234 Y58.076 E1.98515
G1 X81.171 Y58.501 E2.00159
G1 X80.821 Y60.333 E2.07297
G1 X80.728 Y60.731 E2.08861
G1 X80.233 Y62.525 E2.15983
G1 X80.119 Y62.885 E2.17428
G1 X79.499 Y64.618 E2.24472
G1 X79.333 Y65.026 E2.26158
G1 X78.309 Y67.256 E2.35549
G1 X78.156 Y67.562 E2.36858
G1 X77.596 Y68.592 E2.41345
G1 X77.375 Y68.96 E2.42988
G1 X75.749 Y71.428 E2.54298
G1 X75.474 Y71.806 E2.56087
G1 X74.342 Y73.221 E2.63022
G1 X74.096 Y73.507 E2.64466
G1 X72.851 Y74.846 E2.71463
G1 X72.575 Y75.121 E2.72954
G1 X71.223 Y76.368 E2.79993
G1 X70.905 Y76.637 E2.81587
G1 X69.455 Y77.769 E2.88627
G1 X69.099 Y78.023 E2.903
G1 X67.557 Y79.026 E2.9734
G1 X67.149 Y79.265 E2.9915
G1 X65.526 Y80.117 E3.06165
G1 X65.073 Y80.328 E3.08077
G1 X63.37 Y81.018 E3.15109
G1 X62.843 Y81.198 E3.17241
G1 X61.192 Y81.664 E3.23806
G1 X60.64 Y81.787 E3.2597
G1 X58.915 Y82.072 E3.32661
G1 X58.268 Y82.137 E3.3515
G1 X56.518 Y82.199 E3.41851
G1 X55.812 Y82.175 E3.44554
G1 X54.065 Y81.993 E3.51276
G1 X53.458 Y81.892 E3.53631
G1 X52.497 Y81.672 E3.57404
G1 X52.041 Y81.545 E3.59216
G1 X50.728 Y81.112 E3.64507
G1 X50.062 Y80.839 E3.67261
G1 X48.709 Y80.168 E3.73041
G1 X48.147 Y79.842 E3.75528
G1 X46.914 Y79.019 E3.81201
G1 X46.345 Y78.579 E3.83953
G1 X45.283 Y77.628 E3.89409
G1 X44.817 Y77.151 E3.91961
G1 X43.714 Y75.865 E3.98445
G1 X43.285 Y75.286 E4.01203
G1 X42.345 Y73.809 E4.07903
G1 X42.014 Y73.203 E4.10545
G1 X41.272 Y71.588 E4.17347
G1 X41.009 Y70.88 E4.20238
G1 X40.267 Y68.317 E4.30449
G1 X40.098 Y67.464 E4.33777
G1 X39.78 Y64.588 E4.4485
G1 X39.749 Y63.962 E4.47249
G1 X39.774 Y62.099 E4.54379
G1 X39.802 Y61.638 E4.56147
G1 X39.997 Y59.777 E4.63308
G1 X40.06 Y59.348 E4.64967
G1 X40.414 Y57.507 E4.72142
G1 X40.508 Y57.109 E4.73707
G1 X41.008 Y55.306 E4.80867
G1 X41.114 Y54.969 E4.82219
G1 X41.526 Y53.805 E4.86945
G1 X41.665 Y53.455 E4.88386
G1 X42.847 Y50.768 E4.9962
G1 X43.097 Y50.273 E5.01742
G1 X44.354 Y48.096 E5.11363
G1 X44.584 Y47.735 E5.13001
G1 X45.605 Y46.268 E5.19841
G1 X45.815 Y45.987 E5.21183
G1 X46.732 Y44.847 E5.26782
G0 F1620 X46.931 Y44.599
G0 X47.177 Y44.315
G0 F4320 X47.433 Y44.554
G1 F2400 E5.29438
G1 F1800 X48.665 Y43.235 E5.36346
G1 X48.919 Y42.983 E5.37715
G1 X50.26 Y41.749 E5.44689
G1 X50.55 Y41.503 E5.46144
G1 X51.987 Y40.38 E5.53124
G1 X52.32 Y40.142 E5.5469
G1 X53.853 Y39.145 E5.61689
G1 X54.229 Y38.924 E5.63358
G1 X55.845 Y38.074 E5.70346
G1 X56.263 Y37.88 E5.72109
G1 X57.94 Y37.197 E5.79039
G1 X58.431 Y37.028 E5.81026
G1 X60.103 Y36.553 E5.87678
G1 X60.619 Y36.437 E5.89702
G1 X62.344 Y36.15 E5.96394
G1 X62.941 Y36.089 E5.98691
G1 X64.694 Y36.023 E6.05405
G1 X65.357 Y36.045 E6.07943
G1 X67.103 Y36.225 E6.14661
G1 X67.667 Y36.318 E6.16848
G1 X68.646 Y36.541 E6.20691
G1 X69.138 Y36.681 E6.22648
G1 X70.712 Y37.224 E6.2902
G1 X71.327 Y37.487 E6.3158
G1 X72.417 Y38.046 E6.36268
G1 X72.83 Y38.285 E6.38094
G1 X73.844 Y38.942 E6.42718
G1 X74.379 Y39.345 E6.45282
G1 X75.663 Y40.464 E6.518
G1 X76.147 Y40.952 E6.5443
G1 X77.258 Y42.249 E6.60966
G1 X77.66 Y42.792 E6.63551
G1 X78.597 Y44.269 E6.70245
G1 X78.901 Y44.829 E6.72684
G1 X79.642 Y46.443 E6.7948
G1 X79.81 Y46.859 E6.81197
G1 X80.133 Y47.786 E6.84954
G1 X80.252 Y48.182 E6.86537
G1 X80.679 Y49.87 E6.932
G1 X80.792 Y50.493 E6.95623
G1 X81.09 Y53.101 E7.05669
G1 X81.121 Y53.676 E7.07873
G1 X81.104 Y55.741 E7.15776
G1 X81.078 Y56.193 E7.17508
G1 X80.885 Y58.04 E7.24615
G1 X80.827 Y58.436 E7.26147
G1 X80.477 Y60.268 E7.33285
G1 X80.391 Y60.638 E7.34738
G1 X79.896 Y62.432 E7.41861
G1 X79.79 Y62.767 E7.43205
G1 X79.17 Y64.5 E7.50249
G1 X79.015 Y64.88 E7.5182
G1 X77.991 Y67.11 E7.61211
G1 X77.848 Y67.395 E7.62431
G1 X77.288 Y68.425 E7.66918
G1 X77.083 Y68.768 E7.68447
G1 X75.457 Y71.236 E7.79758
G1 X75.201 Y71.588 E7.81423
G1 X74.069 Y73.003 E7.88358
G1 X73.839 Y73.268 E7.89701
G1 X72.594 Y74.607 E7.96698
G1 X72.337 Y74.863 E7.98086
G1 X70.985 Y76.11 E8.05125
G1 X70.69 Y76.361 E8.06608
G1 X69.24 Y77.493 E8.13648
G1 X68.908 Y77.73 E8.15209
G1 X67.366 Y78.733 E8.22248
G1 X66.986 Y78.956 E8.23935
G1 X65.363 Y79.808 E8.3095
G1 X64.941 Y80.003 E8.32729
G1 X63.238 Y80.693 E8.39761
G1 X62.747 Y80.861 E8.41747
G1 X61.096 Y81.327 E8.48312
G1 X60.583 Y81.442 E8.50324
G1 X58.858 Y81.727 E8.57015
G1 X58.255 Y81.787 E8.59334
G1 X56.505 Y81.849 E8.66035
G1 X55.848 Y81.827 E8.68551
G1 X54.101 Y81.645 E8.75273
G1 X53.537 Y81.551 E8.77461
G1 X52.576 Y81.331 E8.81234
G1 X52.15 Y81.212 E8.82927
G1 X50.837 Y80.779 E8.88218
G1 X50.218 Y80.525 E8.90779
G1 X48.865 Y79.854 E8.96558
G1 X48.341 Y79.551 E8.98875
G1 X47.108 Y78.728 E9.04548
G1 X46.579 Y78.318 E9.07109
G1 X45.517 Y77.367 E9.12565
G1 X45.082 Y76.923 E9.14944
G1 X43.979 Y75.637 E9.21428
G1 X43.58 Y75.098 E9.23994
G1 X42.64 Y73.621 E9.30694
G1 X42.332 Y73.057 E9.33153
G1 X41.59 Y71.442 E9.39955
G1 X41.345 Y70.783 E9.42646
G1 X40.603 Y68.22 E9.52857
G1 X40.446 Y67.425 E9.55958
G1 X40.128 Y64.549 E9.67032
G1 X40.099 Y63.967 E9.69262
G1 X40.124 Y62.104 E9.76392
G1 X40.15 Y61.675 E9.78037
G1 X40.345 Y59.814 E9.85198
G1 X40.404 Y59.414 E9.86745
G1 X40.758 Y57.573 E9.9392
G1 X40.845 Y57.202 E9.95378
G1 X41.345 Y55.399 E10.02539
G1 X41.444 Y55.085 E10.03799
G1 X41.856 Y53.921 E10.08524
G1 X41.985 Y53.595 E10.09866
G1 X43.167 Y50.908 E10.211
G1 X43.4 Y50.448 E10.23073
G1 X44.657 Y48.271 E10.32694
G1 X44.871 Y47.935 E10.34218
G1 X45.892 Y46.468 E10.41058
G1 X46.088 Y46.206 E10.42311
G1 X46.988 Y45.086 E10.47809
G0 F1620 X47.204 Y44.818
G0 X47.433 Y44.554
G0 F4320 X47.689 Y44.793
G1 F2400 E10.50465
G1 F1800 X48.921 Y43.474 E10.57372
G1 X49.156 Y43.241 E10.58639
G1 X50.497 Y42.007 E10.65613
G1 X50.765 Y41.779 E10.6696
G1 X52.202 Y40.656 E10.73939
G1 X52.511 Y40.435 E10.75393
G1 X54.044 Y39.438 E10.82391
G1 X54.392 Y39.234 E10.83935
G1 X56.008 Y38.384 E10.90923
G1 X56.395 Y38.204 E10.92556
G1 X58.072 Y37.521 E10.99486
G1 X58.526 Y37.365 E11.01323
G1 X60.198 Y36.89 E11.07975
G1 X60.676 Y36.782 E11.09851
G1 X62.401 Y36.495 E11.16543
G1 X62.954 Y36.439 E11.1867
G1 X64.707 Y36.373 E11.25384
G1 X65.321 Y36.393 E11.27735
G1 X67.067 Y36.573 E11.34452
G1 X67.59 Y36.659 E11.3648
G1 X68.569 Y36.882 E11.40323
G1 X69.024 Y37.012 E11.42134
G1 X70.598 Y37.555 E11.48506
G1 X71.167 Y37.798 E11.50874
G1 X72.257 Y38.357 E11.55562
G1 X72.64 Y38.578 E11.57254
G1 X73.654 Y39.235 E11.61878
G1 X74.149 Y39.609 E11.64252
G1 X75.433 Y40.728 E11.7077
G1 X75.882 Y41.18 E11.73209
G1 X76.993 Y42.477 E11.79744
G1 X77.364 Y42.979 E11.82133
G1 X78.301 Y44.456 E11.88827
G1 X78.583 Y44.975 E11.91087
G1 X79.324 Y46.589 E11.97884
G1 X79.479 Y46.974 E11.99472
G1 X79.802 Y47.901 E12.03229
G1 X79.912 Y48.268 E12.04695
G1 X80.339 Y49.956 E12.11359
G1 X80.445 Y50.532 E12.136
G1 X80.743 Y53.14 E12.23646
G1 X80.771 Y53.673 E12.25689
G1 X80.754 Y55.738 E12.33592
G1 X80.73 Y56.157 E12.35198
G1 X80.537 Y58.004 E12.42305
G1 X80.483 Y58.37 E12.43721
G1 X80.133 Y60.202 E12.50858
G1 X80.053 Y60.545 E12.52206
G1 X79.558 Y62.339 E12.59329
G1 X79.46 Y62.649 E12.60573
G1 X78.84 Y64.382 E12.67617
G1 X78.697 Y64.734 E12.69071
G1 X77.673 Y66.964 E12.78462
G1 X77.541 Y67.228 E12.79591
G1 X76.981 Y68.258 E12.84078
G1 X76.79 Y68.575 E12.85494
G1 X75.164 Y71.043 E12.96805
G1 X74.927 Y71.369 E12.98347
G1 X73.795 Y72.784 E13.05282
G1 X73.583 Y73.03 E13.06525
G1 X72.338 Y74.369 E13.13522
G1 X72.1 Y74.606 E13.14808
G1 X70.748 Y75.853 E13.21846
G1 X70.474 Y76.086 E13.23223
G1 X69.024 Y77.218 E13.30263
G1 X68.717 Y77.436 E13.31704
G1 X67.175 Y78.439 E13.38744
G1 X66.824 Y78.646 E13.40303
G1 X65.201 Y79.498 E13.47318
G1 X64.81 Y79.679 E13.48967
G1 X63.107 Y80.369 E13.55999
G1 X62.652 Y80.524 E13.57838
G1 X61.001 Y80.99 E13.64404
G1 X60.526 Y81.096 E13.66266
G1 X58.801 Y81.381 E13.72957
G1 X58.243 Y81.437 E13.75103
G1 X56.493 Y81.499 E13.81805
G1 X55.885 Y81.478 E13.84133
G1 X54.138 Y81.296 E13.90855
G1 X53.615 Y81.21 E13.92883
G1 X52.654 Y80.99 E13.96656
G1 X52.26 Y80.88 E13.98222
G1 X50.947 Y80.447 E14.03513
G1 X50.373 Y80.211 E14.05888
G1 X49.02 Y79.54 E14.11668
G1 X48.535 Y79.26 E14.13811
G1 X47.302 Y78.437 E14.19484
G1 X46.812 Y78.057 E14.21857
G1 X45.75 Y77.106 E14.27313
G1 X45.348 Y76.695 E14.29513
G1 X44.245 Y75.409 E14.35997
G1 X43.875 Y74.91 E14.38374
G1 X42.935 Y73.433 E14.45074
G1 X42.651 Y72.911 E14.47349
G1 X41.909 Y71.296 E14.5415
G1 X41.682 Y70.686 E14.56641
G1 X40.94 Y68.123 E14.66852
G1 X40.794 Y67.387 E14.69724
G1 X40.476 Y64.511 E14.80798
G1 X40.449 Y63.971 E14.82867
G1 X40.474 Y62.108 E14.89997
G1 X40.498 Y61.711 E14.91519
G1 X40.693 Y59.85 E14.9868
G1 X40.748 Y59.48 E15.00112
G1 X41.102 Y57.639 E15.07286
G1 X41.182 Y57.296 E15.08634
G1 X41.682 Y55.493 E15.15795
G1 X41.774 Y55.202 E15.16963
G1 X42.186 Y54.038 E15.21688
G1 X42.305 Y53.736 E15.2293
G1 X43.487 Y51.049 E15.34164
G1 X43.703 Y50.623 E15.35992
G1 X44.96 Y48.446 E15.45613
G1 X45.158 Y48.135 E15.47024
G1 X46.179 Y46.668 E15.53864
G1 X46.36 Y46.426 E15.5502
G1 X47.245 Y45.326 E15.60423
G0 F1620 X47.476 Y45.038
G0 X47.689 Y44.793
G0 F4320 X47.945 Y45.032
G1 F2400 E15.63079
G1 F1800 X49.177 Y43.713 E15.69986
G1 X49.393 Y43.498 E15.71153
G1 X50.734 Y42.264 E15.78127
G1 X50.981 Y42.055 E15.79365
G1 X52.418 Y40.932 E15.86345
G1 X52.702 Y40.729 E15.87681
G1 X54.235 Y39.732 E15.94679
G1 X54.555 Y39.544 E15.96099
G1 X56.171 Y38.694 E16.03087
G1 X56.527 Y38.528 E16.0459
G1 X58.204 Y37.845 E16.1152
G1 X58.622 Y37.701 E16.13212
G1 X60.294 Y37.226 E16.19864
G1 X60.733 Y37.128 E16.21585
G1 X62.458 Y36.841 E16.28278
G1 X62.968 Y36.789 E16.3024
G1 X64.721 Y36.723 E16.36953
G1 X65.285 Y36.741 E16.39113
G1 X67.031 Y36.921 E16.4583
G1 X67.512 Y37.001 E16.47696
G1 X68.491 Y37.224 E16.51539
G1 X68.91 Y37.343 E16.53206
G1 X70.484 Y37.886 E16.59578
G1 X71.008 Y38.11 E16.61759
G1 X72.098 Y38.669 E16.66447
G1 X72.45 Y38.872 E16.68002
G1 X73.464 Y39.529 E16.72626
G1 X73.919 Y39.873 E16.74809
G1 X75.203 Y40.992 E16.81327
G1 X75.616 Y41.408 E16.8357
G1 X76.727 Y42.705 E16.90106
G1 X77.069 Y43.167 E16.92305
G1 X78.006 Y44.644 E16.98999
G1 X78.265 Y45.121 E17.01077
G1 X79.006 Y46.735 E17.07873
G1 X79.149 Y47.09 E17.09338
G1 X79.472 Y48.017 E17.13095
G1 X79.573 Y48.354 E17.14441
G1 X80 Y50.042 E17.21105
G1 X80.097 Y50.572 E17.23167
G1 X80.395 Y53.18 E17.33212
G1 X80.421 Y53.67 E17.3509
G1 X80.404 Y55.735 E17.42993
G1 X80.382 Y56.12 E17.44469
G1 X80.189 Y57.967 E17.51576
G1 X80.139 Y58.304 E17.5288
G1 X79.789 Y60.136 E17.60018
G1 X79.716 Y60.452 E17.61259
G1 X79.221 Y62.246 E17.68381
G1 X79.131 Y62.531 E17.69525
G1 X78.511 Y64.264 E17.76569
G1 X78.379 Y64.588 E17.77907
G1 X77.355 Y66.818 E17.87298
G1 X77.233 Y67.061 E17.88339
G1 X76.673 Y68.091 E17.92826
G1 X76.498 Y68.382 E17.94125
G1 X74.872 Y70.85 E18.05436
G1 X74.654 Y71.15 E18.06855
G1 X73.522 Y72.565 E18.1379
G1 X73.327 Y72.792 E18.14935
G1 X72.082 Y74.131 E18.21932
G1 X71.863 Y74.349 E18.23115
G1 X70.511 Y75.596 E18.30154
G1 X70.259 Y75.81 E18.31419
G1 X68.809 Y76.942 E18.38459
G1 X68.527 Y77.143 E18.39784
G1 X66.985 Y78.146 E18.46824
G1 X66.661 Y78.336 E18.48261
G1 X65.038 Y79.188 E18.55276
G1 X64.678 Y79.354 E18.56794
G1 X62.975 Y80.044 E18.63826
G1 X62.557 Y80.188 E18.65517
G1 X60.906 Y80.654 E18.72083
G1 X60.469 Y80.751 E18.73796
G1 X58.744 Y81.036 E18.80487
G1 X58.231 Y81.087 E18.8246
G1 X56.481 Y81.149 E18.89161
G1 X55.921 Y81.13 E18.91306
G1 X54.174 Y80.948 E18.98028
G1 X53.693 Y80.869 E18.99893
G1 X52.732 Y80.649 E19.03666
G1 X52.369 Y80.548 E19.05108
G1 X51.056 Y80.115 E19.10399
G1 X50.529 Y79.898 E19.1258
G1 X49.176 Y79.227 E19.1836
G1 X48.729 Y78.969 E19.20335
G1 X47.496 Y78.146 E19.26008
G1 X47.046 Y77.796 E19.2819
G1 X45.984 Y76.845 E19.33646
G1 X45.614 Y76.467 E19.3567
G1 X44.511 Y75.181 E19.42154
G1 X44.17 Y74.722 E19.44342
G1 X43.23 Y73.245 E19.51042
G1 X42.969 Y72.764 E19.53136
G1 X42.227 Y71.149 E19.59938
G1 X42.018 Y70.588 E19.62229
G1 X41.276 Y68.025 E19.7244
G1 X41.141 Y67.348 E19.75082
G1 X40.823 Y64.472 E19.86156
G1 X40.799 Y63.976 E19.88056
G1 X40.824 Y62.113 E19.95187
G1 X40.846 Y61.748 E19.96586
G1 X41.041 Y59.887 E20.03747
G1 X41.091 Y59.546 E20.05066
G1 X41.445 Y57.705 E20.12241
G1 X41.519 Y57.389 E20.13483
G1 X42.019 Y55.586 E20.20643
G1 X42.104 Y55.319 E20.21715
G1 X42.516 Y54.155 E20.26441
G1 X42.626 Y53.877 E20.27585
G1 X43.808 Y51.19 E20.38819
G1 X44.006 Y50.798 E20.405
G1 X45.263 Y48.621 E20.5012
G1 X45.445 Y48.335 E20.51418
G1 X46.466 Y46.868 E20.58258
G1 X46.633 Y46.645 E20.59324
G1 X47.501 Y45.565 E20.64626
G0 F1620 X47.749 Y45.257
G0 X47.945 Y45.032
G0 F4320 X48.2 Y45.27
G1 F2400 E20.67282
G1 F1800 X49.432 Y43.951 E20.7419
G1 X49.63 Y43.756 E20.75253
G1 X50.971 Y42.522 E20.82227
G1 X51.196 Y42.33 E20.83359
G1 X52.633 Y41.207 E20.90339
G1 X52.892 Y41.022 E20.91557
G1 X54.425 Y40.025 E20.98555
G1 X54.718 Y39.853 E20.99856
G1 X56.334 Y39.003 E21.06843
G1 X56.659 Y38.852 E21.08215
G1 X58.336 Y38.169 E21.15145
G1 X58.718 Y38.038 E21.1669
G1 X60.39 Y37.563 E21.23342
G1 X60.791 Y37.473 E21.24915
G1 X62.516 Y37.186 E21.31607
G1 X62.981 Y37.139 E21.33396
G1 X64.734 Y37.073 E21.40109
G1 X65.249 Y37.089 E21.42081
G1 X66.995 Y37.269 E21.48798
G1 X67.434 Y37.342 E21.50501
G1 X68.413 Y37.565 E21.54344
G1 X68.795 Y37.674 E21.55864
G1 X70.369 Y38.217 E21.62236
G1 X70.848 Y38.421 E21.64229
G1 X71.938 Y38.98 E21.68917
G1 X72.259 Y39.166 E21.70337
G1 X73.273 Y39.823 E21.74961
G1 X73.69 Y40.136 E21.76956
G1 X74.974 Y41.255 E21.83474
G1 X75.35 Y41.635 E21.8552
G1 X76.461 Y42.932 E21.92056
G1 X76.773 Y43.354 E21.94064
G1 X77.71 Y44.831 E22.00758
G1 X77.947 Y45.267 E22.02657
G1 X78.688 Y46.881 E22.09454
G1 X78.818 Y47.205 E22.1079
G1 X79.141 Y48.132 E22.14547
G1 X79.234 Y48.44 E22.15778
G1 X79.661 Y50.128 E22.22441
G1 X79.749 Y50.612 E22.24324
G1 X80.047 Y53.22 E22.3437
G1 X80.071 Y53.667 E22.36083
G1 X80.054 Y55.732 E22.43986
G1 X80.034 Y56.084 E22.45335
G1 X79.841 Y57.931 E22.52442
G1 X79.796 Y58.239 E22.53633
G1 X79.446 Y60.071 E22.60771
G1 X79.379 Y60.358 E22.61899
G1 X78.884 Y62.152 E22.69021
G1 X78.801 Y62.413 E22.70069
G1 X78.181 Y64.146 E22.77113
G1 X78.061 Y64.442 E22.78335
G1 X77.037 Y66.672 E22.87726
G1 X76.926 Y66.893 E22.88673
G1 X76.366 Y67.923 E22.9316
G1 X76.206 Y68.19 E22.94351
G1 X74.58 Y70.658 E23.05661
G1 X74.381 Y70.932 E23.06957
