;FLAVOR:Marlin
;TIME:603
;Filament used: 0.261769m
;Layer height: 0.13125
;Generated with Cura_SteamEngine 3.6.0
M140 S65
M105
M190 S65
M104 S205
M105
M109 S205
M82 ;absolute extrusion mode
G21;(metric values)
G90;(absolute positioning)
M82;(set extruder to absolute mode)
M107;(start with the fan off)
G28;(Home the printer)
G92 E0;(Reset the extruder to 0)
G0 Z5 E5 F500;(Move up and prime the nozzle)
G0 X-1 Z0;(Move outside the printable area)
G1 Y60 E8 F500;(Draw a priming/wiping line to the rear)
G1 X-1;(Move a little closer to the print area)
G1 Y10 E16 F500;(draw more priming/wiping)
G1 E15 F250;(Small retract)
G92 E0;(Zero the extruder)
G92 E0
G1 F2400 E-2.5
;LAYER_COUNT:49
;LAYER:0
M107
G0 F4320 X47.545 Y50.337 Z0.263
;TYPE:SKIRT
G1 F2400 E0
G1 F1620 X48.212 Y49.711 E0.03501
G1 X53.383 Y45.665 E0.28628
G1 X53.908 Y45.305 E0.31064
G1 X54.474 Y45.013 E0.33501
G1 X55.072 Y44.795 E0.35937
G1 X55.887 Y44.625 E0.39123
G1 X56.364 Y44.566 E0.40963
G1 X57.16 Y44.531 E0.44012
G1 X63.481 Y44.747 E0.68217
G1 X64.115 Y44.809 E0.70654
G1 X64.736 Y44.949 E0.73091
G1 X65.335 Y45.166 E0.75529
G1 X66.143 Y45.61 E0.79057
G1 X71.588 Y49.277 E1.0418
G1 X72.093 Y49.665 E1.06617
G1 X72.545 Y50.113 E1.09053
G1 X72.859 Y50.503 E1.10969
G1 X73.005 Y50.704 E1.1192
G1 X73.346 Y51.242 E1.14357
G1 X73.617 Y51.818 E1.16794
G1 X73.778 Y52.291 E1.18706
G1 X75.584 Y58.604 E1.43835
G1 X75.721 Y59.226 E1.46272
G1 X75.778 Y59.861 E1.48712
G1 X75.756 Y60.497 E1.51147
G1 X75.584 Y61.396 E1.5465
G1 X73.778 Y67.709 E1.79779
G1 X73.565 Y68.309 E1.82216
G1 X73.278 Y68.878 E1.84655
G1 X73.005 Y69.296 E1.86565
G1 X72.859 Y69.497 E1.87516
G1 X72.453 Y69.987 E1.89951
G1 X71.989 Y70.423 E1.92388
G1 X71.588 Y70.724 E1.94307
G1 X66.142 Y74.391 E2.19433
G1 X65.592 Y74.713 E2.21872
G1 X65.006 Y74.963 E2.2431
G1 X64.394 Y75.138 E2.26746
G1 X63.488 Y75.253 E2.30241
G1 X56.927 Y75.487 E2.55366
G1 X56.29 Y75.469 E2.57805
G1 X55.661 Y75.373 E2.6024
G1 X55.172 Y75.24 E2.62179
G1 X54.936 Y75.163 E2.63129
G1 X54.344 Y74.928 E2.65567
G1 X53.786 Y74.62 E2.68006
G1 X53.383 Y74.335 E2.69895
G1 X48.212 Y70.289 E2.95022
G1 X47.736 Y69.866 E2.97459
G1 X47.316 Y69.386 E2.999
G1 X46.961 Y68.858 E3.02335
G1 X46.571 Y68.031 E3.05834
G1 X44.322 Y61.863 E3.30959
G1 X44.142 Y61.252 E3.33397
G1 X44.04 Y60.623 E3.35836
G1 X44.015 Y60.124 E3.37748
G1 X44.015 Y59.876 E3.38697
G1 X44.055 Y59.24 E3.41136
G1 X44.174 Y58.615 E3.43571
G1 X44.322 Y58.137 E3.45485
G1 X46.571 Y51.969 E3.70611
G1 X46.826 Y51.386 E3.73046
G1 X47.124 Y50.888 E3.75267
G0 F1458 X47.153 Y50.839
G0 X47.545 Y50.337
G0 F4320 X47.85 Y50.522
G1 F2400 E3.77923
G1 F1620 X48.427 Y49.987 E3.80934
G1 X53.598 Y45.941 E4.06061
G1 X54.106 Y45.594 E4.08416
G1 X54.654 Y45.317 E4.10766
G1 X55.234 Y45.113 E4.13118
G1 X55.93 Y44.973 E4.15835
G1 X56.407 Y44.914 E4.17675
G1 X57.148 Y44.881 E4.20513
G1 X63.469 Y45.097 E4.44718
G1 X64.081 Y45.158 E4.47072
G1 X64.679 Y45.297 E4.49421
G1 X65.254 Y45.514 E4.51773
G1 X65.947 Y45.9 E4.54809
G1 X71.392 Y49.567 E4.79932
G1 X71.879 Y49.943 E4.82287
G1 X72.312 Y50.378 E4.84635
G1 X72.576 Y50.709 E4.86256
G1 X72.722 Y50.91 E4.87206
G1 X73.05 Y51.43 E4.89559
G1 X73.308 Y51.988 E4.91912
G1 X73.442 Y52.387 E4.93523
G1 X75.248 Y58.7 E5.18652
G1 X75.378 Y59.301 E5.21005
G1 X75.429 Y59.913 E5.23355
G1 X75.401 Y60.527 E5.25707
G1 X75.248 Y61.3 E5.28723
G1 X73.442 Y67.613 E5.53852
G1 X73.235 Y68.191 E5.56202
G1 X72.954 Y68.738 E5.58555
G1 X72.722 Y69.09 E5.60169
G1 X72.576 Y69.291 E5.61119
G1 X72.183 Y69.763 E5.6347
G1 X71.733 Y70.181 E5.6582
G1 X71.392 Y70.433 E5.67443
G1 X65.946 Y74.1 E5.92569
G1 X65.415 Y74.41 E5.94922
G1 X64.848 Y74.647 E5.97274
G1 X64.256 Y74.81 E5.99624
G1 X63.475 Y74.903 E6.02634
G1 X56.914 Y75.137 E6.27759
G1 X56.3 Y75.119 E6.3011
G1 X55.694 Y75.021 E6.32459
G1 X55.28 Y74.907 E6.34102
G1 X55.044 Y74.83 E6.35052
G1 X54.474 Y74.602 E6.37402
G1 X53.938 Y74.301 E6.39754
G1 X53.598 Y74.059 E6.41351
G1 X48.427 Y70.013 E6.66478
G1 X47.969 Y69.604 E6.68828
G1 X47.568 Y69.139 E6.71178
G1 X47.23 Y68.625 E6.73533
G1 X46.9 Y67.911 E6.76543
G1 X44.651 Y61.743 E7.01668
G1 X44.478 Y61.153 E7.04021
G1 X44.384 Y60.546 E7.06372
G1 X44.365 Y60.124 E7.07988
G1 X44.365 Y59.876 E7.08937
G1 X44.405 Y59.263 E7.11288
G1 X44.524 Y58.66 E7.1364
G1 X44.651 Y58.257 E7.15257
G1 X46.9 Y52.089 E7.40383
G1 X47.147 Y51.527 E7.42732
G1 X47.424 Y51.07 E7.44777
G0 F1458 X47.466 Y51.001
G0 X47.85 Y50.522
G0 F4320 X48.154 Y50.709
G1 F2400 E7.47433
G1 F1620 X48.643 Y50.262 E7.49968
G1 X53.814 Y46.216 E7.75096
G1 X54.303 Y45.884 E7.77357
G1 X54.833 Y45.621 E7.79622
G1 X55.393 Y45.432 E7.81884
G1 X55.973 Y45.32 E7.84144
G1 X56.45 Y45.261 E7.85984
G1 X57.136 Y45.231 E7.88612
G1 X63.457 Y45.447 E8.12816
G1 X64.046 Y45.507 E8.15082
G1 X64.62 Y45.645 E8.17341
G1 X65.171 Y45.861 E8.19606
G1 X65.752 Y46.19 E8.22161
G1 X71.197 Y49.857 E8.47284
G1 X71.664 Y50.22 E8.49548
G1 X72.078 Y50.642 E8.5181
G1 X72.293 Y50.915 E8.5314
G1 X72.439 Y51.116 E8.54091
G1 X72.753 Y51.617 E8.56354
G1 X72.997 Y52.155 E8.58614
G1 X73.105 Y52.484 E8.5994
G1 X74.911 Y58.797 E8.85069
G1 X75.035 Y59.375 E8.87331
G1 X75.08 Y59.964 E8.89592
G1 X75.045 Y60.555 E8.91857
G1 X74.911 Y61.203 E8.9439
G1 X73.105 Y67.516 E9.19519
G1 X72.905 Y68.072 E9.2178
G1 X72.631 Y68.597 E9.24046
G1 X72.439 Y68.884 E9.25368
G1 X72.293 Y69.085 E9.26318
G1 X71.914 Y69.539 E9.28582
G1 X71.477 Y69.938 E9.30846
G1 X71.197 Y70.143 E9.32174
G1 X65.751 Y73.81 E9.57301
G1 X65.239 Y74.106 E9.59564
G1 X64.692 Y74.331 E9.61827
G1 X64.12 Y74.48 E9.6409
G1 X63.463 Y74.553 E9.66619
G1 X56.902 Y74.787 E9.91744
G1 X56.311 Y74.768 E9.94007
G1 X55.728 Y74.67 E9.9627
G1 X55.389 Y74.574 E9.97618
G1 X55.153 Y74.497 E9.98568
G1 X54.605 Y74.276 E10.00829
G1 X54.091 Y73.983 E10.03094
G1 X53.814 Y73.784 E10.04399
G1 X48.643 Y69.738 E10.29526
G1 X48.203 Y69.343 E10.31789
G1 X47.82 Y68.892 E10.34053
G1 X47.502 Y68.394 E10.36314
G1 X47.229 Y67.791 E10.38848
G1 X44.98 Y61.623 E10.63973
G1 X44.815 Y61.055 E10.66236
G1 X44.729 Y60.47 E10.68499
G1 X44.715 Y60.124 E10.69824
G1 X44.715 Y59.876 E10.70773
G1 X44.755 Y59.286 E10.73037
G1 X44.874 Y58.707 E10.75299
G1 X44.98 Y58.377 E10.76625
G1 X47.229 Y52.209 E11.0175
G1 X47.468 Y51.669 E11.0401
G1 X47.725 Y51.253 E11.05882
G0 F1458 X47.779 Y51.165
G0 X48.154 Y50.709
G0 F4320 X48.457 Y50.898
G1 F2400 E11.08538
G1 F1620 X48.859 Y50.538 E11.10603
G1 X54.03 Y46.492 E11.3573
G1 X54.5 Y46.175 E11.37899
G1 X55.01 Y45.927 E11.4007
G1 X55.55 Y45.753 E11.42241
G1 X56.016 Y45.667 E11.44054
G1 X56.493 Y45.608 E11.45894
G1 X57.124 Y45.58 E11.48311
G1 X63.445 Y45.796 E11.72516
G1 X64.009 Y45.856 E11.74686
G1 X64.56 Y45.994 E11.7686
G1 X65.085 Y46.207 E11.79028
G1 X65.556 Y46.481 E11.81114
G1 X71.001 Y50.148 E12.06237
G1 X71.448 Y50.497 E12.08407
G1 X72.01 Y51.121 E12.11621
G1 X72.156 Y51.322 E12.12571
G1 X72.456 Y51.803 E12.14741
G1 X72.769 Y52.58 E12.17947
G1 X74.575 Y58.893 E12.43076
G1 X74.692 Y59.448 E12.45246
G1 X74.73 Y60.014 E12.47417
G1 X74.688 Y60.579 E12.49585
G1 X74.575 Y61.107 E12.51652
G1 X72.769 Y67.42 E12.76781
G1 X72.575 Y67.953 E12.78952
G1 X72.156 Y68.678 E12.82156
G1 X72.01 Y68.879 E12.83107
G1 X71.645 Y69.314 E12.8528
G1 X71.001 Y69.853 E12.88494
G1 X65.555 Y73.52 E13.1362
G1 X65.064 Y73.802 E13.15787
G1 X64.537 Y74.013 E13.17959
G1 X63.986 Y74.148 E13.20131
G1 X63.45 Y74.203 E13.22193
G1 X56.889 Y74.437 E13.47317
G1 X56.323 Y74.418 E13.49485
G1 X55.498 Y74.241 E13.52714
G1 X55.262 Y74.164 E13.53664
G1 X54.736 Y73.951 E13.55836
G1 X54.03 Y73.508 E13.59025
G1 X48.859 Y69.462 E13.84153
G1 X48.438 Y69.082 E13.86323
G1 X48.074 Y68.646 E13.88497
G1 X47.776 Y68.164 E13.90665
G1 X47.558 Y67.671 E13.92728
G1 X45.309 Y61.503 E14.17853
G1 X45.152 Y60.958 E14.20024
G1 X45.065 Y60.124 E14.23233
G1 X45.065 Y59.876 E14.24182
G1 X45.105 Y59.31 E14.26353
G1 X45.309 Y58.497 E14.29561
G1 X47.558 Y52.329 E14.54686
G1 X47.789 Y51.811 E14.56857
G1 X48.023 Y51.439 E14.58539
G0 F1458 X48.091 Y51.331
G0 X48.457 Y50.898
G0 F4320 X48.759 Y51.091
G1 F2400 E14.61195
G1 F1620 X49.074 Y50.814 E14.628
G1 X54.245 Y46.768 E14.87927
G1 X54.696 Y46.466 E14.90004
G1 X55.185 Y46.234 E14.92076
G1 X55.704 Y46.077 E14.94151
G1 X56.059 Y46.015 E14.9553
G1 X56.536 Y45.956 E14.97369
G1 X57.113 Y45.93 E14.9958
G1 X63.434 Y46.146 E15.23784
G1 X63.972 Y46.205 E15.25856
G1 X64.496 Y46.341 E15.27927
G1 X64.995 Y46.554 E15.30004
G1 X65.361 Y46.771 E15.31632
G1 X70.806 Y50.438 E15.56755
G1 X71.232 Y50.773 E15.58829
G1 X71.726 Y51.326 E15.61667
G1 X71.872 Y51.527 E15.62618
G1 X72.158 Y51.988 E15.64694
G1 X72.432 Y52.676 E15.67528
G1 X74.238 Y58.989 E15.92657
G1 X74.348 Y59.52 E15.94732
G1 X74.379 Y60.061 E15.96806
G1 X74.331 Y60.6 E15.98877
G1 X74.238 Y61.011 E16.00489
G1 X72.432 Y67.324 E16.25618
G1 X72.245 Y67.832 E16.2769
G1 X71.872 Y68.473 E16.30528
G1 X71.726 Y68.674 E16.31479
G1 X71.376 Y69.088 E16.33554
G1 X70.806 Y69.562 E16.36391
G1 X65.36 Y73.229 E16.61517
G1 X64.889 Y73.498 E16.63593
G1 X64.384 Y73.695 E16.65667
G1 X63.856 Y73.815 E16.67739
G1 X63.438 Y73.854 E16.69346
G1 X56.877 Y74.088 E16.94471
G1 X56.336 Y74.067 E16.96543
G1 X55.606 Y73.909 E16.99401
G1 X55.37 Y73.832 E17.00351
G1 X54.869 Y73.626 E17.02424
G1 X54.245 Y73.232 E17.05249
G1 X49.074 Y69.186 E17.30376
G1 X48.673 Y68.822 E17.32448
G1 X48.33 Y68.402 E17.34524
G1 X48.053 Y67.937 E17.36595
G1 X47.886 Y67.551 E17.38205
G1 X45.637 Y61.383 E17.6333
G1 X45.49 Y60.862 E17.65401
G1 X45.415 Y60.124 E17.6824
G1 X45.415 Y59.876 E17.69189
G1 X45.455 Y59.336 E17.71262
G1 X45.637 Y58.617 E17.741
G1 X47.886 Y52.449 E17.99225
G1 X48.109 Y51.955 E18.01299
G1 X48.32 Y51.626 E18.02795
G0 F1458 X48.402 Y51.499
G0 X48.759 Y51.091
G0 F4320 X48.712 Y51.67
G1 F2400 E18.05451
G1 F1620 X49.059 Y51.288 E18.07426
G1 X49.29 Y51.089 E18.08593
G1 X54.461 Y47.043 E18.3372
G1 X54.89 Y46.758 E18.35691
G1 X55.359 Y46.543 E18.37666
G1 X56.102 Y46.362 E18.40592
G1 X56.579 Y46.303 E18.42431
G1 X57.101 Y46.28 E18.44431
G1 X63.422 Y46.496 E18.68636
G1 X63.934 Y46.553 E18.70607
G1 X64.431 Y46.689 E18.72579
G1 X64.901 Y46.9 E18.74551
G1 X65.165 Y47.061 E18.75734
G1 X70.61 Y50.728 E19.00857
G1 X71.014 Y51.048 E19.02829
G1 X71.443 Y51.532 E19.05305
G1 X71.589 Y51.733 E19.06255
G1 X71.859 Y52.172 E19.08228
G1 X72.096 Y52.772 E19.10697
G1 X73.902 Y59.085 E19.35826
G1 X74.005 Y59.59 E19.37798
G1 X74.028 Y60.105 E19.39771
G1 X73.972 Y60.618 E19.41746
G1 X73.902 Y60.915 E19.42914
G1 X72.096 Y67.228 E19.68043
G1 X71.916 Y67.711 E19.70015
G1 X71.589 Y68.267 E19.72484
G1 X71.443 Y68.468 E19.73434
G1 X71.109 Y68.86 E19.75405
G1 X70.61 Y69.272 E19.77882
G1 X65.164 Y72.939 E20.03008
G1 X64.716 Y73.193 E20.04979
G1 X64.233 Y73.374 E20.06953
G1 X63.729 Y73.479 E20.08923
G1 X63.426 Y73.504 E20.10086
G1 X56.865 Y73.738 E20.35211
G1 X56.35 Y73.716 E20.37184
G1 X55.715 Y73.576 E20.39673
G1 X55.479 Y73.499 E20.40623
G1 X55.003 Y73.302 E20.42594
G1 X54.461 Y72.957 E20.45053
G1 X49.29 Y68.911 E20.7018
G1 X48.91 Y68.563 E20.72152
G1 X48.588 Y68.16 E20.74126
G1 X48.333 Y67.712 E20.76099
G1 X48.215 Y67.431 E20.77265
G1 X45.966 Y61.263 E21.0239
G1 X45.828 Y60.767 E21.04361
G1 X45.765 Y60.124 E21.06833
G1 X45.765 Y59.876 E21.07782
G1 X45.805 Y59.362 E21.09755
G1 X45.966 Y58.737 E21.12225
G1 X48.215 Y52.569 E21.3735
G1 X48.355 Y52.263 E21.38638
G0 F1458 X48.429 Y52.1
G0 X48.712 Y51.67
G0 F4320 X49.021 Y51.843
G1 F2400 E21.41294
G1 F1620 X49.506 Y51.365 E21.439
G1 X54.677 Y47.319 E21.69027
G1 X55.084 Y47.051 E21.70892
G1 X55.529 Y46.853 E21.72756
G1 X56.145 Y46.709 E21.75177
G1 X56.622 Y46.65 E21.77017
G1 X57.089 Y46.63 E21.78805
G1 X63.41 Y46.846 E22.0301
G1 X63.894 Y46.902 E22.04875
G1 X64.362 Y47.037 E22.06739
G1 X64.97 Y47.351 E22.09357
G1 X70.415 Y51.018 E22.3448
G1 X70.795 Y51.323 E22.36345
G1 X71.16 Y51.738 E22.3846
G1 X71.306 Y51.939 E22.39411
G1 X71.559 Y52.355 E22.41274
G1 X71.759 Y52.869 E22.43385
G1 X73.565 Y59.182 E22.68514
G1 X73.66 Y59.66 E22.70379
G1 X73.676 Y60.147 E22.72244
G1 X73.565 Y60.818 E22.74847
G1 X71.759 Y67.131 E22.99976
G1 X71.587 Y67.587 E23.01841
G1 X71.306 Y68.061 E23.0395
G1 X71.16 Y68.262 E23.049
G1 X70.842 Y68.632 E23.06767
G1 X70.415 Y68.982 E23.0888
G1 X64.969 Y72.649 E23.34006
G1 X64.543 Y72.887 E23.35874
G1 X64.085 Y73.053 E23.37738
G1 X63.413 Y73.154 E23.40339
G1 X56.852 Y73.388 E23.65464
G1 X56.365 Y73.366 E23.67329
G1 X55.823 Y73.243 E23.69456
G1 X55.587 Y73.166 E23.70406
G1 X55.138 Y72.978 E23.72269
G1 X54.677 Y72.681 E23.74368
G1 X49.506 Y68.635 E23.99495
G1 X49.148 Y68.304 E24.01361
G1 X48.849 Y67.919 E24.03227
G1 X48.544 Y67.311 E24.0583
G1 X46.295 Y61.143 E24.30955
G1 X46.166 Y60.673 E24.3282
G1 X46.115 Y60.124 E24.3493
G1 X46.115 Y59.876 E24.35879
G1 X46.155 Y59.39 E24.37745
G1 X46.295 Y58.857 E24.39854
G1 X48.544 Y52.689 E24.6498
G1 X48.661 Y52.435 E24.6605
G0 F1458 X48.748 Y52.246
G0 X49.021 Y51.843
G0 F4320 X49.329 Y52.019
G1 F2400 E24.68706
G1 F1620 X49.721 Y51.641 E24.7079
G1 X54.892 Y47.595 E24.95917
G1 X55.276 Y47.345 E24.9767
G1 X55.698 Y47.166 E24.99425
G1 X56.188 Y47.057 E25.01346
G1 X56.665 Y46.998 E25.03185
G1 X57.077 Y46.98 E25.04763
G1 X63.398 Y47.196 E25.28968
G1 X63.852 Y47.251 E25.30718
G1 X64.29 Y47.385 E25.32471
G1 X64.774 Y47.642 E25.34568
G1 X70.219 Y51.309 E25.59691
G1 X70.575 Y51.597 E25.61444
G1 X70.877 Y51.943 E25.63201
G1 X71.023 Y52.144 E25.64152
G1 X71.259 Y52.537 E25.65906
G1 X71.423 Y52.965 E25.6766
G1 X73.229 Y59.278 E25.92789
G1 X73.316 Y59.727 E25.9454
G1 X73.323 Y60.185 E25.96293
G1 X73.229 Y60.722 E25.98379
G1 X71.423 Y67.035 E26.23508
G1 X71.259 Y67.462 E26.25258
G1 X71.023 Y67.856 E26.27016
G1 X70.877 Y68.057 E26.27967
G1 X70.577 Y68.402 E26.29717
G1 X70.219 Y68.691 E26.31477
G1 X64.773 Y72.358 E26.56603
G1 X64.373 Y72.58 E26.58354
G1 X63.94 Y72.729 E26.60107
G1 X63.401 Y72.804 E26.62189
G1 X56.84 Y73.038 E26.87314
G1 X56.382 Y73.015 E26.89069
G1 X55.932 Y72.911 E26.90837
G1 X55.696 Y72.834 E26.91787
G1 X55.275 Y72.654 E26.93539
G1 X54.892 Y72.405 E26.95287
G1 X49.721 Y68.359 E27.20414
G1 X49.387 Y68.047 E27.22164
G1 X49.112 Y67.681 E27.23916
G1 X48.873 Y67.191 E27.26002
G1 X46.624 Y61.023 E27.51127
G1 X46.505 Y60.581 E27.52879
G1 X46.465 Y60.124 E27.54634
G1 X46.465 Y59.876 E27.55583
G1 X46.505 Y59.42 E27.57335
G1 X46.624 Y58.977 E27.59091
G1 X48.873 Y52.809 E27.84216
G1 X48.967 Y52.608 E27.85065
G0 F1458 X49.067 Y52.394
G0 X49.329 Y52.019
G0 F4320 X49.636 Y52.2
G1 F2400 E27.87721
G1 F1620 X49.937 Y51.916 E27.89305
G1 X55.108 Y47.87 E28.14432
G1 X55.467 Y47.64 E28.16064
G1 X55.862 Y47.481 E28.17693
G1 X56.231 Y47.404 E28.19136
G1 X56.708 Y47.345 E28.20975
G1 X57.065 Y47.329 E28.22343
G1 X63.386 Y47.545 E28.46547
G1 X63.808 Y47.6 E28.48176
G1 X64.213 Y47.732 E28.49806
G1 X64.579 Y47.932 E28.51402
G1 X70.024 Y51.599 E28.76525
G1 X70.353 Y51.869 E28.78154
G1 X70.594 Y52.149 E28.79568
G1 X70.74 Y52.35 E28.80519
G1 X70.957 Y52.717 E28.8215
G1 X71.086 Y53.061 E28.83556
G1 X72.892 Y59.374 E29.08685
G1 X72.971 Y59.793 E29.10317
G1 X72.969 Y60.219 E29.11947
G1 X72.892 Y60.626 E29.13532
G1 X71.086 Y66.939 E29.38661
G1 X70.931 Y67.336 E29.40292
G1 X70.74 Y67.65 E29.41699
G1 X70.594 Y67.851 E29.4265
G1 X70.312 Y68.171 E29.44282
G1 X70.024 Y68.401 E29.45693
G1 X64.578 Y72.068 E29.70819
G1 X64.203 Y72.272 E29.72452
G1 X63.798 Y72.402 E29.7408
G1 X63.388 Y72.455 E29.75662
G1 X56.827 Y72.689 E30.00787
G1 X56.402 Y72.664 E30.02417
G1 X56.04 Y72.578 E30.0384
G1 X55.804 Y72.501 E30.0479
G1 X55.413 Y72.331 E30.06422
G1 X55.108 Y72.13 E30.0782
G1 X49.937 Y68.084 E30.32947
G1 X49.628 Y67.791 E30.34577
G1 X49.378 Y67.445 E30.3621
G1 X49.202 Y67.071 E30.37792
G1 X46.953 Y60.903 E30.62917
G1 X46.845 Y60.491 E30.64547
G1 X46.815 Y60.124 E30.65957
G1 X46.815 Y59.876 E30.66906
G1 X46.855 Y59.452 E30.68536
G1 X46.953 Y59.097 E30.69945
G1 X49.202 Y52.929 E30.9507
G1 X49.27 Y52.786 E30.95676
G0 F1458 X49.384 Y52.544
G0 X49.636 Y52.2
G0 F4320 X49.94 Y52.385
G1 F2400 E30.98332
G1 F1620 X50.153 Y52.192 E30.99432
G1 X55.324 Y48.146 E31.24559
G1 X55.655 Y47.937 E31.26057
G1 X56.022 Y47.8 E31.27556
G1 X56.274 Y47.752 E31.28538
G1 X56.751 Y47.693 E31.30378
G1 X57.053 Y47.679 E31.31535
G1 X63.374 Y47.895 E31.55739
