;FLAVOR:Marlin
;TIME:4365
;Filament used: 1.14563m
;Layer height: 0.175
;Generated with Cura_SteamEngine 3.6.0
M140 S60
M105
M190 S60
M104 S200
M105
M109 S200
M82 ;absolute extrusion mode
G21;(metric values)
G90;(absolute positioning)
M82;(set extruder to absolute mode)
M107;(start with the fan off)
G28;(Home the printer)
G92 E0;(Reset the extruder to 0)
G92 E0
G1 F2400 E-2.5
;LAYER_COUNT:165
;LAYER:0
M107
G0 F4320 X45.689 Y45.851 Z0.2
;TYPE:SKIRT
G1 F2400 E0
G1 F720 X46.642 Y44.956 E0.03805
G1 X47.179 Y44.516 E0.05825
G1 X47.73 Y44.125 E0.07792
G1 X48.49 Y43.68 E0.10355
G1 X48.949 Y43.462 E0.11833
G1 X49.54 Y43.225 E0.13686
G1 X50.156 Y43.065 E0.15539
G1 X50.788 Y42.982 E0.17394
G1 X51.694 Y43.003 E0.20031
G1 X52.129 Y43.052 E0.21305
G1 X52.756 Y43.163 E0.23158
G1 X53.365 Y43.351 E0.25013
G1 X53.944 Y43.615 E0.26865
G1 X54.487 Y43.948 E0.28719
G1 X54.581 Y44.024 E0.29071
G1 X54.703 Y44.077 E0.29458
G1 X54.953 Y44.226 E0.30305
G1 X55.308 Y44.391 E0.31444
G1 X55.847 Y44.73 E0.33297
G1 X55.964 Y44.826 E0.33738
G1 X56.117 Y44.896 E0.34227
G1 X56.564 Y45.129 E0.35694
G1 X77.432 Y57.349 E1.06072
G1 X77.96 Y57.704 E1.07924
G1 X78.439 Y58.123 E1.09776
G1 X78.758 Y58.47 E1.11148
G1 X78.866 Y58.599 E1.11637
G1 X79.244 Y59.112 E1.13492
G1 X79.554 Y59.668 E1.15344
G1 X79.792 Y60.259 E1.17199
G1 X79.954 Y60.875 E1.19052
G1 X80.038 Y61.506 E1.20905
G1 X80.042 Y62.143 E1.22759
G1 X79.986 Y62.663 E1.24281
G1 X79.738 Y64.205 E1.28826
G1 X79.537 Y65.019 E1.31266
G1 X78.667 Y67.602 E1.39198
G1 X78.371 Y68.302 E1.4141
G1 X77.524 Y69.95 E1.46803
G1 X77.167 Y70.542 E1.48815
G1 X75.82 Y72.465 E1.55647
G1 X75.386 Y73.002 E1.57657
G1 X74.382 Y74.086 E1.61957
G1 X74.017 Y74.442 E1.63441
G1 X72.849 Y75.473 E1.67975
G1 X72.499 Y75.756 E1.69284
G1 X71.148 Y76.75 E1.74166
G1 X70.557 Y77.125 E1.76203
G1 X69.087 Y77.921 E1.81068
G1 X68.706 Y78.107 E1.82302
G1 X67.439 Y78.662 E1.86327
G1 X66.841 Y78.88 E1.8818
G1 X64.664 Y79.523 E1.94786
G1 X63.968 Y79.677 E1.9686
G1 X62.039 Y79.962 E2.02535
G1 X61.388 Y80.015 E2.04436
G1 X59.152 Y80.055 E2.10944
G1 X58.423 Y80.016 E2.13069
G1 X56.554 Y79.779 E2.18552
G1 X55.995 Y79.676 E2.20206
G1 X54.813 Y79.389 E2.23746
G1 X54.325 Y79.244 E2.25228
G1 X52.229 Y78.506 E2.31695
G1 X51.628 Y78.25 E2.33596
G1 X50.068 Y77.463 E2.38681
G1 X49.513 Y77.138 E2.40552
G1 X47.954 Y76.085 E2.46028
G1 X47.558 Y75.787 E2.4747
G1 X46.568 Y74.967 E2.51211
G1 X46.166 Y74.596 E2.52803
G1 X44.992 Y73.388 E2.57705
G1 X44.618 Y72.957 E2.59366
G1 X43.471 Y71.475 E2.6482
G1 X43.129 Y70.975 E2.66583
G1 X42.515 Y69.949 E2.70063
G1 X42.289 Y69.526 E2.71458
G1 X41.251 Y67.348 E2.7848
G1 X40.931 Y66.481 E2.8117
G1 X40.204 Y63.774 E2.89327
G1 X40.055 Y62.966 E2.91718
G1 X39.895 Y61.375 E2.96371
G1 X39.87 Y60.817 E2.97997
G1 X39.891 Y58.695 E3.04173
G1 X39.927 Y58.139 E3.05794
G1 X40.087 Y56.808 E3.09696
G1 X40.196 Y56.208 E3.11471
G1 X40.607 Y54.528 E3.16504
G1 X40.796 Y53.924 E3.18346
G1 X41.62 Y51.766 E3.25068
G1 X41.874 Y51.205 E3.26861
G1 X42.486 Y50.047 E3.30672
G1 X42.795 Y49.537 E3.32408
G1 X44.022 Y47.758 E3.38697
G1 X44.398 Y47.277 E3.40474
G1 X45.067 Y46.52 E3.43414
G0 F648 X45.361 Y46.188
G0 X45.689 Y45.851
G0 F4320 X45.928 Y46.106
G1 F2400 E3.46074
G1 F720 X46.881 Y45.211 E3.49879
G1 X47.382 Y44.802 E3.51761
G1 X47.933 Y44.411 E3.53727
G1 X48.64 Y43.996 E3.56113
G1 X49.099 Y43.778 E3.57592
G1 X49.67 Y43.551 E3.5938
G1 X50.266 Y43.4 E3.6117
G1 X50.876 Y43.328 E3.62957
G1 X51.655 Y43.351 E3.65225
G1 X52.09 Y43.4 E3.66499
G1 X52.695 Y43.508 E3.68288
G1 X53.28 Y43.694 E3.70074
G1 X53.837 Y43.954 E3.71863
G1 X54.355 Y44.285 E3.73652
G1 X54.409 Y44.331 E3.73859
G1 X54.562 Y44.398 E3.74345
G1 X54.788 Y44.535 E3.75114
G1 X55.16 Y44.709 E3.76309
G1 X55.678 Y45.039 E3.78097
G1 X55.785 Y45.128 E3.78502
G1 X55.971 Y45.214 E3.79098
G1 X56.387 Y45.431 E3.80463
G1 X77.255 Y57.651 E4.50841
G1 X77.764 Y57.995 E4.52629
G1 X78.224 Y58.402 E4.54417
G1 X78.49 Y58.695 E4.55568
G1 X78.598 Y58.824 E4.56058
G1 X78.961 Y59.32 E4.57847
G1 X79.256 Y59.858 E4.59632
G1 X79.48 Y60.431 E4.61423
G1 X79.627 Y61.028 E4.63212
G1 X79.695 Y61.638 E4.64999
G1 X79.683 Y62.253 E4.66789
G1 X79.64 Y62.607 E4.67826
G1 X79.392 Y64.149 E4.72372
G1 X79.205 Y64.907 E4.74644
G1 X78.335 Y67.49 E4.82576
G1 X78.059 Y68.142 E4.84637
G1 X77.212 Y69.79 E4.90029
G1 X76.88 Y70.341 E4.91901
G1 X75.533 Y72.264 E4.98734
G1 X75.13 Y72.764 E5.00603
G1 X74.126 Y73.848 E5.04903
G1 X73.786 Y74.179 E5.06284
G1 X72.618 Y75.21 E5.10818
G1 X72.291 Y75.474 E5.12041
G1 X70.94 Y76.468 E5.16922
G1 X70.39 Y76.817 E5.18818
G1 X68.92 Y77.613 E5.23683
G1 X68.566 Y77.786 E5.2483
G1 X67.299 Y78.341 E5.28855
G1 X66.741 Y78.544 E5.30583
G1 X64.564 Y79.187 E5.37189
G1 X63.917 Y79.33 E5.39118
G1 X61.988 Y79.615 E5.44793
G1 X61.382 Y79.665 E5.46562
G1 X59.146 Y79.705 E5.53071
G1 X58.467 Y79.668 E5.5505
G1 X56.598 Y79.431 E5.60533
G1 X56.077 Y79.336 E5.62074
G1 X54.895 Y79.049 E5.65614
G1 X54.441 Y78.914 E5.66992
G1 X52.345 Y78.176 E5.73459
G1 X51.786 Y77.938 E5.75227
G1 X50.226 Y77.151 E5.80312
G1 X49.709 Y76.848 E5.82056
G1 X48.15 Y75.795 E5.87531
G1 X47.781 Y75.518 E5.88874
G1 X46.791 Y74.698 E5.92615
G1 X46.417 Y74.352 E5.94098
G1 X45.243 Y73.144 E5.99
G1 X44.894 Y72.743 E6.00547
G1 X43.747 Y71.261 E6.06001
G1 X43.43 Y70.795 E6.07642
G1 X42.816 Y69.769 E6.11121
G1 X42.605 Y69.376 E6.12419
G1 X41.567 Y67.198 E6.19441
G1 X41.269 Y66.391 E6.21945
G1 X40.542 Y63.684 E6.30102
G1 X40.404 Y62.931 E6.3233
G1 X40.244 Y61.34 E6.36983
G1 X40.22 Y60.82 E6.38498
G1 X40.241 Y58.698 E6.44674
G1 X40.275 Y58.181 E6.46182
G1 X40.435 Y56.85 E6.50084
G1 X40.536 Y56.291 E6.51737
G1 X40.947 Y54.611 E6.5677
G1 X41.123 Y54.049 E6.58484
G1 X41.947 Y51.891 E6.65207
G1 X42.184 Y51.368 E6.66878
G1 X42.796 Y50.21 E6.70689
G1 X43.083 Y49.735 E6.72305
G1 X44.31 Y47.956 E6.78594
G1 X44.66 Y47.509 E6.80246
G1 X45.307 Y46.777 E6.83089
G0 F648 X45.623 Y46.42
G0 X45.928 Y46.106
G0 F4320 X46.168 Y46.361
G1 F2400 E6.85749
G1 F720 X47.121 Y45.466 E6.89554
G1 X47.584 Y45.087 E6.91295
G1 X48.135 Y44.696 E6.93262
G1 X48.79 Y44.312 E6.95471
G1 X49.249 Y44.094 E6.9695
G1 X49.799 Y43.877 E6.98671
G1 X50.373 Y43.736 E7.00391
G1 X50.961 Y43.674 E7.02112
G1 X51.616 Y43.698 E7.04019
G1 X52.051 Y43.747 E7.05293
G1 X52.632 Y43.853 E7.07012
G1 X53.195 Y44.036 E7.08735
G1 X53.727 Y44.294 E7.10456
G1 X54.22 Y44.621 E7.12177
G1 X54.241 Y44.64 E7.1226
G1 X54.42 Y44.719 E7.12829
G1 X54.621 Y44.843 E7.13516
G1 X55.011 Y45.027 E7.14771
G1 X55.507 Y45.348 E7.16491
G1 X55.602 Y45.429 E7.16854
G1 X55.825 Y45.532 E7.17569
G1 X56.21 Y45.733 E7.18833
G1 X77.078 Y57.953 E7.89211
G1 X77.567 Y58.285 E7.90931
G1 X78.006 Y58.681 E7.92652
G1 X78.222 Y58.92 E7.93589
G1 X78.33 Y59.049 E7.94079
G1 X78.678 Y59.526 E7.95797
G1 X78.958 Y60.047 E7.97519
G1 X79.166 Y60.601 E7.99241
G1 X79.297 Y61.177 E8.0096
G1 X79.349 Y61.766 E8.02681
G1 X79.294 Y62.552 E8.04974
G1 X79.046 Y64.094 E8.09519
G1 X78.873 Y64.795 E8.1162
G1 X78.003 Y67.378 E8.19552
G1 X77.748 Y67.982 E8.2146
G1 X76.901 Y69.63 E8.26853
G1 X76.593 Y70.14 E8.28587
G1 X75.246 Y72.063 E8.3542
G1 X74.873 Y72.526 E8.3715
G1 X73.869 Y73.61 E8.4145
G1 X73.554 Y73.917 E8.4273
G1 X72.386 Y74.948 E8.47264
G1 X72.084 Y75.192 E8.48394
G1 X70.733 Y76.186 E8.53275
G1 X70.223 Y76.509 E8.55032
G1 X68.753 Y77.305 E8.59897
G1 X68.425 Y77.465 E8.60959
G1 X67.158 Y78.02 E8.64985
G1 X66.642 Y78.209 E8.66584
G1 X64.465 Y78.852 E8.7319
G1 X63.865 Y78.984 E8.74978
G1 X61.936 Y79.269 E8.80653
G1 X61.375 Y79.315 E8.82291
G1 X59.139 Y79.355 E8.888
G1 X58.511 Y79.321 E8.9063
G1 X56.642 Y79.084 E8.96113
G1 X56.16 Y78.995 E8.97539
G1 X54.978 Y78.708 E9.01079
G1 X54.557 Y78.584 E9.02356
G1 X52.461 Y77.846 E9.08823
G1 X51.943 Y77.625 E9.10462
G1 X50.383 Y76.838 E9.15547
G1 X49.905 Y76.557 E9.17161
G1 X48.346 Y75.504 E9.22636
G1 X48.004 Y75.248 E9.23879
G1 X47.014 Y74.428 E9.2762
G1 X46.668 Y74.108 E9.28992
G1 X45.494 Y72.9 E9.33894
G1 X45.171 Y72.529 E9.35326
G1 X44.024 Y71.047 E9.4078
G1 X43.73 Y70.616 E9.42298
G1 X43.116 Y69.59 E9.45778
G1 X42.921 Y69.225 E9.46982
G1 X41.883 Y67.047 E9.54004
G1 X41.607 Y66.3 E9.56321
G1 X40.88 Y63.593 E9.64479
G1 X40.752 Y62.896 E9.66541
G1 X40.592 Y61.305 E9.71195
G1 X40.57 Y60.824 E9.72596
G1 X40.591 Y58.702 E9.78772
G1 X40.622 Y58.223 E9.80169
G1 X40.782 Y56.892 E9.8407
G1 X40.876 Y56.374 E9.85602
G1 X41.287 Y54.694 E9.90636
G1 X41.45 Y54.173 E9.92225
G1 X42.274 Y52.015 E9.98947
G1 X42.493 Y51.532 E10.00491
G1 X43.105 Y50.374 E10.04302
G1 X43.372 Y49.934 E10.058
G1 X44.599 Y48.155 E10.1209
G1 X44.923 Y47.741 E10.13619
G1 X45.549 Y47.033 E10.1637
G0 F648 X45.886 Y46.652
G0 X46.168 Y46.361
G0 F4320 X46.408 Y46.616
G1 F2400 E10.1903
G1 F720 X47.361 Y45.721 E10.22835
G1 X47.787 Y45.372 E10.24437
G1 X48.338 Y44.981 E10.26404
G1 X48.94 Y44.628 E10.28435
G1 X49.399 Y44.41 E10.29913
G1 X49.927 Y44.204 E10.31563
G1 X50.479 Y44.073 E10.33214
G1 X51.044 Y44.022 E10.34865
G1 X51.577 Y44.046 E10.36418
G1 X52.012 Y44.095 E10.37692
G1 X52.569 Y44.198 E10.3934
G1 X53.107 Y44.379 E10.40992
G1 X53.614 Y44.633 E10.42642
G1 X54.06 Y44.942 E10.44221
G1 X54.063 Y44.944 E10.44232
G1 X54.277 Y45.04 E10.44915
G1 X54.451 Y45.149 E10.45512
G1 X54.861 Y45.344 E10.46833
G1 X55.335 Y45.656 E10.48485
G1 X55.419 Y45.731 E10.48813
G1 X55.679 Y45.85 E10.49645
G1 X56.033 Y46.035 E10.50807
G1 X76.901 Y58.255 E11.21185
G1 X77.369 Y58.575 E11.22835
G1 X77.953 Y59.144 E11.25208
G1 X78.061 Y59.273 E11.25698
G1 X78.394 Y59.733 E11.2735
G1 X78.658 Y60.234 E11.28998
G1 X78.85 Y60.768 E11.3065
G1 X78.964 Y61.323 E11.32299
G1 X79 Y61.889 E11.33949
G1 X78.949 Y62.496 E11.35722
G1 X78.701 Y64.038 E11.40267
G1 X78.541 Y64.684 E11.42204
G1 X77.671 Y67.267 E11.50136
G1 X77.437 Y67.822 E11.51889
G1 X76.59 Y69.47 E11.57282
G1 X76.307 Y69.939 E11.58876
G1 X74.96 Y71.862 E11.65709
G1 X74.616 Y72.288 E11.67302
G1 X73.612 Y73.372 E11.71602
G1 X73.323 Y73.655 E11.72779
G1 X72.155 Y74.686 E11.77313
G1 X71.876 Y74.91 E11.78355
G1 X70.525 Y75.904 E11.83236
G1 X70.057 Y76.201 E11.84849
G1 X68.587 Y76.997 E11.89714
G1 X68.285 Y77.145 E11.90693
G1 X67.018 Y77.7 E11.94718
G1 X66.543 Y77.873 E11.9619
G1 X64.366 Y78.516 E12.02796
G1 X63.814 Y78.638 E12.04441
G1 X61.885 Y78.923 E12.10116
G1 X61.369 Y78.965 E12.11622
G1 X59.133 Y79.005 E12.18131
G1 X58.555 Y78.974 E12.19815
G1 X56.686 Y78.737 E12.25298
G1 X56.242 Y78.655 E12.26612
G1 X55.06 Y78.368 E12.30152
G1 X54.673 Y78.254 E12.31326
G1 X52.577 Y77.516 E12.37793
G1 X52.101 Y77.313 E12.39299
G1 X50.541 Y76.526 E12.44384
G1 X50.101 Y76.267 E12.4587
G1 X48.542 Y75.214 E12.51345
G1 X48.228 Y74.979 E12.52487
G1 X47.238 Y74.159 E12.56228
G1 X46.919 Y73.864 E12.57492
G1 X45.745 Y72.656 E12.62395
G1 X45.448 Y72.315 E12.63711
G1 X44.301 Y70.833 E12.69165
G1 X44.03 Y70.436 E12.70563
G1 X43.416 Y69.41 E12.74043
G1 X43.237 Y69.075 E12.75149
G1 X42.199 Y66.897 E12.8217
G1 X41.945 Y66.209 E12.84305
G1 X41.218 Y63.502 E12.92462
G1 X41.1 Y62.861 E12.94359
G1 X40.94 Y61.27 E12.99012
G1 X40.92 Y60.827 E13.00303
G1 X40.941 Y58.705 E13.06479
G1 X40.97 Y58.265 E13.07762
G1 X41.13 Y56.934 E13.11663
G1 X41.216 Y56.458 E13.13071
G1 X41.627 Y54.778 E13.18104
G1 X41.777 Y54.298 E13.19568
G1 X42.601 Y52.14 E13.26291
G1 X42.802 Y51.695 E13.27712
G1 X43.414 Y50.537 E13.31523
G1 X43.66 Y50.133 E13.329
G1 X44.887 Y48.354 E13.39189
G1 X45.185 Y47.973 E13.40597
G1 X45.79 Y47.289 E13.43255
G0 F648 X46.148 Y46.884
G0 X46.408 Y46.616
G0 F4320 X46.647 Y46.871
G1 F2400 E13.45915
G1 F720 X47.6 Y45.976 E13.49719
G1 X47.989 Y45.658 E13.51182
G1 X48.54 Y45.267 E13.53148
G1 X49.09 Y44.944 E13.55004
G1 X49.549 Y44.726 E13.56483
G1 X50.055 Y44.531 E13.58061
G1 X50.583 Y44.411 E13.59637
G1 X51.124 Y44.371 E13.61216
G1 X51.537 Y44.394 E13.6242
G1 X51.972 Y44.443 E13.63693
G1 X52.505 Y44.543 E13.65272
G1 X53.017 Y44.721 E13.66849
G1 X53.497 Y44.971 E13.68424
G1 X53.783 Y45.179 E13.69453
G1 X53.885 Y45.248 E13.69812
G1 X54.133 Y45.36 E13.70604
G1 X54.281 Y45.455 E13.71116
G1 X54.71 Y45.661 E13.72501
G1 X55.16 Y45.964 E13.74079
G1 X55.232 Y46.03 E13.74364
G1 X55.533 Y46.168 E13.75327
G1 X55.856 Y46.337 E13.76388
G1 X76.724 Y58.557 E14.46766
G1 X77.17 Y58.864 E14.48342
G1 X77.685 Y59.369 E14.50441
G1 X77.793 Y59.498 E14.50931
G1 X78.109 Y59.938 E14.52507
G1 X78.357 Y60.42 E14.54085
G1 X78.532 Y60.933 E14.55662
G1 X78.629 Y61.466 E14.57239
G1 X78.647 Y62.007 E14.58814
G1 X78.603 Y62.441 E14.60084
G1 X78.355 Y63.983 E14.64629
G1 X78.21 Y64.572 E14.66394
G1 X77.34 Y67.155 E14.74326
G1 X77.126 Y67.662 E14.75928
G1 X76.279 Y69.31 E14.8132
G1 X76.02 Y69.738 E14.82776
G1 X74.673 Y71.661 E14.89609
G1 X74.359 Y72.05 E14.91064
G1 X73.355 Y73.134 E14.95364
G1 X73.091 Y73.392 E14.96438
G1 X71.923 Y74.423 E15.00972
G1 X71.669 Y74.628 E15.01922
G1 X70.318 Y75.622 E15.06804
G1 X69.89 Y75.894 E15.08279
G1 X68.42 Y76.69 E15.13144
G1 X68.145 Y76.824 E15.14035
G1 X66.878 Y77.379 E15.1806
G1 X66.444 Y77.537 E15.19404
G1 X64.267 Y78.18 E15.26011
G1 X63.763 Y78.292 E15.27513
G1 X61.834 Y78.577 E15.33188
G1 X61.363 Y78.615 E15.34563
G1 X59.127 Y78.655 E15.41072
G1 X58.599 Y78.627 E15.4261
G1 X56.73 Y78.39 E15.48093
G1 X56.325 Y78.315 E15.49292
G1 X55.143 Y78.028 E15.52832
G1 X54.789 Y77.923 E15.53906
G1 X52.693 Y77.185 E15.60373
G1 X52.259 Y77 E15.61746
G1 X50.699 Y76.213 E15.66831
G1 X50.297 Y75.977 E15.68188
G1 X48.738 Y74.924 E15.73663
G1 X48.451 Y74.709 E15.74707
G1 X47.461 Y73.889 E15.78448
G1 X47.17 Y73.62 E15.79601
G1 X45.996 Y72.412 E15.84504
G1 X45.725 Y72.1 E15.85706
G1 X44.578 Y70.618 E15.9116
G1 X44.331 Y70.256 E15.92435
G1 X43.717 Y69.23 E15.95915
G1 X43.552 Y68.924 E15.96927
G1 X42.514 Y66.746 E16.03949
G1 X42.283 Y66.118 E16.05896
G1 X41.556 Y63.411 E16.14053
G1 X41.448 Y62.826 E16.15784
G1 X41.288 Y61.235 E16.20438
G1 X41.27 Y60.831 E16.21615
G1 X41.291 Y58.709 E16.27791
G1 X41.317 Y58.306 E16.28966
G1 X41.477 Y56.975 E16.32868
G1 X41.556 Y56.541 E16.34151
G1 X41.967 Y54.861 E16.39185
G1 X42.104 Y54.423 E16.4052
G1 X42.928 Y52.265 E16.47243
G1 X43.112 Y51.859 E16.4854
G1 X43.724 Y50.701 E16.52352
G1 X43.948 Y50.331 E16.53611
G1 X45.175 Y48.552 E16.599
G1 X45.447 Y48.205 E16.61183
G1 X46.03 Y47.546 E16.63744
G0 F648 X46.41 Y47.116
G0 X46.647 Y46.871
G0 F4320 X46.887 Y47.126
G1 F2400 E16.66404
G1 F720 X47.84 Y46.231 E16.70209
G1 X48.192 Y45.943 E16.71532
G1 X48.743 Y45.552 E16.73499
G1 X49.241 Y45.261 E16.75177
G1 X49.7 Y45.043 E16.76656
G1 X50.181 Y44.858 E16.78156
G1 X50.685 Y44.75 E16.79656
G1 X51.199 Y44.722 E16.81154
G1 X51.498 Y44.742 E16.82026
G1 X51.933 Y44.791 E16.833
G1 X52.439 Y44.888 E16.84799
G1 X52.924 Y45.062 E16.86299
G1 X53.377 Y45.309 E16.87801
G1 X53.527 Y45.425 E16.88352
G1 X53.71 Y45.552 E16.89001
G1 X53.988 Y45.679 E16.8989
G1 X54.116 Y45.764 E16.90337
G1 X54.559 Y45.977 E16.91768
G1 X54.983 Y46.27 E16.93268
G1 X55.047 Y46.331 E16.93525
G1 X55.387 Y46.487 E16.94614
G1 X55.679 Y46.639 E16.95572
G1 X76.547 Y58.859 E17.6595
G1 X76.97 Y59.153 E17.67449
G1 X77.416 Y59.594 E17.69274
G1 X77.524 Y59.723 E17.69764
G1 X77.824 Y60.142 E17.71264
G1 X78.054 Y60.603 E17.72763
G1 X78.211 Y61.094 E17.74263
G1 X78.29 Y61.603 E17.75762
G1 X78.29 Y62.119 E17.77264
G1 X78.258 Y62.385 E17.78044
G1 X78.01 Y63.927 E17.82589
G1 X77.878 Y64.46 E17.84187
G1 X77.008 Y67.043 E17.92119
G1 X76.814 Y67.502 E17.93569
G1 X75.967 Y69.15 E17.98962
G1 X75.733 Y69.538 E18.00281
G1 X74.386 Y71.461 E18.07113
G1 X74.102 Y71.812 E18.08427
G1 X73.098 Y72.896 E18.12727
G1 X72.859 Y73.13 E18.13701
G1 X71.691 Y74.161 E18.18235
G1 X71.461 Y74.346 E18.19094
G1 X70.11 Y75.34 E18.23975
G1 X69.723 Y75.586 E18.2531
G1 X68.253 Y76.382 E18.30175
G1 X68.004 Y76.504 E18.30982
G1 X66.737 Y77.059 E18.35007
G1 X66.345 Y77.202 E18.36222
G1 X64.168 Y77.845 E18.42828
G1 X63.712 Y77.945 E18.44186
G1 X61.783 Y78.23 E18.49861
G1 X61.356 Y78.265 E18.51108
G1 X59.12 Y78.305 E18.57616
G1 X58.643 Y78.28 E18.59007
G1 X56.774 Y78.043 E18.64489
G1 X56.407 Y77.975 E18.65576
G1 X55.225 Y77.688 E18.69115
G1 X54.906 Y77.593 E18.70084
G1 X52.81 Y76.855 E18.76551
G1 X52.416 Y76.688 E18.77797
G1 X50.856 Y75.901 E18.82882
G1 X50.493 Y75.687 E18.84108
G1 X48.934 Y74.634 E18.89583
G1 X48.674 Y74.44 E18.90527
