;FLAVOR:Marlin
;TIME:1120
;Filament used: 0.735898m
;Layer height: 0.21875
;Generated with Cura_SteamEngine 3.6.0
M140 S65
M105
M190 S65
M104 S205
M105
M109 S205
M82 ;absolute extrusion mode
G21;(metric values)
G90;(absolute positioning)
M82;(set extruder to absolute mode)
M107;(start with the fan off)
G28;(Home the printer)
G92 E0;(Reset the extruder to 0)
G0 Z5 E5 F500;(Move up and prime the nozzle)
G0 X-1 Z0;(Move outside the printable area)
G1 Y60 E8 F500;(Draw a priming/wiping line to the rear)
G1 X-1;(Move a little closer to the print area)
G1 Y10 E16 F500;(draw more priming/wiping)
G1 E15 F250;(Small retract)
G92 E0;(Zero the extruder)
G92 E0
G1 F2400 E-2.5
;LAYER_COUNT:135
;LAYER:0
M107
G0 F4320 X51.645 Y48.269 Z0.263
;TYPE:SKIRT
G1 F2400 E0
G1 F2160 X52.118 Y47.842 E0.02439
G1 X52.641 Y47.479 E0.04875
G1 X53.205 Y47.183 E0.07313
G1 X53.802 Y46.961 E0.0975
G1 X54.422 Y46.815 E0.12188
G1 X55.272 Y46.743 E0.15452
G1 X64.724 Y46.742 E0.51625
G1 X65.36 Y46.782 E0.54064
G1 X65.986 Y46.901 E0.56503
G1 X66.591 Y47.098 E0.58938
G1 X67.168 Y47.369 E0.61377
G1 X67.706 Y47.71 E0.63815
G1 X68.197 Y48.115 E0.66251
G1 X68.633 Y48.579 E0.68687
G1 X69.121 Y49.281 E0.71959
G1 X73.844 Y57.467 E1.08127
G1 X74.127 Y58.037 E1.10563
G1 X74.336 Y58.639 E1.13002
G1 X74.469 Y59.262 E1.15439
G1 X74.522 Y59.896 E1.17874
G1 X74.495 Y60.533 E1.20314
G1 X74.389 Y61.161 E1.22752
G1 X74.205 Y61.77 E1.25186
G1 X73.843 Y62.541 E1.28446
G1 X69.117 Y70.723 E1.64606
G1 X68.764 Y71.254 E1.67047
G1 X68.348 Y71.736 E1.69483
G1 X67.875 Y72.162 E1.71919
G1 X67.352 Y72.526 E1.74358
G1 X66.787 Y72.821 E1.76797
G1 X66.191 Y73.043 E1.79231
G1 X65.571 Y73.189 E1.81669
G1 X64.721 Y73.26 E1.84933
G1 X55.274 Y73.259 E2.21087
G1 X54.639 Y73.219 E2.23522
G1 X54.013 Y73.1 E2.2596
G1 X53.408 Y72.903 E2.28395
G1 X52.831 Y72.632 E2.30835
G1 X52.293 Y72.291 E2.33273
G1 X51.803 Y71.885 E2.35708
G1 X51.366 Y71.421 E2.38147
G1 X50.88 Y70.722 E2.41405
G1 X46.156 Y62.54 E2.77562
G1 X45.873 Y61.969 E2.80001
G1 X45.663 Y61.368 E2.82437
G1 X45.531 Y60.745 E2.84874
G1 X45.477 Y60.11 E2.87313
G1 X45.504 Y59.474 E2.89749
G1 X45.609 Y58.846 E2.92186
G1 X45.793 Y58.236 E2.94625
G1 X46.155 Y57.466 E2.97881
G1 X50.877 Y49.282 E3.3404
G1 X51.197 Y48.799 E3.36258
G0 F1944 X51.229 Y48.751
G0 X51.645 Y48.269
G0 F4320 X51.926 Y48.483
G1 F2400 E3.38914
G1 F2160 X52.387 Y48.077 E3.41264
G1 X52.897 Y47.734 E3.43617
G1 X53.447 Y47.46 E3.45968
G1 X54.028 Y47.26 E3.4832
G1 X54.63 Y47.137 E3.50671
G1 X55.273 Y47.093 E3.53138
G1 X64.725 Y47.092 E3.8931
G1 X65.338 Y47.132 E3.91661
G1 X65.941 Y47.251 E3.94013
G1 X66.523 Y47.447 E3.96364
G1 X67.075 Y47.718 E3.98717
G1 X67.587 Y48.057 E4.01067
G1 X68.051 Y48.46 E4.03419
G1 X68.458 Y48.92 E4.0577
G1 X68.818 Y49.456 E4.08241
G1 X73.541 Y57.642 E4.44409
G1 X73.812 Y58.193 E4.46759
G1 X74.011 Y58.775 E4.49113
G1 X74.131 Y59.377 E4.51462
G1 X74.173 Y59.99 E4.53813
G1 X74.135 Y60.603 E4.56164
G1 X74.017 Y61.207 E4.58519
G1 X73.822 Y61.789 E4.60868
G1 X73.54 Y62.366 E4.63326
G1 X68.814 Y70.548 E4.99486
G1 X68.472 Y71.059 E5.01839
G1 X68.067 Y71.522 E5.04193
G1 X67.606 Y71.928 E5.06544
G1 X67.096 Y72.27 E5.08894
G1 X66.546 Y72.544 E5.11246
G1 X65.965 Y72.744 E5.13597
G1 X65.363 Y72.866 E5.15948
G1 X64.721 Y72.91 E5.18411
G1 X55.274 Y72.909 E5.54564
G1 X54.661 Y72.869 E5.56915
G1 X54.059 Y72.75 E5.59264
G1 X53.476 Y72.553 E5.61619
G1 X52.924 Y72.283 E5.63971
G1 X52.412 Y71.943 E5.66323
G1 X51.949 Y71.54 E5.68672
G1 X51.541 Y71.08 E5.71025
G1 X51.183 Y70.547 E5.73482
G1 X46.459 Y62.365 E6.09639
G1 X46.187 Y61.814 E6.1199
G1 X45.989 Y61.232 E6.14343
G1 X45.868 Y60.629 E6.16697
G1 X45.826 Y60.016 E6.19048
G1 X45.864 Y59.403 E6.21399
G1 X45.981 Y58.8 E6.23749
G1 X46.176 Y58.217 E6.26102
G1 X46.458 Y57.641 E6.28556
G1 X51.18 Y49.457 E6.64716
G1 X51.477 Y49.011 E6.66767
G0 F1944 X51.521 Y48.945
G0 X51.926 Y48.483
G0 F4320 X52.206 Y48.698
G1 F2400 E6.69423
G1 F2160 X52.654 Y48.313 E6.71683
G1 X53.151 Y47.992 E6.73947
G1 X53.686 Y47.741 E6.76209
G1 X54.25 Y47.564 E6.78471
G1 X54.833 Y47.465 E6.80734
G1 X55.273 Y47.443 E6.8242
G1 X64.725 Y47.442 E7.18593
G1 X65.314 Y47.482 E7.20852
G1 X65.894 Y47.601 E7.23118
G1 X66.451 Y47.797 E7.25378
G1 X66.978 Y48.067 E7.27644
G1 X67.463 Y48.405 E7.29906
G1 X67.898 Y48.805 E7.32168
G1 X68.275 Y49.26 E7.34429
G1 X68.515 Y49.631 E7.3612
G1 X73.238 Y57.817 E7.72288
G1 X73.498 Y58.348 E7.74551
G1 X73.684 Y58.909 E7.76813
G1 X73.793 Y59.49 E7.79075
G1 X73.822 Y60.08 E7.81336
G1 X73.772 Y60.67 E7.83602
G1 X73.643 Y61.246 E7.85861
G1 X73.437 Y61.801 E7.88126
G1 X73.236 Y62.191 E7.89806
G1 X68.51 Y70.373 E8.25966
G1 X68.181 Y70.864 E8.28228
G1 X67.788 Y71.306 E8.30491
G1 X67.339 Y71.691 E8.32755
G1 X66.842 Y72.012 E8.35019
G1 X66.307 Y72.263 E8.37281
G1 X65.743 Y72.439 E8.39542
G1 X65.16 Y72.538 E8.41805
G1 X64.722 Y72.56 E8.43483
G1 X55.275 Y72.559 E8.79637
G1 X54.685 Y72.519 E8.819
G1 X54.105 Y72.4 E8.84166
G1 X53.548 Y72.204 E8.86426
G1 X53.021 Y71.934 E8.88692
G1 X52.536 Y71.596 E8.90954
G1 X52.101 Y71.195 E8.93218
G1 X51.724 Y70.74 E8.9548
G1 X51.486 Y70.372 E8.97157
G1 X46.762 Y62.19 E9.33314
G1 X46.502 Y61.659 E9.35576
G1 X46.315 Y61.098 E9.37839
G1 X46.206 Y60.516 E9.40105
G1 X46.177 Y59.926 E9.42366
G1 X46.227 Y59.337 E9.44628
G1 X46.356 Y58.76 E9.46891
G1 X46.562 Y58.205 E9.49157
G1 X46.762 Y57.816 E9.5083
G1 X51.484 Y49.632 E9.8699
G1 X51.757 Y49.225 E9.88866
G0 F1944 X51.813 Y49.141
G0 X52.206 Y48.698
G0 F4320 X52.484 Y48.916
G1 F2400 E9.91521
G1 F2160 X52.92 Y48.553 E9.93693
G1 X53.402 Y48.254 E9.95863
G1 X53.922 Y48.027 E9.98035
G1 X54.468 Y47.874 E10.00205
G1 X55.273 Y47.793 E10.03301
G1 X64.725 Y47.792 E10.39474
G1 X65.29 Y47.832 E10.41641
G1 X65.845 Y47.951 E10.43814
G1 X66.377 Y48.147 E10.45983
G1 X66.876 Y48.415 E10.48151
G1 X67.333 Y48.751 E10.50322
G1 X67.738 Y49.148 E10.52492
G1 X68.211 Y49.806 E10.55594
G1 X72.934 Y57.992 E10.91762
G1 X73.182 Y58.501 E10.93929
G1 X73.356 Y59.041 E10.961
G1 X73.453 Y59.6 E10.98271
G1 X73.47 Y60.167 E11.00442
G1 X73.407 Y60.731 E11.02614
G1 X73.265 Y61.28 E11.04784
G1 X72.933 Y62.016 E11.07874
G1 X68.207 Y70.198 E11.44034
G1 X67.89 Y70.668 E11.46204
G1 X67.509 Y71.089 E11.48377
G1 X67.074 Y71.452 E11.50545
G1 X66.591 Y71.75 E11.52717
G1 X66.072 Y71.977 E11.54885
G1 X65.525 Y72.129 E11.57058
G1 X64.722 Y72.21 E11.60146
G1 X55.275 Y72.209 E11.963
G1 X54.709 Y72.169 E11.98471
G1 X54.154 Y72.05 E12.00644
G1 X53.622 Y71.854 E12.02813
G1 X53.123 Y71.585 E12.04983
G1 X52.666 Y71.249 E12.07154
G1 X52.261 Y70.852 E12.09324
G1 X51.789 Y70.197 E12.12414
G1 X47.065 Y62.015 E12.48571
G1 X46.817 Y61.505 E12.50741
G1 X46.643 Y60.965 E12.52912
G1 X46.546 Y60.406 E12.55083
G1 X46.529 Y59.839 E12.57254
G1 X46.592 Y59.276 E12.59422
G1 X46.733 Y58.726 E12.61595
G1 X47.065 Y57.99 E12.64685
G1 X51.787 Y49.806 E13.00845
G1 X52.033 Y49.442 E13.02526
G0 F1944 X52.104 Y49.336
G0 X52.484 Y48.916
G0 F4320 X52.762 Y49.135
G1 F2400 E13.05182
G1 F2160 X53.184 Y48.795 E13.07256
G1 X53.651 Y48.52 E13.0933
G1 X54.153 Y48.318 E13.11401
G1 X54.68 Y48.191 E13.13475
G1 X55.273 Y48.143 E13.15752
G1 X64.725 Y48.142 E13.51925
G1 X65.265 Y48.182 E13.53997
G1 X65.794 Y48.301 E13.56072
G1 X66.299 Y48.496 E13.58144
G1 X66.77 Y48.764 E13.60218
G1 X67.197 Y49.098 E13.62293
G1 X67.57 Y49.491 E13.64366
G1 X67.908 Y49.98 E13.66641
G1 X72.631 Y58.166 E14.02809
G1 X72.867 Y58.654 E14.04884
G1 X73.028 Y59.172 E14.0696
G1 X73.111 Y59.707 E14.09032
G1 X73.115 Y60.249 E14.11106
G1 X73.039 Y60.786 E14.13181
G1 X72.885 Y61.305 E14.15253
G1 X72.63 Y61.841 E14.17525
G1 X67.904 Y70.023 E14.53685
G1 X67.599 Y70.471 E14.55759
G1 X67.232 Y70.869 E14.57831
G1 X66.81 Y71.209 E14.59905
G1 X66.343 Y71.483 E14.61977
G1 X65.84 Y71.686 E14.64053
G1 X65.313 Y71.812 E14.66127
G1 X64.722 Y71.86 E14.68396
G1 X55.275 Y71.859 E15.0455
G1 X54.734 Y71.819 E15.06626
G1 X54.206 Y71.7 E15.08697
G1 X53.7 Y71.505 E15.10772
G1 X53.229 Y71.237 E15.12846
G1 X52.802 Y70.903 E15.14921
G1 X52.43 Y70.51 E15.16992
G1 X52.092 Y70.022 E15.19264
G1 X47.368 Y61.84 E15.5542
G1 X47.133 Y61.352 E15.57493
G1 X46.971 Y60.834 E15.5957
G1 X46.888 Y60.299 E15.61642
G1 X46.884 Y59.757 E15.63716
G1 X46.96 Y59.221 E15.65788
G1 X47.114 Y58.701 E15.67864
G1 X47.368 Y58.165 E15.70134
G1 X52.09 Y49.981 E16.06293
G1 X52.309 Y49.659 E16.07784
G0 F1944 X52.395 Y49.533
G0 X52.762 Y49.135
G0 F4320 X53.038 Y49.356
G1 F2400 E16.10439
G1 F2160 X53.445 Y49.04 E16.12411
G1 X53.896 Y48.791 E16.14383
G1 X54.381 Y48.615 E16.16358
G1 X54.886 Y48.516 E16.18327
G1 X55.273 Y48.493 E16.19811
G1 X64.725 Y48.492 E16.55983
G1 X65.238 Y48.532 E16.57953
G1 X65.74 Y48.651 E16.59927
G1 X66.217 Y48.846 E16.61899
G1 X66.658 Y49.112 E16.6387
G1 X67.053 Y49.443 E16.65842
G1 X67.392 Y49.831 E16.67814
G1 X67.605 Y50.155 E16.69298
G1 X72.328 Y58.341 E17.05466
G1 X72.55 Y58.806 E17.07438
G1 X72.698 Y59.3 E17.09412
G1 X72.767 Y59.811 E17.11385
G1 X72.757 Y60.326 E17.13356
G1 X72.668 Y60.834 E17.1533
G1 X72.501 Y61.321 E17.173
G1 X72.327 Y61.666 E17.18779
G1 X67.601 Y69.848 E17.54939
G1 X67.31 Y70.273 E17.56911
G1 X66.956 Y70.648 E17.58884
G1 X66.548 Y70.963 E17.60857
G1 X66.097 Y71.212 E17.62828
G1 X65.613 Y71.388 E17.64799
G1 X65.107 Y71.488 E17.66773
G1 X64.722 Y71.51 E17.68249
G1 X55.275 Y71.509 E18.04403
G1 X54.761 Y71.469 E18.06376
G1 X54.259 Y71.35 E18.0835
G1 X53.782 Y71.155 E18.10322
G1 X53.341 Y70.889 E18.12293
G1 X52.946 Y70.557 E18.14268
G1 X52.608 Y70.169 E18.16237
G1 X52.395 Y69.847 E18.17715
G1 X47.671 Y61.665 E18.53871
G1 X47.449 Y61.2 E18.55843
G1 X47.301 Y60.706 E18.57817
G1 X47.232 Y60.195 E18.5979
G1 X47.242 Y59.68 E18.61762
G1 X47.331 Y59.172 E18.63735
G1 X47.498 Y58.685 E18.65706
G1 X47.671 Y58.34 E18.67183
G1 X52.393 Y50.156 E19.03342
G1 X52.583 Y49.878 E19.04631
G0 F1944 X52.684 Y49.731
G0 X53.038 Y49.356
G0 F4320 X53.313 Y49.58
G1 F2400 E19.07287
G1 F2160 X53.704 Y49.29 E19.0915
G1 X54.138 Y49.068 E19.11015
G1 X54.603 Y48.92 E19.12883
G1 X55.273 Y48.843 E19.15464
G1 X64.725 Y48.842 E19.51637
G1 X65.21 Y48.882 E19.53499
G1 X65.683 Y49.001 E19.55365
G1 X66.13 Y49.195 E19.5723
G1 X66.54 Y49.46 E19.59099
G1 X66.9 Y49.787 E19.6096
G1 X67.302 Y50.33 E19.63545
G1 X72.025 Y58.516 E19.99713
G1 X72.233 Y58.957 E20.01579
G1 X72.366 Y59.426 E20.03445
G1 X72.422 Y59.91 E20.0531
G1 X72.397 Y60.397 E20.07176
G1 X72.293 Y60.873 E20.09041
G1 X72.024 Y61.491 E20.1162
G1 X67.298 Y69.673 E20.47781
G1 X67.021 Y70.074 E20.49646
G1 X66.681 Y70.424 E20.51513
G1 X66.289 Y70.714 E20.53379
G1 X65.855 Y70.936 E20.55245
G1 X65.391 Y71.084 E20.57109
G1 X64.722 Y71.16 E20.59685
G1 X55.275 Y71.159 E20.95839
G1 X54.789 Y71.119 E20.97705
G1 X54.316 Y71 E20.99572
G1 X53.869 Y70.806 E21.01437
G1 X53.46 Y70.541 E21.03302
G1 X53.099 Y70.213 E21.05168
G1 X52.699 Y69.672 E21.07743
G1 X47.975 Y61.49 E21.439
G1 X47.766 Y61.049 E21.45768
G1 X47.633 Y60.58 E21.47633
G1 X47.577 Y60.096 E21.49498
G1 X47.602 Y59.609 E21.51364
G1 X47.706 Y59.133 E21.53229
G1 X47.974 Y58.515 E21.55807
G1 X52.696 Y50.331 E21.91966
G1 X52.856 Y50.1 E21.93042
G0 F1944 X52.974 Y49.93
G0 X53.313 Y49.58
G0 F4320 X53.262 Y50.131
G1 F2400 E21.95697
G1 F2160 X53.586 Y49.807 E21.97451
G1 X53.961 Y49.545 E21.99202
G1 X54.375 Y49.351 E22.00951
G1 X54.818 Y49.233 E22.02706
G1 X55.273 Y49.193 E22.04454
G1 X64.725 Y49.192 E22.40627
G1 X65.181 Y49.232 E22.42378
G1 X65.623 Y49.35 E22.44129
G1 X66.038 Y49.544 E22.45882
G1 X66.413 Y49.807 E22.47635
G1 X66.737 Y50.13 E22.49386
G1 X66.999 Y50.505 E22.51137
G1 X71.722 Y58.691 E22.87305
G1 X71.915 Y59.106 E22.89056
G1 X72.033 Y59.548 E22.90807
G1 X72.073 Y60.005 E22.92563
G1 X72.033 Y60.461 E22.94315
G1 X71.914 Y60.903 E22.96066
G1 X71.721 Y61.316 E22.97811
G1 X66.995 Y69.498 E23.33972
G1 X66.732 Y69.873 E23.35725
G1 X66.409 Y70.197 E23.37475
G1 X66.033 Y70.459 E23.39229
G1 X65.618 Y70.652 E23.40981
G1 X65.176 Y70.77 E23.42732
G1 X64.722 Y70.81 E23.44476
G1 X55.275 Y70.809 E23.80629
G1 X54.819 Y70.769 E23.82381
G1 X54.376 Y70.65 E23.84137
G1 X53.962 Y70.457 E23.85885
G1 X53.587 Y70.194 E23.87638
G1 X53.263 Y69.87 E23.89391
G1 X53.002 Y69.497 E23.91133
G1 X48.278 Y61.315 E24.2729
G1 X48.084 Y60.9 E24.29043
G1 X47.966 Y60.457 E24.30798
G1 X47.926 Y60.001 E24.3255
G1 X47.966 Y59.545 E24.34301
G1 X48.085 Y59.103 E24.36053
G1 X48.277 Y58.69 E24.37796
G1 X52.882 Y50.71 E24.73056
G0 F1944 X52.999 Y50.506
G0 X53.262 Y50.131
G0 F4320 X53.549 Y50.334
G1 F2400 E24.75712
G1 F2160 X53.856 Y50.038 E24.77344
G1 X54.213 Y49.805 E24.78975
G1 X54.607 Y49.643 E24.80605
G1 X55.024 Y49.557 E24.82235
G1 X55.273 Y49.543 E24.83189
G1 X64.725 Y49.542 E25.19362
G1 X65.149 Y49.582 E25.20992
G1 X65.558 Y49.7 E25.22621
G1 X65.939 Y49.893 E25.24255
G1 X66.276 Y50.153 E25.25884
G1 X66.559 Y50.471 E25.27514
G1 X66.696 Y50.68 E25.2847
G1 X71.419 Y58.866 E25.64638
G1 X71.596 Y59.254 E25.6627
G1 X71.698 Y59.667 E25.67898
G1 X71.721 Y60.093 E25.69531
G1 X71.665 Y60.515 E25.7116
G1 X71.53 Y60.92 E25.72794
G1 X71.418 Y61.141 E25.73742
G1 X66.692 Y69.323 E26.09902
G1 X66.445 Y69.67 E26.11532
G1 X66.138 Y69.966 E26.13165
G1 X65.781 Y70.198 E26.14794
G1 X65.387 Y70.361 E26.16426
G1 X64.97 Y70.446 E26.18054
G1 X64.722 Y70.46 E26.19005
G1 X55.275 Y70.459 E26.55159
G1 X54.85 Y70.419 E26.56792
G1 X54.441 Y70.301 E26.58421
G1 X54.061 Y70.108 E26.60052
G1 X53.723 Y69.848 E26.61684
G1 X53.44 Y69.529 E26.63316
G1 X53.305 Y69.322 E26.64262
G1 X48.581 Y61.14 E27.00419
G1 X48.403 Y60.752 E27.02053
G1 X48.301 Y60.338 E27.03684
G1 X48.278 Y59.913 E27.05313
G1 X48.334 Y59.491 E27.06942
G1 X48.469 Y59.086 E27.08576
G1 X48.58 Y58.865 E27.09523
G1 X53.168 Y50.914 E27.44653
G0 F1944 X53.302 Y50.681
G0 X53.549 Y50.334
G0 F4320 X53.835 Y50.538
G1 F2400 E27.47309
G1 F2160 X54.124 Y50.273 E27.4881
G1 X54.461 Y50.073 E27.5031
G1 X54.831 Y49.944 E27.51809
G1 X55.273 Y49.893 E27.53512
G1 X64.725 Y49.892 E27.89685
G1 X65.115 Y49.932 E27.91185
G1 X65.488 Y50.05 E27.92682
G1 X65.831 Y50.241 E27.94185
G1 X66.127 Y50.498 E27.95685
G1 X66.392 Y50.855 E27.97386
G1 X71.115 Y59.041 E28.33555
G1 X71.276 Y59.399 E28.35057
G1 X71.36 Y59.781 E28.36554
G1 X71.365 Y60.173 E28.38054
G1 X71.291 Y60.558 E28.39554
G1 X71.115 Y60.966 E28.41255
G1 X66.389 Y69.148 E28.77415
G1 X66.159 Y69.465 E28.78914
G1 X65.87 Y69.73 E28.80415
G1 X65.533 Y69.931 E28.81916
G1 X65.163 Y70.059 E28.83415
G1 X64.722 Y70.11 E28.85114
G1 X55.275 Y70.109 E29.21267
G1 X54.885 Y70.069 E29.22768
G1 X54.511 Y69.951 E29.24269
G1 X54.169 Y69.76 E29.25768
G1 X53.873 Y69.503 E29.27268
G1 X53.608 Y69.147 E29.28966
G1 X48.884 Y60.965 E29.65123
G1 X48.724 Y60.607 E29.66624
G1 X48.639 Y60.224 E29.68125
G1 X48.633 Y59.832 E29.69625
G1 X48.708 Y59.448 E29.71123
G1 X48.884 Y59.04 E29.72823
G1 X53.455 Y51.118 E30.07826
G0 F1944 X53.606 Y50.856
G0 X53.835 Y50.538
G0 F4320 X54.119 Y50.746
G1 F2400 E30.10482
G1 F2160 X54.388 Y50.515 E30.11838
G1 X54.702 Y50.35 E30.13196
G1 X55.045 Y50.26 E30.14553
G1 X55.273 Y50.243 E30.15428
G1 X64.725 Y50.242 E30.51601
G1 X65.077 Y50.282 E30.52957
G1 X65.411 Y50.399 E30.54311
G1 X65.711 Y50.589 E30.5567
G1 X65.961 Y50.84 E30.57026
G1 X66.089 Y51.03 E30.57902
G1 X70.812 Y59.216 E30.9407
G1 X70.954 Y59.541 E30.95428
G1 X71.019 Y59.889 E30.96783
G1 X71.005 Y60.243 E30.98138
G1 X70.911 Y60.585 E30.99496
G1 X70.812 Y60.791 E31.0037
G1 X66.086 Y68.973 E31.36531
G1 X65.875 Y69.258 E31.37888
G1 X65.606 Y69.488 E31.39243
G1 X65.292 Y69.653 E31.406
G1 X64.95 Y69.743 E31.41953
G1 X64.722 Y69.76 E31.42828
G1 X55.275 Y69.759 E31.78982
G1 X54.923 Y69.719 E31.80338
G1 X54.588 Y69.601 E31.81697
G1 X54.289 Y69.412 E31.83051
G1 X54.039 Y69.16 E31.84409
G1 X53.911 Y68.972 E31.8528
G1 X49.187 Y60.79 E32.21436
G1 X49.045 Y60.465 E32.22794
G1 X48.98 Y60.116 E32.24152
G1 X48.994 Y59.762 E32.25508
G1 X49.087 Y59.42 E32.26865
G1 X49.187 Y59.215 E32.27737
G1 X53.74 Y51.325 E32.62599
G0 F1944 X53.909 Y51.031
G0 X54.119 Y50.746
G0 F4320 X54.401 Y50.957
G1 F2400 E32.65255
G1 F2160 X54.647 Y50.765 E32.66449
G1 X54.934 Y50.641 E32.67646
G1 X55.273 Y50.593 E32.68956
G1 X64.725 Y50.592 E33.05129
G1 X65.035 Y50.632 E33.06325
G1 X65.324 Y50.749 E33.07518
G1 X65.575 Y50.935 E33.08714
G1 X65.786 Y51.205 E33.10025
