;FLAVOR:Marlin
;TIME:5700
;Filament used: 4.53679m
;Layer height: 0.21875
;Generated with Cura_SteamEngine 3.6.0
M140 S60
M105
M190 S60
M104 S210
M105
M109 S210
M82 ;absolute extrusion mode
G21;(metric values)
G90;(absolute positioning)
M82;(set extruder to absolute mode)
M107;(start with the fan off)
G28;(Home the printer)
G92 E0;(Reset the extruder to 0)

G92 E0
G1 F2400 E-2.5
;LAYER_COUNT:55
;LAYER:0
M107
G0 F4320 X22.261 Y35.103 Z0.263
;TYPE:SKIRT
G1 F2400 E0
G1 F1980 X22.819 Y34.796 E0.02437
G1 X23.411 Y34.561 E0.04875
G1 X24.027 Y34.402 E0.0731
G1 X24.659 Y34.321 E0.09748
G1 X24.984 Y34.311 E0.10992
G1 X95.023 Y34.318 E2.79031
G1 X95.658 Y34.358 E2.81466
G1 X96.284 Y34.477 E2.83905
G1 X96.889 Y34.674 E2.8634
G1 X97.466 Y34.945 E2.88779
G1 X98.004 Y35.286 E2.91217
G1 X98.494 Y35.692 E2.93652
G1 X98.931 Y36.156 E2.96092
G1 X99.305 Y36.671 E2.98527
G1 X99.612 Y37.229 E3.00965
G1 X99.847 Y37.821 E3.03402
G1 X100.006 Y38.438 E3.05841
G1 X100.087 Y39.069 E3.08275
G1 X100.097 Y39.393 E3.09516
G1 X100.095 Y80.614 E4.67268
G1 X100.055 Y81.25 E4.69707
G1 X99.936 Y81.875 E4.72142
G1 X99.739 Y82.481 E4.74581
G1 X99.468 Y83.058 E4.7702
G1 X99.127 Y83.595 E4.79455
G1 X98.721 Y84.086 E4.81893
G1 X98.257 Y84.522 E4.8433
G1 X97.742 Y84.897 E4.86768
G1 X97.184 Y85.204 E4.89205
G1 X96.592 Y85.439 E4.91643
G1 X95.976 Y85.598 E4.94077
G1 X95.344 Y85.679 E4.96516
G1 X95.02 Y85.689 E4.97756
G1 X24.982 Y85.689 E7.65791
G1 X24.346 Y85.649 E7.6823
G1 X23.721 Y85.53 E7.70665
G1 X23.115 Y85.333 E7.73103
G1 X22.539 Y85.062 E7.7554
G1 X22.001 Y84.721 E7.77977
G1 X21.51 Y84.315 E7.80415
G1 X21.074 Y83.851 E7.82852
G1 X20.699 Y83.336 E7.8529
G1 X20.392 Y82.779 E7.87724
G1 X20.157 Y82.187 E7.90162
G1 X19.998 Y81.57 E7.926
G1 X19.917 Y80.938 E7.95039
G1 X19.907 Y80.614 E7.96279
G1 X19.908 Y39.386 E9.54058
G1 X19.948 Y38.75 E9.56497
G1 X20.067 Y38.125 E9.58932
G1 X20.264 Y37.519 E9.61371
G1 X20.535 Y36.943 E9.63807
G1 X20.876 Y36.405 E9.66244
G1 X21.282 Y35.914 E9.68683
G1 X21.705 Y35.517 E9.70903
G0 F1782 X21.746 Y35.478
G0 X22.261 Y35.103
G0 F4320 X22.596 Y35.308
G1 F2400 E9.73559
G1 F1980 X23.145 Y35.033 E9.75909
G1 X23.726 Y34.831 E9.78263
G1 X24.327 Y34.707 E9.80611
G1 X24.983 Y34.661 E9.83128
G1 X95.022 Y34.668 E12.51167
G1 X95.636 Y34.708 E12.53521
G1 X96.238 Y34.827 E12.5587
G1 X96.821 Y35.024 E12.58225
G1 X97.373 Y35.294 E12.60577
G1 X97.885 Y35.634 E12.62929
G1 X98.348 Y36.037 E12.65278
G1 X98.756 Y36.497 E12.67631
G1 X99.1 Y37.006 E12.69982
G1 X99.375 Y37.556 E12.72335
G1 X99.577 Y38.136 E12.74686
G1 X99.701 Y38.738 E12.77038
G1 X99.747 Y39.393 E12.79551
G1 X99.745 Y80.614 E14.37303
G1 X99.705 Y81.227 E14.39654
G1 X99.586 Y81.83 E14.42006
G1 X99.389 Y82.412 E14.44358
G1 X99.119 Y82.964 E14.4671
G1 X98.779 Y83.476 E14.49062
G1 X98.376 Y83.94 E14.51414
G1 X97.916 Y84.347 E14.53764
G1 X97.407 Y84.692 E14.56117
G1 X96.858 Y84.967 E14.58467
G1 X96.277 Y85.169 E14.60821
G1 X95.675 Y85.293 E14.63174
G1 X95.02 Y85.339 E14.65686
G1 X24.982 Y85.339 E17.33721
G1 X24.369 Y85.299 E17.36072
G1 X23.766 Y85.18 E17.38425
G1 X23.184 Y84.983 E17.40776
G1 X22.632 Y84.713 E17.43128
G1 X22.12 Y84.373 E17.4548
G1 X21.656 Y83.97 E17.47832
G1 X21.249 Y83.51 E17.50182
G1 X20.904 Y83.001 E17.52536
G1 X20.629 Y82.452 E17.54885
G1 X20.427 Y81.871 E17.57239
G1 X20.303 Y81.27 E17.59588
G1 X20.257 Y80.614 E17.62105
G1 X20.258 Y39.386 E19.19884
G1 X20.298 Y38.773 E19.22235
G1 X20.417 Y38.17 E19.24587
G1 X20.614 Y37.588 E19.26938
G1 X20.884 Y37.036 E19.2929
G1 X21.224 Y36.524 E19.31642
G1 X21.627 Y36.06 E19.33994
G1 X22.028 Y35.706 E19.36041
G0 F1782 X22.087 Y35.653
G0 X22.596 Y35.308
G0 F4320 X22.427 Y35.836
G1 F2400 E19.38697
G1 F1980 X22.929 Y35.523 E19.40961
G1 X23.468 Y35.282 E19.43221
G1 X24.036 Y35.115 E19.45486
G1 X24.62 Y35.026 E19.47747
G1 X24.983 Y35.011 E19.49138
G1 X95.022 Y35.018 E22.17176
G1 X95.612 Y35.058 E22.1944
G1 X96.191 Y35.177 E22.21702
G1 X96.749 Y35.373 E22.23965
G1 X97.275 Y35.643 E22.26228
G1 X97.761 Y35.981 E22.28493
G1 X98.196 Y36.382 E22.30757
G1 X98.573 Y36.837 E22.33019
G1 X98.885 Y37.339 E22.35281
G1 X99.127 Y37.879 E22.37545
G1 X99.293 Y38.446 E22.39806
G1 X99.382 Y39.031 E22.42071
G1 X99.397 Y39.393 E22.43458
G1 X99.395 Y80.614 E24.0121
G1 X99.355 Y81.204 E24.03473
G1 X99.236 Y81.783 E24.05735
G1 X99.04 Y82.341 E24.07999
G1 X98.77 Y82.867 E24.10261
G1 X98.432 Y83.352 E24.12524
G1 X98.032 Y83.787 E24.14785
G1 X97.576 Y84.165 E24.17052
G1 X97.074 Y84.477 E24.19314
G1 X96.535 Y84.718 E24.21574
G1 X95.967 Y84.885 E24.23839
G1 X95.383 Y84.974 E24.261
G1 X95.02 Y84.989 E24.2749
G1 X24.982 Y84.989 E26.95525
G1 X24.392 Y84.949 E26.97789
G1 X23.813 Y84.83 E27.00051
G1 X23.255 Y84.634 E27.02314
G1 X22.729 Y84.364 E27.04577
G1 X22.244 Y84.026 E27.06839
G1 X21.809 Y83.626 E27.09101
G1 X21.432 Y83.17 E27.11365
G1 X21.119 Y82.668 E27.13629
G1 X20.878 Y82.129 E27.15889
G1 X20.711 Y81.561 E27.18154
G1 X20.622 Y80.977 E27.20415
G1 X20.607 Y80.614 E27.21805
G1 X20.608 Y39.386 E28.79585
G1 X20.648 Y38.796 E28.81848
G1 X20.767 Y38.217 E28.8411
G1 X20.963 Y37.659 E28.86373
G1 X21.233 Y37.133 E28.88636
G1 X21.571 Y36.648 E28.90899
G1 X21.902 Y36.288 E28.9277
G0 F1782 X21.971 Y36.213
G0 X22.427 Y35.836
G0 F4320 X22.765 Y36.027
G1 F2400 E28.95426
G1 F1980 X23.259 Y35.749 E28.97595
G1 X23.787 Y35.543 E28.99764
G1 X24.339 Y35.413 E29.01935
G1 X24.983 Y35.361 E29.04407
G1 X95.022 Y35.368 E31.72446
G1 X95.588 Y35.408 E31.74618
G1 X96.143 Y35.527 E31.7679
G1 X96.675 Y35.723 E31.7896
G1 X97.174 Y35.992 E31.81129
G1 X97.631 Y36.328 E31.833
G1 X98.036 Y36.725 E31.8547
G1 X98.381 Y37.175 E31.8764
G1 X98.659 Y37.669 E31.8981
G1 X98.865 Y38.197 E31.91979
G1 X98.995 Y38.749 E31.94149
G1 X99.047 Y39.393 E31.96621
G1 X99.045 Y80.614 E33.54374
G1 X99.005 Y81.18 E33.56545
G1 X98.886 Y81.734 E33.58714
G1 X98.69 Y82.267 E33.60887
G1 X98.421 Y82.766 E33.63057
G1 X98.085 Y83.223 E33.65228
G1 X97.688 Y83.628 E33.67398
G1 X97.238 Y83.973 E33.69568
G1 X96.744 Y84.251 E33.71737
G1 X96.216 Y84.457 E33.73906
G1 X95.664 Y84.587 E33.76077
G1 X95.02 Y84.639 E33.78549
G1 X24.982 Y84.639 E36.46584
G1 X24.416 Y84.599 E36.48756
G1 X23.862 Y84.48 E36.50924
G1 X23.33 Y84.284 E36.53094
G1 X22.83 Y84.016 E36.55265
G1 X22.374 Y83.679 E36.57435
G1 X21.969 Y83.282 E36.59605
G1 X21.623 Y82.832 E36.61778
G1 X21.345 Y82.338 E36.63947
G1 X21.139 Y81.81 E36.66116
G1 X21.009 Y81.258 E36.68286
G1 X20.957 Y80.614 E36.70759
G1 X20.958 Y39.386 E38.28538
G1 X20.998 Y38.82 E38.3071
G1 X21.117 Y38.266 E38.32878
G1 X21.313 Y37.734 E38.35048
G1 X21.582 Y37.234 E38.37221
G1 X21.918 Y36.777 E38.39392
G1 X22.226 Y36.463 E38.41075
G0 F1782 X22.315 Y36.373
G0 X22.765 Y36.027
G0 F4320 X23.101 Y36.23
G1 F2400 E38.43731
G1 F1980 X23.585 Y35.987 E38.45803
G1 X24.1 Y35.819 E38.47877
G1 X24.634 Y35.728 E38.4995
G1 X24.983 Y35.711 E38.51287
G1 X95.022 Y35.718 E41.19326
G1 X95.563 Y35.758 E41.21402
G1 X96.091 Y35.877 E41.23473
G1 X96.597 Y36.072 E41.25548
G1 X97.068 Y36.34 E41.27622
G1 X97.495 Y36.674 E41.29697
G1 X97.867 Y37.067 E41.31768
G1 X98.178 Y37.511 E41.33842
G1 X98.421 Y37.995 E41.35915
G1 X98.589 Y38.51 E41.37988
G1 X98.68 Y39.045 E41.40065
G1 X98.697 Y39.393 E41.41398
G1 X98.695 Y80.614 E42.99151
G1 X98.655 Y81.155 E43.01227
G1 X98.536 Y81.683 E43.03298
G1 X98.341 Y82.189 E43.05374
G1 X98.073 Y82.66 E43.07447
G1 X97.739 Y83.086 E43.09519
G1 X97.346 Y83.459 E43.11593
G1 X96.902 Y83.77 E43.13667
G1 X96.418 Y84.013 E43.1574
G1 X95.903 Y84.181 E43.17813
G1 X95.369 Y84.272 E43.19886
G1 X95.02 Y84.289 E43.21223
G1 X24.982 Y84.289 E45.89258
G1 X24.442 Y84.249 E45.91331
G1 X23.913 Y84.13 E45.93406
G1 X23.408 Y83.935 E45.95477
G1 X22.936 Y83.667 E45.97555
G1 X22.51 Y83.333 E45.99626
G1 X22.137 Y82.94 E46.017
G1 X21.826 Y82.496 E46.03774
G1 X21.583 Y82.012 E46.05847
G1 X21.415 Y81.497 E46.0792
G1 X21.324 Y80.963 E46.09993
G1 X21.307 Y80.614 E46.1133
G1 X21.308 Y39.386 E47.6911
G1 X21.348 Y38.846 E47.71182
G1 X21.467 Y38.317 E47.73257
G1 X21.662 Y37.812 E47.75329
G1 X21.93 Y37.34 E47.77406
G1 X22.264 Y36.914 E47.79477
G1 X22.547 Y36.645 E47.80972
G0 F1782 X22.657 Y36.541
G0 X23.101 Y36.23
G0 F4320 X22.998 Y36.719
G1 F2400 E47.83628
G1 F1980 X23.434 Y36.444 E47.856
G1 X23.907 Y36.24 E47.87572
G1 X24.406 Y36.111 E47.89544
G1 X24.983 Y36.061 E47.91761
G1 X95.022 Y36.068 E50.598
G1 X95.536 Y36.108 E50.61773
G1 X96.038 Y36.227 E50.63747
G1 X96.515 Y36.422 E50.65719
G1 X96.956 Y36.688 E50.6769
G1 X97.351 Y37.02 E50.69665
G1 X97.689 Y37.408 E50.71634
G1 X97.964 Y37.844 E50.73607
G1 X98.168 Y38.317 E50.75578
G1 X98.297 Y38.816 E50.77551
G1 X98.347 Y39.393 E50.79767
G1 X98.345 Y80.614 E52.37519
G1 X98.305 Y81.128 E52.39493
G1 X98.186 Y81.629 E52.41463
G1 X97.991 Y82.107 E52.43439
G1 X97.725 Y82.548 E52.4541
G1 X97.394 Y82.942 E52.47379
G1 X97.005 Y83.281 E52.49354
G1 X96.569 Y83.556 E52.51327
G1 X96.096 Y83.76 E52.53298
G1 X95.597 Y83.889 E52.5527
G1 X95.02 Y83.939 E52.57487
G1 X24.982 Y83.939 E55.25522
G1 X24.468 Y83.899 E55.27495
G1 X23.967 Y83.78 E55.29466
G1 X23.49 Y83.585 E55.31438
G1 X23.048 Y83.319 E55.33412
G1 X22.654 Y82.988 E55.35381
G1 X22.315 Y82.599 E55.37356
G1 X22.04 Y82.163 E55.39329
G1 X21.836 Y81.69 E55.413
G1 X21.707 Y81.191 E55.43272
G1 X21.657 Y80.614 E55.45489
G1 X21.658 Y39.386 E57.03268
G1 X21.698 Y38.872 E57.05241
G1 X21.817 Y38.371 E57.07212
G1 X22.012 Y37.894 E57.09184
G1 X22.278 Y37.452 E57.11158
G1 X22.494 Y37.195 E57.12443
G0 F1782 X22.609 Y37.058
G0 X22.998 Y36.719
G0 F4320 X23.336 Y36.908
G1 F2400 E57.15099
G1 F1980 X23.763 Y36.673 E57.16964
G1 X24.222 Y36.51 E57.18828
G1 X24.702 Y36.424 E57.20694
G1 X24.983 Y36.411 E57.21771
G1 X95.022 Y36.418 E59.8981
G1 X95.508 Y36.458 E59.91676
G1 X95.981 Y36.577 E59.93543
G1 X96.428 Y36.771 E59.95407
G1 X96.837 Y37.036 E59.97273
G1 X97.198 Y37.364 E59.99139
G1 X97.5 Y37.746 E60.01003
G1 X97.735 Y38.173 E60.02868
G1 X97.898 Y38.633 E60.04736
G1 X97.984 Y39.112 E60.06598
G1 X97.997 Y39.393 E60.07675
G1 X97.995 Y80.614 E61.65427
G1 X97.955 Y81.1 E61.67293
G1 X97.836 Y81.573 E61.6916
G1 X97.642 Y82.02 E61.71025
G1 X97.377 Y82.429 E61.7289
G1 X97.049 Y82.79 E61.74756
G1 X96.667 Y83.092 E61.7662
G1 X96.24 Y83.327 E61.78485
G1 X95.781 Y83.49 E61.80349
G1 X95.301 Y83.576 E61.82216
G1 X95.02 Y83.589 E61.83292
G1 X24.982 Y83.589 E64.51327
G1 X24.496 Y83.549 E64.53193
G1 X24.023 Y83.43 E64.5506
G1 X23.576 Y83.236 E64.56925
G1 X23.167 Y82.971 E64.5879
G1 X22.807 Y82.643 E64.60654
G1 X22.504 Y82.261 E64.6252
G1 X22.269 Y81.834 E64.64385
G1 X22.106 Y81.375 E64.66249
G1 X22.02 Y80.895 E64.68115
G1 X22.007 Y80.614 E64.69192
G1 X22.008 Y39.386 E66.26971
G1 X22.048 Y38.9 E66.28837
G1 X22.167 Y38.427 E66.30704
G1 X22.361 Y37.98 E66.32569
G1 X22.626 Y37.571 E66.34434
G1 X22.814 Y37.364 E66.35504
G0 F1782 X22.954 Y37.21
G0 X23.336 Y36.908
G0 F4320 X23.672 Y37.112
G1 F2400 E66.3816
G1 F1980 X24.087 Y36.919 E66.39911
G1 X24.529 Y36.801 E66.41662
G1 X24.983 Y36.761 E66.43406
G1 X95.022 Y36.768 E69.11445
G1 X95.478 Y36.808 E69.13197
G1 X95.921 Y36.927 E69.14952
G1 X96.335 Y37.12 E69.167
G1 X96.71 Y37.383 E69.18453
G1 X97.034 Y37.707 E69.20207
G1 X97.296 Y38.082 E69.21958
G1 X97.489 Y38.497 E69.23709
G1 X97.608 Y38.939 E69.25461
G1 X97.647 Y39.393 E69.27205
G1 X97.645 Y80.614 E70.84957
G1 X97.605 Y81.07 E70.86709
G1 X97.486 Y81.512 E70.88461
G1 X97.293 Y81.927 E70.90212
G1 X97.03 Y82.302 E70.91965
G1 X96.706 Y82.626 E70.93719
G1 X96.331 Y82.888 E70.9547
G1 X95.916 Y83.081 E70.97221
G1 X95.474 Y83.199 E70.98972
G1 X95.02 Y83.239 E71.00716
G1 X24.982 Y83.239 E73.68751
G1 X24.526 Y83.199 E73.70503
G1 X24.084 Y83.081 E73.72254
G1 X23.669 Y82.887 E73.74007
G1 X23.294 Y82.624 E73.7576
G1 X22.97 Y82.3 E73.77513
G1 X22.708 Y81.925 E73.79264
G1 X22.515 Y81.51 E73.81016
G1 X22.397 Y81.068 E73.82766
G1 X22.357 Y80.614 E73.84511
G1 X22.358 Y39.386 E75.4229
G1 X22.398 Y38.93 E75.44042
G1 X22.517 Y38.488 E75.45793
G1 X22.71 Y38.073 E75.47545
G1 X22.973 Y37.698 E75.49298
G1 X23.13 Y37.541 E75.50148
G0 F1782 X23.297 Y37.374
G0 X23.672 Y37.112
G0 F4320 X23.638 Y37.552
G1 F2400 E75.52803
G1 F1980 X24.003 Y37.333 E75.54432
G1 X24.403 Y37.186 E75.56063
G1 X24.983 Y37.111 E75.58302
G1 X95.022 Y37.118 E78.2634
G1 X95.446 Y37.158 E78.2797
G1 X95.856 Y37.276 E78.29603
G1 X96.236 Y37.469 E78.31234
G1 X96.574 Y37.729 E78.32866
G1 X96.857 Y38.048 E78.34498
G1 X97.075 Y38.413 E78.36125
G1 X97.222 Y38.814 E78.3776
G1 X97.297 Y39.393 E78.39994
G1 X97.295 Y80.614 E79.97746
G1 X97.255 Y81.038 E79.99376
G1 X97.137 Y81.448 E80.01009
G1 X96.944 Y81.828 E80.0264
G1 X96.684 Y82.165 E80.04269
G1 X96.365 Y82.449 E80.05904
G1 X96 Y82.667 E80.07531
G1 X95.6 Y82.814 E80.09161
G1 X95.02 Y82.889 E80.114
G1 X24.982 Y82.889 E82.79435
G1 X24.558 Y82.849 E82.81064
G1 X24.148 Y82.731 E82.82697
G1 X23.768 Y82.538 E82.84328
G1 X23.431 Y82.278 E82.85957
G1 X23.148 Y81.96 E82.87586
G1 X22.929 Y81.594 E82.89219
G1 X22.782 Y81.194 E82.9085
G1 X22.707 Y80.614 E82.93088
G1 X22.708 Y39.386 E84.50867
G1 X22.748 Y38.962 E84.52497
G1 X22.866 Y38.552 E84.5413
G1 X23.059 Y38.172 E84.55761
G1 X23.156 Y38.047 E84.56366
G0 F1782 X23.319 Y37.835
G0 X23.638 Y37.552
G0 F4320 X23.975 Y37.746
G1 F2400 E84.59022
G1 F1980 X24.328 Y37.576 E84.60522
G1 X24.708 Y37.481 E84.62021
G1 X24.983 Y37.461 E84.63076
G1 X95.022 Y37.468 E87.31115
G1 X95.412 Y37.508 E87.32615
G1 X95.786 Y37.626 E87.34116
G1 X96.128 Y37.817 E87.35615
G1 X96.424 Y38.074 E87.37115
G1 X96.662 Y38.385 E87.38614
G1 X96.832 Y38.738 E87.40113
G1 X96.927 Y39.119 E87.41616
G1 X96.947 Y39.393 E87.42667
G1 X96.945 Y80.614 E89.0042
G1 X96.905 Y81.004 E89.0192
G1 X96.787 Y81.378 E89.03421
G1 X96.596 Y81.72 E89.0492
G1 X96.339 Y82.016 E89.0642
G1 X96.028 Y82.254 E89.07919
G1 X95.675 Y82.424 E89.09419
G1 X95.295 Y82.519 E89.10918
G1 X95.02 Y82.539 E89.11973
G1 X24.982 Y82.539 E91.80008
G1 X24.592 Y82.499 E91.81508
G1 X24.218 Y82.381 E91.83009
G1 X23.876 Y82.19 E91.84508
G1 X23.58 Y81.933 E91.86008
G1 X23.342 Y81.622 E91.87507
G1 X23.172 Y81.269 E91.89006
G1 X23.077 Y80.889 E91.90505
G1 X23.057 Y80.614 E91.91561
G1 X23.058 Y39.386 E93.4934
G1 X23.098 Y38.996 E93.5084
G1 X23.216 Y38.622 E93.52341
G1 X23.407 Y38.28 E93.5384
G1 X23.466 Y38.212 E93.54185
G0 F1782 X23.664 Y37.984
G0 X23.975 Y37.746
G0 F4320 X24.006 Y38.15
G1 F2400 E93.56841
G1 F1980 X24.307 Y37.963 E93.58197
G1 X24.643 Y37.848 E93.59556
G1 X24.983 Y37.811 E93.60865
G1 X95.022 Y37.818 E96.28904
G1 X95.374 Y37.858 E96.30259
G1 X95.709 Y37.976 E96.31619
G1 X96.008 Y38.165 E96.32972
G1 X96.258 Y38.417 E96.34331
G1 X96.445 Y38.718 E96.35687
G1 X96.56 Y39.053 E96.37043
G1 X96.597 Y39.393 E96.38351
G1 X96.595 Y80.614 E97.96104
G1 X96.555 Y80.966 E97.9746
G1 X96.437 Y81.301 E97.98819
G1 X96.248 Y81.6 E98.00173
G1 X95.997 Y81.85 E98.01528
G1 X95.696 Y82.037 E98.02885
G1 X95.36 Y82.152 E98.04244
G1 X95.02 Y82.189 E98.05552
G1 X24.982 Y82.189 E100.73587
G1 X24.63 Y82.149 E100.74943
G1 X24.296 Y82.032 E100.76298
G1 X23.996 Y81.842 E100.77657
G1 X23.746 Y81.591 E100.79012
G1 X23.559 Y81.29 E100.80369
G1 X23.444 Y80.954 E100.81728
G1 X23.407 Y80.614 E100.83036
G1 X23.408 Y39.386 E102.40816
G1 X23.448 Y39.034 E102.42172
G1 X23.565 Y38.699 E102.4353
G1 X23.573 Y38.687 E102.43585
G0 F1782 X23.755 Y38.4
G0 X24.006 Y38.15
G0 F4320 X24.345 Y38.34
G1 F2400 E102.46241
G1 F1980 X24.63 Y38.213 E102.47435
G1 X24.983 Y38.161 E102.488
G1 X95.022 Y38.168 E105.16839
G1 X95.332 Y38.208 E105.18035
G1 X95.622 Y38.325 E105.19232
G1 X95.872 Y38.511 E105.20425
G1 X96.068 Y38.755 E105.21622
G1 X96.195 Y39.04 E105.22816
G1 X96.247 Y39.393 E105.24182
G1 X96.245 Y80.614 E106.81934
G1 X96.205 Y80.924 E106.83131
G1 X96.088 Y81.214 E106.84327
G1 X95.902 Y81.464 E106.8552
G1 X95.658 Y81.66 E106.86718
G1 X95.373 Y81.787 E106.87912
G1 X95.02 Y81.839 E106.89277
G1 X24.982 Y81.839 E109.57312
G1 X24.672 Y81.799 E109.58508
G1 X24.382 Y81.682 E109.59705
G1 X24.132 Y81.496 E109.60898
G1 X23.936 Y81.252 E109.62095
G1 X23.809 Y80.967 E109.6329
G1 X23.757 Y80.614 E109.64655
G1 X23.758 Y39.386 E111.22434
G1 X23.798 Y39.076 E111.23631
G1 X23.889 Y38.851 E111.24559
G0 F1782 X23.915 Y38.786
G0 X24.101 Y38.536
G0 X24.345 Y38.34
G0 F4320 X24.445 Y38.696
G1 F2400 E111.27215
