;FLAVOR:Marlin
;TIME:1916
;Filament used: 0.876578m
;Layer height: 0.175
;Generated with Cura_SteamEngine 3.6.0
M140 S65
M105
M190 S65
M104 S205
M105
M109 S205
M82 ;absolute extrusion mode
G21;(metric values)
G90;(absolute positioning)
M82;(set extruder to absolute mode)
M107;(start with the fan off)
G28;(Home the printer)
G92 E0;(Reset the extruder to 0)
G0 Z5 E5 F500;(Move up and prime the nozzle)
G0 X-1 Z0;(Move outside the printable area)
G1 Y60 E8 F500;(Draw a priming/wiping line to the rear)
G1 X-1;(Move a little closer to the print area)
G1 Y10 E16 F500;(draw more priming/wiping)
G1 E15 F250;(Small retract)
G92 E0;(Zero the extruder)
G92 E0
G1 F2400 E-2.5
;LAYER_COUNT:142
;LAYER:0
M107
G0 F4320 X46.922 Y46.972 Z0.263
;TYPE:SKIRT
G1 F2400 E0
G1 F1620 X47.293 Y46.619 E0.0196
G1 X48.804 Y45.318 E0.09591
G1 X49.366 Y44.898 E0.12276
G1 X50.246 Y44.331 E0.16282
G1 X50.684 Y44.078 E0.18218
G1 X52.446 Y43.177 E0.25791
G1 X53.159 Y42.879 E0.28749
G1 X55.329 Y42.159 E0.37498
G1 X56.092 Y41.97 E0.40507
G1 X57.608 Y41.717 E0.46389
G1 X58.18 Y41.655 E0.4859
G1 X59.704 Y41.576 E0.54431
G1 X60.334 Y41.582 E0.56842
G1 X62.488 Y41.738 E0.65107
G1 X63.34 Y41.874 E0.68409
G1 X65.652 Y42.446 E0.77523
G1 X66.497 Y42.736 E0.80942
G1 X68.523 Y43.638 E0.89429
G1 X69.095 Y43.937 E0.919
G1 X70.227 Y44.625 E0.96969
G1 X70.803 Y45.033 E0.9967
G1 X72.569 Y46.477 E1.08401
G1 X73.064 Y46.94 E1.10994
G1 X74.128 Y48.078 E1.16957
G1 X74.507 Y48.534 E1.19226
G1 X75.251 Y49.544 E1.24027
G1 X75.572 Y50.037 E1.26278
G1 X76.532 Y51.718 E1.33686
G1 X76.823 Y52.316 E1.36231
G1 X77.391 Y53.707 E1.41981
G1 X77.579 Y54.252 E1.44188
G1 X78.077 Y56.023 E1.51228
G1 X78.234 Y56.832 E1.54382
G1 X78.439 Y58.662 E1.61429
G1 X78.47 Y59.147 E1.63289
G1 X78.493 Y60.607 E1.68877
G1 X78.45 Y61.355 E1.71745
G1 X78.186 Y63.344 E1.79423
G1 X78.062 Y63.969 E1.81862
G1 X77.662 Y65.487 E1.87869
G1 X77.466 Y66.082 E1.90267
G1 X76.893 Y67.512 E1.96162
G1 X76.637 Y68.054 E1.98456
G1 X75.798 Y69.592 E2.05161
G1 X75.459 Y70.131 E2.07598
G1 X74.558 Y71.38 E2.13492
G1 X74.207 Y71.814 E2.15628
G1 X73.314 Y72.802 E2.20725
G1 X72.861 Y73.245 E2.23149
G1 X71.24 Y74.641 E2.31336
G1 X70.745 Y75.016 E2.33713
G1 X69.837 Y75.622 E2.37891
G1 X69.355 Y75.907 E2.40034
G1 X67.761 Y76.733 E2.46904
G1 X67.286 Y76.949 E2.48901
G1 X66.047 Y77.437 E2.53997
G1 X65.342 Y77.657 E2.56824
G1 X63.1 Y78.181 E2.65635
G1 X62.213 Y78.307 E2.69064
G1 X59.847 Y78.432 E2.78131
G1 X59.204 Y78.425 E2.80592
G1 X57.937 Y78.331 E2.85454
G1 X57.412 Y78.265 E2.87479
G1 X56.247 Y78.055 E2.92009
G1 X55.94 Y77.989 E2.93211
G1 X55.078 Y77.778 E2.96607
G1 X54.449 Y77.58 E2.99131
G1 X52.302 Y76.747 E3.07944
G1 X51.759 Y76.499 E3.10229
G1 X50.681 Y75.927 E3.14899
G1 X50.093 Y75.561 E3.1755
G1 X48.435 Y74.366 E3.25371
G1 X47.93 Y73.951 E3.27873
G1 X46.737 Y72.832 E3.34132
G1 X46.342 Y72.417 E3.36325
G1 X45.226 Y71.104 E3.4292
G1 X44.828 Y70.567 E3.45478
G1 X44.173 Y69.551 E3.50104
G1 X43.898 Y69.069 E3.52227
G1 X42.997 Y67.265 E3.59945
G1 X42.671 Y66.44 E3.63339
G1 X41.946 Y63.995 E3.73099
G1 X41.77 Y63.129 E3.76481
G1 X41.533 Y61.059 E3.84455
G1 X41.5 Y60.442 E3.86819
G1 X41.508 Y59.422 E3.90723
G1 X41.53 Y58.994 E3.92363
G1 X41.68 Y57.374 E3.98589
G1 X41.794 Y56.676 E4.01296
G1 X42.15 Y55.168 E4.07226
G1 X42.302 Y54.65 E4.09292
G1 X42.888 Y52.984 E4.1605
G1 X43.212 Y52.252 E4.19114
G1 X44.223 Y50.384 E4.27243
G1 X44.549 Y49.861 E4.29601
G1 X45.435 Y48.614 E4.35455
G1 X45.89 Y48.06 E4.38199
G1 X46.445 Y47.475 E4.41285
G0 F1458 X46.922 Y46.972
G0 F4320 X47.176 Y47.213
G1 F2400 E4.43941
G1 F1620 X47.521 Y46.884 E4.45765
G1 X49.032 Y45.583 E4.53396
G1 X49.556 Y45.192 E4.55898
G1 X50.436 Y44.625 E4.59904
G1 X50.844 Y44.39 E4.61706
G1 X52.606 Y43.489 E4.6928
G1 X53.269 Y43.211 E4.72031
G1 X55.439 Y42.491 E4.80781
G1 X56.149 Y42.315 E4.8358
G1 X57.665 Y42.062 E4.89462
G1 X58.198 Y42.004 E4.91514
G1 X59.722 Y41.925 E4.97354
G1 X60.308 Y41.931 E4.99597
G1 X62.462 Y42.087 E5.07862
G1 X63.256 Y42.213 E5.10939
G1 X65.568 Y42.785 E5.20053
G1 X66.355 Y43.055 E5.23238
G1 X68.381 Y43.957 E5.31725
G1 X68.913 Y44.236 E5.34024
G1 X70.045 Y44.924 E5.39093
G1 X70.582 Y45.304 E5.41611
G1 X72.348 Y46.748 E5.50341
G1 X72.808 Y47.179 E5.52753
G1 X73.872 Y48.317 E5.58716
G1 X74.225 Y48.742 E5.6083
G1 X74.969 Y49.752 E5.65631
G1 X75.268 Y50.211 E5.67727
G1 X76.228 Y51.892 E5.75135
G1 X76.499 Y52.449 E5.77506
G1 X77.067 Y53.84 E5.83256
G1 X77.242 Y54.347 E5.85309
G1 X77.74 Y56.118 E5.92349
G1 X77.887 Y56.871 E5.95285
G1 X78.092 Y58.701 E6.02332
G1 X78.12 Y59.153 E6.04066
G1 X78.143 Y60.613 E6.09654
G1 X78.103 Y61.309 E6.12322
G1 X77.839 Y63.298 E6.2
G1 X77.724 Y63.88 E6.22271
G1 X77.324 Y65.398 E6.28278
G1 X77.141 Y65.951 E6.30507
G1 X76.568 Y67.381 E6.36403
G1 X76.33 Y67.887 E6.38543
G1 X75.491 Y69.425 E6.45248
G1 X75.175 Y69.926 E6.47515
G1 X74.274 Y71.175 E6.53408
G1 X73.947 Y71.579 E6.55398
G1 X73.054 Y72.567 E6.60494
G1 X72.632 Y72.979 E6.62751
G1 X71.011 Y74.375 E6.70938
G1 X70.551 Y74.725 E6.7315
G1 X69.643 Y75.331 E6.77328
G1 X69.194 Y75.596 E6.79323
G1 X67.6 Y76.422 E6.86194
G1 X67.158 Y76.623 E6.88052
G1 X65.919 Y77.111 E6.93148
G1 X65.262 Y77.316 E6.95782
G1 X63.02 Y77.84 E7.04594
G1 X62.194 Y77.957 E7.07786
G1 X59.828 Y78.082 E7.16853
G1 X59.229 Y78.076 E7.19146
G1 X57.962 Y77.982 E7.24008
G1 X57.474 Y77.92 E7.25891
G1 X56.309 Y77.71 E7.30421
G1 X56.024 Y77.65 E7.31536
G1 X55.162 Y77.439 E7.34932
G1 X54.576 Y77.254 E7.37284
G1 X52.429 Y76.421 E7.46097
G1 X51.923 Y76.19 E7.48226
G1 X50.845 Y75.618 E7.52896
G1 X50.297 Y75.277 E7.55366
G1 X48.639 Y74.082 E7.63187
G1 X48.17 Y73.695 E7.65514
G1 X46.977 Y72.576 E7.71774
G1 X46.609 Y72.19 E7.73815
G1 X45.493 Y70.877 E7.8041
G1 X45.122 Y70.377 E7.82793
G1 X44.467 Y69.361 E7.87419
G1 X44.211 Y68.912 E7.89397
G1 X43.31 Y67.108 E7.97114
G1 X43.007 Y66.34 E8.00273
G1 X42.282 Y63.895 E8.10033
G1 X42.118 Y63.089 E8.13181
G1 X41.881 Y61.019 E8.21155
G1 X41.85 Y60.445 E8.23354
G1 X41.858 Y59.425 E8.27258
G1 X41.878 Y59.026 E8.28787
G1 X42.028 Y57.406 E8.35013
G1 X42.134 Y56.756 E8.37534
G1 X42.49 Y55.248 E8.43463
G1 X42.632 Y54.766 E8.45386
G1 X43.218 Y53.1 E8.52145
G1 X43.52 Y52.419 E8.54996
G1 X44.531 Y50.551 E8.63125
G1 X44.834 Y50.063 E8.65323
G1 X45.72 Y48.816 E8.71177
G1 X46.144 Y48.301 E8.7373
G1 X46.699 Y47.716 E8.76816
G0 F1458 X47.176 Y47.213
G0 F4320 X47.43 Y47.454
G1 F2400 E8.79472
G1 F1620 X47.749 Y47.15 E8.81158
G1 X49.26 Y45.849 E8.88789
G1 X49.745 Y45.486 E8.91108
G1 X50.625 Y44.919 E8.95114
G1 X51.003 Y44.702 E8.96782
G1 X52.765 Y43.801 E9.04355
G1 X53.379 Y43.544 E9.06903
G1 X55.549 Y42.824 E9.15653
G1 X56.207 Y42.661 E9.18247
G1 X57.723 Y42.408 E9.24129
G1 X58.217 Y42.354 E9.26031
G1 X59.741 Y42.275 E9.31871
G1 X60.283 Y42.28 E9.33945
G1 X62.437 Y42.436 E9.4221
G1 X63.172 Y42.553 E9.45058
G1 X65.484 Y43.125 E9.54173
G1 X66.212 Y43.375 E9.57119
G1 X68.238 Y44.277 E9.65606
G1 X68.731 Y44.535 E9.67735
G1 X69.863 Y45.223 E9.72805
G1 X70.36 Y45.575 E9.75136
G1 X72.126 Y47.019 E9.83866
G1 X72.553 Y47.418 E9.86102
G1 X73.617 Y48.556 E9.92065
G1 X73.943 Y48.949 E9.94019
G1 X74.687 Y49.959 E9.98819
G1 X74.964 Y50.384 E10.00761
G1 X75.924 Y52.065 E10.08169
G1 X76.175 Y52.581 E10.10365
G1 X76.743 Y53.972 E10.16115
G1 X76.905 Y54.442 E10.18018
G1 X77.403 Y56.213 E10.25058
G1 X77.539 Y56.91 E10.27776
G1 X77.744 Y58.74 E10.34823
G1 X77.77 Y59.158 E10.36426
G1 X77.793 Y60.618 E10.42014
G1 X77.756 Y61.263 E10.44487
G1 X77.492 Y63.252 E10.52165
G1 X77.386 Y63.791 E10.54267
G1 X76.986 Y65.309 E10.60275
G1 X76.816 Y65.821 E10.6234
G1 X76.243 Y67.251 E10.68235
G1 X76.023 Y67.719 E10.70214
G1 X75.184 Y69.257 E10.76919
G1 X74.891 Y69.722 E10.79022
G1 X73.99 Y70.971 E10.84916
G1 X73.688 Y71.345 E10.86756
G1 X72.795 Y72.333 E10.91853
G1 X72.404 Y72.714 E10.93942
G1 X70.783 Y74.11 E11.02129
G1 X70.357 Y74.434 E11.04177
G1 X69.449 Y75.04 E11.08355
G1 X69.033 Y75.285 E11.10202
G1 X67.439 Y76.111 E11.17073
G1 X67.029 Y76.298 E11.18798
G1 X65.79 Y76.786 E11.23894
G1 X65.183 Y76.975 E11.26327
G1 X62.941 Y77.499 E11.35138
G1 X62.176 Y77.608 E11.38095
G1 X59.81 Y77.733 E11.47163
G1 X59.255 Y77.727 E11.49287
G1 X57.988 Y77.633 E11.54149
G1 X57.536 Y77.576 E11.55892
G1 X56.371 Y77.366 E11.60423
G1 X56.107 Y77.31 E11.61455
G1 X55.245 Y77.099 E11.64852
G1 X54.703 Y76.928 E11.67027
G1 X52.556 Y76.095 E11.7584
G1 X52.087 Y75.881 E11.77813
G1 X51.009 Y75.309 E11.82483
G1 X50.502 Y74.993 E11.8477
G1 X48.844 Y73.798 E11.92591
G1 X48.409 Y73.44 E11.94747
G1 X47.216 Y72.321 E12.01007
G1 X46.875 Y71.963 E12.02899
G1 X45.759 Y70.65 E12.09494
G1 X45.416 Y70.188 E12.11696
G1 X44.761 Y69.172 E12.16322
G1 X44.524 Y68.756 E12.18154
G1 X43.623 Y66.952 E12.25871
G1 X43.343 Y66.241 E12.28796
G1 X42.618 Y63.796 E12.38555
G1 X42.465 Y63.05 E12.4147
G1 X42.228 Y60.98 E12.49443
G1 X42.2 Y60.448 E12.51482
G1 X42.208 Y59.428 E12.55386
G1 X42.227 Y59.059 E12.568
G1 X42.377 Y57.439 E12.63026
G1 X42.475 Y56.837 E12.6536
G1 X42.831 Y55.329 E12.7129
G1 X42.962 Y54.882 E12.73073
G1 X43.548 Y53.216 E12.79831
G1 X43.827 Y52.586 E12.82468
G1 X44.838 Y50.718 E12.90597
G1 X45.12 Y50.266 E12.92636
G1 X46.006 Y49.019 E12.9849
G1 X46.398 Y48.542 E13.00853
G1 X46.953 Y47.957 E13.03939
G0 F1458 X47.43 Y47.454
G0 F4320 X47.684 Y47.695
G1 F2400 E13.06595
G1 F1620 X47.978 Y47.415 E13.08148
G1 X49.489 Y46.114 E13.15779
G1 X49.935 Y45.781 E13.17909
G1 X50.815 Y45.214 E13.21915
G1 X51.162 Y45.013 E13.2345
G1 X52.924 Y44.112 E13.31024
G1 X53.489 Y43.876 E13.33367
G1 X55.659 Y43.156 E13.42117
G1 X56.264 Y43.006 E13.44502
G1 X57.78 Y42.753 E13.50384
G1 X58.235 Y42.703 E13.52136
G1 X59.759 Y42.624 E13.57976
G1 X60.258 Y42.63 E13.59886
G1 X62.412 Y42.786 E13.68151
G1 X63.088 Y42.893 E13.7077
G1 X65.4 Y43.465 E13.79885
G1 X66.07 Y43.695 E13.82596
G1 X68.096 Y44.597 E13.91083
G1 X68.549 Y44.834 E13.9304
G1 X69.681 Y45.522 E13.98109
G1 X70.139 Y45.846 E14.00256
G1 X71.905 Y47.29 E14.08986
G1 X72.297 Y47.657 E14.11041
G1 X73.361 Y48.795 E14.17004
G1 X73.662 Y49.157 E14.18805
G1 X74.406 Y50.167 E14.23606
G1 X74.66 Y50.558 E14.2539
G1 X75.62 Y52.239 E14.32799
G1 X75.851 Y52.713 E14.34817
G1 X76.419 Y54.104 E14.40567
G1 X76.568 Y54.536 E14.42316
G1 X77.066 Y56.307 E14.49356
G1 X77.191 Y56.949 E14.51859
G1 X77.396 Y58.779 E14.58906
G1 X77.421 Y59.164 E14.60383
G1 X77.444 Y60.624 E14.65971
G1 X77.409 Y61.217 E14.68244
G1 X77.145 Y63.206 E14.75923
G1 X77.047 Y63.702 E14.77858
G1 X76.647 Y65.22 E14.83865
G1 X76.491 Y65.691 E14.85764
G1 X75.918 Y67.121 E14.9166
G1 X75.715 Y67.552 E14.93483
G1 X74.876 Y69.09 E15.00188
G1 X74.607 Y69.517 E15.02119
G1 X73.706 Y70.766 E15.08013
G1 X73.428 Y71.11 E15.09706
G1 X72.535 Y72.098 E15.14802
G1 X72.176 Y72.449 E15.16724
G1 X70.555 Y73.845 E15.24911
G1 X70.162 Y74.143 E15.26798
G1 X69.254 Y74.749 E15.30976
G1 X68.872 Y74.975 E15.32675
G1 X67.278 Y75.801 E15.39545
G1 X66.901 Y75.972 E15.41129
G1 X65.662 Y76.46 E15.46226
G1 X65.103 Y76.634 E15.48466
G1 X62.861 Y77.158 E15.57277
G1 X62.157 Y77.258 E15.59999
G1 X59.791 Y77.383 E15.69066
G1 X59.281 Y77.378 E15.71018
G1 X58.014 Y77.284 E15.7588
G1 X57.598 Y77.231 E15.77485
G1 X56.433 Y77.021 E15.82015
G1 X56.19 Y76.97 E15.82965
G1 X55.328 Y76.759 E15.86362
G1 X54.829 Y76.601 E15.88365
G1 X52.682 Y75.768 E15.97178
G1 X52.251 Y75.571 E15.98992
G1 X51.173 Y74.999 E16.03662
G1 X50.707 Y74.709 E16.05762
G1 X49.049 Y73.514 E16.13584
G1 X48.648 Y73.185 E16.15569
G1 X47.455 Y72.066 E16.21829
G1 X47.142 Y71.737 E16.23567
G1 X46.026 Y70.424 E16.30161
G1 X45.71 Y69.998 E16.32191
G1 X45.055 Y68.982 E16.36817
G1 X44.837 Y68.599 E16.38504
G1 X43.936 Y66.795 E16.46221
G1 X43.678 Y66.141 E16.48912
G1 X42.953 Y63.696 E16.58671
G1 X42.813 Y63.01 E16.61351
G1 X42.576 Y60.94 E16.69324
G1 X42.55 Y60.45 E16.71202
G1 X42.558 Y59.43 E16.75106
G1 X42.575 Y59.091 E16.76405
G1 X42.725 Y57.471 E16.82631
G1 X42.816 Y56.917 E16.8478
G1 X43.172 Y55.409 E16.90709
G1 X43.292 Y54.998 E16.92348
G1 X43.878 Y53.332 E16.99107
G1 X44.135 Y52.752 E17.01534
G1 X45.146 Y50.884 E17.09663
G1 X45.405 Y50.469 E17.11535
G1 X46.291 Y49.222 E17.17389
G1 X46.652 Y48.783 E17.19565
G1 X47.207 Y48.198 E17.22651
G0 F1458 X47.684 Y47.695
G0 F4320 X47.938 Y47.936
G1 F2400 E17.25306
G1 F1620 X48.206 Y47.68 E17.26725
G1 X49.717 Y46.379 E17.34356
G1 X50.125 Y46.075 E17.36303
G1 X51.005 Y45.508 E17.40309
G1 X51.322 Y45.325 E17.4171
G1 X53.084 Y44.424 E17.49283
G1 X53.6 Y44.208 E17.51424
G1 X55.77 Y43.488 E17.60174
G1 X56.322 Y43.351 E17.62351
G1 X57.838 Y43.098 E17.68233
G1 X58.253 Y43.053 E17.6983
G1 X59.777 Y42.974 E17.7567
G1 X60.232 Y42.979 E17.77412
G1 X62.386 Y43.135 E17.85677
G1 X63.004 Y43.233 E17.88071
G1 X65.316 Y43.805 E17.97186
G1 X65.928 Y44.015 E17.99662
G1 X67.954 Y44.917 E18.08149
G1 X68.368 Y45.134 E18.09938
G1 X69.5 Y45.822 E18.15008
G1 X69.917 Y46.117 E18.16962
G1 X71.683 Y47.561 E18.25693
G1 X72.041 Y47.896 E18.27569
G1 X73.105 Y49.034 E18.33531
G1 X73.38 Y49.364 E18.35175
G1 X74.124 Y50.374 E18.39976
G1 X74.356 Y50.732 E18.41608
G1 X75.316 Y52.413 E18.49017
G1 X75.527 Y52.846 E18.5086
G1 X76.095 Y54.237 E18.5661
G1 X76.231 Y54.631 E18.58205
G1 X76.729 Y56.402 E18.65246
G1 X76.843 Y56.988 E18.6753
G1 X77.048 Y58.818 E18.74578
G1 X77.071 Y59.169 E18.75924
G1 X77.094 Y60.629 E18.81512
G1 X77.062 Y61.171 E18.8359
G1 X76.798 Y63.16 E18.91268
G1 X76.709 Y63.612 E18.93031
G1 X76.309 Y65.13 E18.99039
G1 X76.166 Y65.561 E19.00777
G1 X75.593 Y66.991 E19.06673
G1 X75.408 Y67.384 E19.08335
G1 X74.569 Y68.922 E19.1504
G1 X74.323 Y69.312 E19.16804
G1 X73.422 Y70.561 E19.22698
G1 X73.168 Y70.875 E19.24244
G1 X72.275 Y71.863 E19.2934
G1 X71.947 Y72.184 E19.31097
G1 X70.326 Y73.58 E19.39284
G1 X69.968 Y73.852 E19.41004
G1 X69.06 Y74.458 E19.45182
G1 X68.711 Y74.664 E19.46733
G1 X67.117 Y75.49 E19.53604
G1 X66.773 Y75.646 E19.55049
G1 X65.534 Y76.134 E19.60145
G1 X65.023 Y76.294 E19.62195
G1 X62.781 Y76.818 E19.71006
G1 X62.139 Y76.909 E19.73487
G1 X59.773 Y77.034 E19.82555
G1 X59.307 Y77.029 E19.84338
G1 X58.04 Y76.935 E19.892
G1 X57.66 Y76.887 E19.90666
G1 X56.495 Y76.677 E19.95196
G1 X56.273 Y76.63 E19.96065
G1 X55.411 Y76.419 E19.99461
G1 X54.956 Y76.275 E20.01288
G1 X52.809 Y75.442 E20.10101
G1 X52.415 Y75.262 E20.11759
G1 X51.337 Y74.69 E20.16429
G1 X50.911 Y74.425 E20.18349
G1 X49.253 Y73.23 E20.2617
G1 X48.888 Y72.929 E20.27981
G1 X47.695 Y71.81 E20.34241
G1 X47.409 Y71.51 E20.35827
G1 X46.293 Y70.197 E20.42421
G1 X46.004 Y69.808 E20.44276
G1 X45.349 Y68.792 E20.48902
G1 X45.15 Y68.443 E20.5044
G1 X44.249 Y66.639 E20.58157
G1 X44.014 Y66.042 E20.60612
G1 X43.289 Y63.597 E20.70372
G1 X43.161 Y62.97 E20.72821
G1 X42.924 Y60.9 E20.80795
G1 X42.9 Y60.453 E20.82508
G1 X42.908 Y59.433 E20.86411
G1 X42.924 Y59.123 E20.87599
G1 X43.074 Y57.503 E20.93826
G1 X43.156 Y56.998 E20.95783
G1 X43.512 Y55.49 E21.01713
G1 X43.622 Y55.115 E21.03209
G1 X44.208 Y53.449 E21.09967
G1 X44.443 Y52.919 E21.12186
G1 X45.454 Y51.051 E21.20315
G1 X45.69 Y50.671 E21.22027
G1 X46.576 Y49.424 E21.27881
G1 X46.906 Y49.024 E21.29866
G1 X47.461 Y48.439 E21.32952
G0 F1458 X47.938 Y47.936
G0 F4320 X48.192 Y48.177
G1 F2400 E21.35607
G1 F1620 X48.434 Y47.945 E21.3689
G1 X49.945 Y46.644 E21.44521
G1 X50.314 Y46.369 E21.46282
G1 X51.194 Y45.802 E21.50289
G1 X51.481 Y45.637 E21.51556
G1 X53.243 Y44.736 E21.59129
G1 X53.71 Y44.54 E21.61067
G1 X55.88 Y43.82 E21.69817
G1 X56.38 Y43.696 E21.71789
G1 X57.896 Y43.443 E21.77671
G1 X58.271 Y43.402 E21.79114
G1 X59.795 Y43.323 E21.84954
G1 X60.207 Y43.328 E21.86531
G1 X62.361 Y43.484 E21.94796
G1 X62.92 Y43.572 E21.96962
G1 X65.232 Y44.144 E22.06077
G1 X65.785 Y44.334 E22.08314
G1 X67.811 Y45.236 E22.16802
G1 X68.186 Y45.433 E22.18423
G1 X69.318 Y46.121 E22.23492
G1 X69.696 Y46.388 E22.25263
G1 X71.462 Y47.832 E22.33993
G1 X71.786 Y48.135 E22.35691
G1 X72.85 Y49.273 E22.41653
G1 X73.098 Y49.572 E22.4314
G1 X73.842 Y50.582 E22.47941
G1 X74.052 Y50.905 E22.49415
G1 X75.012 Y52.586 E22.56823
G1 X75.203 Y52.978 E22.58492
G1 X75.771 Y54.369 E22.64242
G1 X75.894 Y54.726 E22.65687
G1 X76.392 Y56.497 E22.72728
G1 X76.495 Y57.027 E22.74794
G1 X76.7 Y58.857 E22.81841
G1 X76.721 Y59.175 E22.83061
G1 X76.744 Y60.635 E22.88649
