;FLAVOR:Marlin
;TIME:6748
;Filament used: 3.88426m
;Layer height: 0.175
;Generated with Cura_SteamEngine 3.6.0
M140 S60
M105
M190 S60
M104 S200
M105
M109 S200
M82 ;absolute extrusion mode
G21;(metric values)
G90;(absolute positioning)
M82;(set extruder to absolute mode)
M107;(start with the fan off)
G28;(Home the printer)
G92 E0;(Reset the extruder to 0)
G0 Z5 E5 F500;(Move up and prime the nozzle)
G0 X-1 Z0;(Move outside the printable area)
G1 Y60 E8 F500;(Draw a priming/wiping line to the rear)
G1 X-1;(Move a little closer to the print area)
G1 Y10 E16 F500;(draw more priming/wiping)
G1 E15 F250;(Small retract)
G92 E0;(Zero the extruder)
G92 E0
G1 F2400 E-2.5
;LAYER_COUNT:14
;LAYER:0
M107
G0 F4320 X9.117 Y22.793 Z0.263
;TYPE:SKIRT
G1 F2400 E0
G1 F1800 X10.077 Y22.392 E0.03982
G1 X10.679 Y22.184 E0.06419
G1 X11.459 Y22.033 E0.0946
G1 X12.109 Y21.959 E0.11963
G1 X12.683 Y21.926 E0.14163
G1 X110.305 Y21.924 E3.87762
G1 X110.941 Y21.964 E3.90201
G1 X111.566 Y22.083 E3.92636
G1 X112.172 Y22.28 E3.95075
G1 X112.748 Y22.551 E3.97511
G1 X113.286 Y22.892 E3.99948
G1 X113.777 Y23.298 E4.02387
G1 X114.213 Y23.762 E4.04823
G1 X114.588 Y24.277 E4.07261
G1 X114.895 Y24.834 E4.09695
G1 X115.13 Y25.426 E4.12133
G1 X115.289 Y26.043 E4.14571
G1 X115.37 Y26.675 E4.1701
G1 X115.38 Y26.999 E4.1825
G1 X115.38 Y30.232 E4.30623
G1 X115.34 Y30.868 E4.33062
G1 X115.221 Y31.493 E4.35496
G1 X115.024 Y32.099 E4.37935
G1 X114.753 Y32.675 E4.40371
G1 X114.665 Y32.814 E4.41001
G1 X114.837 Y33.108 E4.42304
G1 X115.087 Y33.693 E4.44739
G1 X115.262 Y34.305 E4.47175
G1 X115.359 Y34.935 E4.49614
G1 X115.38 Y35.392 E4.51365
G1 X115.38 Y53.768 E5.2169
G1 X115.34 Y54.404 E5.24129
G1 X115.221 Y55.029 E5.26564
G1 X115.134 Y55.296 E5.27638
G1 X115.23 Y55.601 E5.28862
G1 X115.345 Y56.228 E5.31302
G1 X115.38 Y56.824 E5.33586
G1 X115.38 Y62.18 E5.54084
G1 X115.34 Y62.816 E5.56523
G1 X115.221 Y63.441 E5.58957
G1 X115.134 Y63.709 E5.60036
G1 X115.232 Y64.021 E5.61287
G1 X115.346 Y64.647 E5.63722
G1 X115.38 Y65.236 E5.6598
G1 X115.38 Y70.593 E5.86481
G1 X115.34 Y71.229 E5.8892
G1 X115.221 Y71.854 E5.91355
G1 X115.134 Y72.122 E5.92433
G1 X115.23 Y72.426 E5.93653
G1 X115.345 Y73.052 E5.96089
G1 X115.38 Y73.649 E5.98378
G1 X115.38 Y84.862 E6.4129
G1 X115.34 Y85.498 E6.43729
G1 X115.221 Y86.123 E6.46164
G1 X115.024 Y86.729 E6.48602
G1 X114.753 Y87.305 E6.51038
G1 X114.665 Y87.444 E6.51668
G1 X114.837 Y87.738 E6.52971
G1 X115.087 Y88.323 E6.55406
G1 X115.262 Y88.935 E6.57842
G1 X115.359 Y89.565 E6.60282
G1 X115.38 Y90.022 E6.62032
G1 X115.38 Y93 E6.73429
G1 X115.34 Y93.636 E6.75868
G1 X115.221 Y94.261 E6.78303
G1 X115.024 Y94.867 E6.80741
G1 X114.753 Y95.443 E6.83177
G1 X114.412 Y95.981 E6.85615
G1 X114.006 Y96.472 E6.88053
G1 X113.542 Y96.908 E6.9049
G1 X113.027 Y97.283 E6.92928
G1 X112.47 Y97.59 E6.95362
G1 X111.878 Y97.825 E6.978
G1 X111.261 Y97.984 E7.00238
G1 X110.629 Y98.065 E7.02676
G1 X110.305 Y98.075 E7.03917
G1 X73.679 Y98.073 E8.44084
G1 X73.043 Y98.033 E8.46523
G1 X72.67 Y97.972 E8.4797
G1 X71.704 Y97.776 E8.51742
G1 X71.089 Y97.61 E8.5418
G1 X70.499 Y97.369 E8.56619
G1 X70.139 Y97.176 E8.58182
G1 X69.293 Y96.678 E8.61939
G1 X68.599 Y96.187 E8.65192
G1 X7.303 Y44.604 E11.71782
G1 X6.843 Y44.164 E11.74218
G1 X6.412 Y43.63 E11.76845
G1 X5.816 Y42.778 E11.80824
G1 X5.485 Y42.234 E11.83261
G1 X5.224 Y41.653 E11.85698
G1 X5.072 Y41.18 E11.876
G1 X4.803 Y40.174 E11.91585
G1 X4.678 Y39.55 E11.9402
G1 X4.631 Y38.868 E11.96636
G1 X4.622 Y29.888 E12.31003
G1 X4.661 Y29.252 E12.33441
G1 X4.737 Y28.808 E12.35165
G1 X4.958 Y27.788 E12.39159
G1 X5.132 Y27.176 E12.41594
G1 X5.513 Y26.342 E12.45103
G1 X5.901 Y25.664 E12.48093
G1 X6.252 Y25.132 E12.50532
G1 X6.861 Y24.458 E12.54008
G1 X7.628 Y23.749 E12.58006
G1 X8.122 Y23.347 E12.60443
G1 X8.501 Y23.11 E12.62154
G0 F1620 X8.662 Y23.01
G0 X9.117 Y22.793
G0 F4320 X9.252 Y23.116
G1 F2400 E12.6481
G1 F1800 X10.212 Y22.715 E12.68791
G1 X10.793 Y22.516 E12.71142
G1 X11.499 Y22.38 E12.73893
G1 X12.149 Y22.306 E12.76397
G1 X12.683 Y22.276 E12.78444
G1 X110.305 Y22.274 E16.52042
G1 X110.918 Y22.314 E16.54393
G1 X111.521 Y22.433 E16.56746
G1 X112.103 Y22.63 E16.59097
G1 X112.655 Y22.9 E16.61449
G1 X113.167 Y23.239 E16.63799
G1 X113.631 Y23.643 E16.66153
G1 X114.038 Y24.103 E16.68504
G1 X114.383 Y24.612 E16.70857
G1 X114.658 Y25.161 E16.73207
G1 X114.86 Y25.741 E16.75557
G1 X114.984 Y26.343 E16.77909
G1 X115.03 Y26.999 E16.80426
G1 X115.03 Y30.232 E16.92799
G1 X114.99 Y30.845 E16.9515
G1 X114.871 Y31.448 E16.97502
G1 X114.674 Y32.03 E16.99853
G1 X114.404 Y32.582 E17.02205
G1 X114.253 Y32.809 E17.03248
G1 X114.33 Y32.917 E17.03756
G1 X114.617 Y33.46 E17.06106
G1 X114.831 Y34.036 E17.08458
G1 X114.969 Y34.635 E17.1081
G1 X115.03 Y35.392 E17.13717
G1 X115.03 Y53.768 E17.84042
G1 X114.99 Y54.381 E17.86393
G1 X114.871 Y54.984 E17.88745
G1 X114.768 Y55.289 E17.89977
G1 X114.916 Y55.791 E17.9198
G1 X115.011 Y56.398 E17.94331
G1 X115.03 Y56.824 E17.95963
G1 X115.03 Y62.18 E18.1646
G1 X114.99 Y62.793 E18.18811
G1 X114.871 Y63.396 E18.21163
G1 X114.768 Y63.7 E18.22392
G1 X114.917 Y64.21 E18.24425
G1 X115.011 Y64.817 E18.26776
G1 X115.03 Y65.236 E18.28381
G1 X115.03 Y70.593 E18.48882
G1 X114.99 Y71.206 E18.51233
G1 X114.871 Y71.809 E18.53585
G1 X114.768 Y72.114 E18.54817
G1 X114.916 Y72.615 E18.56817
G1 X115.011 Y73.222 E18.59168
G1 X115.03 Y73.649 E18.60804
G1 X115.03 Y84.862 E19.03716
G1 X114.99 Y85.475 E19.06067
G1 X114.871 Y86.078 E19.08419
G1 X114.674 Y86.66 E19.1077
G1 X114.404 Y87.212 E19.13122
G1 X114.253 Y87.439 E19.14165
G1 X114.33 Y87.547 E19.14673
G1 X114.617 Y88.09 E19.17023
G1 X114.831 Y88.666 E19.19375
G1 X114.969 Y89.265 E19.21727
G1 X115.03 Y90.022 E19.24634
G1 X115.03 Y93 E19.36031
G1 X114.99 Y93.613 E19.38381
G1 X114.871 Y94.216 E19.40734
G1 X114.674 Y94.798 E19.43085
G1 X114.404 Y95.35 E19.45437
G1 X114.064 Y95.862 E19.47789
G1 X113.661 Y96.326 E19.50141
G1 X113.201 Y96.733 E19.52491
G1 X112.692 Y97.078 E19.54845
G1 X112.143 Y97.353 E19.57195
G1 X111.562 Y97.555 E19.59549
G1 X110.961 Y97.679 E19.61897
G1 X110.305 Y97.725 E19.64414
G1 X73.679 Y97.723 E21.04581
G1 X73.066 Y97.683 E21.06932
G1 X72.739 Y97.629 E21.08201
G1 X71.773 Y97.433 E21.11973
G1 X71.18 Y97.272 E21.14324
G1 X70.613 Y97.035 E21.16676
G1 X70.316 Y96.874 E21.17969
G1 X69.47 Y96.376 E21.21726
G1 X68.825 Y95.919 E21.24751
G1 X7.529 Y44.336 E24.31341
G1 X7.085 Y43.911 E24.33693
G1 X6.699 Y43.429 E24.36056
G1 X6.103 Y42.577 E24.40036
G1 X5.785 Y42.052 E24.42385
G1 X5.537 Y41.49 E24.44735
G1 X5.41 Y41.09 E24.46342
G1 X5.141 Y40.084 E24.50327
G1 X5.022 Y39.481 E24.52679
G1 X4.981 Y38.868 E24.5503
G1 X4.972 Y29.888 E24.89397
G1 X5.011 Y29.275 E24.91747
G1 X5.079 Y28.882 E24.93274
G1 X5.3 Y27.862 E24.97268
G1 X5.469 Y27.272 E24.99616
G1 X5.817 Y26.516 E25.02801
G1 X6.205 Y25.838 E25.05791
G1 X6.544 Y25.326 E25.08141
G1 X7.099 Y24.715 E25.113
G1 X7.866 Y24.006 E25.15297
G1 X8.343 Y23.619 E25.17648
G1 X8.638 Y23.438 E25.18972
G0 F1620 X8.867 Y23.298
G0 X9.252 Y23.116
G0 F4320 X9.387 Y23.439
G1 F2400 E25.21628
G1 F1800 X10.347 Y23.038 E25.2561
G1 X10.906 Y22.848 E25.27869
G1 X11.538 Y22.728 E25.30331
G1 X12.188 Y22.654 E25.32835
G1 X12.683 Y22.626 E25.34732
G1 X110.305 Y22.624 E29.08331
G1 X110.895 Y22.664 E29.10594
G1 X111.474 Y22.783 E29.12856
G1 X112.032 Y22.979 E29.1512
G1 X112.558 Y23.249 E29.17382
G1 X113.043 Y23.587 E29.19645
G1 X113.478 Y23.987 E29.21906
G1 X113.855 Y24.443 E29.24171
G1 X114.168 Y24.945 E29.26435
G1 X114.409 Y25.484 E29.28694
G1 X114.576 Y26.051 E29.30956
G1 X114.665 Y26.636 E29.33221
G1 X114.68 Y26.999 E29.34611
G1 X114.68 Y30.232 E29.46984
G1 X114.64 Y30.822 E29.49247
G1 X114.521 Y31.401 E29.51509
G1 X114.325 Y31.959 E29.53773
G1 X114.055 Y32.485 E29.56035
G1 X113.831 Y32.806 E29.57533
G1 X114.133 Y33.274 E29.59665
G1 X114.384 Y33.809 E29.61926
G1 X114.56 Y34.374 E29.64191
G1 X114.658 Y34.957 E29.66454
G1 X114.68 Y35.392 E29.6812
G1 X114.68 Y53.768 E30.38445
G1 X114.64 Y54.358 E30.40708
G1 X114.521 Y54.937 E30.42971
G1 X114.396 Y55.292 E30.44411
G1 X114.444 Y55.405 E30.44881
G1 X114.597 Y55.976 E30.47143
G1 X114.68 Y56.824 E30.50404
G1 X114.68 Y62.18 E30.70901
G1 X114.64 Y62.77 E30.73164
G1 X114.521 Y63.349 E30.75426
G1 X114.396 Y63.705 E30.7687
G1 X114.446 Y63.824 E30.77364
G1 X114.598 Y64.395 E30.79626
G1 X114.68 Y65.236 E30.8286
G1 X114.68 Y70.593 E31.03361
G1 X114.64 Y71.183 E31.05624
G1 X114.521 Y71.762 E31.07886
G1 X114.396 Y72.117 E31.09326
G1 X114.444 Y72.23 E31.09796
G1 X114.597 Y72.801 E31.12058
G1 X114.68 Y73.649 E31.15319
G1 X114.68 Y84.862 E31.58231
G1 X114.64 Y85.452 E31.60494
G1 X114.521 Y86.031 E31.62757
G1 X114.325 Y86.589 E31.6502
G1 X114.055 Y87.115 E31.67283
G1 X113.831 Y87.436 E31.68781
G1 X114.133 Y87.904 E31.70912
G1 X114.384 Y88.439 E31.73174
G1 X114.56 Y89.004 E31.75439
G1 X114.658 Y89.587 E31.77701
G1 X114.68 Y90.022 E31.79368
G1 X114.68 Y93 E31.90765
G1 X114.64 Y93.59 E31.93028
G1 X114.521 Y94.169 E31.9529
G1 X114.325 Y94.727 E31.97553
G1 X114.055 Y95.253 E31.99816
G1 X113.717 Y95.738 E32.02078
G1 X113.317 Y96.173 E32.0434
G1 X112.861 Y96.55 E32.06604
G1 X112.359 Y96.863 E32.08868
G1 X111.82 Y97.104 E32.11128
G1 X111.252 Y97.271 E32.13393
G1 X110.668 Y97.36 E32.15654
G1 X110.305 Y97.375 E32.17045
G1 X73.679 Y97.373 E33.57212
G1 X72.809 Y97.286 E33.60558
G1 X71.843 Y97.09 E33.6433
G1 X71.273 Y96.933 E33.66593
G1 X70.494 Y96.572 E33.69879
G1 X69.648 Y96.074 E33.73636
G1 X69.05 Y95.651 E33.76439
G1 X7.754 Y44.068 E36.83029
G1 X7.328 Y43.658 E36.85292
G1 X6.986 Y43.229 E36.87391
G1 X6.39 Y42.377 E36.9137
G1 X6.085 Y41.87 E36.93635
G1 X5.85 Y41.328 E36.95896
G1 X5.748 Y40.999 E36.97214
G1 X5.479 Y39.993 E37.01199
G1 X5.366 Y39.413 E37.0346
G1 X5.331 Y38.867 E37.05554
G1 X5.322 Y29.887 E37.39921
G1 X5.361 Y29.297 E37.42183
G1 X5.421 Y28.957 E37.43505
G1 X5.642 Y27.937 E37.47499
G1 X5.806 Y27.368 E37.49765
G1 X6.121 Y26.69 E37.52626
G1 X6.509 Y26.012 E37.55616
G1 X6.836 Y25.52 E37.57876
G1 X7.336 Y24.972 E37.60715
G1 X8.103 Y24.263 E37.64713
G1 X8.564 Y23.892 E37.66977
G1 X8.775 Y23.765 E37.6792
G0 F1620 X9.07 Y23.587
G0 X9.387 Y23.439
G0 F4320 X9.522 Y23.762
G1 F2400 E37.70576
G1 F1800 X10.482 Y23.361 E37.74557
G1 X11.019 Y23.18 E37.76726
G1 X11.578 Y23.076 E37.78902
G1 X12.228 Y23.002 E37.81406
G1 X12.683 Y22.976 E37.8315
G1 X110.305 Y22.974 E41.56749
G1 X110.871 Y23.014 E41.5892
G1 X111.425 Y23.133 E41.61089
G1 X111.957 Y23.329 E41.63258
G1 X112.457 Y23.597 E41.65429
G1 X112.913 Y23.934 E41.67599
G1 X113.318 Y24.331 E41.6977
G1 X113.663 Y24.781 E41.7194
G1 X113.942 Y25.275 E41.74111
G1 X114.148 Y25.803 E41.7628
G1 X114.278 Y26.355 E41.7845
G1 X114.33 Y26.999 E41.80923
G1 X114.33 Y30.232 E41.93296
G1 X114.29 Y30.798 E41.95467
G1 X114.171 Y31.352 E41.97636
G1 X113.975 Y31.884 E41.99805
G1 X113.707 Y32.384 E42.01976
G1 X113.387 Y32.816 E42.04034
G1 X113.639 Y33.137 E42.05596
G1 X113.923 Y33.628 E42.07766
G1 X114.135 Y34.154 E42.09937
G1 X114.271 Y34.705 E42.12109
G1 X114.33 Y35.392 E42.14747
G1 X114.33 Y53.768 E42.85072
G1 X114.29 Y54.334 E42.87244
G1 X114.171 Y54.888 E42.89412
G1 X114.019 Y55.299 E42.91089
G1 X114.142 Y55.607 E42.92358
G1 X114.275 Y56.158 E42.94528
G1 X114.33 Y56.824 E42.97085
G1 X114.33 Y62.18 E43.17583
G1 X114.29 Y62.746 E43.19754
G1 X114.171 Y63.3 E43.21923
G1 X114.019 Y63.711 E43.236
G1 X114.143 Y64.025 E43.24892
G1 X114.276 Y64.576 E43.27061
G1 X114.33 Y65.236 E43.29595
G1 X114.33 Y70.593 E43.50096
G1 X114.29 Y71.159 E43.52268
G1 X114.171 Y71.713 E43.54436
G1 X114.019 Y72.124 E43.56113
G1 X114.142 Y72.432 E43.57382
G1 X114.275 Y72.983 E43.59552
G1 X114.33 Y73.649 E43.62109
G1 X114.33 Y84.862 E44.05021
G1 X114.29 Y85.428 E44.07193
G1 X114.171 Y85.982 E44.09361
G1 X113.975 Y86.514 E44.11531
G1 X113.707 Y87.014 E44.13702
G1 X113.387 Y87.446 E44.15759
G1 X113.639 Y87.767 E44.17321
G1 X113.923 Y88.258 E44.19492
G1 X114.135 Y88.784 E44.21662
G1 X114.271 Y89.335 E44.23834
G1 X114.33 Y90.022 E44.26473
G1 X114.33 Y93 E44.3787
G1 X114.29 Y93.566 E44.40041
G1 X114.171 Y94.12 E44.4221
G1 X113.975 Y94.652 E44.4438
G1 X113.707 Y95.152 E44.46551
G1 X113.37 Y95.608 E44.48721
G1 X112.973 Y96.013 E44.50891
G1 X112.523 Y96.359 E44.53063
G1 X112.029 Y96.637 E44.55233
G1 X111.501 Y96.843 E44.57402
G1 X110.949 Y96.973 E44.59572
G1 X110.305 Y97.025 E44.62045
G1 X73.679 Y97.023 E46.02212
G1 X72.879 Y96.943 E46.05289
G1 X71.913 Y96.747 E46.09061
G1 X71.366 Y96.595 E46.11234
G1 X70.671 Y96.271 E46.14168
G1 X69.825 Y95.773 E46.17925
G1 X69.275 Y95.384 E46.20503
G1 X7.979 Y43.801 E49.27093
G1 X7.572 Y43.406 E49.29264
G1 X7.273 Y43.028 E49.31108
G1 X6.677 Y42.176 E49.35088
G1 X6.385 Y41.69 E49.37257
G1 X6.087 Y40.909 E49.40456
G1 X5.818 Y39.903 E49.44442
G1 X5.71 Y39.346 E49.46613
G1 X5.681 Y38.867 E49.48449
G1 X5.672 Y29.887 E49.82816
G1 X5.711 Y29.321 E49.84987
G1 X5.763 Y29.031 E49.86115
G1 X5.984 Y28.011 E49.90109
G1 X6.143 Y27.466 E49.92281
G1 X6.425 Y26.864 E49.94826
G1 X6.813 Y26.186 E49.97815
G1 X7.128 Y25.715 E49.99984
G1 X7.574 Y25.229 E50.02508
G1 X8.341 Y24.52 E50.06505
G1 X8.783 Y24.166 E50.08672
G1 X8.913 Y24.094 E50.09241
G0 F1620 X9.522 Y23.762
G0 F4320 X9.657 Y24.085
G1 F2400 E50.11897
G1 F1800 X10.617 Y23.684 E50.15879
G1 X11.131 Y23.513 E50.17952
G1 X11.617 Y23.424 E50.19843
G1 X12.267 Y23.35 E50.22346
G1 X12.683 Y23.326 E50.23941
G1 X110.305 Y23.324 E53.9754
G1 X110.845 Y23.364 E53.99612
G1 X111.374 Y23.483 E54.01687
G1 X111.879 Y23.678 E54.03759
G1 X112.35 Y23.946 E54.05833
G1 X112.777 Y24.28 E54.07907
G1 X113.15 Y24.673 E54.09981
G1 X113.461 Y25.117 E54.12055
G1 X113.704 Y25.601 E54.14128
G1 X113.872 Y26.116 E54.16201
G1 X113.963 Y26.65 E54.18274
G1 X113.98 Y26.999 E54.19611
G1 X113.98 Y30.232 E54.31984
G1 X113.94 Y30.772 E54.34056
G1 X113.821 Y31.301 E54.36131
G1 X113.626 Y31.806 E54.38203
G1 X113.358 Y32.278 E54.4028
G1 X113.024 Y32.704 E54.42352
G1 X112.91 Y32.813 E54.42955
G1 X113.14 Y33.054 E54.4423
G1 X113.453 Y33.496 E54.46303
G1 X113.698 Y33.98 E54.48379
G1 X113.869 Y34.494 E54.50452
G1 X113.962 Y35.028 E54.52527
G1 X113.98 Y35.392 E54.53921
G1 X113.98 Y53.768 E55.24246
G1 X113.94 Y54.308 E55.26318
G1 X113.821 Y54.837 E55.28394
G1 X113.645 Y55.292 E55.30261
G1 X113.648 Y55.297 E55.30283
G1 X113.836 Y55.805 E55.32356
G1 X113.947 Y56.335 E55.34428
G1 X113.98 Y56.824 E55.36304
G1 X113.98 Y62.18 E55.56801
G1 X113.94 Y62.72 E55.58873
G1 X113.821 Y63.249 E55.60948
G1 X113.645 Y63.705 E55.62819
G1 X113.65 Y63.714 E55.62858
G1 X113.838 Y64.223 E55.64935
G1 X113.948 Y64.753 E55.67007
G1 X113.98 Y65.236 E55.68859
G1 X113.98 Y70.593 E55.8936
G1 X113.94 Y71.133 E55.91432
G1 X113.821 Y71.662 E55.93508
G1 X113.645 Y72.117 E55.95375
G1 X113.648 Y72.122 E55.95397
G1 X113.836 Y72.63 E55.9747
G1 X113.947 Y73.16 E55.99542
G1 X113.98 Y73.649 E56.01418
G1 X113.98 Y84.862 E56.4433
G1 X113.94 Y85.402 E56.46402
G1 X113.821 Y85.931 E56.48477
G1 X113.626 Y86.436 E56.50549
G1 X113.358 Y86.908 E56.52626
G1 X113.024 Y87.334 E56.54698
G1 X112.91 Y87.443 E56.55301
G1 X113.14 Y87.684 E56.56576
G1 X113.453 Y88.126 E56.58649
G1 X113.698 Y88.61 E56.60725
G1 X113.869 Y89.124 E56.62798
G1 X113.962 Y89.658 E56.64873
G1 X113.98 Y90.022 E56.66267
G1 X113.98 Y93 E56.77664
G1 X113.94 Y93.54 E56.79736
G1 X113.821 Y94.069 E56.81811
G1 X113.626 Y94.574 E56.83883
G1 X113.358 Y95.046 E56.8596
G1 X113.024 Y95.472 E56.88032
G1 X112.631 Y95.845 E56.90105
G1 X112.187 Y96.156 E56.9218
G1 X111.703 Y96.399 E56.94253
G1 X111.188 Y96.567 E56.96326
G1 X110.654 Y96.658 E56.98399
G1 X110.305 Y96.675 E56.99736
G1 X73.679 Y96.673 E58.39904
G1 X72.948 Y96.6 E58.42715
G1 X71.982 Y96.404 E58.46487
G1 X71.461 Y96.257 E58.48559
G1 X70.849 Y95.969 E58.51147
G1 X70.003 Y95.471 E58.54904
G1 X69.501 Y95.116 E58.57257
G1 X8.205 Y43.533 E61.63847
G1 X7.817 Y43.154 E61.65923
G1 X7.56 Y42.828 E61.67512
G1 X6.964 Y41.976 E61.71491
G1 X6.687 Y41.51 E61.73565
G1 X6.425 Y40.818 E61.76397
G1 X6.156 Y39.812 E61.80382
G1 X6.055 Y39.28 E61.82455
G1 X6.031 Y38.867 E61.84038
G1 X6.022 Y29.887 E62.18404
G1 X6.105 Y29.105 E62.21414
G1 X6.326 Y28.085 E62.25408
G1 X6.48 Y27.565 E62.27483
G1 X6.728 Y27.038 E62.29712
G1 X7.116 Y26.36 E62.32702
