;FLAVOR:Marlin
;TIME:1970
;Filament used: 1.98841m
;Layer height: 0.2625
;Generated with Cura_SteamEngine 3.6.0
M140 S60
M105
M190 S60
M104 S210
M105
M109 S210
M82 ;absolute extrusion mode
G21;(metric values)
G90;(absolute positioning)
M82;(set extruder to absolute mode)
M107;(start with the fan off)
G28;(Home the printer)
G92 E0;(Reset the extruder to 0)
G92 E0
G1 F2400 E-2.5
;LAYER_COUNT:24
;LAYER:0
M107
G0 F4320 X32.436 Y31.039 Z0.263
;TYPE:SKIRT
G1 F2400 E0
G1 F1980 X32.539 Y30.936 E0.00557
G1 X33.017 Y30.515 E0.02995
G1 X33.544 Y30.157 E0.05433
G1 X34.111 Y29.868 E0.07869
G1 X34.71 Y29.652 E0.10306
G1 X35.332 Y29.513 E0.12745
G1 X36.128 Y29.45 E0.15801
G1 X44.872 Y29.45 E0.49264
G1 X45.508 Y29.49 E0.51703
G1 X46.133 Y29.609 E0.54137
G1 X46.739 Y29.806 E0.56576
G1 X47.315 Y30.077 E0.59012
G1 X47.853 Y30.418 E0.6145
G1 X48.461 Y30.936 E0.64507
G1 X48.564 Y31.039 E0.65064
G1 X48.985 Y31.517 E0.67502
G1 X49.343 Y32.044 E0.6994
G1 X49.55 Y32.45 E0.71684
G1 X50.872 Y32.45 E0.76743
G1 X51.508 Y32.49 E0.79182
G1 X52.133 Y32.609 E0.81617
G1 X52.739 Y32.806 E0.84056
G1 X53.315 Y33.077 E0.86492
G1 X53.853 Y33.418 E0.88929
G1 X54.461 Y33.936 E0.91986
G1 X54.564 Y34.039 E0.92544
G1 X54.985 Y34.517 E0.94981
G1 X55.343 Y35.044 E0.97419
G1 X55.55 Y35.45 E0.99163
G1 X56.872 Y35.45 E1.04223
G1 X57.508 Y35.49 E1.06661
G1 X58.133 Y35.609 E1.09096
G1 X58.739 Y35.806 E1.11535
G1 X59.315 Y36.077 E1.13971
G1 X59.853 Y36.418 E1.16409
G1 X59.992 Y36.537 E1.17109
G1 X60.017 Y36.515 E1.17236
G1 X60.544 Y36.157 E1.19675
G1 X61.111 Y35.868 E1.2211
G1 X61.71 Y35.652 E1.24547
G1 X62.332 Y35.513 E1.26986
G1 X63.128 Y35.45 E1.30042
G1 X64.452 Y35.45 E1.35109
G1 X64.577 Y35.185 E1.3623
G1 X64.918 Y34.647 E1.38668
G1 X65.436 Y34.039 E1.41725
G1 X65.539 Y33.936 E1.42282
G1 X66.017 Y33.515 E1.4472
G1 X66.544 Y33.157 E1.47158
G1 X67.111 Y32.868 E1.49593
G1 X67.71 Y32.652 E1.5203
G1 X68.332 Y32.513 E1.54469
G1 X69.128 Y32.45 E1.57525
G1 X70.452 Y32.45 E1.62592
G1 X70.577 Y32.185 E1.63713
G1 X70.918 Y31.647 E1.66151
G1 X71.436 Y31.039 E1.69208
G1 X71.539 Y30.936 E1.69765
G1 X72.017 Y30.515 E1.72203
G1 X72.544 Y30.157 E1.74641
G1 X73.111 Y29.868 E1.77077
G1 X73.71 Y29.652 E1.79514
G1 X74.332 Y29.513 E1.81953
G1 X75.128 Y29.45 E1.85008
G1 X83.872 Y29.45 E2.18472
G1 X84.508 Y29.49 E2.2091
G1 X85.133 Y29.609 E2.23345
G1 X85.739 Y29.806 E2.25784
G1 X86.315 Y30.077 E2.2822
G1 X86.853 Y30.418 E2.30658
G1 X87.461 Y30.936 E2.33715
G1 X87.564 Y31.039 E2.34272
G1 X87.985 Y31.517 E2.3671
G1 X88.343 Y32.044 E2.39148
G1 X88.632 Y32.611 E2.41583
G1 X88.848 Y33.21 E2.4402
G1 X88.987 Y33.832 E2.46459
G1 X89.05 Y34.628 E2.49515
G1 X89.05 Y40.372 E2.71497
G1 X89.01 Y41.008 E2.73936
G1 X88.891 Y41.633 E2.76371
G1 X88.694 Y42.239 E2.7881
G1 X88.423 Y42.815 E2.81246
G1 X88.082 Y43.353 E2.83683
G1 X87.564 Y43.961 E2.8674
G1 X87.461 Y44.064 E2.87298
G1 X86.983 Y44.485 E2.89735
G1 X86.456 Y44.843 E2.92173
G1 X86.05 Y45.05 E2.93918
G1 X86.05 Y46.372 E2.98977
G1 X86.01 Y47.008 E3.01416
G1 X85.891 Y47.633 E3.0385
G1 X85.694 Y48.239 E3.06289
G1 X85.423 Y48.815 E3.08725
G1 X85.082 Y49.353 E3.11163
G1 X84.564 Y49.961 E3.1422
G1 X84.461 Y50.064 E3.14777
G1 X83.983 Y50.485 E3.17215
G1 X83.456 Y50.843 E3.19653
G1 X83.05 Y51.05 E3.21397
G1 X83.05 Y52.372 E3.26456
G1 X83.01 Y53.008 E3.28895
G1 X82.891 Y53.633 E3.3133
G1 X82.822 Y53.845 E3.32183
G1 X83.315 Y54.077 E3.34268
G1 X83.853 Y54.418 E3.36706
G1 X84.461 Y54.936 E3.39763
G1 X84.564 Y55.039 E3.4032
G1 X84.985 Y55.517 E3.42758
G1 X85.343 Y56.044 E3.45196
G1 X85.632 Y56.611 E3.47632
G1 X85.697 Y56.792 E3.48368
G1 X85.739 Y56.806 E3.48537
G1 X86.315 Y57.077 E3.50973
G1 X86.853 Y57.418 E3.53411
G1 X87.461 Y57.936 E3.56468
G1 X87.564 Y58.039 E3.57025
G1 X87.985 Y58.517 E3.59463
G1 X88.343 Y59.044 E3.61901
G1 X88.632 Y59.611 E3.64336
G1 X88.697 Y59.792 E3.65072
G1 X88.739 Y59.806 E3.65242
G1 X89.315 Y60.077 E3.67678
G1 X89.853 Y60.418 E3.70116
G1 X90.461 Y60.936 E3.73172
G1 X90.564 Y61.039 E3.7373
G1 X90.985 Y61.517 E3.76167
G1 X91.343 Y62.044 E3.78606
G1 X91.632 Y62.611 E3.81041
G1 X91.848 Y63.21 E3.83478
G1 X91.987 Y63.832 E3.85917
G1 X92.05 Y64.628 E3.88973
G1 X92.05 Y70.372 E4.10955
G1 X92.01 Y71.008 E4.13394
G1 X91.891 Y71.633 E4.15829
G1 X91.694 Y72.239 E4.18267
G1 X91.423 Y72.815 E4.20704
G1 X91.082 Y73.353 E4.23141
G1 X90.564 Y73.961 E4.26198
G1 X90.461 Y74.064 E4.26755
G1 X89.983 Y74.485 E4.29193
G1 X89.456 Y74.843 E4.31631
G1 X88.889 Y75.132 E4.34067
G1 X88.29 Y75.348 E4.36504
G1 X87.668 Y75.487 E4.38943
G1 X86.872 Y75.55 E4.41999
G1 X74.05 Y75.55 E4.91068
G1 X74.05 Y76.372 E4.94214
G1 X74.01 Y77.008 E4.96653
G1 X73.891 Y77.633 E4.99088
G1 X73.694 Y78.239 E5.01526
G1 X73.423 Y78.815 E5.03962
G1 X73.082 Y79.353 E5.064
G1 X72.564 Y79.961 E5.09457
G1 X72.461 Y80.064 E5.10014
G1 X71.983 Y80.485 E5.12452
G1 X71.456 Y80.843 E5.1489
G1 X71.05 Y81.05 E5.16634
G1 X71.05 Y82.372 E5.21694
G1 X71.01 Y83.008 E5.24132
G1 X70.891 Y83.633 E5.26567
G1 X70.694 Y84.239 E5.29006
G1 X70.423 Y84.815 E5.31442
G1 X70.082 Y85.353 E5.3388
G1 X69.564 Y85.961 E5.36936
G1 X69.461 Y86.064 E5.37494
G1 X68.983 Y86.485 E5.39931
G1 X68.456 Y86.843 E5.4237
G1 X67.889 Y87.132 E5.44805
G1 X67.708 Y87.197 E5.45541
G1 X67.694 Y87.239 E5.45711
G1 X67.423 Y87.815 E5.48147
G1 X67.082 Y88.353 E5.50584
G1 X66.564 Y88.961 E5.53641
G1 X66.461 Y89.064 E5.54199
G1 X65.983 Y89.485 E5.56636
G1 X65.456 Y89.843 E5.59074
G1 X64.889 Y90.132 E5.6151
G1 X64.29 Y90.348 E5.63947
G1 X63.668 Y90.487 E5.66386
G1 X62.872 Y90.55 E5.69442
G1 X57.128 Y90.55 E5.91424
G1 X56.492 Y90.51 E5.93863
G1 X55.867 Y90.391 E5.96298
G1 X55.261 Y90.194 E5.98736
G1 X54.685 Y89.923 E6.01172
G1 X54.147 Y89.582 E6.0361
G1 X53.539 Y89.064 E6.06667
G1 X53.436 Y88.961 E6.07224
G1 X53.015 Y88.483 E6.09662
G1 X52.657 Y87.956 E6.121
G1 X52.368 Y87.389 E6.14536
G1 X52.303 Y87.208 E6.15272
G1 X52.261 Y87.194 E6.15441
G1 X51.685 Y86.923 E6.17877
G1 X51.147 Y86.582 E6.20315
G1 X50.539 Y86.064 E6.23372
G1 X50.436 Y85.961 E6.23929
G1 X50.015 Y85.483 E6.26367
G1 X49.657 Y84.956 E6.28805
G1 X49.368 Y84.389 E6.3124
G1 X49.152 Y83.79 E6.33677
G1 X49.013 Y83.168 E6.36116
G1 X48.95 Y82.372 E6.39172
G1 X48.95 Y81.048 E6.44239
G1 X48.685 Y80.923 E6.4536
G1 X48.147 Y80.582 E6.47798
G1 X47.539 Y80.064 E6.50855
G1 X47.436 Y79.961 E6.51412
G1 X47.015 Y79.483 E6.5385
G1 X46.657 Y78.956 E6.56288
G1 X46.368 Y78.389 E6.58724
G1 X46.152 Y77.79 E6.61161
G1 X46.013 Y77.168 E6.636
G1 X45.95 Y76.372 E6.66655
G1 X45.95 Y75.55 E6.69801
G1 X33.128 Y75.55 E7.18871
G1 X32.492 Y75.51 E7.2131
G1 X31.867 Y75.391 E7.23745
G1 X31.261 Y75.194 E7.26183
G1 X30.685 Y74.923 E7.28619
G1 X30.147 Y74.582 E7.31057
G1 X29.539 Y74.064 E7.34114
G1 X29.436 Y73.961 E7.34671
G1 X29.015 Y73.483 E7.37109
G1 X28.657 Y72.956 E7.39547
G1 X28.368 Y72.389 E7.41983
G1 X28.152 Y71.79 E7.44419
G1 X28.013 Y71.168 E7.46859
G1 X27.95 Y70.372 E7.49914
G1 X27.95 Y64.628 E7.71897
G1 X27.99 Y63.992 E7.74335
G1 X28.109 Y63.367 E7.7677
G1 X28.306 Y62.761 E7.79209
G1 X28.577 Y62.185 E7.81645
G1 X28.918 Y61.647 E7.84083
G1 X29.436 Y61.039 E7.87139
G1 X29.539 Y60.936 E7.87697
G1 X30.017 Y60.515 E7.90135
G1 X30.544 Y60.157 E7.92573
G1 X31.111 Y59.868 E7.95008
G1 X31.292 Y59.803 E7.95744
G1 X31.306 Y59.761 E7.95914
G1 X31.577 Y59.185 E7.9835
G1 X31.918 Y58.647 E8.00787
G1 X32.436 Y58.039 E8.03844
G1 X32.539 Y57.936 E8.04402
G1 X33.017 Y57.515 E8.06839
G1 X33.544 Y57.157 E8.09278
G1 X34.111 Y56.868 E8.11713
G1 X34.292 Y56.803 E8.12449
G1 X34.306 Y56.761 E8.12618
G1 X34.577 Y56.185 E8.15055
G1 X34.918 Y55.647 E8.17492
G1 X35.436 Y55.039 E8.20549
G1 X35.539 Y54.936 E8.21107
G1 X36.017 Y54.515 E8.23544
G1 X36.544 Y54.157 E8.25982
G1 X37.111 Y53.868 E8.28418
G1 X37.172 Y53.846 E8.28666
G1 X37.152 Y53.79 E8.28894
G1 X37.013 Y53.168 E8.31333
G1 X36.95 Y52.372 E8.34389
G1 X36.95 Y51.048 E8.39455
G1 X36.685 Y50.923 E8.40577
G1 X36.147 Y50.582 E8.43014
G1 X35.539 Y50.064 E8.46071
G1 X35.436 Y49.961 E8.46629
G1 X35.015 Y49.483 E8.49066
G1 X34.657 Y48.956 E8.51504
G1 X34.368 Y48.389 E8.5394
G1 X34.152 Y47.79 E8.56377
G1 X34.013 Y47.168 E8.58816
G1 X33.95 Y46.372 E8.61872
G1 X33.95 Y45.048 E8.66939
G1 X33.685 Y44.923 E8.6806
G1 X33.147 Y44.582 E8.70498
G1 X32.539 Y44.064 E8.73554
G1 X32.436 Y43.961 E8.74112
G1 X32.015 Y43.483 E8.7655
G1 X31.657 Y42.956 E8.78988
G1 X31.368 Y42.389 E8.81423
G1 X31.152 Y41.79 E8.8386
G1 X31.013 Y41.168 E8.86299
G1 X30.95 Y40.372 E8.89355
G1 X30.95 Y34.628 E9.11337
G1 X30.99 Y33.992 E9.13776
G1 X31.109 Y33.367 E9.16211
G1 X31.306 Y32.761 E9.1865
G1 X31.577 Y32.185 E9.21086
G1 X31.918 Y31.647 E9.23523
G1 X31.986 Y31.567 E9.23925
G0 F1782 X32.436 Y31.039
G0 F4320 X32.684 Y31.287
G1 F2400 E9.26581
G1 F1980 X32.787 Y31.184 E9.27139
G1 X33.249 Y30.779 E9.2949
G1 X33.759 Y30.437 E9.3184
G1 X34.31 Y30.164 E9.34193
G1 X34.891 Y29.965 E9.36543
G1 X35.494 Y29.843 E9.38898
G1 X36.128 Y29.8 E9.4133
G1 X44.872 Y29.8 E9.74793
G1 X45.485 Y29.84 E9.77144
G1 X46.088 Y29.959 E9.79496
G1 X46.67 Y30.156 E9.81848
G1 X47.222 Y30.426 E9.84199
G1 X47.734 Y30.766 E9.86551
G1 X48.213 Y31.184 E9.88984
G1 X48.316 Y31.287 E9.89542
G1 X48.721 Y31.749 E9.91893
G1 X49.063 Y32.259 E9.94243
G1 X49.331 Y32.8 E9.96553
G1 X50.872 Y32.8 E10.02451
G1 X51.485 Y32.84 E10.04802
G1 X52.088 Y32.959 E10.07154
G1 X52.67 Y33.156 E10.09505
G1 X53.222 Y33.426 E10.11857
G1 X53.734 Y33.766 E10.14209
G1 X54.213 Y34.184 E10.16642
G1 X54.316 Y34.287 E10.172
G1 X54.721 Y34.749 E10.19551
G1 X55.063 Y35.259 E10.21901
G1 X55.331 Y35.8 E10.24211
G1 X56.872 Y35.8 E10.30109
G1 X57.485 Y35.84 E10.3246
G1 X58.088 Y35.959 E10.34812
G1 X58.67 Y36.156 E10.37163
G1 X59.222 Y36.426 E10.39515
G1 X59.734 Y36.766 E10.41867
G1 X60 Y36.998 E10.43218
G1 X60.249 Y36.779 E10.44487
G1 X60.759 Y36.437 E10.46837
G1 X61.31 Y36.164 E10.4919
G1 X61.891 Y35.965 E10.51541
G1 X62.494 Y35.843 E10.53895
G1 X63.128 Y35.8 E10.56327
G1 X64.671 Y35.8 E10.62232
G1 X64.926 Y35.278 E10.64455
G1 X65.266 Y34.766 E10.66807
G1 X65.684 Y34.287 E10.6924
G1 X65.787 Y34.184 E10.69798
G1 X66.249 Y33.779 E10.72149
G1 X66.759 Y33.437 E10.74499
G1 X67.31 Y33.164 E10.76852
G1 X67.891 Y32.965 E10.79203
G1 X68.494 Y32.843 E10.81557
G1 X69.128 Y32.8 E10.83989
G1 X70.671 Y32.8 E10.89894
G1 X70.926 Y32.278 E10.92117
G1 X71.266 Y31.766 E10.94469
G1 X71.684 Y31.287 E10.96902
G1 X71.787 Y31.184 E10.9746
G1 X72.249 Y30.779 E10.99811
G1 X72.759 Y30.437 E11.02161
G1 X73.31 Y30.164 E11.04514
G1 X73.891 Y29.965 E11.06865
G1 X74.494 Y29.843 E11.09219
G1 X75.128 Y29.8 E11.11651
G1 X83.872 Y29.8 E11.45114
G1 X84.485 Y29.84 E11.47465
G1 X85.088 Y29.959 E11.49817
G1 X85.67 Y30.156 E11.52169
G1 X86.222 Y30.426 E11.5452
G1 X86.734 Y30.766 E11.56873
G1 X87.213 Y31.184 E11.59306
G1 X87.316 Y31.287 E11.59863
G1 X87.721 Y31.749 E11.62214
G1 X88.063 Y32.259 E11.64564
G1 X88.336 Y32.81 E11.66918
G1 X88.535 Y33.391 E11.69268
G1 X88.657 Y33.994 E11.71622
G1 X88.7 Y34.628 E11.74054
G1 X88.7 Y40.372 E11.96036
G1 X88.66 Y40.985 E11.98387
G1 X88.541 Y41.588 E12.0074
G1 X88.344 Y42.17 E12.03091
G1 X88.074 Y42.722 E12.05443
G1 X87.734 Y43.234 E12.07795
G1 X87.316 Y43.713 E12.10228
G1 X87.213 Y43.816 E12.10785
G1 X86.751 Y44.221 E12.13136
G1 X86.241 Y44.563 E12.15486
G1 X85.7 Y44.831 E12.17797
G1 X85.7 Y46.372 E12.23694
G1 X85.66 Y46.985 E12.26045
G1 X85.541 Y47.588 E12.28397
G1 X85.344 Y48.17 E12.30749
G1 X85.074 Y48.722 E12.33101
G1 X84.734 Y49.234 E12.35453
G1 X84.316 Y49.713 E12.37886
G1 X84.213 Y49.816 E12.38443
G1 X83.751 Y50.221 E12.40794
G1 X83.241 Y50.563 E12.43144
G1 X82.7 Y50.831 E12.45455
G1 X82.7 Y52.372 E12.51352
G1 X82.66 Y52.985 E12.53703
G1 X82.541 Y53.588 E12.56055
G1 X82.401 Y54.001 E12.57724
G1 X82.426 Y54.073 E12.58016
G1 X82.67 Y54.156 E12.59002
G1 X83.222 Y54.426 E12.61354
G1 X83.734 Y54.766 E12.63706
G1 X84.213 Y55.184 E12.66139
G1 X84.316 Y55.287 E12.66696
G1 X84.721 Y55.749 E12.69048
G1 X85.063 Y56.259 E12.71398
G1 X85.336 Y56.81 E12.73751
G1 X85.426 Y57.073 E12.74815
G1 X85.67 Y57.156 E12.75801
G1 X86.222 Y57.426 E12.78153
G1 X86.734 Y57.766 E12.80505
G1 X87.213 Y58.184 E12.82938
G1 X87.316 Y58.287 E12.83495
G1 X87.721 Y58.749 E12.85847
G1 X88.063 Y59.259 E12.88197
G1 X88.336 Y59.81 E12.9055
G1 X88.426 Y60.073 E12.91614
G1 X88.67 Y60.156 E12.926
G1 X89.222 Y60.426 E12.94952
G1 X89.734 Y60.766 E12.97304
G1 X90.213 Y61.184 E12.99737
G1 X90.316 Y61.287 E13.00294
G1 X90.721 Y61.749 E13.02645
G1 X91.063 Y62.259 E13.04995
G1 X91.336 Y62.81 E13.07349
G1 X91.535 Y63.391 E13.09699
G1 X91.657 Y63.994 E13.12053
G1 X91.7 Y64.628 E13.14485
G1 X91.7 Y70.372 E13.36468
G1 X91.66 Y70.985 E13.38819
G1 X91.541 Y71.588 E13.41171
G1 X91.344 Y72.17 E13.43522
G1 X91.074 Y72.722 E13.45874
G1 X90.734 Y73.234 E13.48226
G1 X90.316 Y73.713 E13.50659
G1 X90.213 Y73.816 E13.51216
G1 X89.751 Y74.221 E13.53568
G1 X89.241 Y74.563 E13.55918
G1 X88.69 Y74.836 E13.58271
G1 X88.109 Y75.035 E13.60621
G1 X87.506 Y75.157 E13.62976
G1 X86.872 Y75.2 E13.65408
G1 X73.7 Y75.2 E14.15817
G1 X73.7 Y76.372 E14.20302
G1 X73.66 Y76.985 E14.22653
G1 X73.541 Y77.588 E14.25005
G1 X73.344 Y78.17 E14.27357
G1 X73.074 Y78.722 E14.29708
G1 X72.734 Y79.234 E14.3206
G1 X72.316 Y79.713 E14.34493
G1 X72.213 Y79.816 E14.35051
G1 X71.751 Y80.221 E14.37402
G1 X71.241 Y80.563 E14.39752
G1 X70.7 Y80.831 E14.42062
G1 X70.7 Y82.372 E14.4796
G1 X70.66 Y82.985 E14.50311
G1 X70.541 Y83.588 E14.52663
G1 X70.344 Y84.17 E14.55014
G1 X70.074 Y84.722 E14.57366
G1 X69.734 Y85.234 E14.59718
G1 X69.316 Y85.713 E14.62151
G1 X69.213 Y85.816 E14.62709
G1 X68.751 Y86.221 E14.6506
G1 X68.241 Y86.563 E14.6741
G1 X67.69 Y86.836 E14.69763
G1 X67.427 Y86.926 E14.70827
G1 X67.344 Y87.17 E14.71813
G1 X67.074 Y87.722 E14.74165
G1 X66.734 Y88.234 E14.76517
G1 X66.316 Y88.713 E14.7895
G1 X66.213 Y88.816 E14.79508
G1 X65.751 Y89.221 E14.81859
G1 X65.241 Y89.563 E14.84209
G1 X64.69 Y89.836 E14.86562
G1 X64.109 Y90.035 E14.88912
G1 X63.506 Y90.157 E14.91267
G1 X62.872 Y90.2 E14.93699
G1 X57.128 Y90.2 E15.15681
G1 X56.515 Y90.16 E15.18032
G1 X55.912 Y90.041 E15.20384
G1 X55.33 Y89.844 E15.22736
G1 X54.778 Y89.574 E15.25087
G1 X54.266 Y89.234 E15.27439
G1 X53.787 Y88.816 E15.29872
G1 X53.684 Y88.713 E15.3043
G1 X53.279 Y88.251 E15.32781
G1 X52.937 Y87.741 E15.35131
G1 X52.664 Y87.19 E15.37484
G1 X52.574 Y86.927 E15.38548
G1 X52.33 Y86.844 E15.39534
G1 X51.778 Y86.574 E15.41886
G1 X51.266 Y86.234 E15.44238
G1 X50.787 Y85.816 E15.46671
G1 X50.684 Y85.713 E15.47229
G1 X50.279 Y85.251 E15.4958
G1 X49.937 Y84.741 E15.5193
G1 X49.664 Y84.19 E15.54283
G1 X49.465 Y83.609 E15.56633
G1 X49.343 Y83.006 E15.58988
G1 X49.3 Y82.372 E15.6142
G1 X49.3 Y80.829 E15.67325
G1 X48.778 Y80.574 E15.69548
G1 X48.266 Y80.234 E15.719
G1 X47.787 Y79.816 E15.74333
G1 X47.684 Y79.713 E15.74891
G1 X47.279 Y79.251 E15.77242
G1 X46.937 Y78.741 E15.79592
G1 X46.664 Y78.19 E15.81945
G1 X46.465 Y77.609 E15.84295
G1 X46.343 Y77.006 E15.8665
G1 X46.3 Y76.372 E15.89082
G1 X46.3 Y75.2 E15.93567
G1 X33.128 Y75.2 E16.43976
G1 X32.515 Y75.16 E16.46327
G1 X31.912 Y75.041 E16.48679
G1 X31.33 Y74.844 E16.51031
G1 X30.778 Y74.574 E16.53382
G1 X30.266 Y74.234 E16.55735
G1 X29.787 Y73.816 E16.58168
G1 X29.684 Y73.713 E16.58725
G1 X29.279 Y73.251 E16.61076
G1 X28.937 Y72.741 E16.63426
G1 X28.664 Y72.19 E16.6578
G1 X28.465 Y71.609 E16.6813
G1 X28.343 Y71.006 E16.70484
G1 X28.3 Y70.372 E16.72916
G1 X28.3 Y64.628 E16.94898
G1 X28.34 Y64.015 E16.97249
G1 X28.459 Y63.412 E16.99602
G1 X28.656 Y62.83 E17.01953
G1 X28.926 Y62.278 E17.04305
G1 X29.266 Y61.766 E17.06657
G1 X29.684 Y61.287 E17.0909
G1 X29.787 Y61.184 E17.09647
G1 X30.249 Y60.779 E17.11998
G1 X30.759 Y60.437 E17.14348
G1 X31.31 Y60.164 E17.16702
G1 X31.573 Y60.074 E17.17765
G1 X31.656 Y59.83 E17.18752
G1 X31.926 Y59.278 E17.21103
G1 X32.266 Y58.766 E17.23456
G1 X32.684 Y58.287 E17.25889
G1 X32.787 Y58.184 E17.26446
G1 X33.249 Y57.779 E17.28797
G1 X33.759 Y57.437 E17.31147
G1 X34.31 Y57.164 E17.33501
G1 X34.573 Y57.074 E17.34564
G1 X34.656 Y56.83 E17.35551
G1 X34.926 Y56.278 E17.37902
G1 X35.266 Y55.766 E17.40254
G1 X35.684 Y55.287 E17.42687
G1 X35.787 Y55.184 E17.43245
G1 X36.249 Y54.779 E17.45596
G1 X36.759 Y54.437 E17.47946
