;FLAVOR:Marlin
;TIME:3052
;Filament used: 1.79138m
;Layer height: 0.175
;Generated with Cura_SteamEngine 3.6.0
M140 S65
M105
M190 S65
M104 S205
M105
M109 S205
M82 ;absolute extrusion mode
G21;(metric values)
G90;(absolute positioning)
M82;(set extruder to absolute mode)
M107;(start with the fan off)
G28;(Home the printer)
G92 E0;(Reset the extruder to 0)
G0 Z5 E5 F500;(Move up and prime the nozzle)
G0 X-1 Z0;(Move outside the printable area)
G1 Y60 E8 F500;(Draw a priming/wiping line to the rear)
G1 X-1;(Move a little closer to the print area)
G1 Y10 E16 F500;(draw more priming/wiping)
G1 E15 F250;(Small retract)
G92 E0;(Zero the extruder)
G92 E0
G1 F2400 E-2.5
;LAYER_COUNT:12
;LAYER:0
M107
G0 F4320 X35.978 Y25.293 Z0.263
;TYPE:SKIRT
G1 F2400 E0
G1 F1800 X36.384 Y24.802 E0.02438
G1 X36.848 Y24.366 E0.04875
G1 X37.548 Y23.879 E0.08138
G1 X47.463 Y18.156 E0.5195
G1 X48.033 Y17.873 E0.54386
G1 X48.635 Y17.663 E0.56826
G1 X49.258 Y17.531 E0.59263
G1 X49.892 Y17.477 E0.61698
G1 X50.529 Y17.504 E0.64138
G1 X51.157 Y17.61 E0.66575
G1 X51.767 Y17.793 E0.69013
G1 X52.537 Y18.156 E0.7227
G1 X61 Y23.041 E1.09667
G1 X69.463 Y18.156 E1.47063
G1 X70.033 Y17.873 E1.49498
G1 X70.635 Y17.663 E1.51938
G1 X71.258 Y17.531 E1.54375
G1 X71.892 Y17.477 E1.5681
G1 X72.529 Y17.504 E1.5925
G1 X73.157 Y17.61 E1.61688
G1 X73.767 Y17.793 E1.64125
G1 X74.537 Y18.156 E1.67383
G1 X84.452 Y23.879 E2.11195
G1 X84.983 Y24.231 E2.13633
G1 X85.465 Y24.647 E2.16069
G1 X85.891 Y25.12 E2.18506
G1 X86.255 Y25.643 E2.20944
G1 X86.55 Y26.207 E2.2338
G1 X86.772 Y26.804 E2.25818
G1 X86.918 Y27.424 E2.28255
G1 X86.99 Y28.274 E2.3152
G1 X86.99 Y39.726 E2.75347
G1 X86.95 Y40.362 E2.77785
G1 X86.831 Y40.987 E2.8022
G1 X86.634 Y41.593 E2.82659
G1 X86.363 Y42.169 E2.85095
G1 X86.022 Y42.707 E2.87533
G1 X85.616 Y43.198 E2.89971
G1 X85.152 Y43.634 E2.92407
G1 X84.456 Y44.118 E2.95652
G1 X84.537 Y44.156 E2.95994
G1 X94.452 Y49.879 E3.39806
G1 X94.983 Y50.231 E3.42244
G1 X95.465 Y50.647 E3.44681
G1 X95.891 Y51.12 E3.47117
G1 X96.255 Y51.643 E3.49556
G1 X96.55 Y52.207 E3.51991
G1 X96.772 Y52.804 E3.54429
G1 X96.918 Y53.424 E3.56867
G1 X96.99 Y54.274 E3.60131
G1 X96.99 Y65.726 E4.03958
G1 X96.95 Y66.362 E4.06397
G1 X96.831 Y66.987 E4.08832
G1 X96.634 Y67.593 E4.1127
G1 X96.363 Y68.169 E4.13706
G1 X96.022 Y68.707 E4.16144
G1 X95.616 Y69.198 E4.18582
G1 X95.152 Y69.634 E4.21019
G1 X94.452 Y70.121 E4.24282
G1 X85.464 Y75.309 E4.63998
G1 X86.452 Y75.879 E4.68363
G1 X86.983 Y76.231 E4.70802
G1 X87.465 Y76.647 E4.73238
G1 X87.891 Y77.12 E4.75674
G1 X88.255 Y77.643 E4.78113
G1 X88.55 Y78.207 E4.80549
G1 X88.772 Y78.804 E4.82986
G1 X88.918 Y79.424 E4.85424
G1 X88.99 Y80.274 E4.88688
G1 X88.99 Y91.726 E5.32515
G1 X88.95 Y92.362 E5.34954
G1 X88.831 Y92.987 E5.37389
G1 X88.634 Y93.593 E5.39827
G1 X88.363 Y94.169 E5.42264
G1 X88.022 Y94.707 E5.44701
G1 X87.616 Y95.198 E5.47139
G1 X87.152 Y95.634 E5.49576
G1 X86.452 Y96.121 E5.5284
G1 X76.537 Y101.844 E5.96652
G1 X75.967 Y102.127 E5.99087
G1 X75.365 Y102.337 E6.01527
G1 X74.742 Y102.469 E6.03964
G1 X74.108 Y102.523 E6.06399
G1 X73.471 Y102.496 E6.08839
G1 X72.843 Y102.39 E6.11277
G1 X72.233 Y102.207 E6.13714
G1 X71.463 Y101.844 E6.16972
G1 X63 Y96.959 E6.54368
G1 X54.537 Y101.844 E6.91764
G1 X53.967 Y102.127 E6.94199
G1 X53.365 Y102.337 E6.96639
G1 X52.742 Y102.469 E6.99077
G1 X52.108 Y102.523 E7.01512
G1 X51.471 Y102.496 E7.03952
G1 X50.843 Y102.39 E7.06389
G1 X50.233 Y102.207 E7.08826
G1 X49.463 Y101.844 E7.12084
G1 X39.548 Y96.121 E7.55896
G1 X39.017 Y95.769 E7.58334
G1 X38.535 Y95.353 E7.60771
G1 X38.109 Y94.88 E7.63207
G1 X37.745 Y94.357 E7.65645
G1 X37.45 Y93.793 E7.68081
G1 X37.228 Y93.196 E7.70519
G1 X37.082 Y92.576 E7.72956
G1 X37.01 Y91.726 E7.76221
G1 X37.01 Y80.274 E8.20048
G1 X37.05 Y79.638 E8.22487
G1 X37.169 Y79.013 E8.24921
G1 X37.366 Y78.407 E8.2736
G1 X37.637 Y77.831 E8.29796
G1 X37.978 Y77.293 E8.32234
G1 X38.384 Y76.802 E8.34672
G1 X38.738 Y76.469 E8.36532
G1 X38.108 Y76.523 E8.38952
G1 X37.471 Y76.496 E8.41392
G1 X36.843 Y76.39 E8.43829
G1 X36.233 Y76.207 E8.46266
G1 X35.463 Y75.844 E8.49524
G1 X25.548 Y70.121 E8.93336
G1 X25.017 Y69.769 E8.95774
G1 X24.535 Y69.353 E8.98211
G1 X24.109 Y68.88 E9.00647
G1 X23.745 Y68.357 E9.03086
G1 X23.45 Y67.793 E9.05521
G1 X23.228 Y67.196 E9.07959
G1 X23.082 Y66.576 E9.10397
G1 X23.01 Y65.726 E9.13661
G1 X23.01 Y54.274 E9.57488
G1 X23.05 Y53.638 E9.59927
G1 X23.169 Y53.013 E9.62362
G1 X23.366 Y52.407 E9.648
G1 X23.637 Y51.831 E9.67236
G1 X23.978 Y51.293 E9.69674
G1 X24.384 Y50.802 E9.72112
G1 X24.848 Y50.366 E9.74549
G1 X25.548 Y49.879 E9.77812
G1 X35.463 Y44.156 E10.21624
G1 X36.033 Y43.873 E10.2406
G1 X36.635 Y43.663 E10.265
G1 X36.843 Y43.619 E10.27313
G1 X36.535 Y43.353 E10.28871
G1 X36.109 Y42.88 E10.31307
G1 X35.745 Y42.357 E10.33746
G1 X35.45 Y41.793 E10.36181
G1 X35.228 Y41.196 E10.38619
G1 X35.082 Y40.576 E10.41057
G1 X35.01 Y39.726 E10.44321
G1 X35.01 Y28.274 E10.88148
G1 X35.05 Y27.638 E10.90587
G1 X35.169 Y27.013 E10.93022
G1 X35.366 Y26.407 E10.9546
G1 X35.613 Y25.883 E10.97677
G0 F1620 X35.637 Y25.831
G0 X35.978 Y25.293
G0 F4320 X36.326 Y25.412
G1 F2400 E11.00333
G1 F1800 X36.729 Y24.948 E11.02685
G1 X37.189 Y24.541 E11.05036
G1 X37.723 Y24.182 E11.07498
G1 X47.638 Y18.459 E11.5131
G1 X48.189 Y18.187 E11.53662
G1 X48.771 Y17.989 E11.56014
G1 X49.373 Y17.868 E11.58364
G1 X49.986 Y17.826 E11.60716
G1 X50.6 Y17.864 E11.6307
G1 X51.203 Y17.982 E11.65422
G1 X51.786 Y18.176 E11.67773
G1 X52.362 Y18.459 E11.70229
G1 X61 Y23.445 E12.08398
G1 X69.638 Y18.459 E12.46568
G1 X70.189 Y18.187 E12.48919
G1 X70.771 Y17.989 E12.51272
G1 X71.373 Y17.868 E12.53622
G1 X71.986 Y17.826 E12.55973
G1 X72.6 Y17.864 E12.58328
G1 X73.203 Y17.982 E12.60679
G1 X73.786 Y18.176 E12.63031
G1 X74.362 Y18.459 E12.65487
G1 X84.277 Y24.182 E13.09299
G1 X84.788 Y24.523 E13.1165
G1 X85.251 Y24.928 E13.14004
G1 X85.657 Y25.389 E13.16355
G1 X86 Y25.899 E13.18707
G1 X86.273 Y26.449 E13.21057
G1 X86.473 Y27.03 E13.23408
G1 X86.596 Y27.632 E13.2576
G1 X86.64 Y28.274 E13.28222
G1 X86.64 Y39.726 E13.72049
G1 X86.6 Y40.339 E13.744
G1 X86.481 Y40.942 E13.76752
G1 X86.284 Y41.524 E13.79104
G1 X86.014 Y42.076 E13.81455
G1 X85.674 Y42.588 E13.83807
G1 X85.271 Y43.052 E13.86159
G1 X84.811 Y43.459 E13.8851
G1 X84.277 Y43.818 E13.90972
G1 X83.704 Y44.149 E13.93505
G1 X83.786 Y44.176 E13.93835
G1 X84.362 Y44.459 E13.96291
G1 X94.277 Y50.182 E14.40103
G1 X94.788 Y50.523 E14.42454
G1 X95.251 Y50.928 E14.44808
G1 X95.657 Y51.389 E14.47159
G1 X96 Y51.899 E14.49511
G1 X96.273 Y52.449 E14.51861
G1 X96.473 Y53.03 E14.54213
G1 X96.596 Y53.632 E14.56564
G1 X96.64 Y54.274 E14.59027
G1 X96.64 Y65.726 E15.02854
G1 X96.6 Y66.339 E15.05205
G1 X96.481 Y66.942 E15.07557
G1 X96.284 Y67.524 E15.09908
G1 X96.014 Y68.076 E15.1226
G1 X95.674 Y68.588 E15.14612
G1 X95.271 Y69.052 E15.16964
G1 X94.811 Y69.459 E15.19315
G1 X94.277 Y69.818 E15.21777
G1 X84.764 Y75.309 E15.63813
G1 X86.277 Y76.182 E15.70498
G1 X86.788 Y76.523 E15.72849
G1 X87.251 Y76.928 E15.75203
G1 X87.657 Y77.389 E15.77554
G1 X88 Y77.899 E15.79906
G1 X88.273 Y78.449 E15.82256
G1 X88.473 Y79.03 E15.84607
G1 X88.596 Y79.632 E15.86959
G1 X88.64 Y80.274 E15.89422
G1 X88.64 Y91.726 E16.33248
G1 X88.6 Y92.339 E16.35599
G1 X88.481 Y92.942 E16.37951
G1 X88.284 Y93.524 E16.40303
G1 X88.014 Y94.076 E16.42655
G1 X87.674 Y94.588 E16.45007
G1 X87.271 Y95.052 E16.47359
G1 X86.811 Y95.459 E16.49709
G1 X86.277 Y95.818 E16.52172
G1 X76.362 Y101.541 E16.95984
G1 X75.811 Y101.813 E16.98335
G1 X75.229 Y102.011 E17.00688
G1 X74.627 Y102.132 E17.03038
G1 X74.014 Y102.174 E17.05389
G1 X73.4 Y102.136 E17.07744
G1 X72.797 Y102.018 E17.10095
G1 X72.214 Y101.824 E17.12446
G1 X71.638 Y101.541 E17.14903
G1 X63 Y96.555 E17.53072
G1 X54.362 Y101.541 E17.91241
G1 X53.811 Y101.813 E17.93593
G1 X53.229 Y102.011 E17.95946
G1 X52.627 Y102.132 E17.98296
G1 X52.014 Y102.174 E18.00647
G1 X51.4 Y102.136 E18.03001
G1 X50.797 Y102.018 E18.05353
G1 X50.214 Y101.824 E18.07704
G1 X49.638 Y101.541 E18.1016
G1 X39.723 Y95.818 E18.53972
G1 X39.212 Y95.477 E18.56323
G1 X38.749 Y95.072 E18.58677
G1 X38.343 Y94.611 E18.61028
G1 X38 Y94.101 E18.6338
G1 X37.727 Y93.551 E18.6573
G1 X37.527 Y92.97 E18.68082
G1 X37.404 Y92.368 E18.70433
G1 X37.36 Y91.726 E18.72896
G1 X37.36 Y80.274 E19.16723
G1 X37.4 Y79.661 E19.19074
G1 X37.519 Y79.058 E19.21426
G1 X37.716 Y78.476 E19.23777
G1 X37.986 Y77.924 E19.26129
G1 X38.326 Y77.412 E19.28481
G1 X38.729 Y76.948 E19.30833
G1 X39.189 Y76.541 E19.33184
G1 X39.723 Y76.182 E19.35646
G1 X49.236 Y70.691 E19.77682
G1 X49 Y70.555 E19.78724
G1 X40.362 Y75.541 E20.16894
G1 X39.811 Y75.813 E20.19245
G1 X39.229 Y76.011 E20.21598
G1 X38.627 Y76.132 E20.23948
G1 X38.014 Y76.174 E20.26299
G1 X37.4 Y76.136 E20.28653
G1 X36.797 Y76.018 E20.31005
G1 X36.214 Y75.824 E20.33356
G1 X35.638 Y75.541 E20.35812
G1 X25.723 Y69.818 E20.79624
G1 X25.212 Y69.477 E20.81975
G1 X24.749 Y69.072 E20.8433
G1 X24.343 Y68.611 E20.8668
G1 X24 Y68.101 E20.89033
G1 X23.727 Y67.551 E20.91382
G1 X23.527 Y66.97 E20.93734
G1 X23.404 Y66.368 E20.96085
G1 X23.36 Y65.726 E20.98548
G1 X23.36 Y54.274 E21.42375
G1 X23.4 Y53.661 E21.44726
G1 X23.519 Y53.058 E21.47078
G1 X23.716 Y52.476 E21.49429
G1 X23.986 Y51.924 E21.51781
G1 X24.326 Y51.412 E21.54133
G1 X24.729 Y50.948 E21.56485
G1 X25.189 Y50.541 E21.58836
G1 X25.723 Y50.182 E21.61298
G1 X35.638 Y44.459 E22.0511
G1 X36.189 Y44.187 E22.07462
G1 X36.771 Y43.989 E22.09814
G1 X37.373 Y43.868 E22.12164
G1 X37.763 Y43.841 E22.13661
G1 X37.723 Y43.818 E22.13837
G1 X37.212 Y43.477 E22.16188
G1 X36.749 Y43.072 E22.18542
G1 X36.343 Y42.611 E22.20893
G1 X36 Y42.101 E22.23245
G1 X35.727 Y41.551 E22.25595
G1 X35.527 Y40.97 E22.27947
G1 X35.404 Y40.368 E22.30298
G1 X35.36 Y39.726 E22.32761
G1 X35.36 Y28.274 E22.76588
G1 X35.4 Y27.661 E22.78938
G1 X35.519 Y27.058 E22.81291
G1 X35.716 Y26.476 E22.83642
G1 X35.951 Y25.995 E22.85691
G0 F1620 X35.986 Y25.924
G0 X36.326 Y25.412
G0 F4320 X36.673 Y25.536
G1 F2400 E22.88347
G1 F1800 X37.073 Y25.101 E22.90608
G1 X37.529 Y24.724 E22.92873
G1 X37.898 Y24.485 E22.94555
G1 X47.813 Y18.762 E23.38367
G1 X48.344 Y18.502 E23.4063
G1 X48.905 Y18.315 E23.42893
G1 X49.486 Y18.206 E23.45155
G1 X50.077 Y18.177 E23.4742
G1 X50.666 Y18.227 E23.49682
G1 X51.243 Y18.356 E23.51945
G1 X51.797 Y18.562 E23.54206
G1 X52.187 Y18.762 E23.55884
G1 X61 Y23.849 E23.94826
G1 X69.813 Y18.762 E24.33769
G1 X70.344 Y18.502 E24.36032
G1 X70.905 Y18.315 E24.38295
G1 X71.486 Y18.206 E24.40557
G1 X72.077 Y18.177 E24.42822
G1 X72.666 Y18.227 E24.45084
G1 X73.243 Y18.356 E24.47347
G1 X73.797 Y18.562 E24.49609
G1 X74.187 Y18.762 E24.51286
G1 X84.102 Y24.485 E24.95098
G1 X84.593 Y24.814 E24.9736
G1 X85.035 Y25.207 E24.99623
G1 X85.42 Y25.656 E25.01887
G1 X85.741 Y26.152 E25.04148
G1 X85.992 Y26.688 E25.06413
G1 X86.169 Y27.252 E25.08675
G1 X86.268 Y27.835 E25.10938
G1 X86.29 Y28.274 E25.1262
G1 X86.29 Y39.726 E25.56447
G1 X86.25 Y40.316 E25.5871
G1 X86.131 Y40.895 E25.60972
G1 X85.935 Y41.453 E25.63236
G1 X85.665 Y41.979 E25.65498
G1 X85.327 Y42.464 E25.67761
G1 X84.927 Y42.899 E25.70022
G1 X84.471 Y43.276 E25.72287
G1 X84.102 Y43.515 E25.73969
G1 X82.812 Y44.26 E25.7967
G1 X83.243 Y44.356 E25.8136
G1 X83.797 Y44.562 E25.83622
G1 X84.187 Y44.762 E25.85299
G1 X94.102 Y50.485 E26.29111
G1 X94.593 Y50.814 E26.31373
G1 X95.035 Y51.207 E26.33637
G1 X95.42 Y51.656 E26.359
G1 X95.741 Y52.152 E26.38161
G1 X95.992 Y52.688 E26.40426
G1 X96.169 Y53.252 E26.42688
G1 X96.268 Y53.835 E26.44951
G1 X96.29 Y54.274 E26.46634
G1 X96.29 Y65.726 E26.9046
G1 X96.25 Y66.316 E26.92723
G1 X96.131 Y66.895 E26.94986
G1 X95.935 Y67.453 E26.97249
G1 X95.665 Y67.979 E26.99512
G1 X95.327 Y68.464 E27.01774
G1 X94.927 Y68.899 E27.04036
G1 X94.471 Y69.276 E27.063
G1 X94.102 Y69.515 E27.07982
G1 X84.187 Y75.238 E27.51794
G1 X84.054 Y75.303 E27.52361
G1 X86.102 Y76.485 E27.6141
G1 X86.593 Y76.814 E27.63672
G1 X87.035 Y77.207 E27.65936
G1 X87.42 Y77.656 E27.68199
G1 X87.741 Y78.152 E27.7046
G1 X87.992 Y78.688 E27.72725
G1 X88.169 Y79.252 E27.74987
G1 X88.268 Y79.835 E27.7725
G1 X88.29 Y80.274 E27.78933
G1 X88.29 Y91.726 E28.22759
G1 X88.25 Y92.316 E28.25022
G1 X88.131 Y92.895 E28.27285
G1 X87.935 Y93.453 E28.29548
G1 X87.665 Y93.979 E28.31811
G1 X87.327 Y94.464 E28.34073
G1 X86.927 Y94.899 E28.36335
G1 X86.471 Y95.276 E28.38599
G1 X86.102 Y95.515 E28.40281
G1 X76.187 Y101.238 E28.84093
G1 X75.656 Y101.498 E28.86356
G1 X75.095 Y101.685 E28.88619
G1 X74.514 Y101.794 E28.90881
G1 X73.923 Y101.823 E28.93146
G1 X73.334 Y101.773 E28.95408
G1 X72.757 Y101.644 E28.97671
G1 X72.203 Y101.438 E28.99933
G1 X71.813 Y101.238 E29.0161
G1 X63 Y96.151 E29.40553
G1 X54.187 Y101.238 E29.79495
G1 X53.656 Y101.498 E29.81758
G1 X53.095 Y101.685 E29.84021
G1 X52.514 Y101.794 E29.86283
G1 X51.923 Y101.823 E29.88548
G1 X51.334 Y101.773 E29.9081
G1 X50.757 Y101.644 E29.93073
G1 X50.203 Y101.438 E29.95335
G1 X49.813 Y101.238 E29.97012
G1 X39.898 Y95.515 E30.40824
G1 X39.407 Y95.186 E30.43086
G1 X38.965 Y94.793 E30.45349
G1 X38.58 Y94.344 E30.47613
G1 X38.259 Y93.848 E30.49874
G1 X38.008 Y93.312 E30.52139
G1 X37.831 Y92.748 E30.54401
G1 X37.732 Y92.165 E30.56664
G1 X37.71 Y91.726 E30.58347
G1 X37.71 Y80.274 E31.02173
G1 X37.75 Y79.684 E31.04436
G1 X37.869 Y79.105 E31.06699
G1 X38.065 Y78.547 E31.08962
G1 X38.335 Y78.021 E31.11225
G1 X38.673 Y77.536 E31.13487
G1 X39.073 Y77.101 E31.15749
G1 X39.529 Y76.724 E31.18013
G1 X39.898 Y76.485 E31.19695
G1 X49.813 Y70.762 E31.63507
G1 X49.946 Y70.697 E31.64074
G1 X49 Y70.151 E31.68254
G1 X40.187 Y75.238 E32.07197
G1 X39.656 Y75.498 E32.09459
G1 X39.095 Y75.685 E32.11722
G1 X38.514 Y75.794 E32.13985
G1 X37.923 Y75.823 E32.16249
G1 X37.334 Y75.773 E32.18511
G1 X36.757 Y75.644 E32.20774
G1 X36.203 Y75.438 E32.23036
G1 X35.813 Y75.238 E32.24713
G1 X25.898 Y69.515 E32.68525
G1 X25.407 Y69.186 E32.70787
G1 X24.965 Y68.793 E32.73051
G1 X24.58 Y68.344 E32.75314
G1 X24.259 Y67.848 E32.77575
G1 X24.008 Y67.312 E32.7984
G1 X23.831 Y66.748 E32.82102
G1 X23.732 Y66.165 E32.84365
G1 X23.71 Y65.726 E32.86048
G1 X23.71 Y54.274 E33.29874
G1 X23.75 Y53.684 E33.32137
G1 X23.869 Y53.105 E33.344
G1 X24.065 Y52.547 E33.36663
G1 X24.335 Y52.021 E33.38926
G1 X24.673 Y51.536 E33.41188
G1 X25.073 Y51.101 E33.4345
G1 X25.529 Y50.724 E33.45714
G1 X25.898 Y50.485 E33.47396
G1 X35.813 Y44.762 E33.91208
G1 X36.344 Y44.502 E33.93471
G1 X36.905 Y44.315 E33.95734
G1 X37.486 Y44.206 E33.97996
G1 X38.077 Y44.177 E34.00261
G1 X38.666 Y44.227 E34.02523
G1 X39.243 Y44.356 E34.04786
G1 X39.558 Y44.473 E34.06072
G1 X37.898 Y43.515 E34.13407
G1 X37.407 Y43.186 E34.15668
G1 X36.965 Y42.793 E34.17932
G1 X36.58 Y42.344 E34.20195
G1 X36.259 Y41.848 E34.22456
G1 X36.008 Y41.312 E34.24722
G1 X35.831 Y40.748 E34.26984
G1 X35.732 Y40.165 E34.29247
G1 X35.71 Y39.726 E34.30929
G1 X35.71 Y28.274 E34.74756
G1 X35.75 Y27.684 E34.77019
G1 X35.869 Y27.105 E34.79281
G1 X36.065 Y26.547 E34.81544
G1 X36.288 Y26.112 E34.83415
G0 F1620 X36.335 Y26.021
G0 X36.673 Y25.536
G0 F4320 X36.683 Y26.122
G1 F2400 E34.86071
G1 F1800 X37.02 Y25.666 E34.88241
G1 X37.417 Y25.261 E34.90411
G1 X38.073 Y24.788 E34.93506
G1 X47.988 Y19.065 E35.37318
G1 X48.498 Y18.817 E35.39489
G1 X49.038 Y18.643 E35.4166
G1 X49.596 Y18.546 E35.43827
G1 X50.163 Y18.529 E35.45998
G1 X50.727 Y18.592 E35.4817
G1 X51.276 Y18.734 E35.5034
G1 X52.012 Y19.065 E35.53429
G1 X61 Y24.253 E35.93145
G1 X69.988 Y19.065 E36.32861
G1 X70.498 Y18.817 E36.35031
G1 X71.038 Y18.643 E36.37202
G1 X71.596 Y18.546 E36.3937
G1 X72.163 Y18.529 E36.4154
G1 X72.727 Y18.592 E36.43712
G1 X73.276 Y18.734 E36.45882
G1 X74.012 Y19.065 E36.48971
G1 X83.927 Y24.788 E36.92783
G1 X84.397 Y25.105 E36.94952
G1 X84.818 Y25.486 E36.97125
G1 X85.181 Y25.921 E36.99294
G1 X85.479 Y26.404 E37.01466
G1 X85.707 Y26.923 E37.03635
G1 X85.859 Y27.469 E37.05804
G1 X85.94 Y28.274 E37.089
G1 X85.94 Y39.726 E37.52727
G1 X85.9 Y40.292 E37.54898
G1 X85.781 Y40.846 E37.57067
G1 X85.585 Y41.378 E37.59237
G1 X85.317 Y41.878 E37.61408
G1 X84.98 Y42.334 E37.63578
G1 X84.583 Y42.739 E37.65748
G1 X83.927 Y43.212 E37.68843
G1 X81.617 Y44.545 E37.7905
