;FLAVOR:Marlin
;TIME:1155
;Filament used: 1.43324m
;Layer height: 0.35
;Generated with Cura_SteamEngine 3.6.0
M140 S60
M105
M190 S60
M104 S210
M105
M109 S210
M82 ;absolute extrusion mode
G21;(metric values)
G90;(absolute positioning)
M82;(set extruder to absolute mode)
M107;(start with the fan off)
G28;(Home the printer)
G92 E0;(Reset the extruder to 0)
G0 Z5 E5 F500;(Move up and prime the nozzle)
G0 X-1 Z0;(Move outside the printable area)
G1 Y60 E8 F500;(Draw a priming/wiping line to the rear)
G1 X-1;(Move a little closer to the print area)
G1 Y10 E16 F500;(draw more priming/wiping)
G1 E15 F250;(Small retract)
G92 E0;(Zero the extruder)
G92 E0
G1 F2400 E-2.5
;LAYER_COUNT:6
;LAYER:0
M107
G0 F4320 X35.561 Y29.579 Z0.35
;TYPE:SKIRT
G1 F2400 E0
G1 F1980 X36.125 Y29.009 E0.04084
G1 X37.002 Y28.253 E0.09981
G1 X37.51 Y27.868 E0.13227
G1 X37.988 Y27.587 E0.16051
G1 X38.792 Y27.172 E0.20659
G1 X39.613 Y26.836 E0.25177
G1 X41.073 Y26.382 E0.32964
G1 X41.797 Y26.214 E0.36749
G1 X42.886 Y26.044 E0.42363
G1 X43.616 Y25.983 E0.46094
G1 X47.55 Y25.942 E0.6613
G1 X56.05 Y19.87 E1.19331
G1 X56.591 Y19.533 E1.22578
G1 X57.169 Y19.267 E1.25818
G1 X57.776 Y19.075 E1.2906
G1 X58.403 Y18.96 E1.32307
G1 X59.039 Y18.925 E1.35551
G1 X59.497 Y18.949 E1.37887
G1 X61.449 Y19.141 E1.47876
G1 X62.077 Y19.243 E1.51116
G1 X62.425 Y19.335 E1.5295
G1 X64.301 Y19.904 E1.62934
G1 X64.898 Y20.127 E1.6618
G1 X65.22 Y20.285 E1.68006
G1 X66.947 Y21.208 E1.77979
G1 X67.489 Y21.543 E1.81224
G1 X67.776 Y21.762 E1.83063
G1 X69.291 Y23.006 E1.93047
G1 X69.756 Y23.44 E1.96286
G1 X69.991 Y23.706 E1.98094
G1 X71.236 Y25.221 E2.08081
G1 X71.609 Y25.737 E2.11323
G1 X71.791 Y26.051 E2.13172
G1 X72.715 Y27.78 E2.23156
G1 X72.979 Y28.359 E2.26397
G1 X73.096 Y28.699 E2.28228
G1 X73.665 Y30.575 E2.38212
G1 X73.811 Y31.195 E2.41456
G1 X73.859 Y31.551 E2.43286
G1 X74.051 Y33.502 E2.5327
G1 X74.073 Y34.138 E2.56511
G1 X74.051 Y34.496 E2.58338
G1 X73.859 Y36.449 E2.68333
G1 X73.757 Y37.077 E2.71573
G1 X73.665 Y37.424 E2.73401
G1 X73.097 Y39.298 E2.83374
G1 X72.826 Y40 E2.87207
G1 X72.405 Y40.888 E2.92212
G1 X72.039 Y41.533 E2.95989
G1 X70.95 Y43.163 E3.05972
G1 X70.564 Y43.67 E3.09218
G1 X70.319 Y43.933 E3.11048
G1 X68.934 Y45.318 E3.21024
G1 X68.789 Y45.445 E3.22006
G1 X70.301 Y45.904 E3.30053
G1 X70.898 Y46.127 E3.33299
G1 X71.22 Y46.285 E3.35125
G1 X72.947 Y47.208 E3.45098
G1 X73.489 Y47.543 E3.48344
G1 X73.776 Y47.762 E3.50182
G1 X75.291 Y49.006 E3.60166
G1 X75.756 Y49.44 E3.63405
G1 X75.991 Y49.706 E3.65213
G1 X77.236 Y51.221 E3.752
G1 X77.609 Y51.737 E3.78443
G1 X77.791 Y52.051 E3.80291
G1 X78.715 Y53.78 E3.90275
G1 X78.979 Y54.359 E3.93516
G1 X79.096 Y54.699 E3.95347
G1 X79.665 Y56.575 E4.05332
G1 X79.811 Y57.195 E4.08576
G1 X79.859 Y57.551 E4.10405
G1 X80.051 Y59.502 E4.2039
G1 X80.073 Y60.138 E4.23631
G1 X80.051 Y60.496 E4.25457
G1 X79.859 Y62.449 E4.35452
G1 X79.757 Y63.077 E4.38692
G1 X79.665 Y63.424 E4.4052
G1 X79.097 Y65.298 E4.50493
G1 X78.826 Y66 E4.54326
G1 X78.405 Y66.888 E4.59331
G1 X78.039 Y67.533 E4.63108
G1 X76.95 Y69.163 E4.73092
G1 X76.564 Y69.67 E4.76337
G1 X76.319 Y69.933 E4.78168
G1 X74.934 Y71.318 E4.88143
G1 X74.456 Y71.739 E4.91387
G1 X74.165 Y71.948 E4.93212
G1 X74.121 Y71.978 E4.93483
G1 X77.55 Y71.942 E5.10948
G1 X86.05 Y65.87 E5.64149
G1 X86.591 Y65.533 E5.67395
G1 X87.169 Y65.267 E5.70635
G1 X87.776 Y65.075 E5.73878
G1 X88.403 Y64.96 E5.77124
G1 X89.039 Y64.925 E5.80368
G1 X89.497 Y64.949 E5.82704
G1 X91.449 Y65.141 E5.92694
G1 X92.077 Y65.243 E5.95934
G1 X92.425 Y65.335 E5.97767
G1 X94.301 Y65.904 E6.07751
G1 X94.898 Y66.127 E6.10997
G1 X95.22 Y66.285 E6.12824
G1 X96.947 Y67.208 E6.22797
G1 X97.489 Y67.543 E6.26042
G1 X97.776 Y67.762 E6.2788
G1 X99.291 Y69.006 E6.37864
G1 X99.756 Y69.44 E6.41104
G1 X99.991 Y69.706 E6.42911
G1 X101.236 Y71.221 E6.52898
G1 X101.609 Y71.737 E6.56141
G1 X101.791 Y72.051 E6.57989
G1 X102.715 Y73.78 E6.67974
G1 X102.979 Y74.359 E6.71214
G1 X103.096 Y74.699 E6.73046
G1 X103.665 Y76.575 E6.8303
G1 X103.811 Y77.195 E6.86274
G1 X103.859 Y77.551 E6.88103
G1 X104.051 Y79.502 E6.98088
G1 X104.073 Y80.138 E7.01329
G1 X104.051 Y80.496 E7.03155
G1 X103.859 Y82.449 E7.1315
G1 X103.757 Y83.077 E7.1639
G1 X103.665 Y83.424 E7.18219
G1 X103.097 Y85.298 E7.28192
G1 X102.826 Y86 E7.32024
G1 X102.405 Y86.888 E7.37029
G1 X102.039 Y87.533 E7.40806
G1 X100.95 Y89.163 E7.5079
G1 X100.564 Y89.67 E7.54035
G1 X100.319 Y89.933 E7.55866
G1 X98.934 Y91.318 E7.65841
G1 X98.456 Y91.739 E7.69085
G1 X98.165 Y91.948 E7.7091
G1 X96.534 Y93.038 E7.80901
G1 X95.983 Y93.358 E7.84146
G1 X95.655 Y93.508 E7.85983
G1 X93.843 Y94.258 E7.95971
G1 X93.24 Y94.464 E7.99216
G1 X92.893 Y94.546 E8.01032
G1 X90.97 Y94.929 E8.11018
G1 X90.228 Y95.021 E8.14826
G1 X89.249 Y95.069 E8.19818
G1 X88.612 Y95.06 E8.23062
G1 X87.981 Y94.972 E8.26307
G1 X87.366 Y94.805 E8.29553
G1 X86.777 Y94.562 E8.32798
G1 X86.05 Y94.13 E8.37105
G1 X77.565 Y88.069 E8.90211
G1 X74.163 Y88.057 E9.07537
G1 X73.5 Y88.011 E9.10922
G1 X71.839 Y87.786 E9.19459
G1 X70.972 Y87.59 E9.23986
G1 X69.727 Y87.191 E9.30644
G1 X69.665 Y87.424 E9.31872
G1 X69.097 Y89.298 E9.41845
G1 X68.826 Y90 E9.45678
G1 X68.405 Y90.888 E9.50683
G1 X68.039 Y91.533 E9.5446
G1 X66.95 Y93.163 E9.64443
G1 X66.564 Y93.67 E9.67689
G1 X66.319 Y93.933 E9.69519
G1 X64.934 Y95.318 E9.79495
G1 X64.456 Y95.739 E9.82739
G1 X64.165 Y95.948 E9.84564
G1 X62.534 Y97.038 E9.94554
G1 X61.983 Y97.358 E9.978
G1 X61.655 Y97.508 E9.99636
G1 X59.843 Y98.258 E10.09624
G1 X59.24 Y98.464 E10.12869
G1 X58.893 Y98.546 E10.14685
G1 X56.97 Y98.929 E10.24671
G1 X56.228 Y99.021 E10.28479
G1 X55.249 Y99.069 E10.33471
G1 X54.612 Y99.06 E10.36716
G1 X53.981 Y98.972 E10.39961
G1 X53.366 Y98.805 E10.43206
G1 X52.777 Y98.562 E10.46451
G1 X52.05 Y98.13 E10.50758
G1 X43.565 Y92.069 E11.03865
G1 X40.163 Y92.057 E11.21191
G1 X39.5 Y92.011 E11.24576
G1 X37.839 Y91.786 E11.33112
G1 X36.972 Y91.59 E11.37639
G1 X35.505 Y91.12 E11.45485
G1 X34.708 Y90.788 E11.49882
G1 X33.971 Y90.404 E11.54114
G1 X33.426 Y90.075 E11.57357
G1 X32.998 Y89.743 E11.60115
G1 X32.122 Y88.986 E11.66012
G1 X31.667 Y88.54 E11.69257
G1 X31.262 Y88.028 E11.72582
G1 X31.073 Y87.754 E11.74277
G1 X30.745 Y87.208 E11.77521
G1 X30.518 Y86.704 E11.80336
G1 X30.295 Y86.128 E11.83482
G1 X30.103 Y85.521 E11.86724
G1 X29.988 Y84.895 E11.89966
G1 X29.953 Y84.296 E11.93021
G1 X29.953 Y83.704 E11.96036
G1 X29.993 Y83.068 E11.99282
G1 X30.112 Y82.443 E12.02522
G1 X30.309 Y81.837 E12.05768
G1 X30.458 Y81.497 E12.07658
G1 X30.869 Y80.646 E12.12471
G1 X31.181 Y80.091 E12.15714
G1 X31.561 Y79.579 E12.18961
G1 X32.125 Y79.009 E12.23045
G1 X33.002 Y78.253 E12.28942
G1 X33.51 Y77.868 E12.32188
G1 X33.988 Y77.587 E12.35012
G1 X34.792 Y77.172 E12.3962
G1 X35.613 Y76.836 E12.44138
G1 X37.073 Y76.382 E12.51925
G1 X37.797 Y76.214 E12.55711
G1 X38.886 Y76.044 E12.61324
G1 X39.616 Y75.983 E12.65055
G1 X43.55 Y75.942 E12.85092
G1 X52.05 Y69.87 E13.38293
G1 X52.591 Y69.533 E13.41539
G1 X53.169 Y69.267 E13.44779
G1 X53.776 Y69.075 E13.48022
G1 X54.403 Y68.96 E13.51268
G1 X54.783 Y68.939 E13.53206
G1 X53.565 Y68.069 E13.6083
G1 X50.163 Y68.057 E13.78156
G1 X49.5 Y68.011 E13.81541
G1 X47.839 Y67.786 E13.90077
G1 X46.972 Y67.59 E13.94604
G1 X45.505 Y67.12 E14.0245
G1 X44.708 Y66.788 E14.06847
G1 X43.971 Y66.404 E14.11079
G1 X43.426 Y66.075 E14.14322
G1 X42.998 Y65.743 E14.1708
G1 X42.122 Y64.986 E14.22977
G1 X41.667 Y64.54 E14.26222
G1 X41.262 Y64.028 E14.29547
G1 X41.073 Y63.754 E14.31242
G1 X40.745 Y63.208 E14.34486
G1 X40.518 Y62.704 E14.37301
G1 X40.295 Y62.128 E14.40447
G1 X40.103 Y61.521 E14.43689
G1 X39.988 Y60.895 E14.46931
G1 X39.953 Y60.296 E14.49986
G1 X39.953 Y59.704 E14.53001
G1 X39.993 Y59.068 E14.56247
G1 X40.112 Y58.443 E14.59487
G1 X40.309 Y57.837 E14.62733
G1 X40.458 Y57.497 E14.64623
G1 X40.869 Y56.646 E14.69436
G1 X41.181 Y56.091 E14.72679
G1 X41.561 Y55.579 E14.75926
G1 X42.125 Y55.009 E14.8001
G1 X43.002 Y54.253 E14.85907
G1 X43.51 Y53.868 E14.89153
G1 X43.988 Y53.587 E14.91977
G1 X44.792 Y53.172 E14.96585
G1 X45.613 Y52.836 E15.01103
G1 X47.073 Y52.382 E15.0889
G1 X47.797 Y52.214 E15.12676
G1 X48.886 Y52.044 E15.18289
G1 X49.616 Y51.983 E15.2202
G1 X53.55 Y51.942 E15.42057
G1 X57.783 Y48.918 E15.68551
G1 X57.366 Y48.805 E15.70751
G1 X56.777 Y48.562 E15.73996
G1 X56.05 Y48.13 E15.78303
G1 X47.565 Y42.069 E16.3141
G1 X44.163 Y42.057 E16.48736
G1 X43.5 Y42.011 E16.52121
G1 X41.839 Y41.786 E16.60658
G1 X40.972 Y41.59 E16.65185
G1 X39.505 Y41.12 E16.7303
G1 X38.708 Y40.788 E16.77427
G1 X37.971 Y40.404 E16.8166
G1 X37.426 Y40.075 E16.84902
G1 X36.998 Y39.743 E16.87661
G1 X36.122 Y38.986 E16.93557
G1 X35.667 Y38.54 E16.96802
G1 X35.262 Y38.028 E17.00127
G1 X35.073 Y37.754 E17.01822
G1 X34.745 Y37.208 E17.05066
G1 X34.518 Y36.704 E17.07881
G1 X34.295 Y36.128 E17.11027
G1 X34.103 Y35.521 E17.14269
G1 X33.988 Y34.895 E17.17511
G1 X33.953 Y34.296 E17.20567
G1 X33.953 Y33.704 E17.23582
G1 X33.993 Y33.068 E17.26827
G1 X34.112 Y32.443 E17.30067
G1 X34.309 Y31.837 E17.33313
G1 X34.458 Y31.497 E17.35203
G1 X34.869 Y30.646 E17.40016
G1 X35.181 Y30.091 E17.43259
G1 X35.251 Y29.996 E17.4386
G0 F1782 X35.561 Y29.579
G0 F4320 X35.856 Y29.772
G1 F2400 E17.46508
G1 F1980 X36.354 Y29.274 E17.50095
G1 X37.231 Y28.518 E17.55992
G1 X37.721 Y28.148 E17.59119
G1 X38.149 Y27.898 E17.61644
G1 X38.953 Y27.483 E17.66252
G1 X39.717 Y27.17 E17.70457
G1 X41.177 Y26.716 E17.78244
G1 X41.851 Y26.56 E17.81767
G1 X42.94 Y26.39 E17.8738
G1 X43.619 Y26.333 E17.90851
G1 X47.664 Y26.291 E18.11453
G1 X56.254 Y20.155 E18.65216
G1 X56.776 Y19.831 E18.68345
G1 X57.336 Y19.578 E18.71475
G1 X57.924 Y19.399 E18.74605
G1 X58.53 Y19.298 E18.77734
G1 X59.144 Y19.277 E18.80863
G1 X59.463 Y19.298 E18.82491
G1 X61.415 Y19.49 E18.92481
G1 X62.021 Y19.589 E18.95608
G1 X62.323 Y19.67 E18.972
G1 X64.199 Y20.239 E19.07185
G1 X64.775 Y20.456 E19.10319
G1 X65.055 Y20.594 E19.11909
G1 X66.782 Y21.517 E19.21882
G1 X67.304 Y21.841 E19.25011
G1 X67.553 Y22.032 E19.26609
G1 X69.068 Y23.276 E19.36593
G1 X69.517 Y23.696 E19.39724
G1 X69.72 Y23.928 E19.41294
G1 X70.965 Y25.443 E19.51281
G1 X71.324 Y25.942 E19.54412
G1 X71.482 Y26.216 E19.56023
G1 X72.406 Y27.945 E19.66007
G1 X72.66 Y28.505 E19.69139
G1 X72.761 Y28.801 E19.70732
G1 X73.33 Y30.677 E19.80716
G1 X73.469 Y31.275 E19.83843
G1 X73.51 Y31.585 E19.85435
G1 X73.702 Y33.536 E19.9542
G1 X73.723 Y34.15 E19.98549
G1 X73.702 Y34.461 E20.00136
G1 X73.51 Y36.414 E20.10131
G1 X73.411 Y37.021 E20.13263
G1 X73.33 Y37.323 E20.14855
G1 X72.762 Y39.197 E20.24828
G1 X72.509 Y39.85 E20.28395
G1 X72.088 Y40.738 E20.334
G1 X71.748 Y41.339 E20.36917
G1 X70.659 Y42.969 E20.46901
G1 X70.285 Y43.457 E20.50032
G1 X70.071 Y43.685 E20.51624
G1 X68.686 Y45.07 E20.616
G1 X68.224 Y45.475 E20.64729
G1 X68.053 Y45.598 E20.65802
G1 X68.323 Y45.67 E20.67225
G1 X70.199 Y46.239 E20.77209
G1 X70.775 Y46.456 E20.80344
G1 X71.055 Y46.594 E20.81934
G1 X72.782 Y47.517 E20.91907
G1 X73.304 Y47.841 E20.95036
G1 X73.553 Y48.032 E20.96634
G1 X75.068 Y49.276 E21.06618
G1 X75.517 Y49.696 E21.09749
G1 X75.72 Y49.928 E21.11319
G1 X76.965 Y51.443 E21.21306
G1 X77.324 Y51.942 E21.24437
G1 X77.482 Y52.216 E21.26047
G1 X78.406 Y53.945 E21.36032
G1 X78.66 Y54.505 E21.39163
G1 X78.761 Y54.801 E21.40756
G1 X79.33 Y56.677 E21.5074
G1 X79.469 Y57.275 E21.53867
G1 X79.51 Y57.585 E21.5546
G1 X79.702 Y59.536 E21.65444
G1 X79.723 Y60.15 E21.68573
G1 X79.702 Y60.461 E21.70161
G1 X79.51 Y62.414 E21.80155
G1 X79.411 Y63.021 E21.83287
G1 X79.33 Y63.323 E21.8488
G1 X78.762 Y65.197 E21.94853
G1 X78.509 Y65.85 E21.98419
G1 X78.088 Y66.738 E22.03424
G1 X77.748 Y67.339 E22.06941
G1 X76.659 Y68.969 E22.16925
G1 X76.285 Y69.457 E22.20056
G1 X76.071 Y69.685 E22.21649
G1 X74.686 Y71.07 E22.31624
G1 X74.224 Y71.475 E22.34753
G1 X73.97 Y71.657 E22.36345
G1 X72.853 Y72.404 E22.43189
G1 X72.94 Y72.39 E22.43637
G1 X73.619 Y72.333 E22.47108
G1 X77.664 Y72.291 E22.6771
G1 X86.254 Y66.155 E23.21473
G1 X86.776 Y65.831 E23.24602
G1 X87.336 Y65.578 E23.27732
G1 X87.924 Y65.399 E23.30862
G1 X88.53 Y65.298 E23.33991
G1 X89.144 Y65.277 E23.3712
G1 X89.463 Y65.298 E23.38748
G1 X91.415 Y65.49 E23.48738
G1 X92.021 Y65.589 E23.51865
G1 X92.323 Y65.67 E23.53457
G1 X94.199 Y66.239 E23.63442
G1 X94.775 Y66.456 E23.66576
G1 X95.055 Y66.594 E23.68166
G1 X96.782 Y67.517 E23.78139
G1 X97.304 Y67.841 E23.81268
G1 X97.553 Y68.032 E23.82866
G1 X99.068 Y69.276 E23.9285
G1 X99.517 Y69.696 E23.95981
G1 X99.72 Y69.928 E23.97551
G1 X100.965 Y71.443 E24.07538
G1 X101.324 Y71.942 E24.10669
G1 X101.482 Y72.216 E24.1228
G1 X102.406 Y73.945 E24.22264
G1 X102.66 Y74.505 E24.25396
G1 X102.761 Y74.801 E24.26989
G1 X103.33 Y76.677 E24.36973
G1 X103.469 Y77.275 E24.401
G1 X103.51 Y77.585 E24.41692
G1 X103.702 Y79.536 E24.51677
G1 X103.723 Y80.15 E24.54806
G1 X103.702 Y80.461 E24.56393
G1 X103.51 Y82.414 E24.66388
G1 X103.411 Y83.021 E24.6952
G1 X103.33 Y83.323 E24.71112
G1 X102.762 Y85.197 E24.81085
G1 X102.509 Y85.85 E24.84652
G1 X102.088 Y86.738 E24.89657
G1 X101.748 Y87.339 E24.93174
G1 X100.659 Y88.969 E25.03157
G1 X100.285 Y89.457 E25.06289
G1 X100.071 Y89.685 E25.07881
G1 X98.686 Y91.07 E25.17857
G1 X98.224 Y91.475 E25.20986
G1 X97.97 Y91.657 E25.22577
G1 X96.339 Y92.747 E25.32568
G1 X95.807 Y93.055 E25.35699
G1 X95.521 Y93.185 E25.37299
G1 X93.709 Y93.935 E25.47287
G1 X93.127 Y94.132 E25.50416
G1 X92.825 Y94.203 E25.51996
G1 X90.902 Y94.586 E25.61982
G1 X90.21 Y94.671 E25.65533
G1 X89.231 Y94.719 E25.70525
G1 X88.617 Y94.709 E25.73652
G1 X88.009 Y94.62 E25.76782
G1 X87.418 Y94.452 E25.79911
G1 X86.853 Y94.209 E25.83043
G1 X86.254 Y93.845 E25.86613
G1 X77.678 Y87.72 E26.40286
G1 X74.164 Y87.707 E26.58183
G1 X73.547 Y87.664 E26.61333
G1 X71.886 Y87.439 E26.6987
G1 X71.078 Y87.257 E26.74088
G1 X69.611 Y86.787 E26.81933
G1 X69.46 Y86.724 E26.82767
G1 X69.411 Y87.021 E26.843
G1 X69.33 Y87.323 E26.85892
G1 X68.762 Y89.197 E26.95865
G1 X68.509 Y89.85 E26.99432
G1 X68.088 Y90.738 E27.04437
G1 X67.748 Y91.339 E27.07953
G1 X66.659 Y92.969 E27.17937
G1 X66.285 Y93.457 E27.21068
G1 X66.071 Y93.685 E27.22661
G1 X64.686 Y95.07 E27.32637
G1 X64.224 Y95.475 E27.35766
G1 X63.97 Y95.657 E27.37357
G1 X62.339 Y96.747 E27.47348
G1 X61.807 Y97.055 E27.50479
G1 X61.521 Y97.185 E27.52079
G1 X59.709 Y97.935 E27.62066
G1 X59.127 Y98.132 E27.65196
G1 X58.825 Y98.203 E27.66776
G1 X56.902 Y98.586 E27.76762
G1 X56.21 Y98.671 E27.80313
G1 X55.231 Y98.719 E27.85305
G1 X54.617 Y98.709 E27.88432
G1 X54.009 Y98.62 E27.91562
G1 X53.418 Y98.452 E27.94691
G1 X52.853 Y98.209 E27.97823
G1 X52.254 Y97.845 E28.01393
G1 X43.678 Y91.72 E28.55066
G1 X40.164 Y91.707 E28.72963
G1 X39.547 Y91.664 E28.76113
G1 X37.886 Y91.439 E28.84649
G1 X37.078 Y91.257 E28.88867
G1 X35.611 Y90.787 E28.96713
G1 X34.87 Y90.477 E29.00804
G1 X34.133 Y90.093 E29.05036
G1 X33.607 Y89.775 E29.08167
G1 X33.227 Y89.478 E29.10623
G1 X32.351 Y88.721 E29.16519
G1 X31.913 Y88.29 E29.19649
G1 X31.551 Y87.829 E29.22634
G1 X31.362 Y87.555 E29.24329
G1 X31.046 Y87.027 E29.27463
G1 X30.845 Y86.578 E29.29969
G1 X30.622 Y86.002 E29.33114
G1 X30.438 Y85.416 E29.36243
G1 X30.331 Y84.81 E29.39377
G1 X30.303 Y84.296 E29.41998
G1 X30.303 Y83.704 E29.45013
G1 X30.343 Y83.091 E29.48142
G1 X30.462 Y82.488 E29.51272
G1 X30.773 Y81.649 E29.55829
G1 X31.184 Y80.798 E29.60643
G1 X31.487 Y80.263 E29.63774
G1 X31.856 Y79.772 E29.66902
G1 X32.354 Y79.274 E29.70489
G1 X33.231 Y78.518 E29.76386
G1 X33.721 Y78.148 E29.79513
G1 X34.149 Y77.898 E29.82037
G1 X34.953 Y77.483 E29.86645
G1 X35.717 Y77.17 E29.9085
G1 X37.177 Y76.716 E29.98637
G1 X37.851 Y76.56 E30.02161
G1 X38.94 Y76.39 E30.07774
G1 X39.619 Y76.333 E30.11244
G1 X43.664 Y76.291 E30.31846
G1 X52.254 Y70.155 E30.8561
G1 X52.776 Y69.831 E30.88739
G1 X53.336 Y69.578 E30.91869
G1 X53.924 Y69.399 E30.94999
G1 X54.53 Y69.298 E30.98128
G1 X55.144 Y69.277 E31.01257
G1 X55.463 Y69.298 E31.02885
G1 X55.956 Y69.347 E31.05408
G1 X53.678 Y67.72 E31.19665
G1 X50.164 Y67.707 E31.37562
G1 X49.547 Y67.664 E31.40712
G1 X47.886 Y67.439 E31.49249
G1 X47.078 Y67.257 E31.53467
G1 X45.611 Y66.787 E31.61312
G1 X44.87 Y66.477 E31.65403
