;FLAVOR:Marlin
;TIME:1718
;Filament used: 1.05434m
;Layer height: 0.175
;Generated with Cura_SteamEngine 3.6.0
M140 S65
M105
M190 S65
M104 S205
M105
M109 S205
M82 ;absolute extrusion mode
G21;(metric values)
G90;(absolute positioning)
M82;(set extruder to absolute mode)
M107;(start with the fan off)
G28;(Home the printer)
G92 E0;(Reset the extruder to 0)
G0 Z5 E5 F500;(Move up and prime the nozzle)
G0 X-1 Z0;(Move outside the printable area)
G1 Y60 E8 F500;(Draw a priming/wiping line to the rear)
G1 X-1;(Move a little closer to the print area)
G1 Y10 E16 F500;(draw more priming/wiping)
G1 E15 F250;(Small retract)
G92 E0;(Zero the extruder)
G92 E0
G1 F2400 E-2.5
;LAYER_COUNT:57
;LAYER:0
M107
G0 F4320 X44.393 Y36.019 Z0.263
;TYPE:SKIRT
G1 F2400 E0
G1 F1800 X44.799 Y35.528 E0.02438
G1 X45.263 Y35.092 E0.04875
G1 X45.778 Y34.717 E0.07313
G1 X46.335 Y34.41 E0.09747
G1 X46.927 Y34.175 E0.12184
G1 X47.544 Y34.016 E0.14623
G1 X48.176 Y33.935 E0.17061
G1 X48.514 Y33.925 E0.18355
G1 X65.731 Y33.972 E0.84245
G1 X66.366 Y34.014 E0.8668
G1 X67.028 Y34.144 E0.89262
G1 X68.415 Y34.515 E0.94757
G1 X69.019 Y34.718 E0.97196
G1 X69.645 Y35.025 E0.99864
G1 X70.89 Y35.745 E1.05368
G1 X71.42 Y36.098 E1.07805
G1 X71.938 Y36.549 E1.10433
G1 X72.951 Y37.562 E1.15916
G1 X73.372 Y38.04 E1.18353
G1 X73.754 Y38.608 E1.20973
G1 X74.473 Y39.85 E1.26465
G1 X74.757 Y40.42 E1.28902
G1 X74.983 Y41.081 E1.31576
G1 X75.355 Y42.471 E1.37083
G1 X75.481 Y43.095 E1.39519
G1 X75.528 Y43.775 E1.42127
G1 X75.575 Y75.492 E2.63508
G1 X75.531 Y76.164 E2.66085
G1 X75.343 Y77.589 E2.71586
G1 X75.221 Y78.214 E2.74023
G1 X75 Y78.869 E2.76669
G1 X74.451 Y80.193 E2.82154
G1 X74.171 Y80.765 E2.84591
G1 X73.791 Y81.336 E2.87216
G1 X72.918 Y82.475 E2.92708
G1 X72.5 Y82.955 E2.95144
G1 X71.978 Y83.415 E2.97807
G1 X70.837 Y84.29 E3.03309
G1 X70.309 Y84.645 E3.05744
G1 X69.693 Y84.951 E3.08377
G1 X68.369 Y85.5 E3.13862
G1 X67.766 Y85.707 E3.16302
G1 X67.089 Y85.843 E3.18944
G1 X65.664 Y86.031 E3.24445
G1 X65 Y86.075 E3.26992
G1 X58.5 Y86.075 E3.51867
G1 X57.864 Y86.035 E3.54306
G1 X57.239 Y85.916 E3.56741
G1 X56.633 Y85.719 E3.5918
G1 X56.057 Y85.448 E3.61616
G1 X55.519 Y85.107 E3.64053
G1 X55.028 Y84.701 E3.66492
G1 X54.592 Y84.237 E3.68928
G1 X54.217 Y83.722 E3.71366
G1 X53.91 Y83.165 E3.738
G1 X53.675 Y82.573 E3.76238
G1 X53.516 Y81.956 E3.78676
G1 X53.435 Y81.324 E3.81115
G1 X53.425 Y81 E3.82355
G1 X53.425 Y73.869 E4.09646
G1 X49.895 Y66.258 E4.41753
G1 X49.664 Y65.665 E4.44189
G1 X49.509 Y65.047 E4.46627
G1 X49.432 Y64.415 E4.49063
G1 X49.436 Y63.778 E4.51501
G1 X49.519 Y63.147 E4.53937
G1 X49.68 Y62.53 E4.56377
G1 X49.918 Y61.94 E4.58812
G1 X50.296 Y61.278 E4.61729
G1 X50.8 Y60.533 E4.65172
G1 X50.842 Y60.433 E4.65587
G1 X50.892 Y60.222 E4.66417
G1 X50.91 Y59.998 E4.67277
G1 X50.893 Y59.781 E4.6811
G1 X50.84 Y59.561 E4.68976
G1 X50.757 Y59.36 E4.69808
G1 X50.644 Y59.176 E4.70634
G1 X50.493 Y59 E4.71522
G1 X50.326 Y58.857 E4.72363
G1 X50.144 Y58.745 E4.73181
G1 X49.939 Y58.661 E4.74029
G1 X49.817 Y58.631 E4.7451
G1 X48.299 Y58.571 E4.80323
G1 X47.665 Y58.506 E4.82763
G1 X47.045 Y58.362 E4.85198
G1 X46.448 Y58.141 E4.87635
G1 X45.882 Y57.848 E4.90074
G1 X45.358 Y57.486 E4.92511
G1 X44.884 Y57.061 E4.94947
G1 X44.467 Y56.58 E4.97384
G1 X44.113 Y56.051 E4.9982
G1 X43.828 Y55.481 E5.02259
G1 X43.616 Y54.88 E5.04697
G1 X43.482 Y54.258 E5.07132
G1 X43.425 Y53.5 E5.10042
G1 X43.425 Y39 E5.65533
G1 X43.465 Y38.364 E5.67972
G1 X43.584 Y37.739 E5.70407
G1 X43.781 Y37.133 E5.72845
G1 X44.028 Y36.609 E5.75062
G0 F1620 X44.052 Y36.557
G0 X44.393 Y36.019
G0 F4320 X44.741 Y36.138
G1 F2400 E5.77718
G1 F1800 X45.144 Y35.674 E5.8007
G1 X45.604 Y35.267 E5.82421
G1 X46.113 Y34.922 E5.84774
G1 X46.662 Y34.647 E5.87124
G1 X47.243 Y34.445 E5.89478
G1 X47.844 Y34.321 E5.91826
G1 X48.513 Y34.275 E5.94393
G1 X65.73 Y34.322 E6.60282
G1 X66.343 Y34.364 E6.62634
G1 X66.938 Y34.482 E6.64955
G1 X68.325 Y34.853 E6.7045
G1 X68.907 Y35.051 E6.72802
G1 X69.469 Y35.328 E6.752
G1 X70.714 Y36.048 E6.80704
G1 X71.225 Y36.389 E6.83055
G1 X71.69 Y36.797 E6.85423
G1 X72.703 Y37.81 E6.90905
G1 X73.108 Y38.272 E6.93256
G1 X73.451 Y38.784 E6.95615
G1 X74.17 Y40.026 E7.01107
G1 X74.443 Y40.576 E7.03457
G1 X74.645 Y41.171 E7.05862
G1 X75.017 Y42.561 E7.11368
G1 X75.137 Y43.164 E7.13721
G1 X75.178 Y43.776 E7.16069
G1 X75.225 Y75.493 E8.3745
G1 X75.184 Y76.118 E8.39847
G1 X74.996 Y77.543 E8.45347
G1 X74.877 Y78.146 E8.47699
G1 X74.677 Y78.735 E8.5008
G1 X74.128 Y80.059 E8.55565
G1 X73.856 Y80.61 E8.57917
G1 X73.513 Y81.123 E8.60279
G1 X72.64 Y82.262 E8.65771
G1 X72.235 Y82.725 E8.68125
G1 X71.765 Y83.137 E8.70517
G1 X70.624 Y84.012 E8.76019
G1 X70.113 Y84.354 E8.78373
G1 X69.559 Y84.628 E8.80738
G1 X68.235 Y85.177 E8.86223
G1 X67.653 Y85.375 E8.88576
G1 X67.043 Y85.496 E8.90956
G1 X65.618 Y85.684 E8.96456
G1 X65 Y85.725 E8.98827
G1 X58.5 Y85.725 E9.23702
G1 X57.887 Y85.685 E9.26053
G1 X57.284 Y85.566 E9.28405
G1 X56.702 Y85.369 E9.30757
G1 X56.15 Y85.099 E9.33108
G1 X55.638 Y84.759 E9.35461
G1 X55.174 Y84.356 E9.37813
G1 X54.767 Y83.896 E9.40163
G1 X54.422 Y83.387 E9.42516
G1 X54.147 Y82.838 E9.44866
G1 X53.945 Y82.257 E9.4722
G1 X53.821 Y81.656 E9.49569
G1 X53.775 Y81 E9.52085
G1 X53.775 Y73.791 E9.79674
G1 X50.213 Y66.111 E10.12073
G1 X49.991 Y65.538 E10.14425
G1 X49.845 Y64.941 E10.16777
G1 X49.779 Y64.33 E10.19128
G1 X49.792 Y63.716 E10.21479
G1 X49.884 Y63.108 E10.23832
G1 X50.055 Y62.518 E10.26183
G1 X50.301 Y61.955 E10.28534
G1 X50.586 Y61.474 E10.30674
G1 X51.112 Y60.697 E10.34265
G1 X51.174 Y60.546 E10.34889
G1 X51.238 Y60.28 E10.35936
G1 X51.26 Y59.993 E10.37038
G1 X51.239 Y59.728 E10.38055
G1 X51.174 Y59.453 E10.39137
G1 X51.069 Y59.201 E10.40182
G1 X50.925 Y58.966 E10.41236
G1 X50.744 Y58.755 E10.423
G1 X50.532 Y58.573 E10.43369
G1 X50.303 Y58.433 E10.44397
G1 X50.041 Y58.324 E10.45483
G1 X49.867 Y58.283 E10.46167
G1 X48.313 Y58.221 E10.52119
G1 X47.702 Y58.157 E10.5447
G1 X47.104 Y58.014 E10.56823
G1 X46.53 Y57.795 E10.59174
G1 X45.989 Y57.503 E10.61527
G1 X45.491 Y57.143 E10.63878
G1 X45.044 Y56.722 E10.66228
G1 X44.655 Y56.246 E10.68581
G1 X44.331 Y55.724 E10.70932
G1 X44.078 Y55.164 E10.73284
G1 X43.899 Y54.576 E10.75636
G1 X43.798 Y53.97 E10.77987
G1 X43.775 Y53.5 E10.79788
G1 X43.775 Y39 E11.35279
G1 X43.815 Y38.387 E11.3763
G1 X43.934 Y37.784 E11.39983
G1 X44.131 Y37.202 E11.42334
G1 X44.366 Y36.721 E11.44383
G0 F1620 X44.401 Y36.65
G0 X44.741 Y36.138
G0 F4320 X45.088 Y36.262
G1 F2400 E11.47039
G1 F1800 X45.488 Y35.827 E11.493
G1 X45.944 Y35.45 E11.51565
G1 X46.446 Y35.137 E11.53829
G1 X46.985 Y34.896 E11.56088
G1 X47.553 Y34.729 E11.58354
G1 X48.137 Y34.64 E11.60615
G1 X48.512 Y34.625 E11.62051
G1 X65.729 Y34.672 E12.2794
G1 X66.319 Y34.714 E12.30204
G1 X66.847 Y34.821 E12.32266
G1 X68.234 Y35.192 E12.3776
G1 X68.794 Y35.383 E12.40025
G1 X69.294 Y35.631 E12.42161
G1 X70.539 Y36.351 E12.47665
G1 X71.03 Y36.681 E12.49929
G1 X71.443 Y37.044 E12.52033
G1 X72.456 Y38.057 E12.57516
G1 X72.844 Y38.503 E12.59778
G1 X73.148 Y38.959 E12.61875
G1 X73.867 Y40.201 E12.67367
G1 X74.128 Y40.732 E12.69632
G1 X74.307 Y41.262 E12.71773
G1 X74.679 Y42.652 E12.77279
G1 X74.793 Y43.232 E12.79542
G1 X74.828 Y43.777 E12.81632
G1 X74.875 Y75.494 E14.03012
G1 X74.837 Y76.072 E14.05229
G1 X74.649 Y77.497 E14.1073
G1 X74.533 Y78.077 E14.12994
G1 X74.353 Y78.601 E14.15114
G1 X73.804 Y79.925 E14.20599
G1 X73.541 Y80.454 E14.2286
G1 X73.235 Y80.91 E14.24962
G1 X72.362 Y82.049 E14.30454
G1 X71.972 Y82.493 E14.32715
G1 X71.552 Y82.86 E14.3485
G1 X70.411 Y83.735 E14.40353
G1 X69.919 Y84.062 E14.42613
G1 X69.425 Y84.304 E14.44719
G1 X68.101 Y84.853 E14.50204
G1 X67.541 Y85.042 E14.52466
G1 X66.997 Y85.149 E14.54588
G1 X65.572 Y85.337 E14.60088
G1 X65 Y85.375 E14.62282
G1 X58.5 Y85.375 E14.87158
G1 X57.91 Y85.335 E14.89421
G1 X57.331 Y85.216 E14.91683
G1 X56.773 Y85.02 E14.93946
G1 X56.247 Y84.75 E14.96209
G1 X55.762 Y84.412 E14.98471
G1 X55.327 Y84.012 E15.00733
G1 X54.95 Y83.556 E15.02997
G1 X54.637 Y83.054 E15.05261
G1 X54.396 Y82.515 E15.07521
G1 X54.229 Y81.947 E15.09786
G1 X54.14 Y81.363 E15.12047
G1 X54.125 Y81 E15.13438
G1 X54.125 Y73.716 E15.41313
G1 X50.53 Y65.964 E15.74015
G1 X50.318 Y65.412 E15.76278
G1 X50.183 Y64.836 E15.78542
G1 X50.126 Y64.248 E15.80803
G1 X50.149 Y63.657 E15.83067
G1 X50.251 Y63.075 E15.85328
G1 X50.432 Y62.511 E15.87595
G1 X50.686 Y61.978 E15.89854
G1 X50.876 Y61.671 E15.91236
G1 X51.42 Y60.868 E15.94948
G1 X51.507 Y60.656 E15.95825
G1 X51.585 Y60.332 E15.971
G1 X51.611 Y59.998 E15.98382
G1 X51.585 Y59.664 E15.99664
G1 X51.508 Y59.346 E16.00916
G1 X51.381 Y59.039 E16.02188
G1 X51.213 Y58.764 E16.03421
G1 X50.989 Y58.503 E16.04737
G1 X50.744 Y58.293 E16.05972
G1 X50.454 Y58.116 E16.07273
G1 X50.156 Y57.993 E16.08506
G1 X49.917 Y57.935 E16.09448
G1 X48.327 Y57.872 E16.15537
G1 X47.739 Y57.808 E16.17801
G1 X47.165 Y57.666 E16.20064
G1 X46.615 Y57.448 E16.22328
G1 X46.1 Y57.158 E16.2459
G1 X45.629 Y56.801 E16.26852
G1 X45.21 Y56.384 E16.29114
G1 X44.851 Y55.914 E16.31377
G1 X44.559 Y55.4 E16.3364
G1 X44.339 Y54.851 E16.35903
G1 X44.195 Y54.278 E16.38164
G1 X44.125 Y53.5 E16.41153
G1 X44.125 Y39 E16.96645
G1 X44.165 Y38.41 E16.98908
G1 X44.284 Y37.831 E17.0117
G1 X44.48 Y37.273 E17.03433
G1 X44.703 Y36.838 E17.05304
G0 F1620 X44.75 Y36.747
G0 X45.088 Y36.262
G0 F4320 X45.098 Y36.848
G1 F2400 E17.0796
G1 F1800 X45.435 Y36.392 E17.1013
G1 X45.832 Y35.987 E17.12301
G1 X46.282 Y35.641 E17.14473
G1 X46.776 Y35.363 E17.16642
G1 X47.304 Y35.157 E17.18811
G1 X47.856 Y35.027 E17.20982
G1 X48.511 Y34.975 E17.23496
G1 X65.728 Y35.022 E17.89386
G1 X66.294 Y35.064 E17.91558
G1 X66.757 Y35.159 E17.93367
G1 X68.144 Y35.53 E17.98861
G1 X68.68 Y35.714 E18.0103
G1 X69.119 Y35.934 E18.02909
G1 X70.364 Y36.654 E18.08413
G1 X70.834 Y36.971 E18.10583
G1 X71.195 Y37.292 E18.12431
G1 X72.208 Y38.305 E18.17914
G1 X72.58 Y38.733 E18.20084
G1 X72.845 Y39.134 E18.21924
G1 X73.564 Y40.376 E18.27416
G1 X73.813 Y40.886 E18.29588
G1 X73.969 Y41.352 E18.31468
G1 X74.341 Y42.742 E18.36975
G1 X74.449 Y43.299 E18.39146
G1 X74.478 Y43.777 E18.40979
G1 X74.525 Y75.494 E19.6236
G1 X74.49 Y76.026 E19.644
G1 X74.302 Y77.451 E19.69901
G1 X74.189 Y78.007 E19.72072
G1 X74.03 Y78.467 E19.73935
G1 X73.481 Y79.791 E19.7942
G1 X73.227 Y80.298 E19.8159
G1 X72.958 Y80.698 E19.83435
G1 X72.085 Y81.837 E19.88927
G1 X71.709 Y82.261 E19.91096
G1 X71.339 Y82.582 E19.92971
G1 X70.198 Y83.457 E19.98473
G1 X69.725 Y83.769 E20.00642
G1 X69.291 Y83.981 E20.0249
G1 X67.967 Y84.53 E20.07976
G1 X67.429 Y84.71 E20.10147
G1 X66.951 Y84.802 E20.1201
G1 X65.526 Y84.99 E20.1751
G1 X65 Y85.025 E20.19528
G1 X58.5 Y85.025 E20.44403
G1 X57.934 Y84.985 E20.46575
G1 X57.38 Y84.866 E20.48743
G1 X56.848 Y84.67 E20.50913
G1 X56.348 Y84.402 E20.53084
G1 X55.892 Y84.065 E20.55254
G1 X55.487 Y83.668 E20.57424
G1 X55.141 Y83.218 E20.59597
G1 X54.863 Y82.724 E20.61766
G1 X54.657 Y82.196 E20.63935
G1 X54.527 Y81.644 E20.66105
G1 X54.475 Y81 E20.68578
G1 X54.475 Y73.637 E20.96756
G1 X50.848 Y65.816 E21.29749
G1 X50.646 Y65.286 E21.3192
G1 X50.521 Y64.733 E21.34089
G1 X50.474 Y64.168 E21.36259
G1 X50.508 Y63.602 E21.38429
G1 X50.621 Y63.046 E21.406
G1 X50.811 Y62.512 E21.42769
G1 X51.166 Y61.867 E21.45587
G1 X51.731 Y61.032 E21.49445
G1 X51.842 Y60.763 E21.50559
G1 X51.931 Y60.391 E21.52023
G1 X51.962 Y59.998 E21.53532
G1 X51.932 Y59.611 E21.55017
G1 X51.842 Y59.238 E21.56485
G1 X51.694 Y58.88 E21.57968
G1 X51.494 Y58.554 E21.59432
G1 X51.244 Y58.262 E21.60903
G1 X50.942 Y58.004 E21.62423
G1 X50.62 Y57.806 E21.63869
G1 X50.262 Y57.658 E21.65352
G1 X49.962 Y57.586 E21.66533
G1 X48.341 Y57.522 E21.72741
G1 X47.777 Y57.46 E21.74913
G1 X47.228 Y57.319 E21.77082
G1 X46.704 Y57.102 E21.79252
G1 X46.215 Y56.814 E21.81424
G1 X45.772 Y56.46 E21.83594
G1 X45.383 Y56.047 E21.85766
G1 X45.056 Y55.584 E21.87935
G1 X44.798 Y55.079 E21.90105
G1 X44.612 Y54.543 E21.92276
G1 X44.504 Y53.986 E21.94448
G1 X44.475 Y53.5 E21.96311
G1 X44.475 Y39 E22.51802
G1 X44.515 Y38.434 E22.53974
G1 X44.634 Y37.88 E22.56142
G1 X44.787 Y37.467 E22.57828
G0 F1620 X44.83 Y37.348
G0 X45.098 Y36.848
G0 F4320 X45.447 Y36.954
G1 F2400 E22.60484
G1 F1800 X45.781 Y36.528 E22.62555
G1 X46.174 Y36.155 E22.64629
G1 X46.618 Y35.844 E22.66703
G1 X47.102 Y35.601 E22.68776
G1 X47.617 Y35.433 E22.70849
G1 X48.151 Y35.342 E22.72922
G1 X48.51 Y35.325 E22.74298
G1 X65.727 Y35.372 E23.40187
G1 X66.267 Y35.413 E23.4226
G1 X66.667 Y35.497 E23.43824
G1 X68.054 Y35.868 E23.49319
G1 X68.565 Y36.046 E23.5139
G1 X68.944 Y36.237 E23.53014
G1 X70.189 Y36.957 E23.58518
G1 X70.637 Y37.262 E23.60592
G1 X70.948 Y37.539 E23.62186
G1 X71.961 Y38.552 E23.67668
G1 X72.314 Y38.963 E23.69742
G1 X72.543 Y39.31 E23.71333
G1 X73.262 Y40.552 E23.76825
G1 X73.498 Y41.039 E23.78896
G1 X73.631 Y41.443 E23.80524
G1 X74.003 Y42.833 E23.8603
G1 X74.104 Y43.365 E23.88103
G1 X74.128 Y43.778 E23.89686
G1 X74.175 Y75.495 E25.11067
G1 X74.143 Y75.981 E25.12931
G1 X73.955 Y77.406 E25.18431
G1 X73.845 Y77.936 E25.20503
G1 X73.707 Y78.333 E25.22112
G1 X73.158 Y79.657 E25.27597
G1 X72.914 Y80.14 E25.29668
G1 X72.68 Y80.485 E25.31263
G1 X71.807 Y81.624 E25.36755
G1 X71.446 Y82.028 E25.38829
G1 X71.126 Y82.304 E25.40446
G1 X69.985 Y83.179 E25.45949
G1 X69.532 Y83.476 E25.48022
G1 X69.157 Y83.658 E25.49617
G1 X67.833 Y84.207 E25.55102
G1 X67.318 Y84.377 E25.57178
G1 X66.906 Y84.455 E25.58782
G1 X65.481 Y84.643 E25.64283
G1 X65 Y84.675 E25.66128
G1 X58.5 Y84.675 E25.91003
G1 X57.96 Y84.635 E25.93076
G1 X57.431 Y84.516 E25.95151
G1 X56.926 Y84.321 E25.97222
G1 X56.454 Y84.053 E25.993
G1 X56.028 Y83.719 E26.01371
G1 X55.655 Y83.326 E26.03445
G1 X55.344 Y82.882 E26.05519
G1 X55.101 Y82.398 E26.07592
G1 X54.933 Y81.883 E26.09665
G1 X54.842 Y81.349 E26.11738
G1 X54.825 Y81 E26.13075
G1 X54.825 Y73.561 E26.41544
G1 X51.165 Y65.669 E26.74837
G1 X50.974 Y65.162 E26.7691
G1 X50.859 Y64.633 E26.78982
G1 X50.824 Y64.092 E26.81057
G1 X50.869 Y63.552 E26.8313
G1 X50.992 Y63.024 E26.85205
G1 X51.192 Y62.521 E26.87277
G1 X51.456 Y62.063 E26.893
G1 X52.039 Y61.202 E26.93279
G1 X52.177 Y60.869 E26.94659
G1 X52.279 Y60.443 E26.96335
G1 X52.313 Y59.998 E26.98043
G1 X52.279 Y59.559 E26.99728
G1 X52.175 Y59.124 E27.0144
G1 X52.007 Y58.721 E27.03111
G1 X51.782 Y58.352 E27.04765
G1 X51.489 Y58.01 E27.06488
G1 X51.152 Y57.722 E27.08185
G1 X50.774 Y57.491 E27.0988
G1 X50.37 Y57.323 E27.11554
G1 X50.013 Y57.238 E27.12959
G1 X48.354 Y57.172 E27.19313
G1 X47.816 Y57.111 E27.21385
G1 X47.293 Y56.971 E27.23457
G1 X46.795 Y56.756 E27.25533
G1 X46.335 Y56.47 E27.27606
G1 X45.922 Y56.119 E27.2968
G1 X45.565 Y55.712 E27.31752
G1 X45.272 Y55.256 E27.33826
G1 X45.049 Y54.762 E27.359
G1 X44.9 Y54.241 E27.37974
G1 X44.825 Y53.5 E27.40825
G1 X44.825 Y39 E27.96316
G1 X44.865 Y38.46 E27.98388
G1 X44.984 Y37.931 E28.00463
G1 X45.125 Y37.567 E28.01957
G0 F1620 X45.179 Y37.426
G0 X45.447 Y36.954
G0 F4320 X45.795 Y37.066
G1 F2400 E28.04613
G1 F1800 X46.126 Y36.672 E28.06582
G1 X46.515 Y36.333 E28.08557
G1 X46.951 Y36.058 E28.1053
G1 X47.424 Y35.854 E28.12501
G1 X47.923 Y35.725 E28.14474
G1 X48.509 Y35.675 E28.16724
G1 X65.726 Y35.722 E28.82614
G1 X66.24 Y35.763 E28.84587
G1 X66.576 Y35.835 E28.85902
G1 X67.963 Y36.206 E28.91397
G1 X68.449 Y36.377 E28.93369
G1 X68.769 Y36.54 E28.94743
G1 X70.014 Y37.26 E29.00247
G1 X70.438 Y37.551 E29.02215
G1 X70.7 Y37.787 E29.03565
G1 X71.713 Y38.8 E29.09047
G1 X72.048 Y39.191 E29.11018
G1 X72.24 Y39.485 E29.12361
G1 X72.959 Y40.727 E29.17854
G1 X73.181 Y41.192 E29.19826
G1 X73.293 Y41.533 E29.21199
G1 X73.665 Y42.923 E29.26706
G1 X73.759 Y43.43 E29.28679
G1 X73.778 Y43.778 E29.30013
G1 X73.825 Y75.495 E30.51394
G1 X73.796 Y75.935 E30.53081
G1 X73.608 Y77.36 E30.58582
G1 X73.502 Y77.864 E30.60553
G1 X73.383 Y78.199 E30.61914
G1 X72.834 Y79.523 E30.67399
G1 X72.601 Y79.982 E30.69369
G1 X72.402 Y80.272 E30.70715
G1 X71.529 Y81.411 E30.76207
G1 X71.185 Y81.794 E30.78177
G1 X70.913 Y82.026 E30.79545
G1 X69.772 Y82.901 E30.85048
G1 X69.34 Y83.182 E30.8702
G1 X69.023 Y83.334 E30.88366
G1 X67.699 Y83.883 E30.93851
G1 X67.209 Y84.043 E30.95824
G1 X66.86 Y84.108 E30.97182
