;FLAVOR:Marlin
;TIME:7094
;Filament used: 4.12262m
;Layer height: 0.175
;Generated with Cura_SteamEngine 3.6.0
M140 S60
M105
M190 S60
M104 S200
M105
M109 S200
M82 ;absolute extrusion mode
G21;(metric values)
G90;(absolute positioning)
M82;(set extruder to absolute mode)
M107;(start with the fan off)
G28;(Home the printer)
G92 E0;(Reset the extruder to 0)
G0 Z5 E5 F500;(Move up and prime the nozzle)
G0 X-1 Z0;(Move outside the printable area)
G1 Y60 E8 F500;(Draw a priming/wiping line to the rear)
G1 X-1;(Move a little closer to the print area)
G1 Y10 E16 F500;(draw more priming/wiping)
G1 E15 F250;(Small retract)
G92 E0;(Zero the extruder)
G92 E0
G1 F2400 E-2.5
;LAYER_COUNT:100
;LAYER:0
M107
G0 F4320 X84.985 Y52.789 Z0.263
;TYPE:SKIRT
G1 F2400 E0
G1 F1800 X84.891 Y52.979 E0.00811
G1 X84.808 Y53.256 E0.01918
G1 X84.805 Y53.272 E0.0198
G1 X84.827 Y53.764 E0.03865
G1 X84.927 Y54.122 E0.05287
G1 X84.949 Y54.171 E0.05493
G1 X85.004 Y54.257 E0.05884
G1 X85.211 Y54.499 E0.07102
G1 X85.377 Y54.64 E0.07936
G1 X85.576 Y54.758 E0.08821
G1 X85.86 Y54.868 E0.09987
G1 X85.94 Y54.888 E0.10302
G1 X86.396 Y54.925 E0.12053
G1 X99.096 Y54.925 E0.60656
G1 X99.45 Y54.592 E0.62516
G1 X99.965 Y54.217 E0.64954
G1 X100.522 Y53.91 E0.67388
G1 X101.114 Y53.675 E0.69826
G1 X101.731 Y53.516 E0.72264
G1 X101.863 Y53.499 E0.72773
G1 X101.426 Y53.416 E0.74476
G1 X100.82 Y53.219 E0.76914
G1 X100.244 Y52.948 E0.7935
G1 X99.706 Y52.607 E0.81788
G1 X99.215 Y52.201 E0.84226
G1 X99.097 Y52.075 E0.84887
G1 X86.474 Y52.075 E1.33195
G1 X85.857 Y52.143 E1.35571
G1 X85.677 Y52.196 E1.36289
G1 X85.482 Y52.291 E1.37119
G1 X85.469 Y52.3 E1.37179
G0 F1620 X85.286 Y52.431
G0 X85.118 Y52.601
G0 X84.985 Y52.789
G0 F4320 X84.683 Y52.608
G1 F2400 E1.39835
G1 F1800 X84.563 Y52.855 E1.40886
G1 X84.465 Y53.182 E1.42193
G1 X84.454 Y53.246 E1.42441
G1 X84.479 Y53.821 E1.44644
G1 X84.597 Y54.243 E1.46321
G1 X84.641 Y54.338 E1.46721
G1 X84.727 Y54.474 E1.47337
G1 X84.961 Y54.747 E1.48713
G1 X85.174 Y54.927 E1.4978
G1 X85.421 Y55.074 E1.5088
G1 X85.747 Y55.201 E1.52219
G1 X85.888 Y55.235 E1.52774
G1 X86.379 Y55.275 E1.5466
G1 X99.243 Y55.275 E2.0389
G1 X99.331 Y55.174 E2.04403
G1 X99.791 Y54.767 E2.06753
G1 X100.3 Y54.422 E2.09107
G1 X100.849 Y54.147 E2.11457
G1 X101.43 Y53.945 E2.13811
G1 X102.031 Y53.821 E2.16159
G1 X102.687 Y53.775 E2.18676
G1 X103.687 Y53.775 E2.22503
G1 X104.3 Y53.815 E2.24854
G1 X104.903 Y53.934 E2.27206
G1 X105.485 Y54.131 E2.29557
G1 X106.037 Y54.401 E2.31909
G1 X106.549 Y54.741 E2.34261
G1 X107.013 Y55.144 E2.36613
G1 X107.42 Y55.604 E2.38964
G1 X107.765 Y56.113 E2.41317
G1 X108.04 Y56.662 E2.43667
G1 X108.242 Y57.243 E2.46021
G1 X108.366 Y57.844 E2.48369
G1 X108.412 Y58.505 E2.50905
G1 X108.391 Y77.173 E3.22347
G1 X108.35 Y77.786 E3.24699
G1 X108.272 Y78.224 E3.26401
G1 X108.156 Y78.73 E3.28388
G1 X107.98 Y79.319 E3.3074
G1 X107.761 Y79.816 E3.32819
G1 X107.323 Y80.677 E3.36516
G1 X107.01 Y81.206 E3.38868
G1 X106.458 Y81.871 E3.42176
G1 X92.781 Y95.587 E4.16304
G1 X92.139 Y96.126 E4.19512
G1 X91.58 Y96.516 E4.2212
G1 X91.054 Y96.834 E4.24472
G1 X90.579 Y97.048 E4.26466
G1 X89.888 Y97.315 E4.29301
G1 X89.302 Y97.499 E4.31652
G1 X88.777 Y97.596 E4.33695
G1 X88.056 Y97.687 E4.36476
G1 X87.464 Y97.724 E4.38746
G1 X21.555 Y97.725 E6.9098
G1 X20.942 Y97.685 E6.9333
G1 X20.339 Y97.566 E6.95683
G1 X19.757 Y97.369 E6.98034
G1 X19.205 Y97.099 E7.00386
G1 X18.693 Y96.759 E7.02738
G1 X18.229 Y96.356 E7.0509
G1 X17.822 Y95.896 E7.0744
G1 X17.477 Y95.387 E7.09794
G1 X17.327 Y95.088 E7.11074
G1 X17.019 Y95.135 E7.12266
G1 X16.407 Y95.188 E7.14617
G1 X15.793 Y95.161 E7.16969
G1 X15.188 Y95.055 E7.1932
G1 X14.602 Y94.871 E7.2167
G1 X14.044 Y94.613 E7.24023
G1 X13.525 Y94.284 E7.26375
G1 X13.053 Y93.891 E7.28725
G1 X12.635 Y93.44 E7.31078
G1 X12.28 Y92.939 E7.33428
G1 X11.993 Y92.396 E7.35779
G1 X11.779 Y91.82 E7.3813
G1 X11.641 Y91.221 E7.40483
G1 X11.58 Y90.464 E7.43389
G1 X11.58 Y84.421 E7.66516
G1 X11.62 Y83.808 E7.68867
G1 X11.739 Y83.205 E7.71219
G1 X11.936 Y82.623 E7.7357
G1 X12.206 Y82.071 E7.75922
G1 X12.546 Y81.559 E7.78274
G1 X12.949 Y81.095 E7.80626
G1 X13.409 Y80.688 E7.82977
G1 X13.918 Y80.343 E7.8533
G1 X14.467 Y80.068 E7.8768
G1 X15.048 Y79.866 E7.90034
G1 X15.649 Y79.742 E7.92382
G1 X16.262 Y79.696 E7.94735
G1 X16.83 Y79.737 E7.96914
G1 X16.83 Y73.859 E8.19409
G1 X16.87 Y73.246 E8.2176
G1 X16.989 Y72.643 E8.24112
G1 X17.091 Y72.341 E8.25332
G1 X16.938 Y71.806 E8.27462
G1 X16.847 Y71.199 E8.29811
G1 X16.83 Y70.803 E8.31328
G1 X16.83 Y65.447 E8.51825
G1 X16.87 Y64.834 E8.54176
G1 X16.989 Y64.231 E8.56528
G1 X17.092 Y63.926 E8.5776
G1 X16.945 Y63.423 E8.59766
G1 X16.849 Y62.816 E8.62117
G1 X16.83 Y62.389 E8.63753
G1 X16.83 Y57.034 E8.84247
G1 X16.87 Y56.421 E8.86598
G1 X16.989 Y55.818 E8.8895
G1 X17.092 Y55.513 E8.90182
G1 X16.944 Y55.011 E8.92185
G1 X16.849 Y54.404 E8.94536
G1 X16.83 Y53.978 E8.96168
G1 X16.83 Y40.521 E9.47668
G1 X16.407 Y40.558 E9.49293
G1 X15.793 Y40.531 E9.51645
G1 X15.188 Y40.425 E9.53995
G1 X14.602 Y40.241 E9.56346
G1 X14.044 Y39.983 E9.58699
G1 X13.525 Y39.654 E9.6105
G1 X13.053 Y39.261 E9.63401
G1 X12.635 Y38.81 E9.65754
G1 X12.28 Y38.309 E9.68104
G1 X11.993 Y37.766 E9.70455
G1 X11.779 Y37.19 E9.72806
G1 X11.641 Y36.591 E9.75158
G1 X11.58 Y35.834 E9.78065
G1 X11.58 Y29.791 E10.01191
G1 X11.62 Y29.178 E10.03542
G1 X11.739 Y28.575 E10.05895
G1 X11.936 Y27.993 E10.08246
G1 X12.206 Y27.441 E10.10598
G1 X12.546 Y26.929 E10.1295
G1 X12.949 Y26.465 E10.15302
G1 X13.409 Y26.058 E10.17652
G1 X13.918 Y25.713 E10.20006
G1 X14.467 Y25.438 E10.22355
G1 X15.048 Y25.236 E10.24709
G1 X15.649 Y25.112 E10.27058
G1 X16.262 Y25.066 E10.2941
G1 X17.019 Y25.12 E10.32315
G1 X17.212 Y25.149 E10.33062
G1 X17.456 Y24.65 E10.35188
G1 X17.796 Y24.138 E10.3754
G1 X18.199 Y23.674 E10.39892
G1 X18.659 Y23.267 E10.42242
G1 X19.168 Y22.922 E10.44595
G1 X19.717 Y22.647 E10.46945
G1 X20.298 Y22.445 E10.49299
G1 X20.899 Y22.321 E10.51648
G1 X21.555 Y22.275 E10.54164
G1 X100.824 Y22.278 E13.57526
G1 X101.437 Y22.318 E13.59877
G1 X101.832 Y22.387 E13.61412
G1 X102.84 Y22.607 E13.6536
G1 X103.43 Y22.776 E13.67709
G1 X103.994 Y23.021 E13.70062
G1 X104.382 Y23.245 E13.71777
G1 X105.287 Y23.825 E13.75891
G1 X105.781 Y24.189 E13.78239
G1 X106.298 Y24.697 E13.81013
G1 X106.714 Y25.174 E13.83435
G1 X107.087 Y25.663 E13.85789
G1 X107.402 Y26.214 E13.88218
G1 X107.811 Y27.055 E13.91797
G1 X108.043 Y27.623 E13.94145
G1 X108.164 Y28.048 E13.95836
G1 X108.261 Y28.464 E13.9747
G1 X108.361 Y29.07 E13.99821
G1 X108.384 Y29.53 E14.01584
G1 X108.413 Y48.493 E14.74155
G1 X108.374 Y49.106 E14.76506
G1 X108.256 Y49.709 E14.78857
G1 X108.06 Y50.292 E14.81211
G1 X107.791 Y50.844 E14.83561
G1 X107.452 Y51.356 E14.85911
G1 X107.049 Y51.821 E14.88266
G1 X106.59 Y52.229 E14.90616
G1 X106.081 Y52.574 E14.92969
G1 X105.533 Y52.85 E14.95317
G1 X104.952 Y53.053 E14.97673
G1 X104.351 Y53.178 E15.00022
G1 X103.688 Y53.225 E15.02566
G1 X102.687 Y53.225 E15.06396
G1 X102.074 Y53.185 E15.08747
G1 X101.471 Y53.066 E15.111
G1 X100.889 Y52.869 E15.13451
G1 X100.337 Y52.599 E15.15803
G1 X99.825 Y52.259 E15.18155
G1 X99.361 Y51.856 E15.20507
G1 X99.245 Y51.725 E15.21176
G1 X86.454 Y51.725 E15.70127
G1 X85.784 Y51.798 E15.72707
G1 X85.551 Y51.868 E15.73638
G1 X85.304 Y51.989 E15.7469
G1 X85.149 Y52.099 E15.75418
G0 F1620 X85.058 Y52.164
G0 X84.849 Y52.375
G0 X84.683 Y52.608
G0 F4320 X84.381 Y52.431
G1 F2400 E15.78074
G1 F1800 X84.236 Y52.727 E15.79335
G1 X84.124 Y53.102 E15.80833
G1 X84.103 Y53.231 E15.81333
G1 X84.131 Y53.877 E15.83808
G1 X84.267 Y54.362 E15.85735
G1 X84.335 Y54.511 E15.86362
G1 X84.441 Y54.677 E15.87116
G1 X84.714 Y54.996 E15.88723
G1 X84.968 Y55.21 E15.89994
G1 X85.27 Y55.391 E15.91341
G1 X85.641 Y55.535 E15.92864
G1 X85.828 Y55.58 E15.936
G1 X86.376 Y55.625 E15.95705
G1 X99.401 Y55.625 E16.45551
G1 X99.675 Y55.327 E16.471
G1 X100.131 Y54.95 E16.49365
G1 X100.633 Y54.637 E16.51629
G1 X101.172 Y54.396 E16.53888
G1 X101.74 Y54.229 E16.56154
G1 X102.324 Y54.14 E16.58415
G1 X102.687 Y54.125 E16.59805
G1 X103.687 Y54.125 E16.63632
G1 X104.277 Y54.165 E16.65895
G1 X104.856 Y54.284 E16.68157
G1 X105.414 Y54.48 E16.70421
G1 X105.94 Y54.75 E16.72683
G1 X106.425 Y55.088 E16.74946
G1 X106.86 Y55.488 E16.77207
G1 X107.237 Y55.944 E16.79472
G1 X107.55 Y56.446 E16.81736
G1 X107.791 Y56.985 E16.83995
G1 X107.958 Y57.553 E16.86261
G1 X108.047 Y58.137 E16.88522
G1 X108.062 Y58.505 E16.89931
G1 X108.041 Y77.173 E17.61374
G1 X108 Y77.763 E17.63637
G1 X107.93 Y78.146 E17.65127
G1 X107.814 Y78.652 E17.67114
G1 X107.644 Y79.218 E17.69375
G1 X107.449 Y79.658 E17.71217
G1 X107.011 Y80.519 E17.74914
G1 X106.708 Y81.026 E17.77174
G1 X106.21 Y81.624 E17.80153
G1 X92.533 Y95.34 E18.54281
G1 X91.938 Y95.839 E18.57253
G1 X91.379 Y96.229 E18.59861
G1 X90.873 Y96.534 E18.62122
G1 X90.453 Y96.722 E18.63883
G1 X89.762 Y96.989 E18.66718
G1 X89.197 Y97.164 E18.68982
G1 X88.733 Y97.249 E18.70787
G1 X88.012 Y97.34 E18.73568
G1 X87.464 Y97.374 E18.75669
G1 X21.555 Y97.375 E21.27903
G1 X20.965 Y97.335 E21.30166
G1 X20.386 Y97.216 E21.32428
G1 X19.828 Y97.02 E21.34691
G1 X19.302 Y96.75 E21.36954
G1 X18.817 Y96.412 E21.39216
G1 X18.382 Y96.012 E21.41478
G1 X18.005 Y95.556 E21.43742
G1 X17.692 Y95.054 E21.46006
G1 X17.535 Y94.702 E21.47481
G1 X16.966 Y94.789 E21.49684
G1 X16.377 Y94.838 E21.51946
G1 X15.787 Y94.808 E21.54207
G1 X15.206 Y94.699 E21.56469
G1 X14.645 Y94.512 E21.58732
G1 X14.114 Y94.251 E21.60997
G1 X13.624 Y93.921 E21.63257
G1 X13.182 Y93.528 E21.65521
G1 X12.797 Y93.079 E21.67784
G1 X12.477 Y92.582 E21.70047
G1 X12.226 Y92.046 E21.72312
G1 X12.05 Y91.482 E21.74573
G1 X11.952 Y90.899 E21.76835
G1 X11.93 Y90.464 E21.78502
G1 X11.93 Y84.421 E22.01629
G1 X11.97 Y83.831 E22.03892
G1 X12.089 Y83.252 E22.06154
G1 X12.285 Y82.694 E22.08417
G1 X12.555 Y82.168 E22.1068
G1 X12.893 Y81.683 E22.12942
G1 X13.293 Y81.248 E22.15204
G1 X13.749 Y80.871 E22.17468
G1 X14.251 Y80.558 E22.19732
G1 X14.79 Y80.317 E22.21992
G1 X15.358 Y80.15 E22.24257
G1 X15.942 Y80.061 E22.26518
G1 X16.533 Y80.052 E22.2878
G1 X16.966 Y80.096 E22.30446
G1 X17.18 Y80.129 E22.31275
G1 X17.18 Y73.859 E22.5527
G1 X17.22 Y73.269 E22.57533
G1 X17.339 Y72.69 E22.59795
G1 X17.464 Y72.333 E22.61243
G1 X17.407 Y72.195 E22.61814
G1 X17.257 Y71.623 E22.64077
G1 X17.18 Y70.803 E22.67229
G1 X17.18 Y65.447 E22.87726
G1 X17.22 Y64.857 E22.89989
G1 X17.339 Y64.278 E22.92252
G1 X17.464 Y63.921 E22.93699
G1 X17.417 Y63.808 E22.94168
G1 X17.263 Y63.237 E22.96431
G1 X17.18 Y62.389 E22.99692
G1 X17.18 Y57.034 E23.20185
G1 X17.22 Y56.444 E23.22448
G1 X17.339 Y55.865 E23.2471
G1 X17.464 Y55.51 E23.26151
G1 X17.416 Y55.397 E23.26621
G1 X17.263 Y54.826 E23.28883
G1 X17.18 Y53.978 E23.32144
G1 X17.18 Y40.126 E23.85155
G1 X16.966 Y40.159 E23.85984
G1 X16.377 Y40.208 E23.88246
G1 X15.787 Y40.178 E23.90507
G1 X15.206 Y40.069 E23.92769
G1 X14.645 Y39.882 E23.95032
G1 X14.114 Y39.621 E23.97296
G1 X13.624 Y39.291 E23.99557
G1 X13.182 Y38.898 E24.01821
G1 X12.797 Y38.449 E24.04084
G1 X12.477 Y37.952 E24.06346
G1 X12.226 Y37.416 E24.08611
G1 X12.05 Y36.852 E24.10872
G1 X11.952 Y36.269 E24.13135
G1 X11.93 Y35.834 E24.14802
G1 X11.93 Y29.791 E24.37928
G1 X11.97 Y29.201 E24.40191
G1 X12.089 Y28.622 E24.42454
G1 X12.285 Y28.064 E24.44717
G1 X12.555 Y27.538 E24.4698
G1 X12.893 Y27.053 E24.49242
G1 X13.293 Y26.618 E24.51504
G1 X13.749 Y26.241 E24.53768
G1 X14.251 Y25.928 E24.56032
G1 X14.79 Y25.687 E24.58291
G1 X15.358 Y25.52 E24.60557
G1 X15.942 Y25.431 E24.62818
G1 X16.533 Y25.422 E24.6508
G1 X16.966 Y25.466 E24.66746
G1 X17.442 Y25.539 E24.68589
G1 X17.535 Y25.273 E24.69667
G1 X17.805 Y24.747 E24.7193
G1 X18.143 Y24.262 E24.74192
G1 X18.543 Y23.827 E24.76454
G1 X18.999 Y23.45 E24.78718
G1 X19.501 Y23.137 E24.80982
G1 X20.04 Y22.896 E24.83241
G1 X20.608 Y22.729 E24.85507
G1 X21.192 Y22.64 E24.87768
G1 X21.555 Y22.625 E24.89158
G1 X100.824 Y22.628 E27.9252
G1 X101.414 Y22.668 E27.94783
G1 X101.757 Y22.729 E27.96117
G1 X102.765 Y22.949 E28.00065
G1 X103.333 Y23.113 E28.02328
G1 X103.873 Y23.353 E28.04589
G1 X104.193 Y23.54 E28.06008
G1 X105.098 Y24.12 E28.10121
G1 X105.573 Y24.471 E28.12381
G1 X106.034 Y24.927 E28.14863
G1 X106.45 Y25.404 E28.17285
G1 X106.808 Y25.875 E28.19549
G1 X107.087 Y26.367 E28.21714
G1 X107.496 Y27.208 E28.25293
G1 X107.718 Y27.756 E28.27555
G1 X107.823 Y28.128 E28.29035
G1 X107.92 Y28.544 E28.30669
G1 X108.015 Y29.127 E28.3293
G1 X108.034 Y29.53 E28.34474
G1 X108.063 Y48.493 E29.07045
G1 X108.024 Y49.083 E29.09308
G1 X107.906 Y49.663 E29.11573
G1 X107.71 Y50.221 E29.13837
G1 X107.442 Y50.747 E29.16096
G1 X107.104 Y51.233 E29.18361
G1 X106.705 Y51.669 E29.20623
G1 X106.25 Y52.046 E29.22885
G1 X105.748 Y52.36 E29.25151
G1 X105.209 Y52.602 E29.27412
G1 X104.642 Y52.77 E29.29675
G1 X104.058 Y52.859 E29.31936
G1 X103.688 Y52.875 E29.33353
G1 X102.687 Y52.875 E29.37184
G1 X102.097 Y52.835 E29.39447
G1 X101.518 Y52.716 E29.41709
G1 X100.96 Y52.52 E29.43972
G1 X100.434 Y52.25 E29.46235
G1 X99.949 Y51.912 E29.48498
G1 X99.514 Y51.512 E29.50759
G1 X99.401 Y51.375 E29.51439
G1 X86.434 Y51.375 E30.01063
G1 X85.717 Y51.454 E30.03824
G1 X85.426 Y51.541 E30.04986
G1 X85.123 Y51.688 E30.06275
G1 X84.828 Y51.898 E30.07661
G1 X84.826 Y51.9 E30.07672
G0 F1620 X84.584 Y52.146
G0 X84.381 Y52.431
G0 F4320 X84.079 Y52.251
G1 F2400 E30.10328
G1 F1800 X83.908 Y52.6 E30.11815
G1 X83.782 Y53.02 E30.13493
G1 X83.752 Y53.211 E30.14233
G1 X83.783 Y53.93 E30.16987
G1 X83.938 Y54.483 E30.19185
G1 X84.027 Y54.678 E30.20005
G1 X84.159 Y54.885 E30.20945
G1 X84.467 Y55.246 E30.22761
G1 X84.765 Y55.497 E30.24252
G1 X85.112 Y55.705 E30.258
G1 X85.538 Y55.87 E30.27549
G1 X85.775 Y55.927 E30.28482
G1 X86.359 Y55.975 E30.30724
G1 X99.561 Y55.975 E30.81248
G1 X99.622 Y55.892 E30.81642
G1 X100.019 Y55.487 E30.83813
G1 X100.469 Y55.141 E30.85985
G1 X100.963 Y54.863 E30.88154
G1 X101.491 Y54.657 E30.90323
G1 X102.043 Y54.527 E30.92494
G1 X102.687 Y54.475 E30.94966
G1 X103.687 Y54.475 E30.98793
G1 X104.253 Y54.515 E31.00965
G1 X104.807 Y54.634 E31.03133
G1 X105.339 Y54.83 E31.05303
G1 X105.839 Y55.098 E31.07474
G1 X106.295 Y55.435 E31.09644
G1 X106.7 Y55.832 E31.11814
G1 X107.046 Y56.282 E31.13987
G1 X107.324 Y56.776 E31.16156
G1 X107.53 Y57.304 E31.18325
G1 X107.66 Y57.856 E31.20495
G1 X107.712 Y58.505 E31.22987
G1 X107.691 Y77.173 E31.94429
G1 X107.65 Y77.738 E31.96597
G1 X107.589 Y78.067 E31.97878
G1 X107.473 Y78.573 E31.99865
G1 X107.308 Y79.116 E32.02036
G1 X107.137 Y79.499 E32.03642
G1 X106.699 Y80.36 E32.07338
G1 X106.407 Y80.846 E32.09508
G1 X105.962 Y81.377 E32.1216
G1 X92.285 Y95.093 E32.86288
G1 X91.738 Y95.552 E32.89021
G1 X91.179 Y95.942 E32.91629
G1 X90.692 Y96.233 E32.938
G1 X90.327 Y96.395 E32.95328
G1 X89.636 Y96.662 E32.98163
G1 X89.094 Y96.829 E33.00334
G1 X88.689 Y96.901 E33.01908
G1 X87.968 Y96.992 E33.04689
G1 X87.464 Y97.024 E33.06622
G1 X21.555 Y97.025 E35.58855
G1 X20.989 Y96.985 E35.61027
G1 X20.435 Y96.866 E35.63195
G1 X19.903 Y96.67 E35.65365
G1 X19.403 Y96.402 E35.67536
G1 X18.947 Y96.065 E35.69706
G1 X18.542 Y95.668 E35.71876
G1 X18.197 Y95.218 E35.74046
G1 X17.918 Y94.724 E35.76218
G1 X17.758 Y94.314 E35.77902
G1 X16.914 Y94.443 E35.81169
G1 X16.348 Y94.489 E35.83343
G1 X15.782 Y94.455 E35.85513
G1 X15.227 Y94.342 E35.8768
G1 X14.692 Y94.152 E35.89853
G1 X14.19 Y93.888 E35.92024
G1 X13.73 Y93.557 E35.94192
G1 X13.32 Y93.165 E35.96363
G1 X12.971 Y92.718 E35.98534
G1 X12.687 Y92.227 E36.00704
G1 X12.475 Y91.701 E36.02875
G1 X12.339 Y91.151 E36.05043
G1 X12.28 Y90.464 E36.07682
G1 X12.28 Y84.421 E36.30808
G1 X12.32 Y83.855 E36.3298
G1 X12.439 Y83.301 E36.35148
G1 X12.635 Y82.769 E36.37318
G1 X12.903 Y82.269 E36.39489
G1 X13.24 Y81.813 E36.41659
G1 X13.637 Y81.408 E36.43829
G1 X14.087 Y81.062 E36.46002
G1 X14.581 Y80.784 E36.48171
G1 X15.109 Y80.578 E36.5034
G1 X15.661 Y80.448 E36.5251
G1 X16.226 Y80.397 E36.54681
G1 X16.913 Y80.442 E36.57316
G1 X17.53 Y80.536 E36.59705
G1 X17.53 Y73.859 E36.85257
G1 X17.57 Y73.293 E36.87429
G1 X17.689 Y72.739 E36.89597
G1 X17.84 Y72.328 E36.91273
G1 X17.711 Y71.995 E36.9264
G1 X17.581 Y71.443 E36.9481
