;FLAVOR:Marlin
;TIME:11264
;Filament used: 8.92358m
;Layer height: 0.175
;Generated with Cura_SteamEngine 3.6.0
M140 S65
M105
M190 S65
M104 S205
M105
M109 S205
M82 ;absolute extrusion mode
G21;(metric values)
G90;(absolute positioning)
M82;(set extruder to absolute mode)
M107;(start with the fan off)
G28;(Home the printer)
G92 E0;(Reset the extruder to 0)
G0 Z5 E5 F500;(Move up and prime the nozzle)
G0 X-1 Z0;(Move outside the printable area)
G1 Y60 E8 F500;(Draw a priming/wiping line to the rear)
G1 X-1;(Move a little closer to the print area)
G1 Y10 E16 F500;(draw more priming/wiping)
G1 E15 F250;(Small retract)
G92 E0;(Zero the extruder)
G92 E0
G1 F2400 E-2.5
;LAYER_COUNT:654
;LAYER:0
M107
G0 F4320 X22.91 Y53.759 Z0.263
;TYPE:SKIRT
G1 F2400 E0
G1 F1620 X23.502 Y53.524 E0.02438
G1 X24.119 Y53.365 E0.04876
G1 X24.751 Y53.284 E0.07314
G1 X25.075 Y53.274 E0.08555
G1 X94.925 Y53.274 E2.7587
G1 X95.561 Y53.314 E2.78309
G1 X96.186 Y53.433 E2.80744
G1 X96.792 Y53.63 E2.83183
G1 X97.368 Y53.901 E2.85619
G1 X97.906 Y54.242 E2.88057
G1 X98.397 Y54.648 E2.90495
G1 X98.833 Y55.112 E2.92931
G1 X99.208 Y55.627 E2.95369
G1 X99.515 Y56.184 E2.97803
G1 X99.75 Y56.776 E3.00241
G1 X99.909 Y57.393 E3.02679
G1 X99.99 Y58.025 E3.05118
G1 X100 Y58.349 E3.06358
G1 X100 Y63.174 E3.24824
G1 X99.96 Y63.81 E3.27262
G1 X99.841 Y64.435 E3.29697
G1 X99.644 Y65.041 E3.32136
G1 X99.373 Y65.617 E3.34572
G1 X99.032 Y66.155 E3.3701
G1 X98.626 Y66.646 E3.39448
G1 X98.162 Y67.082 E3.41885
G1 X97.647 Y67.457 E3.44323
G1 X97.09 Y67.764 E3.46757
G1 X96.498 Y67.999 E3.49194
G1 X95.881 Y68.158 E3.51633
G1 X95.249 Y68.239 E3.54071
G1 X94.925 Y68.249 E3.55312
G1 X25.075 Y68.25 E6.22627
G1 X24.439 Y68.21 E6.25066
G1 X23.814 Y68.091 E6.27501
G1 X23.208 Y67.894 E6.29939
G1 X22.632 Y67.623 E6.32375
G1 X22.094 Y67.282 E6.34813
G1 X21.603 Y66.876 E6.37251
G1 X21.167 Y66.412 E6.39688
G1 X20.792 Y65.897 E6.42126
G1 X20.485 Y65.34 E6.4456
G1 X20.25 Y64.748 E6.46998
G1 X20.091 Y64.131 E6.49436
G1 X20.01 Y63.499 E6.51874
G1 X20 Y63.175 E6.53115
G1 X20 Y58.349 E6.71584
G1 X20.04 Y57.713 E6.74023
G1 X20.159 Y57.088 E6.76458
G1 X20.356 Y56.482 E6.78896
G1 X20.627 Y55.906 E6.81332
G1 X20.968 Y55.368 E6.8377
G1 X21.374 Y54.877 E6.86208
G1 X21.838 Y54.441 E6.88645
G1 X22.307 Y54.1 E6.90864
G0 F1458 X22.353 Y54.066
G0 X22.91 Y53.759
G0 F4320 X23.237 Y53.996
G1 F2400 E6.9352
G1 F1620 X23.818 Y53.794 E6.95874
G1 X24.419 Y53.67 E6.98223
G1 X25.075 Y53.624 E7.00739
G1 X94.925 Y53.624 E9.68055
G1 X95.538 Y53.664 E9.70406
G1 X96.141 Y53.783 E9.72758
G1 X96.723 Y53.98 E9.75109
G1 X97.275 Y54.25 E9.77461
G1 X97.787 Y54.59 E9.79813
G1 X98.251 Y54.993 E9.82165
G1 X98.658 Y55.453 E9.84516
G1 X99.003 Y55.962 E9.86869
G1 X99.278 Y56.511 E9.89219
G1 X99.48 Y57.092 E9.91573
G1 X99.604 Y57.693 E9.93921
G1 X99.65 Y58.349 E9.96438
G1 X99.65 Y63.174 E10.14903
G1 X99.61 Y63.787 E10.17254
G1 X99.491 Y64.39 E10.19606
G1 X99.294 Y64.972 E10.21958
G1 X99.024 Y65.524 E10.24309
G1 X98.684 Y66.036 E10.26662
G1 X98.281 Y66.5 E10.29014
G1 X97.821 Y66.907 E10.31364
G1 X97.312 Y67.252 E10.33717
G1 X96.763 Y67.527 E10.36067
G1 X96.182 Y67.729 E10.38421
G1 X95.581 Y67.853 E10.4077
G1 X94.925 Y67.899 E10.43286
G1 X25.075 Y67.9 E13.10602
G1 X24.462 Y67.86 E13.12953
G1 X23.859 Y67.741 E13.15305
G1 X23.277 Y67.544 E13.17656
G1 X22.725 Y67.274 E13.20008
G1 X22.213 Y66.934 E13.2236
G1 X21.749 Y66.531 E13.24712
G1 X21.342 Y66.071 E13.27063
G1 X20.997 Y65.562 E13.29416
G1 X20.722 Y65.013 E13.31766
G1 X20.52 Y64.432 E13.3412
G1 X20.396 Y63.831 E13.36468
G1 X20.35 Y63.175 E13.38985
G1 X20.35 Y58.349 E13.57454
G1 X20.39 Y57.736 E13.59805
G1 X20.509 Y57.133 E13.62157
G1 X20.706 Y56.551 E13.64509
G1 X20.976 Y55.999 E13.6686
G1 X21.316 Y55.487 E13.69212
G1 X21.719 Y55.023 E13.71564
G1 X22.179 Y54.616 E13.73915
G1 X22.622 Y54.315 E13.75965
G0 F1458 X22.688 Y54.271
G0 X23.237 Y53.996
G0 F4320 X23.021 Y54.486
G1 F2400 E13.78621
G1 F1620 X23.56 Y54.245 E13.8088
G1 X24.128 Y54.078 E13.83146
G1 X24.712 Y53.989 E13.85407
G1 X25.075 Y53.974 E13.86797
G1 X94.925 Y53.974 E16.54113
G1 X95.515 Y54.014 E16.56376
G1 X96.094 Y54.133 E16.58638
G1 X96.652 Y54.329 E16.60901
G1 X97.178 Y54.599 E16.63164
G1 X97.663 Y54.937 E16.65426
G1 X98.098 Y55.337 E16.67688
G1 X98.475 Y55.793 E16.69952
G1 X98.788 Y56.295 E16.72216
G1 X99.029 Y56.834 E16.74476
G1 X99.196 Y57.402 E16.76741
G1 X99.285 Y57.986 E16.79002
G1 X99.3 Y58.349 E16.80393
G1 X99.3 Y63.174 E16.98858
G1 X99.26 Y63.764 E17.01121
G1 X99.141 Y64.343 E17.03383
G1 X98.945 Y64.901 E17.05647
G1 X98.675 Y65.427 E17.07909
G1 X98.337 Y65.912 E17.10172
G1 X97.937 Y66.347 E17.12433
G1 X97.481 Y66.724 E17.14697
G1 X96.979 Y67.037 E17.16961
G1 X96.44 Y67.278 E17.19221
G1 X95.872 Y67.445 E17.21487
G1 X95.288 Y67.534 E17.23748
G1 X94.925 Y67.549 E17.25138
G1 X25.075 Y67.55 E19.92453
G1 X24.485 Y67.51 E19.94717
G1 X23.906 Y67.391 E19.96979
G1 X23.348 Y67.195 E19.99242
G1 X22.822 Y66.925 E20.01505
G1 X22.337 Y66.587 E20.03767
G1 X21.902 Y66.187 E20.06029
G1 X21.525 Y65.731 E20.08293
G1 X21.212 Y65.229 E20.10557
G1 X20.971 Y64.69 E20.12817
G1 X20.804 Y64.123 E20.15079
G1 X20.715 Y63.538 E20.17343
G1 X20.7 Y63.175 E20.18734
G1 X20.7 Y58.349 E20.37203
G1 X20.74 Y57.759 E20.39466
G1 X20.859 Y57.18 E20.41728
G1 X21.055 Y56.622 E20.43991
G1 X21.325 Y56.096 E20.46254
G1 X21.663 Y55.611 E20.48516
G1 X22.063 Y55.176 E20.50778
G1 X22.44 Y54.864 E20.52651
G0 F1458 X22.519 Y54.799
G0 X23.021 Y54.486
G0 F4320 X23.351 Y54.712
G1 F2400 E20.55307
G1 F1620 X23.879 Y54.506 E20.57476
G1 X24.431 Y54.376 E20.59646
G1 X25.075 Y54.324 E20.62118
G1 X94.925 Y54.324 E23.29434
G1 X95.491 Y54.364 E23.31606
G1 X96.045 Y54.483 E23.33774
G1 X96.577 Y54.679 E23.35944
G1 X97.077 Y54.947 E23.38115
G1 X97.533 Y55.284 E23.40285
G1 X97.938 Y55.681 E23.42455
G1 X98.284 Y56.131 E23.44628
G1 X98.562 Y56.625 E23.46797
G1 X98.768 Y57.153 E23.48966
G1 X98.898 Y57.705 E23.51136
G1 X98.95 Y58.349 E23.53609
G1 X98.95 Y63.174 E23.72074
G1 X98.91 Y63.74 E23.74245
G1 X98.791 Y64.294 E23.76414
G1 X98.595 Y64.826 E23.78584
G1 X98.327 Y65.326 E23.80755
G1 X97.99 Y65.782 E23.82925
G1 X97.593 Y66.187 E23.85095
G1 X97.143 Y66.533 E23.87268
G1 X96.649 Y66.811 E23.89437
G1 X96.121 Y67.017 E23.91606
G1 X95.569 Y67.147 E23.93776
G1 X94.925 Y67.199 E23.96249
G1 X25.075 Y67.2 E26.63564
G1 X24.509 Y67.16 E26.65736
G1 X23.955 Y67.041 E26.67904
G1 X23.423 Y66.845 E26.70074
G1 X22.923 Y66.577 E26.72245
G1 X22.467 Y66.24 E26.74415
G1 X22.062 Y65.843 E26.76585
G1 X21.717 Y65.393 E26.78755
G1 X21.438 Y64.899 E26.80927
G1 X21.232 Y64.371 E26.83096
G1 X21.102 Y63.819 E26.85266
G1 X21.05 Y63.175 E26.87739
G1 X21.05 Y58.349 E27.06208
G1 X21.09 Y57.783 E27.08379
G1 X21.209 Y57.229 E27.10548
G1 X21.405 Y56.697 E27.12717
G1 X21.673 Y56.197 E27.14888
G1 X22.01 Y55.741 E27.17058
G1 X22.407 Y55.336 E27.19229
G1 X22.756 Y55.068 E27.20913
G0 F1458 X22.857 Y54.99
G0 X23.351 Y54.712
G0 F4320 X23.677 Y54.95
G1 F2400 E27.23569
G1 F1620 X24.192 Y54.782 E27.25642
G1 X24.726 Y54.691 E27.27715
G1 X25.075 Y54.674 E27.29052
G1 X94.925 Y54.674 E29.96368
G1 X95.465 Y54.714 E29.9844
G1 X95.994 Y54.833 E30.00515
G1 X96.499 Y55.028 E30.02587
G1 X96.971 Y55.296 E30.04664
G1 X97.397 Y55.63 E30.06735
G1 X97.77 Y56.023 E30.08809
G1 X98.081 Y56.467 E30.10884
G1 X98.324 Y56.951 E30.12956
G1 X98.492 Y57.466 E30.15029
G1 X98.583 Y58 E30.17102
G1 X98.6 Y58.349 E30.1844
G1 X98.6 Y63.174 E30.36905
G1 X98.56 Y63.714 E30.38977
G1 X98.441 Y64.243 E30.41052
G1 X98.246 Y64.748 E30.43124
G1 X97.978 Y65.22 E30.45201
G1 X97.644 Y65.646 E30.47273
G1 X97.251 Y66.019 E30.49346
G1 X96.807 Y66.33 E30.51421
G1 X96.323 Y66.573 E30.53493
G1 X95.808 Y66.741 E30.55567
G1 X95.274 Y66.832 E30.5764
G1 X94.925 Y66.849 E30.58977
G1 X25.075 Y66.85 E33.26292
G1 X24.535 Y66.81 E33.28365
G1 X24.006 Y66.691 E33.3044
G1 X23.501 Y66.496 E33.32511
G1 X23.029 Y66.228 E33.34589
G1 X22.603 Y65.894 E33.3666
G1 X22.23 Y65.501 E33.38734
G1 X21.919 Y65.057 E33.40808
G1 X21.676 Y64.573 E33.42881
G1 X21.508 Y64.058 E33.44954
G1 X21.417 Y63.524 E33.47027
G1 X21.4 Y63.175 E33.48364
G1 X21.4 Y58.349 E33.66834
G1 X21.44 Y57.809 E33.68906
G1 X21.559 Y57.28 E33.70981
G1 X21.754 Y56.775 E33.73053
G1 X22.022 Y56.303 E33.7513
G1 X22.356 Y55.877 E33.77201
G1 X22.749 Y55.504 E33.79275
G1 X23.068 Y55.28 E33.80767
G0 F1458 X23.193 Y55.193
G0 X23.677 Y54.95
G0 F4320 X23.526 Y55.407
G1 F2400 E33.83423
G1 F1620 X23.999 Y55.203 E33.85394
G1 X24.498 Y55.074 E33.87366
G1 X25.075 Y55.024 E33.89583
G1 X94.925 Y55.024 E36.56898
G1 X95.439 Y55.064 E36.58871
G1 X95.94 Y55.183 E36.60842
G1 X96.417 Y55.378 E36.62814
G1 X96.859 Y55.644 E36.64788
G1 X97.253 Y55.975 E36.66758
G1 X97.592 Y56.364 E36.68732
G1 X97.867 Y56.8 E36.70705
G1 X98.071 Y57.273 E36.72677
G1 X98.2 Y57.772 E36.74649
G1 X98.25 Y58.349 E36.76865
G1 X98.25 Y63.174 E36.95331
G1 X98.21 Y63.688 E36.97304
G1 X98.091 Y64.189 E36.99274
G1 X97.896 Y64.666 E37.01247
G1 X97.63 Y65.108 E37.03221
G1 X97.299 Y65.502 E37.0519
G1 X96.91 Y65.841 E37.07165
G1 X96.474 Y66.116 E37.09137
G1 X96.001 Y66.32 E37.11109
G1 X95.502 Y66.449 E37.13081
G1 X94.925 Y66.499 E37.15298
G1 X25.075 Y66.5 E39.82613
G1 X24.561 Y66.46 E39.84586
G1 X24.06 Y66.341 E39.86557
G1 X23.583 Y66.146 E39.88529
G1 X23.141 Y65.88 E39.90503
G1 X22.747 Y65.549 E39.92473
G1 X22.408 Y65.16 E39.94447
G1 X22.133 Y64.724 E39.9642
G1 X21.929 Y64.251 E39.98391
G1 X21.8 Y63.752 E40.00364
G1 X21.75 Y63.175 E40.0258
G1 X21.75 Y58.349 E40.21049
G1 X21.79 Y57.835 E40.23022
G1 X21.909 Y57.334 E40.24993
G1 X22.104 Y56.857 E40.26965
G1 X22.37 Y56.415 E40.28939
G1 X22.701 Y56.021 E40.30909
G1 X22.955 Y55.799 E40.322
G0 F1458 X23.09 Y55.682
G0 X23.526 Y55.407
G0 F4320 X23.855 Y55.636
G1 F2400 E40.34856
G1 F1620 X24.314 Y55.473 E40.3672
G1 X24.794 Y55.387 E40.38586
G1 X25.075 Y55.374 E40.39662
G1 X94.925 Y55.374 E43.06978
G1 X95.411 Y55.414 E43.08844
G1 X95.884 Y55.533 E43.10711
G1 X96.331 Y55.727 E43.12576
G1 X96.74 Y55.992 E43.14441
G1 X97.1 Y56.32 E43.16305
G1 X97.403 Y56.702 E43.1817
G1 X97.638 Y57.129 E43.20036
G1 X97.801 Y57.588 E43.219
G1 X97.887 Y58.068 E43.23766
G1 X97.9 Y58.349 E43.24843
G1 X97.9 Y63.174 E43.43308
G1 X97.86 Y63.66 E43.45174
G1 X97.741 Y64.133 E43.47041
G1 X97.547 Y64.58 E43.48905
G1 X97.282 Y64.989 E43.5077
G1 X96.954 Y65.349 E43.52634
G1 X96.572 Y65.652 E43.545
G1 X96.145 Y65.887 E43.56366
G1 X95.686 Y66.05 E43.5823
G1 X95.206 Y66.136 E43.60096
G1 X94.925 Y66.149 E43.61172
G1 X25.075 Y66.15 E46.28488
G1 X24.589 Y66.11 E46.30354
G1 X24.116 Y65.991 E46.32221
G1 X23.669 Y65.797 E46.34085
G1 X23.26 Y65.532 E46.35951
G1 X22.9 Y65.204 E46.37814
G1 X22.597 Y64.822 E46.3968
G1 X22.362 Y64.395 E46.41546
G1 X22.199 Y63.936 E46.4341
G1 X22.113 Y63.456 E46.45276
G1 X22.1 Y63.175 E46.46352
G1 X22.1 Y58.349 E46.64821
G1 X22.14 Y57.863 E46.66688
G1 X22.259 Y57.39 E46.68554
G1 X22.453 Y56.943 E46.70419
G1 X22.718 Y56.534 E46.72284
G1 X23.046 Y56.174 E46.74148
G1 X23.266 Y55.999 E46.75224
G0 F1458 X23.428 Y55.871
G0 X23.855 Y55.636
G0 F4320 X23.764 Y56.075
G1 F2400 E46.7788
G1 F1620 X24.179 Y55.882 E46.79631
G1 X24.621 Y55.764 E46.81382
G1 X25.075 Y55.724 E46.83126
G1 X94.925 Y55.724 E49.50442
G1 X95.381 Y55.764 E49.52194
G1 X95.823 Y55.882 E49.53944
G1 X96.238 Y56.076 E49.55698
G1 X96.613 Y56.339 E49.5745
G1 X96.937 Y56.663 E49.59204
G1 X97.199 Y57.038 E49.60955
G1 X97.392 Y57.453 E49.62706
G1 X97.51 Y57.895 E49.64457
G1 X97.55 Y58.349 E49.66201
G1 X97.55 Y63.174 E49.84666
G1 X97.51 Y63.63 E49.86418
G1 X97.392 Y64.072 E49.88169
G1 X97.198 Y64.487 E49.89922
G1 X96.935 Y64.862 E49.91675
G1 X96.611 Y65.186 E49.93429
G1 X96.236 Y65.448 E49.95179
G1 X95.821 Y65.641 E49.96931
G1 X95.379 Y65.759 E49.98682
G1 X94.925 Y65.799 E50.00426
G1 X25.075 Y65.8 E52.67741
G1 X24.619 Y65.76 E52.69493
G1 X24.177 Y65.642 E52.71244
G1 X23.762 Y65.448 E52.72997
G1 X23.387 Y65.185 E52.7475
G1 X23.063 Y64.861 E52.76504
G1 X22.801 Y64.486 E52.78254
G1 X22.608 Y64.071 E52.80006
G1 X22.49 Y63.629 E52.81757
G1 X22.45 Y63.175 E52.83501
G1 X22.45 Y58.349 E53.0197
G1 X22.49 Y57.893 E53.03722
G1 X22.608 Y57.451 E53.05472
G1 X22.802 Y57.036 E53.07226
G1 X23.065 Y56.661 E53.08978
G1 X23.222 Y56.504 E53.09828
G0 F1458 X23.389 Y56.337
G0 X23.764 Y56.075
G0 F4320 X24.095 Y56.296
G1 F2400 E53.12484
G1 F1620 X24.495 Y56.149 E53.14115
G1 X25.075 Y56.074 E53.16353
G1 X94.925 Y56.074 E55.83669
G1 X95.349 Y56.114 E55.85299
G1 X95.759 Y56.232 E55.86931
G1 X96.139 Y56.425 E55.88562
G1 X96.476 Y56.685 E55.90191
G1 X96.759 Y57.003 E55.9182
G1 X96.978 Y57.369 E55.93453
G1 X97.125 Y57.769 E55.95084
G1 X97.2 Y58.349 E55.97322
G1 X97.2 Y63.174 E56.15787
G1 X97.16 Y63.598 E56.17417
G1 X97.042 Y64.008 E56.1905
G1 X96.849 Y64.388 E56.20681
G1 X96.589 Y64.725 E56.2231
G1 X96.271 Y65.008 E56.23939
G1 X95.905 Y65.227 E56.25571
G1 X95.505 Y65.374 E56.27202
G1 X94.925 Y65.449 E56.2944
G1 X25.075 Y65.45 E58.96756
G1 X24.651 Y65.41 E58.98385
G1 X24.241 Y65.292 E59.00018
G1 X23.861 Y65.099 E59.01649
G1 X23.524 Y64.839 E59.03278
G1 X23.241 Y64.521 E59.04907
G1 X23.022 Y64.155 E59.0654
G1 X22.875 Y63.755 E59.0817
G1 X22.8 Y63.175 E59.10409
G1 X22.8 Y58.349 E59.28878
G1 X22.84 Y57.925 E59.30508
G1 X22.958 Y57.515 E59.3214
G1 X23.151 Y57.135 E59.33771
G1 X23.411 Y56.798 E59.354
G1 X23.529 Y56.693 E59.36005
G0 F1458 X23.729 Y56.515
G0 X24.095 Y56.296
G0 F4320 X24.42 Y56.539
G1 F2400 E59.38661
G1 F1620 X24.8 Y56.444 E59.4016
G1 X25.075 Y56.424 E59.41215
G1 X94.925 Y56.424 E62.0853
G1 X95.315 Y56.464 E62.10031
G1 X95.689 Y56.582 E62.11532
G1 X96.031 Y56.773 E62.13031
G1 X96.327 Y57.03 E62.14531
G1 X96.565 Y57.341 E62.1603
G1 X96.735 Y57.694 E62.17529
G1 X96.83 Y58.074 E62.19028
G1 X96.85 Y58.349 E62.20083
G1 X96.85 Y63.174 E62.38549
G1 X96.81 Y63.564 E62.40049
G1 X96.692 Y63.938 E62.4155
G1 X96.501 Y64.28 E62.43049
G1 X96.244 Y64.576 E62.44549
G1 X95.933 Y64.814 E62.46048
G1 X95.58 Y64.984 E62.47547
G1 X95.2 Y65.079 E62.49046
G1 X94.925 Y65.099 E62.50101
G1 X25.075 Y65.1 E65.17417
G1 X24.685 Y65.06 E65.18917
G1 X24.311 Y64.942 E65.20418
G1 X23.969 Y64.751 E65.21917
G1 X23.673 Y64.494 E65.23418
G1 X23.435 Y64.183 E65.24916
G1 X23.265 Y63.83 E65.26416
G1 X23.17 Y63.45 E65.27915
G1 X23.15 Y63.175 E65.2897
G1 X23.15 Y58.349 E65.47439
G1 X23.19 Y57.959 E65.48939
G1 X23.308 Y57.585 E65.5044
G1 X23.499 Y57.243 E65.51939
G1 X23.756 Y56.947 E65.53439
G1 X23.826 Y56.893 E65.53778
G0 F1458 X24.067 Y56.709
G0 X24.42 Y56.539
G0 F4320 X24.399 Y56.926
G1 F2400 E65.56434
G1 F1620 X24.735 Y56.811 E65.57793
G1 X25.075 Y56.774 E65.59102
G1 X94.925 Y56.774 E68.26417
G1 X95.277 Y56.814 E68.27773
G1 X95.611 Y56.931 E68.29127
G1 X95.911 Y57.121 E68.30486
G1 X96.161 Y57.372 E68.31842
G1 X96.348 Y57.673 E68.33198
G1 X96.463 Y58.009 E68.34557
G1 X96.5 Y58.349 E68.35866
G1 X96.5 Y63.174 E68.54331
G1 X96.46 Y63.526 E68.55687
G1 X96.343 Y63.86 E68.57042
G1 X96.153 Y64.16 E68.58401
G1 X95.902 Y64.41 E68.59756
G1 X95.601 Y64.597 E68.61112
G1 X95.265 Y64.712 E68.62472
G1 X94.925 Y64.749 E68.6378
G1 X25.075 Y64.75 E71.31096
G1 X24.723 Y64.71 E71.32452
G1 X24.389 Y64.593 E71.33806
G1 X24.089 Y64.403 E71.35165
G1 X23.839 Y64.152 E71.36521
G1 X23.652 Y63.851 E71.37877
G1 X23.537 Y63.515 E71.39236
G1 X23.5 Y63.175 E71.40545
G1 X23.5 Y58.349 E71.59014
G1 X23.54 Y57.997 E71.6037
G1 X23.657 Y57.663 E71.61724
G1 X23.847 Y57.363 E71.63083
G1 X23.857 Y57.353 E71.63137
G0 F1458 X24.098 Y57.113
G0 X24.399 Y56.926
G0 F4320 X24.437 Y57.303
G1 F2400 E71.65793
G1 F1620 X24.722 Y57.176 E71.66987
G1 X25.075 Y57.124 E71.68353
G1 X94.925 Y57.124 E74.35668
G1 X95.235 Y57.164 E74.36865
G1 X95.525 Y57.281 E74.38061
G1 X95.775 Y57.467 E74.39254
G1 X95.971 Y57.711 E74.40452
G1 X96.098 Y57.996 E74.41646
G1 X96.15 Y58.349 E74.43011
G1 X96.15 Y63.174 E74.61476
G1 X96.11 Y63.484 E74.62673
G1 X95.993 Y63.774 E74.63869
G1 X95.807 Y64.024 E74.65062
G1 X95.563 Y64.22 E74.6626
G1 X95.278 Y64.347 E74.67454
G1 X94.925 Y64.399 E74.68819
G1 X25.075 Y64.4 E77.36135
G1 X24.765 Y64.36 E77.37331
G1 X24.475 Y64.243 E77.38528
G1 X24.225 Y64.057 E77.3972
G1 X24.029 Y63.813 E77.40918
G1 X23.902 Y63.528 E77.42112
G1 X23.85 Y63.175 E77.43478
G1 X23.85 Y58.349 E77.61947
