;FLAVOR:Marlin
;TIME:4231
;Filament used: 3.58078m
;Layer height: 0.21875
;Generated with Cura_SteamEngine 3.6.0
M140 S65
M105
M190 S65
M104 S205
M105
M109 S205
M82 ;absolute extrusion mode
G21;(metric values)
G90;(absolute positioning)
M82;(set extruder to absolute mode)
M107;(start with the fan off)
G28;(Home the printer)
G92 E0;(Reset the extruder to 0)
G0 Z5 E5 F500;(Move up and prime the nozzle)
G0 X-1 Z0;(Move outside the printable area)
G1 Y60 E8 F500;(Draw a priming/wiping line to the rear)
G1 X-1;(Move a little closer to the print area)
G1 Y10 E16 F500;(draw more priming/wiping)
G1 E15 F250;(Small retract)
G92 E0;(Zero the extruder)
G92 E0
G1 F2400 E-2.5
;LAYER_COUNT:80
;LAYER:0
M107
G0 F4320 X14.14 Y25.201 Z0.263
;TYPE:SKIRT
G1 F2400 E0
G1 F2160 X14.732 Y24.966 E0.02438
G1 X15.349 Y24.807 E0.04876
G1 X15.981 Y24.726 E0.07314
G1 X16.618 Y24.726 E0.09752
G1 X17.008 Y24.767 E0.11253
G1 X17.107 Y24.557 E0.12141
G1 X17.448 Y24.019 E0.14579
G1 X17.854 Y23.528 E0.17017
G1 X18.318 Y23.092 E0.19454
G1 X18.833 Y22.717 E0.21892
G1 X19.39 Y22.41 E0.24326
G1 X19.982 Y22.175 E0.26764
G1 X20.599 Y22.016 E0.29202
G1 X21.231 Y21.935 E0.3164
G1 X21.555 Y21.925 E0.32881
G1 X100.812 Y21.927 E3.36197
G1 X101.448 Y21.967 E3.38636
G1 X101.887 Y22.042 E3.4034
G1 X102.907 Y22.263 E3.44334
G1 X103.519 Y22.437 E3.46769
G1 X104.106 Y22.686 E3.49209
G1 X104.57 Y22.95 E3.51252
G1 X105.475 Y23.53 E3.55366
G1 X105.989 Y23.907 E3.57806
G1 X106.562 Y24.467 E3.60872
G1 X106.978 Y24.944 E3.63294
G1 X107.365 Y25.45 E3.65732
G1 X107.717 Y26.06 E3.68427
G1 X108.126 Y26.901 E3.72006
G1 X108.368 Y27.491 E3.74447
G1 X108.504 Y27.969 E3.76348
G1 X108.601 Y28.385 E3.77983
G1 X108.707 Y29.013 E3.80421
G1 X108.734 Y29.527 E3.8239
G1 X108.771 Y47.987 E4.53037
G1 X108.732 Y48.623 E4.55475
G1 X108.614 Y49.248 E4.57909
G1 X108.419 Y49.854 E4.60346
G1 X108.149 Y50.431 E4.62784
G1 X107.809 Y50.97 E4.65223
G1 X107.404 Y51.462 E4.67661
G1 X106.941 Y51.899 E4.70098
G1 X106.427 Y52.275 E4.72535
G1 X105.87 Y52.583 E4.74971
G1 X105.278 Y52.819 E4.7741
G1 X104.662 Y52.979 E4.79845
G1 X104.03 Y53.061 E4.82284
G1 X103.698 Y53.072 E4.83556
G1 X85.728 Y53.08 E5.52327
G1 X85.174 Y53.141 E5.5446
G1 X84.99 Y53.196 E5.55195
G1 X84.795 Y53.291 E5.56025
G1 X84.599 Y53.431 E5.56947
G1 X84.431 Y53.601 E5.57861
G1 X84.298 Y53.789 E5.58743
G1 X84.204 Y53.979 E5.59554
G1 X84.121 Y54.256 E5.6066
G1 X84.118 Y54.272 E5.60723
G1 X84.14 Y54.764 E5.62608
G1 X84.24 Y55.122 E5.6403
G1 X84.26 Y55.167 E5.64218
G1 X84.317 Y55.257 E5.64626
G1 X84.524 Y55.499 E5.65845
G1 X84.69 Y55.64 E5.66678
G1 X84.889 Y55.758 E5.67564
G1 X85.173 Y55.868 E5.68729
G1 X85.253 Y55.888 E5.69045
G1 X85.709 Y55.925 E5.70796
G1 X103.696 Y55.927 E6.39632
G1 X104.331 Y55.967 E6.42067
G1 X104.957 Y56.086 E6.44506
G1 X105.562 Y56.283 E6.4694
G1 X106.139 Y56.554 E6.4938
G1 X106.677 Y56.895 E6.51818
G1 X107.167 Y57.301 E6.54253
G1 X107.604 Y57.765 E6.56692
G1 X107.978 Y58.28 E6.59128
G1 X108.285 Y58.838 E6.61565
G1 X108.52 Y59.43 E6.64003
G1 X108.679 Y60.047 E6.66441
G1 X108.76 Y60.678 E6.68876
G1 X108.77 Y61.011 E6.70151
G1 X108.741 Y77.177 E7.32018
G1 X108.7 Y77.813 E7.34457
G1 X108.613 Y78.302 E7.36358
G1 X108.497 Y78.808 E7.38345
G1 X108.316 Y79.419 E7.40784
G1 X108.073 Y79.975 E7.43106
G1 X107.635 Y80.836 E7.46803
G1 X107.312 Y81.384 E7.49237
G1 X106.706 Y82.118 E7.5288
G1 X93.029 Y95.834 E8.27008
G1 X92.339 Y96.413 E8.30455
G1 X91.78 Y96.803 E8.33063
G1 X91.236 Y97.134 E8.355
G1 X90.705 Y97.375 E8.37732
G1 X90.014 Y97.642 E8.40567
G1 X89.407 Y97.834 E8.43003
G1 X88.82 Y97.943 E8.45288
G1 X88.099 Y98.034 E8.48069
G1 X87.464 Y98.074 E8.50504
G1 X21.555 Y98.075 E11.02738
G1 X20.919 Y98.035 E11.05177
G1 X20.294 Y97.916 E11.07611
G1 X19.688 Y97.719 E11.1005
G1 X19.112 Y97.448 E11.12486
G1 X18.574 Y97.107 E11.14924
G1 X18.083 Y96.701 E11.17362
G1 X17.647 Y96.237 E11.19799
G1 X17.272 Y95.722 E11.22237
G1 X17.134 Y95.472 E11.2333
G1 X17.072 Y95.481 E11.23569
G1 X16.438 Y95.537 E11.26005
G1 X15.802 Y95.514 E11.28441
G1 X15.173 Y95.411 E11.3088
G1 X14.562 Y95.23 E11.33319
G1 X13.979 Y94.975 E11.35754
G1 X13.432 Y94.648 E11.38193
G1 X12.931 Y94.255 E11.4063
G1 X12.483 Y93.803 E11.43065
G1 X12.095 Y93.298 E11.45502
G1 X11.773 Y92.748 E11.47941
G1 X11.523 Y92.162 E11.50379
G1 X11.348 Y91.55 E11.52815
G1 X11.251 Y90.921 E11.55251
G1 X11.23 Y90.464 E11.57002
G1 X11.23 Y84.421 E11.80128
G1 X11.27 Y83.785 E11.82567
G1 X11.389 Y83.16 E11.85002
G1 X11.586 Y82.554 E11.87441
G1 X11.857 Y81.978 E11.89877
G1 X12.198 Y81.44 E11.92314
G1 X12.604 Y80.949 E11.94753
G1 X13.068 Y80.513 E11.97189
G1 X13.583 Y80.138 E11.99627
G1 X14.14 Y79.831 E12.02061
G1 X14.732 Y79.596 E12.04499
G1 X15.349 Y79.437 E12.06937
G1 X15.981 Y79.356 E12.09376
G1 X16.48 Y79.356 E12.11285
G1 X16.48 Y73.859 E12.32322
G1 X16.52 Y73.223 E12.34761
G1 X16.639 Y72.598 E12.37196
G1 X16.726 Y72.33 E12.38274
G1 X16.622 Y71.994 E12.3962
G1 X16.511 Y71.366 E12.42061
G1 X16.48 Y70.803 E12.44219
G1 X16.48 Y65.447 E12.64716
G1 X16.52 Y64.811 E12.67155
G1 X16.639 Y64.186 E12.6959
G1 X16.726 Y63.918 E12.70668
G1 X16.63 Y63.615 E12.71885
G1 X16.515 Y62.989 E12.7432
G1 X16.48 Y62.391 E12.76613
G1 X16.48 Y57.034 E12.97114
G1 X16.52 Y56.398 E12.99553
G1 X16.639 Y55.773 E13.01988
G1 X16.726 Y55.505 E13.03066
G1 X16.63 Y55.201 E13.04286
G1 X16.515 Y54.574 E13.06726
G1 X16.48 Y53.978 E13.0901
G1 X16.48 Y40.903 E13.59048
G1 X16.438 Y40.907 E13.5921
G1 X15.802 Y40.884 E13.61645
G1 X15.173 Y40.781 E13.64085
G1 X14.562 Y40.6 E13.66523
G1 X13.979 Y40.345 E13.68959
G1 X13.432 Y40.018 E13.71397
G1 X12.931 Y39.625 E13.73834
G1 X12.483 Y39.173 E13.7627
G1 X12.095 Y38.668 E13.78707
G1 X11.773 Y38.118 E13.81146
G1 X11.523 Y37.532 E13.83584
G1 X11.348 Y36.92 E13.8602
G1 X11.251 Y36.291 E13.88456
G1 X11.23 Y35.834 E13.90207
G1 X11.23 Y29.791 E14.13333
G1 X11.27 Y29.155 E14.15772
G1 X11.389 Y28.53 E14.18207
G1 X11.586 Y27.924 E14.20645
G1 X11.857 Y27.348 E14.23082
G1 X12.198 Y26.81 E14.25519
G1 X12.604 Y26.319 E14.27957
G1 X13.068 Y25.883 E14.30394
G1 X13.537 Y25.542 E14.32613
G0 F1944 X13.583 Y25.508
G0 X14.14 Y25.201
G0 F4320 X14.467 Y25.438
G1 F2400 E14.35269
G1 F2160 X15.048 Y25.236 E14.37623
G1 X15.649 Y25.112 E14.39972
G1 X16.262 Y25.066 E14.42324
G1 X17.019 Y25.12 E14.45229
G1 X17.212 Y25.149 E14.45976
G1 X17.456 Y24.65 E14.48101
G1 X17.796 Y24.138 E14.50453
G1 X18.199 Y23.674 E14.52805
G1 X18.659 Y23.267 E14.55156
G1 X19.168 Y22.922 E14.57509
G1 X19.717 Y22.647 E14.59859
G1 X20.298 Y22.445 E14.62213
G1 X20.899 Y22.321 E14.64562
G1 X21.555 Y22.275 E14.67078
G1 X100.812 Y22.277 E17.70394
G1 X101.425 Y22.317 E17.72745
G1 X101.813 Y22.384 E17.74252
G1 X102.833 Y22.605 E17.78246
G1 X103.423 Y22.774 E17.80595
G1 X103.987 Y23.018 E17.82947
G1 X104.382 Y23.245 E17.8469
G1 X105.287 Y23.825 E17.88804
G1 X105.781 Y24.189 E17.91152
G1 X106.298 Y24.697 E17.93926
G1 X106.714 Y25.174 E17.96348
G1 X107.087 Y25.663 E17.98702
G1 X107.402 Y26.214 E18.01131
G1 X107.811 Y27.055 E18.0471
G1 X108.043 Y27.623 E18.07058
G1 X108.164 Y28.048 E18.08749
G1 X108.261 Y28.464 E18.10384
G1 X108.361 Y29.07 E18.12734
G1 X108.384 Y29.528 E18.14489
G1 X108.421 Y47.988 E18.85136
G1 X108.382 Y48.601 E18.87486
G1 X108.264 Y49.204 E18.89838
G1 X108.069 Y49.787 E18.9219
G1 X107.8 Y50.339 E18.9454
G1 X107.461 Y50.852 E18.96894
G1 X107.059 Y51.316 E18.99243
G1 X106.6 Y51.724 E19.01593
G1 X106.091 Y52.07 E19.03949
G1 X105.543 Y52.346 E19.06297
G1 X104.963 Y52.549 E19.08649
G1 X104.361 Y52.675 E19.11002
G1 X103.698 Y52.722 E19.13546
G1 X85.708 Y52.73 E19.82394
G1 X85.102 Y52.797 E19.84727
G1 X84.864 Y52.868 E19.85677
G1 X84.617 Y52.989 E19.8673
G1 X84.371 Y53.164 E19.87885
G1 X84.162 Y53.375 E19.89022
G1 X83.996 Y53.608 E19.90117
G1 X83.876 Y53.855 E19.91168
G1 X83.778 Y54.182 E19.92474
G1 X83.767 Y54.246 E19.92723
G1 X83.792 Y54.822 E19.94929
G1 X83.91 Y55.243 E19.96602
G1 X83.954 Y55.338 E19.97003
G1 X84.04 Y55.474 E19.97619
G1 X84.274 Y55.747 E19.98995
G1 X84.487 Y55.927 E20.00062
G1 X84.734 Y56.074 E20.01162
G1 X85.06 Y56.201 E20.02501
G1 X85.201 Y56.235 E20.03056
G1 X85.693 Y56.275 E20.04945
G1 X103.696 Y56.277 E20.73842
G1 X104.309 Y56.317 E20.76193
G1 X104.912 Y56.436 E20.78546
G1 X105.494 Y56.633 E20.80897
G1 X106.046 Y56.903 E20.83249
G1 X106.558 Y57.243 E20.85601
G1 X107.021 Y57.646 E20.8795
G1 X107.429 Y58.106 E20.90303
G1 X107.773 Y58.615 E20.92654
G1 X108.048 Y59.165 E20.95007
G1 X108.25 Y59.745 E20.97358
G1 X108.374 Y60.347 E20.9971
G1 X108.42 Y61.01 E21.02253
G1 X108.391 Y77.176 E21.64121
G1 X108.35 Y77.79 E21.66476
G1 X108.272 Y78.224 E21.68163
G1 X108.156 Y78.73 E21.7015
G1 X107.98 Y79.319 E21.72503
G1 X107.761 Y79.816 E21.74581
G1 X107.323 Y80.677 E21.78278
G1 X107.01 Y81.206 E21.8063
G1 X106.458 Y81.871 E21.83938
G1 X92.781 Y95.587 E22.58066
G1 X92.139 Y96.126 E22.61274
G1 X91.58 Y96.516 E22.63882
G1 X91.054 Y96.834 E22.66235
G1 X90.579 Y97.048 E22.68228
G1 X89.888 Y97.315 E22.71063
G1 X89.302 Y97.499 E22.73414
G1 X88.777 Y97.596 E22.75457
G1 X88.056 Y97.687 E22.78238
G1 X87.464 Y97.724 E22.80508
G1 X21.555 Y97.725 E25.32742
G1 X20.942 Y97.685 E25.35093
G1 X20.339 Y97.566 E25.37445
G1 X19.757 Y97.369 E25.39796
G1 X19.205 Y97.099 E25.42148
G1 X18.693 Y96.759 E25.445
G1 X18.229 Y96.356 E25.46852
G1 X17.822 Y95.896 E25.49203
G1 X17.477 Y95.387 E25.51556
G1 X17.327 Y95.088 E25.52836
G1 X17.019 Y95.135 E25.54028
G1 X16.407 Y95.188 E25.56379
G1 X15.793 Y95.161 E25.58731
G1 X15.188 Y95.055 E25.61082
G1 X14.602 Y94.871 E25.63432
G1 X14.044 Y94.613 E25.65785
G1 X13.525 Y94.284 E25.68137
G1 X13.053 Y93.891 E25.70487
G1 X12.635 Y93.44 E25.72841
G1 X12.28 Y92.939 E25.7519
G1 X11.993 Y92.396 E25.77541
G1 X11.779 Y91.82 E25.79892
G1 X11.641 Y91.221 E25.82245
G1 X11.58 Y90.464 E25.85151
G1 X11.58 Y84.421 E26.08278
G1 X11.62 Y83.808 E26.10629
G1 X11.739 Y83.205 E26.12981
G1 X11.936 Y82.623 E26.15332
G1 X12.206 Y82.071 E26.17684
G1 X12.546 Y81.559 E26.20036
G1 X12.949 Y81.095 E26.22388
G1 X13.409 Y80.688 E26.24739
G1 X13.918 Y80.343 E26.27092
G1 X14.467 Y80.068 E26.29442
G1 X15.048 Y79.866 E26.31796
G1 X15.649 Y79.742 E26.34144
G1 X16.262 Y79.696 E26.36497
G1 X16.83 Y79.737 E26.38676
G1 X16.83 Y73.859 E26.61171
G1 X16.87 Y73.246 E26.63522
G1 X16.989 Y72.643 E26.65874
G1 X17.091 Y72.341 E26.67094
G1 X16.938 Y71.806 E26.69224
G1 X16.847 Y71.199 E26.71573
G1 X16.83 Y70.803 E26.7309
G1 X16.83 Y65.447 E26.93587
G1 X16.87 Y64.834 E26.95938
G1 X16.989 Y64.231 E26.9829
G1 X17.092 Y63.927 E26.99519
G1 X16.945 Y63.426 E27.01517
G1 X16.849 Y62.818 E27.03872
G1 X16.83 Y62.391 E27.05508
G1 X16.83 Y57.034 E27.26009
G1 X16.87 Y56.421 E27.2836
G1 X16.989 Y55.818 E27.30712
G1 X17.092 Y55.513 E27.31944
G1 X16.944 Y55.011 E27.33947
G1 X16.849 Y54.404 E27.36299
G1 X16.83 Y53.978 E27.37931
G1 X16.83 Y40.521 E27.8943
G1 X16.407 Y40.558 E27.91055
G1 X15.793 Y40.531 E27.93407
G1 X15.188 Y40.425 E27.95758
G1 X14.602 Y40.241 E27.98109
G1 X14.044 Y39.983 E28.00461
G1 X13.525 Y39.654 E28.02813
G1 X13.053 Y39.261 E28.05163
G1 X12.635 Y38.81 E28.07517
G1 X12.28 Y38.309 E28.09867
G1 X11.993 Y37.766 E28.12217
G1 X11.779 Y37.19 E28.14569
G1 X11.641 Y36.591 E28.16921
G1 X11.58 Y35.834 E28.19828
G1 X11.58 Y29.791 E28.42954
G1 X11.62 Y29.178 E28.45305
G1 X11.739 Y28.575 E28.47657
G1 X11.936 Y27.993 E28.50009
G1 X12.206 Y27.441 E28.5236
G1 X12.546 Y26.929 E28.54712
G1 X12.949 Y26.465 E28.57064
G1 X13.409 Y26.058 E28.59415
G1 X13.852 Y25.757 E28.61465
G0 F1944 X13.918 Y25.713
G0 X14.467 Y25.438
G0 F4320 X14.251 Y25.928
G1 F2400 E28.64121
G1 F2160 X14.79 Y25.687 E28.6638
G1 X15.358 Y25.52 E28.68646
G1 X15.942 Y25.431 E28.70907
G1 X16.533 Y25.422 E28.73169
G1 X16.966 Y25.466 E28.74834
G1 X17.442 Y25.539 E28.76677
G1 X17.535 Y25.273 E28.77756
G1 X17.805 Y24.747 E28.80018
G1 X18.143 Y24.262 E28.82281
G1 X18.543 Y23.827 E28.84542
G1 X18.999 Y23.45 E28.86807
G1 X19.501 Y23.137 E28.89071
G1 X20.04 Y22.896 E28.9133
G1 X20.608 Y22.729 E28.93596
G1 X21.192 Y22.64 E28.95857
G1 X21.555 Y22.625 E28.97247
G1 X100.812 Y22.627 E32.00563
G1 X101.402 Y22.667 E32.02826
G1 X101.738 Y22.726 E32.04132
G1 X102.758 Y22.947 E32.08126
G1 X103.327 Y23.111 E32.10392
G1 X103.867 Y23.35 E32.12652
G1 X104.193 Y23.54 E32.14096
G1 X105.098 Y24.12 E32.1821
G1 X105.573 Y24.471 E32.2047
G1 X106.034 Y24.927 E32.22951
G1 X106.45 Y25.404 E32.25374
G1 X106.808 Y25.875 E32.27638
G1 X107.087 Y26.367 E32.29802
G1 X107.496 Y27.208 E32.33381
G1 X107.718 Y27.756 E32.35644
G1 X107.823 Y28.128 E32.37123
G1 X107.92 Y28.544 E32.38758
G1 X108.015 Y29.127 E32.41019
G1 X108.034 Y29.528 E32.42555
G1 X108.071 Y47.988 E33.13201
G1 X108.032 Y48.578 E33.15464
G1 X107.914 Y49.158 E33.17729
G1 X107.719 Y49.716 E33.19991
G1 X107.451 Y50.243 E33.22254
G1 X107.114 Y50.728 E33.24514
G1 X106.714 Y51.164 E33.26779
G1 X106.26 Y51.542 E33.29039
G1 X105.758 Y51.856 E33.31305
G1 X105.219 Y52.098 E33.33567
G1 X104.652 Y52.266 E33.3583
G1 X104.068 Y52.356 E33.38091
G1 X103.698 Y52.372 E33.39508
G1 X85.687 Y52.38 E34.08436
G1 X85.035 Y52.452 E34.10947
G1 X84.739 Y52.541 E34.1213
G1 X84.436 Y52.688 E34.13418
G1 X84.141 Y52.898 E34.14804
G1 X83.897 Y53.146 E34.16136
G1 X83.694 Y53.431 E34.17475
G1 X83.549 Y53.727 E34.18736
G1 X83.437 Y54.102 E34.20234
G1 X83.416 Y54.231 E34.20734
G1 X83.444 Y54.877 E34.23209
G1 X83.58 Y55.362 E34.25136
G1 X83.648 Y55.511 E34.25763
G1 X83.754 Y55.677 E34.26517
G1 X84.027 Y55.996 E34.28124
G1 X84.281 Y56.21 E34.29395
G1 X84.583 Y56.391 E34.30742
G1 X84.954 Y56.535 E34.32265
G1 X85.141 Y56.58 E34.33001
G1 X85.689 Y56.625 E34.35106
G1 X103.695 Y56.627 E35.04015
G1 X104.285 Y56.667 E35.06278
G1 X104.865 Y56.786 E35.08544
G1 X105.422 Y56.982 E35.10803
G1 X105.949 Y57.252 E35.13069
G1 X106.434 Y57.59 E35.15332
G1 X106.869 Y57.991 E35.17596
G1 X107.246 Y58.446 E35.19857
G1 X107.558 Y58.948 E35.22119
G1 X107.8 Y59.488 E35.24384
G1 X107.966 Y60.055 E35.26645
G1 X108.055 Y60.64 E35.28909
G1 X108.07 Y61.01 E35.30327
G1 X108.041 Y77.176 E35.92194
G1 X108 Y77.766 E35.94457
G1 X107.93 Y78.146 E35.95936
G1 X107.814 Y78.652 E35.97923
G1 X107.644 Y79.218 E36.00184
G1 X107.449 Y79.658 E36.02026
G1 X107.011 Y80.519 E36.05723
G1 X106.708 Y81.026 E36.07983
G1 X106.21 Y81.624 E36.10962
G1 X92.533 Y95.34 E36.8509
G1 X91.938 Y95.839 E36.88062
G1 X91.379 Y96.229 E36.9067
G1 X90.873 Y96.534 E36.92931
G1 X90.453 Y96.722 E36.94692
G1 X89.762 Y96.989 E36.97527
G1 X89.197 Y97.164 E36.99791
G1 X88.733 Y97.249 E37.01596
G1 X88.012 Y97.34 E37.04377
G1 X87.464 Y97.374 E37.06478
G1 X21.555 Y97.375 E39.58712
G1 X20.965 Y97.335 E39.60975
G1 X20.386 Y97.216 E39.63237
G1 X19.828 Y97.02 E39.655
G1 X19.302 Y96.75 E39.67763
G1 X18.817 Y96.412 E39.70025
G1 X18.382 Y96.012 E39.72287
G1 X18.005 Y95.556 E39.74551
G1 X17.692 Y95.054 E39.76815
G1 X17.535 Y94.702 E39.7829
G1 X16.966 Y94.789 E39.80493
G1 X16.377 Y94.838 E39.82755
G1 X15.787 Y94.808 E39.85016
G1 X15.206 Y94.699 E39.87278
G1 X14.645 Y94.512 E39.89541
G1 X14.114 Y94.251 E39.91806
G1 X13.624 Y93.921 E39.94066
G1 X13.182 Y93.528 E39.9633
G1 X12.797 Y93.079 E39.98593
G1 X12.477 Y92.582 E40.00856
G1 X12.226 Y92.046 E40.03121
G1 X12.05 Y91.482 E40.05382
G1 X11.952 Y90.899 E40.07644
G1 X11.93 Y90.464 E40.09311
G1 X11.93 Y84.421 E40.32438
G1 X11.97 Y83.831 E40.34701
G1 X12.089 Y83.252 E40.36963
G1 X12.285 Y82.694 E40.39226
G1 X12.555 Y82.168 E40.41489
G1 X12.893 Y81.683 E40.43751
G1 X13.293 Y81.248 E40.46013
G1 X13.749 Y80.871 E40.48277
G1 X14.251 Y80.558 E40.50541
G1 X14.79 Y80.317 E40.52801
G1 X15.358 Y80.15 E40.55066
G1 X15.942 Y80.061 E40.57327
G1 X16.533 Y80.052 E40.59589
G1 X16.966 Y80.096 E40.61255
G1 X17.18 Y80.129 E40.62083
G1 X17.18 Y73.859 E40.86079
G1 X17.22 Y73.269 E40.88342
G1 X17.339 Y72.69 E40.90604
G1 X17.464 Y72.333 E40.92052
G1 X17.407 Y72.195 E40.92623
G1 X17.257 Y71.623 E40.94886
G1 X17.18 Y70.803 E40.98038
G1 X17.18 Y65.447 E41.18535
G1 X17.22 Y64.857 E41.20798
G1 X17.339 Y64.278 E41.23061
G1 X17.464 Y63.923 E41.24501
G1 X17.417 Y63.811 E41.24966
G1 X17.263 Y63.24 E41.27229
G1 X17.18 Y62.391 E41.30494
G1 X17.18 Y57.034 E41.50995
G1 X17.22 Y56.444 E41.53258
G1 X17.339 Y55.865 E41.5552
G1 X17.464 Y55.51 E41.5696
G1 X17.416 Y55.397 E41.5743
