;FLAVOR:Marlin
;TIME:5043
;Filament used: 6.62641m
;Layer height: 0.30625
;Generated with Cura_SteamEngine 3.6.0
M140 S60
M105
M190 S60
M104 S210
M105
M109 S210
M82 ;absolute extrusion mode
G21;(metric values)
G90;(absolute positioning)
M82;(set extruder to absolute mode)
M107;(start with the fan off)
G28;(Home the printer)
G92 E0;(Reset the extruder to 0)
G0 Z5 E5 F500;(Move up and prime the nozzle)
G0 X-1 Z0;(Move outside the printable area)
G1 Y60 E8 F500;(Draw a priming/wiping line to the rear)
G1 X-1;(Move a little closer to the print area)
G1 Y10 E16 F500;(draw more priming/wiping)
G1 E15 F250;(Small retract)
G92 E0;(Zero the extruder)
G92 E0
G1 F2400 E-2.5
;LAYER_COUNT:174
;LAYER:0
M107
;MESH:lowpolyskulllisa.stl
G0 F4320 X50.545 Y51.102 Z0.306
;TYPE:WALL-INNER
G1 F2400 E0
G1 F1440 X50.331 Y51.081 E0.00957
G1 X49.945 Y51.041 E0.02685
G1 X47.345 Y45.725 E0.29035
G1 X47.381 Y44.626 E0.33932
G1 X47.382 Y44.625 E0.33938
G1 X47.389 Y44.374 E0.35056
G1 X47.621 Y44.47 E0.35714
G1 X49.877 Y45.402 E0.46583
G1 X55.08 Y33.749 E1.03407
G1 X56.868 Y30.727 E1.19042
G1 X59.082 Y29.894 E1.29575
G1 X61.95 Y30.305 E1.42476
G1 X63.545 Y31.834 E1.52314
G1 X68.427 Y39.952 E1.94494
G1 X70.811 Y39.516 E2.05285
G1 X72.957 Y45.058 E2.31748
G1 X72.254 Y46.602 E2.39302
G1 X65.146 Y54.425 E2.86366
G1 X65.61 Y55.467 E2.91445
G1 X71.488 Y55.453 E3.17618
G1 X72.276 Y56.954 E3.25167
G1 X72.755 Y59.426 E3.36379
G1 X72.757 Y59.498 E3.36699
G1 X72.179 Y65.449 E3.63322
G1 X71.373 Y67.168 E3.71776
G1 X71.461 Y67.561 E3.73569
G1 X69.114 Y71.364 E3.93468
G1 X63.243 Y74.374 E4.22845
G1 X54.629 Y73.672 E4.61328
G1 X50.166 Y70.52 E4.85657
G1 X47.609 Y64.947 E5.12959
G1 X47.373 Y58.45 E5.41907
G1 X50.18 Y52.239 E5.72256
G1 X50.479 Y51.307 E5.76614
G1 X50.545 Y51.102 E5.772
G0 F4320 X50.08 Y51.406
G1 F1440 X49.866 Y51.386 E5.78157
G1 X49.865 Y51.385 E5.78163
G1 X49.716 Y51.369 E5.7883
G1 X46.992 Y45.8 E6.06435
G1 X47.048 Y44.109 E6.13969
G1 X47.056 Y43.858 E6.15087
G1 X47.288 Y43.954 E6.15745
G1 X49.696 Y44.949 E6.27346
G1 X54.765 Y33.594 E6.82716
G1 X56.63 Y30.442 E6.99024
G1 X59.041 Y29.535 E7.10494
G1 X62.112 Y29.975 E7.24307
G1 X63.82 Y31.613 E7.34845
G1 X68.602 Y39.564 E7.76158
G1 X71.032 Y39.12 E7.87157
G1 X73.336 Y45.07 E8.15568
G1 X72.551 Y46.795 E8.24007
G1 X65.559 Y54.491 E8.70305
G1 X65.837 Y55.116 E8.73351
G1 X71.7 Y55.103 E8.99457
G1 X72.61 Y56.838 E9.08181
G1 X73.104 Y59.385 E9.19733
G1 X73.108 Y59.505 E9.20268
G1 X72.521 Y65.545 E9.47289
G1 X71.741 Y67.208 E9.55468
G1 X71.834 Y67.623 E9.57362
G1 X69.361 Y71.63 E9.78328
G1 X63.313 Y74.731 E10.08591
G1 X54.505 Y74.013 E10.47941
G1 X49.887 Y70.752 E10.73113
G1 X47.262 Y65.029 E11.01149
G1 X47.02 Y58.381 E11.3077
G1 X49.853 Y52.113 E11.61398
G1 X50.014 Y51.611 E11.63745
G1 X50.08 Y51.406 E11.64331
G0 F4320 X49.648 Y51.688
;TYPE:WALL-OUTER
G1 F1440 X49.581 Y51.682 E11.6463
G1 X49.503 Y51.673 E11.6498
G1 X46.664 Y45.87 E11.93746
G1 X46.739 Y43.63 E12.03725
G1 X46.747 Y43.379 E12.04843
G1 X46.979 Y43.475 E12.05501
G1 X49.528 Y44.528 E12.17782
G1 X54.476 Y33.445 E12.71826
G1 X56.408 Y30.179 E12.88722
G1 X59.006 Y29.201 E13.01083
G1 X62.262 Y29.668 E13.15729
G1 X64.075 Y31.407 E13.26915
G1 X68.765 Y39.204 E13.6743
G1 X71.238 Y38.752 E13.78624
G1 X73.689 Y45.081 E14.08844
G1 X72.826 Y46.977 E14.1812
G1 X66.009 Y54.479 E14.63255
G1 X65.942 Y54.553 E14.637
G1 X66.048 Y54.791 E14.6486
G1 X66.149 Y54.791 E14.6531
G1 X71.896 Y54.778 E14.90899
G1 X72.92 Y56.729 E15.00711
G1 X73.428 Y59.349 E15.12594
G1 X73.434 Y59.509 E15.13307
G1 X72.838 Y65.633 E15.40704
G1 X72.082 Y67.245 E15.48632
G1 X72.18 Y67.682 E15.50626
G1 X69.614 Y71.84 E15.72382
G1 X69.581 Y71.882 E15.7262
G1 X63.378 Y75.062 E16.03658
G1 X54.391 Y74.33 E16.43807
G1 X49.628 Y70.966 E16.69771
G1 X46.949 Y65.126 E16.98381
G1 X46.938 Y65.066 E16.98652
G1 X46.692 Y58.317 E17.28724
G1 X49.549 Y51.996 E17.59611
G1 X49.638 Y51.717 E17.60559
G1 X49.648 Y51.688
G0 F4320 X49.581 Y51.682
G0 X49.503 Y51.673
G0 X49.479 Y51.624
G0 X49.674 Y51.427
G0 X49.939 Y50.833
G0 X50.166 Y50.722
;TYPE:SKIN
G1 F1440 X47.687 Y45.653 E17.85684
G1 X47.713 Y44.876 E17.89146
G1 X50.052 Y45.843 E18.00416
G1 X55.383 Y33.905 E18.58631
G1 X57.1 Y31.002 E18.73649
G1 X59.121 Y30.243 E18.83262
G1 X61.794 Y30.625 E18.95285
G1 X63.278 Y32.047 E19.04437
G1 X68.256 Y40.329 E19.47463
G1 X70.595 Y39.901 E19.5805
G1 X72.588 Y45.048 E19.82627
G1 X71.968 Y46.411 E19.89294
G1 X64.745 Y54.361 E20.37122
G1 X65.389 Y55.807 E20.4417
G1 X71.282 Y55.793 E20.7041
G1 X71.952 Y57.068 E20.76823
G1 X72.417 Y59.492 E20.87813
G1 X71.847 Y65.359 E21.1406
G1 X71.016 Y67.129 E21.22767
G1 X71.098 Y67.501 E21.24463
G1 X68.875 Y71.104 E21.43314
G1 X63.172 Y74.028 E21.71851
G1 X54.751 Y73.342 E22.09471
G1 X50.437 Y70.295 E22.32988
G1 X47.947 Y64.867 E22.59579
G1 X47.715 Y58.515 E22.87882
G1 X50.498 Y52.361 E23.17955
G1 X50.997 Y50.806 E23.25227
G1 X50.76 Y50.782 E23.26288
G0 F1296 X50.166 Y50.722
G0 F4320 X49.939 Y50.833
G0 X49.934 Y53.188
G0 X47.521 Y58.48
G0 X47.755 Y64.913
G0 X49.913 Y69.762
G0 X50.287 Y69.591
G1 F2400 E23.28946
G1 F1440 X51.665 Y70.969 E23.37624
G1 X51.727 Y71.031
G0 F4320 X51.497 Y71.355
G0 X53.114 Y72.496
G0 X53.351 Y72.16
G1 F1440 X49.867 Y68.677 E23.59559
G1 X49.805 Y68.615
G0 F4320 X49.459 Y68.773
G0 X49.074 Y67.933
G0 X49.448 Y67.762
G1 F1440 X54.881 Y73.195 E23.93771
G0 F4320 X55.42 Y73.239
G1 F1440 X49.029 Y66.848 E24.34016
G1 X48.967 Y66.786
G0 F4320 X48.62 Y66.944
G0 X48.234 Y66.103
G0 X48.609 Y65.933
G1 F1440 X55.959 Y73.283 E24.80299
G0 F4320 X56.497 Y73.326
G1 F1440 X48.19 Y65.019 E25.32609
G0 F4320 X48.087 Y64.421
G1 F1440 X57.036 Y73.37 E25.88962
G0 F4320 X57.575 Y73.414
G1 F1440 X48.069 Y63.908 E26.48822
G0 F4320 X48.05 Y63.394
G1 F1440 X58.114 Y73.458 E27.12195
G0 F4320 X58.653 Y73.502
G1 F1440 X48.031 Y62.88 E27.79083
G0 F4320 X48.012 Y62.366
G1 F1440 X59.191 Y73.546 E28.49481
G0 F4320 X59.73 Y73.59
G1 F1440 X47.994 Y61.853 E29.23386
G0 F4320 X47.975 Y61.339
G1 F1440 X60.269 Y73.633 E30.00803
G0 F4320 X60.808 Y73.677
G1 F1440 X47.956 Y60.826 E30.81729
G0 F4320 X47.937 Y60.311
G1 F1440 X61.346 Y73.72 E31.66167
G0 F4320 X61.885 Y73.764
G1 F1440 X47.918 Y59.797 E32.54118
G0 F4320 X47.9 Y59.284
G1 F1440 X62.424 Y73.808 E33.45577
G0 F4320 X62.962 Y73.852
G1 F1440 X47.881 Y58.77 E34.40546
G0 F4320 X47.958 Y58.353
G1 F1440 X63.359 Y73.754 E35.37527
G0 F4320 X63.686 Y73.585
G1 F1440 X48.112 Y58.012 E36.35594
G0 F4320 X48.267 Y57.671
G1 F1440 X64.013 Y73.418 E37.34751
G0 F4320 X64.341 Y73.25
G1 F1440 X48.421 Y57.33 E38.35001
G0 F4320 X48.575 Y56.989
G1 F1440 X64.668 Y73.083 E39.36342
G0 F4320 X64.995 Y72.914
G1 F1440 X48.729 Y56.649 E40.38767
G0 F4320 X48.883 Y56.308
G1 F1440 X65.322 Y72.747 E41.42285
G0 F4320 X65.649 Y72.579
G1 F1440 X49.037 Y55.967 E42.46892
G0 F4320 X49.192 Y55.626
G1 F1440 X65.977 Y72.411 E43.52588
G0 F4320 X66.304 Y72.244
G1 F1440 X49.346 Y55.285 E44.59377
G0 F4320 X49.501 Y54.945
G1 F1440 X66.631 Y72.076 E45.67249
G0 F4320 X66.958 Y71.908
G1 F1440 X49.655 Y54.604 E46.7621
G0 F4320 X49.809 Y54.264
G1 F1440 X67.286 Y71.74 E47.86261
G0 F4320 X67.613 Y71.573
G1 F1440 X49.963 Y53.923 E48.97404
G0 F4320 X50.117 Y53.582
G1 F1440 X67.94 Y71.405 E50.09637
G0 F4320 X68.267 Y71.237
G1 F1440 X50.271 Y53.241 E51.22959
G0 F4320 X50.425 Y52.9
G1 F1440 X68.595 Y71.069 E52.37374
G0 F4320 X68.855 Y70.835
G1 F1440 X50.58 Y52.559 E53.52456
G0 F4320 X50.714 Y52.199
G1 F1440 X69.045 Y70.53 E54.67887
G0 F4320 X69.234 Y70.224
G1 F1440 X50.834 Y51.824 E55.83753
G0 F4320 X50.954 Y51.449
G1 F1440 X69.423 Y69.918 E57.00054
G0 F4320 X69.611 Y69.611
G1 F1440 X51.075 Y51.075 E58.16776
G0 F4320 X51.195 Y50.7
G1 F1440 X69.8 Y69.305 E59.33933
G0 F4320 X69.989 Y68.999
G1 F1440 X49.025 Y48.035 E60.65945
G1 X48.963 Y47.973
G0 F4320 X48.621 Y48.14
G0 X49.132 Y49.183
G0 X49.499 Y49.004
G1 F1440 X51.159 Y50.664 E60.76398
G0 F4320 X50.609 Y50.609
G1 F1440 X49.973 Y49.973 E60.80403
G1 X49.911 Y49.911
G0 F4320 X49.569 Y50.078
G0 X48.184 Y47.246
G0 X48.552 Y47.067
G1 F1440 X70.178 Y68.693 E62.16584
G0 F4320 X70.367 Y68.387
G1 F1440 X48.078 Y46.098 E63.56939
G1 X48.016 Y46.036
G0 F4320 X47.852 Y45.377
G1 F1440 X70.555 Y68.08 E64.99901
G0 F4320 X70.744 Y67.774
G1 F1440 X48.229 Y45.259 E66.4168
G1 X48.167 Y45.197
G0 F4320 X48.312 Y44.848
G0 X49.231 Y45.228
G0 X49.073 Y45.609
G1 F1440 X70.929 Y67.464 E67.79306
G0 F4320 X70.921 Y66.961
G1 F1440 X49.918 Y45.958 E69.11563
G0 F4320 X50.246 Y45.791
G1 F1440 X71.079 Y66.625 E70.42753
G0 F4320 X71.238 Y66.288
G1 F1440 X50.399 Y45.449 E71.73978
G0 F4320 X50.551 Y45.107
G1 F1440 X71.395 Y65.951 E73.05234
G0 F4320 X71.554 Y65.614
G1 F1440 X50.704 Y44.764 E74.36528
G0 F4320 X50.857 Y44.422
G1 F1440 X71.699 Y65.264 E75.67771
G0 F4320 X71.743 Y64.813
G1 F1440 X51.009 Y44.08 E76.98331
G0 F4320 X51.162 Y43.738
G1 F1440 X71.786 Y64.362 E78.28202
G0 F4320 X71.83 Y63.91
G1 F1440 X51.315 Y43.395 E79.57387
G0 F4320 X51.468 Y43.053
G1 F1440 X71.873 Y63.459 E80.85881
G0 F4320 X71.917 Y63.008
G1 F1440 X51.62 Y42.711 E82.13693
G0 F4320 X51.773 Y42.369
G1 F1440 X65.218 Y55.814 E82.98357
G0 F4320 X65.368 Y55.963
G1 F1440 X71.961 Y62.557 E83.39877
G0 F4320 X72.005 Y62.105
G1 F1440 X65.862 Y55.963 E83.78557
G1 X65.8 Y55.901
G0 F4320 X65.8 Y55.551
G0 X65.2 Y54.755
G0 X64.822 Y54.923
G1 F1440 X51.927 Y42.027 E84.5976
G0 F4320 X52.079 Y41.685
G1 F1440 X64.639 Y54.244 E85.38849
G0 F4320 X64.874 Y53.985
G1 F1440 X52.232 Y41.343 E86.18456
G0 F4320 X52.385 Y41
G1 F1440 X65.11 Y53.725 E86.98586
G0 F4320 X65.345 Y53.466
G1 F1440 X52.538 Y40.658 E87.79236
G0 F4320 X52.69 Y40.316
G1 F1440 X65.582 Y53.207 E88.60415
G0 F4320 X65.817 Y52.948
G1 F1440 X52.843 Y39.974 E89.42113
G0 F4320 X52.996 Y39.631
G1 F1440 X66.052 Y52.688 E90.24331
G0 F4320 X66.288 Y52.429
G1 F1440 X53.148 Y39.289 E91.07074
G0 F4320 X53.301 Y38.947
G1 F1440 X66.523 Y52.169 E91.90334
G0 F4320 X66.76 Y51.91
G1 F1440 X53.454 Y38.605 E92.7412
G0 F4320 X53.607 Y38.263
G1 F1440 X66.995 Y51.651 E93.58425
G0 F4320 X67.231 Y51.391
G1 F1440 X53.76 Y37.921 E94.43249
G0 F4320 X53.913 Y37.579
G1 F1440 X67.466 Y51.132 E95.28594
G0 F4320 X67.701 Y50.872
G1 F1440 X54.066 Y37.236 E96.14457
G0 F4320 X54.218 Y36.894
G1 F1440 X67.938 Y50.613 E97.0085
G0 F4320 X68.173 Y50.354
G1 F1440 X54.371 Y36.552 E97.87762
G0 F4320 X54.524 Y36.21
G1 F1440 X68.409 Y50.094 E98.75194
G0 F4320 X68.644 Y49.835
G1 F1440 X54.677 Y35.867 E99.63148
G0 F4320 X54.829 Y35.525
G1 F1440 X68.879 Y49.575 E100.51622
G0 F4320 X69.116 Y49.317
G1 F1440 X54.982 Y35.183 E101.40625
G0 F4320 X55.135 Y34.841
G1 F1440 X69.351 Y49.057 E102.30144
G0 F4320 X69.587 Y48.798
G1 F1440 X55.287 Y34.499 E103.20189
G0 F4320 X55.441 Y34.157
G1 F1440 X69.822 Y48.538 E104.10747
G0 F4320 X70.058 Y48.279
G1 F1440 X55.608 Y33.83 E105.01736
G0 F4320 X55.792 Y33.518
G1 F1440 X70.294 Y48.02 E105.93056
G0 F4320 X70.529 Y47.76
G1 F1440 X55.976 Y33.207 E106.84698
G0 F4320 X56.16 Y32.896
G1 F1440 X70.765 Y47.501 E107.76666
G0 F4320 X71 Y47.241
G1 F1440 X56.344 Y32.585 E108.68956
G0 F4320 X56.528 Y32.274
G1 F1440 X71.236 Y46.982 E109.61574
G0 F4320 X71.472 Y46.723
G1 F1440 X56.712 Y31.963 E110.54518
G0 F4320 X56.895 Y31.652
G1 F1440 X71.707 Y46.463 E111.47787
G0 F4320 X71.906 Y46.167
G1 F1440 X57.079 Y31.341 E112.41151
G0 F4320 X57.32 Y31.086
G1 F1440 X72.061 Y45.827 E113.33976
G0 F4320 X72.216 Y45.487
G1 F1440 X57.68 Y30.951 E114.2551
G0 F4320 X58.04 Y30.817
G1 F1440 X72.371 Y45.148 E115.15754
G0 F4320 X72.201 Y44.482
G1 F1440 X68.214 Y40.496 E115.40857
G0 F4320 X68.104 Y40.386
G1 F1440 X58.4 Y30.682 E116.01964
G0 F4320 X58.76 Y30.547
G1 F1440 X67.359 Y39.146 E116.56112
G1 X67.421 Y39.208
G0 F4320 X67.758 Y39.007
G0 X66.969 Y37.694
G0 X66.615 Y37.906
G1 F1440 X59.12 Y30.411 E117.03309
G0 F4320 X59.686 Y30.483
G1 F1440 X65.869 Y36.666 E117.42243
G1 X65.931 Y36.728
G0 F4320 X66.267 Y36.527
G0 X65.477 Y35.214
G0 X65.124 Y35.426
G1 F1440 X60.263 Y30.565 E117.72853
G0 F4320 X60.84 Y30.647
G1 F1440 X64.379 Y34.186 E117.95139
G1 X64.441 Y34.248
G0 F4320 X64.776 Y34.047
G0 X63.986 Y32.734
G0 X63.634 Y32.946
G1 F1440 X61.417 Y30.729 E118.09099
G1 X61.355 Y30.667
G0 F4320 X61.406 Y30.314
G0 X61.881 Y30.444
G0 X63.43 Y31.927
G0 X68.56 Y40.014
G0 X68.633 Y40.419
G1 F1440 X71.888 Y43.674 E118.29596
G1 X71.95 Y43.736
G0 F4320 X72.301 Y43.601
G0 X71.959 Y42.718
G0 X71.574 Y42.866
G1 F1440 X69.051 Y40.343 E118.45484
G0 F4320 X69.47 Y40.266
G1 F1440 X71.261 Y42.058 E118.56765
G1 X71.323 Y42.12
G0 F4320 X71.675 Y41.985
G0 X71.333 Y41.101
G0 X70.948 Y41.249
G1 F1440 X69.888 Y40.189 E118.6344
G0 F4320 X70.306 Y40.113
G1 F1440 X70.635 Y40.441 E118.65508
G0 F4320 X71.019 Y40.292
G0 X72.795 Y45.054
G0 X72.131 Y46.52
G0 X65.697 Y54.514
G0 X65.913 Y54.999
G0 X70.801 Y55.539
G0 X70.801 Y55.951
G1 F1440 X71.615 Y56.766 E118.70637
G1 X71.677 Y56.828
G0 F4320 X72.02 Y56.65
G0 X72.285 Y57.446
G0 X71.878 Y57.524
G1 F1440 X70.306 Y55.952 E118.80536
G0 F4320 X69.813 Y55.954
G1 F1440 X71.996 Y58.136 E118.9428
G0 F4320 X72.113 Y58.749
G1 F1440 X69.319 Y55.955 E119.11874
G0 F4320 X68.825 Y55.956
G1 F1440 X72.23 Y59.361 E119.33315
G0 F4320 X72.223 Y59.849
G1 F1440 X68.331 Y55.957 E119.57824
G0 F4320 X67.837 Y55.958
G1 F1440 X72.18 Y60.3 E119.85169
G0 F4320 X72.136 Y60.751
G1 F1440 X67.344 Y55.959 E120.15344
G0 F4320 X66.849 Y55.96
G1 F1440 X72.092 Y61.202 E120.48357
G0 F4320 X72.048 Y61.654
G1 F1440 X66.356 Y55.961 E120.84203
G1 X66.294 Y55.899
G0 F4320 X66.293 Y55.316
;MESH:NONMESH
G0 X71.396 Y55.604
G0 X72.136 Y57.002
G0 X72.611 Y59.494
G0 X72.036 Y65.407
G0 X71.303 Y67.535
G0 X69.012 Y71.251
G0 X63.212 Y74.225
G0 X54.682 Y73.529
G0 X50.283 Y70.422
G0 X47.755 Y64.913
G0 X47.521 Y58.48
G0 X50.445 Y51.005
G0 X50.449 Y50.967
;TIME_ELAPSED:147.430505
;LAYER:1
M140 S60
M106 S255
;MESH:lowpolyskulllisa.stl
G0 F5760 X50.449 Y50.967 Z0.612
;TYPE:WALL-INNER
G1 F1920 X50.236 Y50.947 E120.85155
G1 X50.235 Y50.946 E120.85161
G1 X49.795 Y50.9 E120.87131
G1 X47.309 Y45.819 E121.12318
G1 X47.443 Y41.771 E121.30353
G1 X47.459 Y41.727 E121.30561
G1 X47.741 Y41.323 E121.32755
G1 X54.189 Y31.765 E121.84093
G1 X58.944 Y29.968 E122.06727
G1 X59.168 Y29.924 E122.07743
G1 X63.943 Y30.608 E122.29222
G1 X63.978 Y30.627 E122.29399
G1 X69.328 Y35.936 E122.6296
G1 X69.498 Y36.165 E122.6423
G1 X69.531 Y36.237 E122.64583
G1 X73 Y45.195 E123.07356
G1 X69.89 Y52.031 E123.40797
G1 X70.054 Y52.539 E123.43174
G1 X72.368 Y56.948 E123.65345
G1 X72.823 Y59.3 E123.76012
G1 X72.838 Y59.767 E123.78093
G1 X72.171 Y66.654 E124.08902
G1 X72.12 Y66.852 E124.09812
G1 X69.236 Y71.528 E124.34275
G1 X69.175 Y71.605 E124.34712
G1 X63.283 Y74.632 E124.64207
G1 X54.589 Y73.925 E125.03047
G1 X50.078 Y70.739 E125.27638
G1 X47.559 Y65.247 E125.54541
G1 X47.517 Y65.049 E125.55443
G1 X47.284 Y58.67 E125.83865
G1 X47.29 Y58.412 E125.85015
G1 X49.972 Y52.474 E126.14027
G1 X50.385 Y51.172 E126.20109
G1 X50.449 Y50.967 E126.20693
G0 F5760 X49.986 Y51.271
G1 F1920 X49.774 Y51.25 E126.21641
G1 X49.566 Y51.228 E126.22573
G1 X46.956 Y45.894 E126.49014
G1 X47.095 Y41.702 E126.6769
G1 X47.145 Y41.566 E126.68336
G1 X47.452 Y41.125 E126.70728
G1 X53.961 Y31.477 E127.2255
G1 X58.847 Y29.631 E127.45807
G1 X59.158 Y29.569 E127.47219
G1 X64.058 Y30.271 E127.6926
G1 X64.189 Y30.343 E127.69926
G1 X69.594 Y35.707 E128.03833
G1 X69.801 Y35.986 E128.05379
G1 X69.849 Y36.09 E128.05889
G1 X73.368 Y45.178 E128.49283
G1 X73.374 Y45.219 E128.49468
G1 X70.265 Y52.053 E128.82898
G1 X70.378 Y52.403 E128.84536
G1 X72.702 Y56.831 E129.06803
G1 X73.172 Y59.26 E129.17819
G1 X73.189 Y59.774 E129.20109
G1 X72.516 Y66.717 E129.51169
G1 X72.446 Y66.991 E129.52429
G1 X69.527 Y71.724 E129.77189
G1 X69.402 Y71.882 E129.78086
G1 X63.394 Y74.968 E130.08161
G1 X63.344 Y74.988 E130.084
G1 X54.65 Y74.278 E130.47241
G1 X54.484 Y74.27 E130.47981
G1 X54.44 Y74.248 E130.482
G1 X49.799 Y70.971 E130.73497
G1 X47.225 Y65.358 E131.00993
G1 X47.168 Y65.089 E131.02217
G1 X46.934 Y58.683 E131.3076
G1 X46.941 Y58.333 E131.32319
G1 X49.645 Y52.349 E131.61558
G1 X49.922 Y51.475 E131.65641
G1 X49.986 Y51.271 E131.66223
G0 F5760 X49.556 Y51.553
;TYPE:WALL-OUTER
G1 F1620 X49.353 Y51.532 E131.67131
G1 X46.628 Y45.964 E131.94734
